IITGN-Robotics/Franka_IITGN_ROBOTICS/franka_ros/franka_iitgn/data01/s_b_002.csv
time,fr3_joint1_pos,fr3_joint2_pos,fr3_joint3_pos,fr3_joint4_pos,fr3_joint5_pos,fr3_joint6_pos,fr3_joint7_pos,fr3_joint1_vel,fr3_joint2_vel,fr3_joint3_vel,fr3_joint4_vel,fr3_joint5_vel,fr3_joint6_vel,fr3_joint7_vel,fr3_joint1_eff,fr3_joint2_eff,fr3_joint3_eff,fr3_joint4_eff,fr3_joint5_eff,fr3_joint6_eff,fr3_joint7_eff,flexpin1,flexpin2,flexpin3,Force,ContactMic,ContactMic_gt
1739302555.4672668,-0.10216033846942595,1.0542779511126177,-0.35936372710752845,-1.4558937833738288,1.544070327245305,1.1657698807622354,1.3667125029598248,0.0014655334064678305,-0.0013168837764678109,-0.00012046786650808571,-0.0013023791492735002,0.002338825911214471,0.0002127790477913509,-0.0003575819448928646,0.2689092457294464,-50.57522964477539,-6.444291114807129,17.01026153564453,1.5645242929458618,-1.3547470569610596,0.08610688149929047,,,,,,,,,
1739302555.4783227,-0.10216565662767575,1.0542797784213485,-0.359362914718296,-1.4558939144131948,1.5440657668164726,1.1657698757555623,1.3667175565346097,-0.00024389712043386457,0.0010546845439386796,-0.0001771524010481053,-0.0017928854389189406,-0.0010660379023122606,-0.0001402160924709764,0.0021396278736797534,0.3165166676044464,-50.59903335571289,-6.444291114807129,17.01026153564453,1.5910745859146118,-1.3547470569610596,0.026597600430250168,,,,,,,,,
1739302555.4893556,-0.10216394411494702,1.0542797784232925,-0.3593615898390992,-1.455889813387297,1.5440663623528685,1.165769763024637,1.366716641843806,0.00018739967744853237,0.0012334992049614145,-0.00024970774916096444,0.001317357894036468,-0.00016352396521912126,-0.0008028319316453061,0.0006136207391831763,0.2927129566669464,-50.59903335571289,-6.444291114807129,16.95868682861328,1.5846658945083618,-1.3547470569610596,0.03300629183650017,,,,,,,,,
1739302555.5003562,-0.1021655626878061,1.054276067961708,-0.3593655185988637,-1.4558898138893097,1.5440677749336138,1.1657698807620138,1.3667101018358785,0.0008301392517131533,-0.0004924956523581318,-0.0009219453054325999,-9.087035942998832e-05,-0.0001473751108670645,-0.0003507453677224009,-0.003405886037303905,0.3442876636981964,-50.54745864868164,-6.420487403869629,16.95868682861328,1.5846658945083618,-1.3547470569610596,0.07969819009304047,,,,,,,,,
1739302555.5123045,-0.10216129761308004,1.054286704537747,-0.35936938890896575,-1.4558873417005576,1.544071939288285,1.1657683654420787,1.3667101144315443,0.0011945643517405394,0.0026563882312925675,-0.00044914839874867646,0.00038121989604260266,0.0011753677596040867,-0.0005905656167194111,-0.0018133898377442948,0.2411382496356964,-50.65060806274414,-6.444291114807129,17.08167266845703,1.5645242929458618,-1.3419296741485596,0.07969819009304047,,,,,,,,,
1739302555.5232797,-0.10216649233393839,1.0542826790373108,-0.3593680159966037,-1.4558751480690462,1.5440687843659664,1.1657674995448464,1.3667130803005083,-9.063571662735917e-05,-0.0019343649496475065,0.00051932826926288,0.0011151109687858984,-0.0005261117534526535,-0.0007558178273347145,-0.0006489152559946376,0.2689092457294464,-50.59903335571289,-6.468094825744629,17.05786895751953,1.5910745859146118,-1.3346054553985596,0.05314789339900017,,,,,,,,,
1739302555.5343266,-0.10216277895535598,1.0542874017496229,-0.3593673690816139,-1.455866371049941,1.544066366228108,1.1657674995448464,1.3667099949199364,0.0008470985070687958,-0.0003236588912170496,0.0007933694898305672,0.0014998297049361633,0.00015720348231797025,4.2801681687587474e-05,-0.0005645802951426139,0.2173345386981964,-50.62680435180664,-6.519669532775879,17.05786895751953,1.5846658945083618,-1.3346054553985596,0.05314789339900017,,,,,,,,,
1739302555.5443544,-0.10216649331422244,1.054295515367929,-0.35936792334752427,-1.4558604274638456,1.5440663611676526,1.165766741884768,1.3667107663922642,-0.000638478839331093,0.0021529804500952025,0.0008139074207176612,-4.154838952823907e-05,-0.0012162668282999843,-0.00010657816413436617,-0.0020488041712858757,0.2689092457294464,-50.72995376586914,-6.519669532775879,17.10944366455078,1.5846658945083618,-1.3281967639923096,0.07328949868679047,,,,,,,,,
1739302555.5553548,-0.10216545130226878,1.0542917246094246,-0.35937257329823546,-1.4558537656954913,1.5440648918765087,1.165767500029363,1.3667116855490136,-6.468112818428346e-06,-0.0002968707090673334,-0.0013523962890440253,0.003132829947854278,0.00020052134687951383,0.0003603962197123544,0.00014921807839433752,0.2411382496356964,-50.67837905883789,-6.468094825744629,17.05786895751953,1.5974832773208618,-1.3346054553985596,0.06596527993679047,,,,,,,,,
1739302555.5653622,-0.10216099145957437,1.0542901376194849,-0.3593744901475186,-1.4558540818570251,1.5440656039943275,1.1657674995448708,1.3667198212358367,0.0011779046268246803,9.412518593773968e-05,-0.001237606363508649,-0.00013589308700898183,-0.0005409363679955364,0.0003692275907983762,0.0008994922819245475,0.1935308277606964,-50.65060806274414,-6.468094825744629,17.08167266845703,1.5910745859146118,-1.3346054553985596,0.03300629183650017,,,,,,,,,
1739302555.5763214,-0.1021620725638722,1.0542967241893044,-0.3593702134516843,-1.4558552822897144,1.544065599685198,1.165766741884768,1.3667159364435486,0.0011154181610756428,-2.722994099903258e-05,-0.0003213069553625737,5.296536021738319e-05,-0.0005236024149577892,0.0007043015291806098,-6.520114675541509e-06,0.2173345386981964,-50.70218276977539,-6.495865821838379,17.13324737548828,1.5910745859146118,-1.3281967639923096,0.05314789339900017,,,,,,,,,
1739302555.5872958,-0.10216278273241618,1.0542945903222114,-0.35937438352915246,-1.4558536590923643,1.5440656039919407,1.1657683654420787,1.3667116722981463,0.0019318416433082583,-4.1628404447568307e-05,-0.0022381443412482645,0.0001575544636286914,-0.000712451258095901,0.0008015872021489784,-0.0008488334060586518,0.2173345386981964,-50.70218276977539,-6.444291114807129,17.15705108642578,1.5910745859146118,-1.3419296741485596,0.06596527993679047,,,,,,,,,
1739302555.5992918,-0.10216662625151468,1.0542967351044408,-0.35937253056505536,-1.4558538974141317,1.5440672675862448,1.1657656778859877,1.366717963416062,0.00044303015712227165,0.0006150415425505872,-0.0012725971823325999,-0.0002027836725860626,0.0004549327607188885,-0.0009182898835865079,0.0005551217378722467,0.2411382496356964,-50.70218276977539,-6.468094825744629,17.13324737548828,1.6038919687271118,-1.3281967639923096,0.012864691205322742,,,,,,,,,
1739302555.6103218,-0.10216449574632828,1.05429387506667,-0.35937239583827274,-1.4558488856516294,1.544065604063794,1.1657625028417273,1.3667163398588866,0.00021355898530298694,-0.0003529062961077399,-0.000262364063846193,0.00017754693036453086,-0.0008857529535088334,-0.0004871409387842445,0.0004637538617006731,0.2411382496356964,-50.70218276977539,-6.495865821838379,17.13324737548828,1.5910745859146118,-1.3281967639923096,0.026597600430250168,,,,,,,,,
1739302555.6213257,-0.10216493873866216,1.0542965869496872,-0.3593705326599271,-1.4558503097323874,1.544066361652092,1.1657659842167132,1.3667147048812414,-0.000193510142427972,-0.0005268623573796739,0.00018722524937624376,-0.0007019226890954202,-5.566570370265793e-05,-0.00035026673897132923,-0.0006738413168946605,0.2173345386981964,-50.72995376586914,-6.495865821838379,17.15705108642578,1.5846658945083618,-1.3217880725860596,0.012864691205322742,,,,,,,,,
1739302555.6323614,-0.10216449681731524,1.0542957652792233,-0.35937688418848884,-1.455849265857945,1.5440656083526643,1.165765226564611,1.3667108197084061,4.153935368178733e-05,-0.0004576231525166432,-0.0011080702498698664,-0.00043311231281294724,-0.0012344977274344803,-0.0003432895932414645,-0.00024985623676262634,0.2411382496356964,-50.67837905883789,-6.468094825744629,17.13324737548828,1.5910745859146118,-1.3153793811798096,0.07328949868679047,,,,,,,,,
1739302555.6433573,-0.10216450515285894,1.054297409176083,-0.35937463301869754,-1.4558443113792798,1.5440672319099995,1.1657663886720582,1.366715582198808,1.6643411236522913e-05,-0.0007713658327543881,-0.0008161875384803388,0.001787239829385203,5.101123558116509e-05,4.476318861331277e-05,0.0009704982473726596,0.2411382496356964,-50.67837905883789,-6.468094825744629,17.08167266845703,1.5773416757583618,-1.3281967639923096,0.03300629183650017,,,,,,,,,
1739302555.6542518,-0.10216473505938381,1.0542988818703036,-0.35936883761839883,-1.455844563287198,1.544066547346148,1.1657655738370096,1.3667150231247942,9.85397969253562e-05,-0.0006027278538836638,0.0004463817506503198,0.0003484200666793992,-0.00035649498674690376,-0.0011497206314244675,-0.00040078195686302974,0.2411382496356964,-50.70218276977539,-6.547440528869629,17.10944366455078,1.5910745859146118,-1.3217880725860596,0.04673920199275017,,,,,,,,,
1739302555.6652772,-0.10216278285405722,1.0542999150524646,-0.35937266946935453,-1.4558437920594578,1.5440698599924592,1.1657659827688227,1.366713200987428,0.0006724729778882473,-0.0005534134091258154,-0.00015760441475925905,0.00019050350546925235,0.0008005104407217958,-1.982028934329115e-05,-0.0006186771352991607,0.2173345386981964,-50.70218276977539,-6.495865821838379,17.10944366455078,1.5910745859146118,-1.3217880725860596,0.05314789339900017,,,,,,,,,
1739302555.6772764,-0.10216320668751538,1.0542999547403682,-0.35937473728234826,-1.4558502832352043,1.544065604000022,1.1657674995448435,1.3667103370211593,0.000987099207225193,-0.0002067556206815342,-0.0008186273083323722,-0.0014225339018567565,0.0009806586774597603,0.0012196943837942836,-0.0013689897009107515,0.2173345386981964,-50.70218276977539,-6.468094825744629,17.15705108642578,1.5910745859146118,-1.3346054553985596,0.07328949868679047,,,,,,,,,
1739302555.6873267,-0.10216460063986747,1.0542980037647935,-0.35937265866741885,-1.4558485142996407,1.5440648594138873,1.1657628046642792,1.366710444308836,-0.000453999347216976,-0.001607629463531622,-0.001057566161142172,-0.00037479311233741997,-0.00017402494688242614,-0.0006055195522107908,-0.0005536795033659159,0.2411382496356964,-50.67837905883789,-6.495865821838379,17.13324737548828,1.5974832773208618,-1.3217880725860596,0.07328949868679047,,,,,,,,,
1739302555.6982675,-0.1021666262412688,1.0542982422156733,-0.359370427785762,-1.4558462759345532,1.544064847785707,1.1657659841708434,1.3667166571211204,0.00024594808884082864,-0.0005246279583623853,0.00034624347582625875,-0.00018330762716181663,-0.0007510423705473588,0.000484068360642384,0.0018739915726172047,0.2411382496356964,-50.67837905883789,-6.495865821838379,17.10944366455078,1.5974832773208618,-1.3217880725860596,0.03300629183650017,,,,,,,,,
1739302555.708288,-0.10216652840230163,1.0543014854217392,-0.3593726615982713,-1.4558459481928832,1.5440656039920218,1.1657659798640385,1.366713318725057,7.939264236488369e-05,0.0006452315225306263,-0.0008851259446952675,-0.0004430943125470647,-7.347370894090447e-06,0.00017435352617006631,-0.0010426111895998585,0.2689092457294464,-50.75375747680664,-6.495865821838379,17.10944366455078,1.5910745859146118,-1.3217880725860596,0.05314789339900017,,,,,,,,,
1739302555.7193248,-0.10216278382723516,1.0542999556729453,-0.3593672519421275,-1.4558438028962248,1.5440664008979486,1.165765984224665,1.366719821236507,0.001100070962515706,0.0009965976037639409,0.0010370185936075934,0.0003738433954220427,0.0008359097375638558,-0.000100412926874892,0.0015729496651035908,0.2173345386981964,-50.70218276977539,-6.571244239807129,17.10944366455078,1.5846658945083618,-1.3217880725860596,0.03300629183650017,,,,,,,,,
1739302555.7302523,-0.10216452276303228,1.054300751524236,-0.3593707971494373,-1.4558464666634248,1.5440663616527563,1.165765613569377,1.3667195468181834,0.0004387218202627624,0.00048527114852469635,0.0008467605359580132,0.0006546676885912279,-0.0002712167657158487,-0.0008813907810309621,0.00044880904795842737,0.2411382496356964,-50.75375747680664,-6.519669532775879,17.10944366455078,1.5846658945083618,-1.3217880725860596,-0.0008682189509272575,,,,,,,,,
1739302555.7403212,-0.10216104438600336,1.054303652539692,-0.359370875774957,-1.4558415297871132,1.5440656041535192,1.1657645713717582,1.3667179634696958,0.0006113832286232959,0.0016854689433500648,0.0006768771991901556,0.00038836854484746624,-0.00098301256893297,-0.0004582101330797355,0.0016859239401951632,0.1935308277606964,-50.75375747680664,-6.519669532775879,17.08167266845703,1.5910745859146118,-1.3217880725860596,0.012864691205322742,,,,,,,,,
1739302555.751286,-0.1021637339094337,1.054296244278644,-0.3593768803362424,-1.4558483901861887,1.544065760975443,1.1657651086416088,1.3667177522130969,-0.0006058874335010721,-0.0012653299381817995,-0.00036150530770580683,0.00048819437554954877,-0.0001842155852769293,-0.0007789668255327443,0.0008620118104839293,0.2173345386981964,-50.65060806274414,-6.468094825744629,17.13324737548828,1.5910745859146118,-1.3153793811798096,0.026597600430250168,,,,,,,,,
1739302555.7623196,-0.10216532261994285,1.0542982446180695,-0.3593683182348651,-1.4558443498956453,1.544063786048079,1.1657643206302364,1.3667108196926725,7.977710068360453e-05,-0.00019405226923379596,0.0011765834220276543,0.0004407191294309601,-0.0011522849001254112,0.00012356680346283953,-0.0005215320637661663,0.2411382496356964,-50.67837905883789,-6.547440528869629,17.10944366455078,1.5974832773208618,-1.3346054553985596,0.07328949868679047,,,,,,,,,
1739302555.7723262,-0.102163212904028,1.0542986126570324,-0.35936940257728034,-1.4558455472724772,1.5440667279287978,1.1657667403773824,1.3667180078137673,0.0008104310251810345,-0.0018363455026519835,0.001160280027081312,-0.0010323748395048376,0.000399930491618015,0.00034055737033367357,0.0011785596183719004,0.1935308277606964,-50.67837905883789,-6.547440528869629,17.13324737548828,1.5846658945083618,-1.3281967639923096,0.03941498324275017,,,,,,,,,
1739302555.7833054,-0.10216282100812776,1.0542999931525991,-0.3593690709249704,-1.4558435907244152,1.544066874554023,1.1657667418847595,1.3667147709206955,0.0012433719584740884,0.00036405037199997866,0.0003739105491909827,0.0007777760134355339,0.0004639047840543509,5.685136687717145e-08,-0.0002600484179730721,0.2173345386981964,-50.70218276977539,-6.547440528869629,17.08167266845703,1.5773416757583618,-1.3281967639923096,0.03941498324275017,,,,,,,,,
1739302555.793387,-0.10216281792933472,1.054298206899091,-0.35937265608294156,-1.4558449454590214,1.5440672275433462,1.1657652265646112,1.366717909779175,0.0012552353307554124,-0.0008708152765103086,-0.0003415373750270394,0.0003009587701052523,0.0007085200719816288,0.00021468243277560355,0.001140006741433137,0.2173345386981964,-50.67837905883789,-6.495865821838379,17.15705108642578,1.5773416757583618,-1.3153793811798096,0.012864691205322742,,,,,,,,,
1739302555.804321,-0.10216131878706032,1.0542990916581472,-0.35937263274879305,-1.4558435260054547,1.5440676204924073,1.1657602288984654,1.3667170603038883,0.0008846468377433671,-0.0003545053471335617,0.0005849306282651144,0.00024047960779123803,-0.00023788307311305515,-0.001706987035232419,-0.0002479998037953076,0.1935308277606964,-50.72995376586914,-6.495865821838379,17.10944366455078,1.5773416757583618,-1.3089706897735596,0.019273381680250168,,,,,,,,,
1739302555.816262,-0.10216461330520514,1.0543019525561288,-0.35937569245849993,-1.4558479201926153,1.5440657346522484,1.1657659842007546,1.3667148303521097,-7.973380504824424e-05,0.000712245712745589,-0.00044688994180637986,-0.0006404182285346927,0.0010974766936494957,0.0002890254312041342,-0.00020312485391837812,0.2411382496356964,-50.72995376586914,-6.468094825744629,17.18085479736328,1.5910745859146118,-1.3217880725860596,0.03941498324275017,,,,,,,,,
1739302555.8263443,-0.10216552008361993,1.0542982421106946,-0.3593705597517099,-1.455841419440665,1.5440632221458037,1.1657670155126143,1.366708976135967,-0.0004529174627042952,-5.541533112484969e-05,0.0019284871690015784,0.002710981849664911,-0.0006680172578183504,-0.0003805047833691657,-0.0022264588638778978,0.2411382496356964,-50.67837905883789,-6.519669532775879,17.08167266845703,1.5846658945083618,-1.3346054553985596,0.07969819009304047,,,,,,,,,
1739302555.8373296,-0.10216449961289817,1.0542979243282709,-0.3593730217522628,-1.4558488737574653,1.544066361598924,1.1657674993751435,1.3667089761175433,0.0006467382147086252,-0.0011055202805262912,0.0006494018383824693,-0.0013296226031832233,0.00040257298660864636,0.000645190688247032,-0.002219191196446801,0.2411382496356964,-50.67837905883789,-6.519669532775879,17.18085479736328,1.5846658945083618,-1.3346054553985596,0.07969819009304047,,,,,,,,,
1739302555.8473923,-0.10216686592540325,1.0543018467156884,-0.3593711183456841,-1.455843525726857,1.5440651352280337,1.1657658257338768,1.3667172057499886,-0.0008201989293297296,-0.00018403003563234566,-0.0004886302329499764,2.7487690061459583e-05,-0.0023672999870477107,0.00015129992292470972,0.0004619104739799943,0.2411382496356964,-50.72995376586914,-6.519669532775879,17.10944366455078,1.6038919687271118,-1.3217880725860596,0.019273381680250168,,,,,,,,,
1739302555.8582594,-0.10216520667659737,1.0542997163200691,-0.3593705348008445,-1.4558435345571747,1.544065905987788,1.165763813711088,1.3667143133077575,-1.1299339010873533e-05,-0.0005025883376895593,0.0013133942378013507,0.00032307175227069026,-0.0002519035838552756,-0.0004355133891222015,-0.00013606253251039271,0.2411382496356964,-50.70218276977539,-6.519669532775879,17.10944366455078,1.5974832773208618,-1.3153793811798096,0.04673920199275017,,,,,,,,,
1739302555.8682852,-0.10216689808238033,1.0542999575371812,-0.35937265866549944,-1.4558453084039256,1.5440653020199442,1.1657649245785846,1.3667179634180893,-5.47755640742533e-05,0.00011684954555512864,-0.0003746139701652236,-0.0006308085822850935,0.0003813229071034539,-0.001451063546011961,0.0014581293719505741,0.2411382496356964,-50.70218276977539,-6.495865821838379,17.13324737548828,1.5846658945083618,-1.3217880725860596,0.012864691205322742,,,,,,,,,
1739302555.8792808,-0.10216457477708683,1.0542945317581431,-0.35937289719502086,-1.4558468529893644,1.5440633137246995,1.165766741878786,1.3667179634160873,0.0002701222716288802,-0.0009261774699864715,-8.942909563899813e-05,-0.00042893170061031067,-0.0023257883044722973,0.0005919857647080961,0.0006288521846070309,0.2411382496356964,-50.62680435180664,-6.495865821838379,17.15705108642578,1.6103006601333618,-1.3281967639923096,0.012864691205322742,,,,,,,,,
1739302555.8893168,-0.10216683530648078,1.054301873208436,-0.3593709441296137,-1.4558424087851354,1.5440656041532266,1.1657652264031055,1.3667155821988084,-0.0003536093598519376,0.00048775243124052933,0.0014465995940399344,0.0012069133154556297,-0.0003786809352210376,-3.7201683876295896e-05,0.00040476716565614537,0.2689092457294464,-50.72995376586914,-6.519669532775879,17.13324737548828,1.5910745859146118,-1.3153793811798096,0.03300629183650017,,,,,,,,,
1739302555.899337,-0.10216934616680919,1.054298560436853,-0.3593708772997556,-1.4558452023909574,1.5440663790946976,1.1657667418847653,1.3667144626572079,-0.001624977508023438,-4.628175704370549e-05,0.00034907058016089745,-0.000921737739838539,0.0004394010214337483,0.001179986271087767,0.0002534851554265121,0.2689092457294464,-50.67837905883789,-6.519669532775879,17.13324737548828,1.5846658945083618,-1.3281967639923096,0.03941498324275017,,,,,,,,,
1739302555.909349,-0.10216586081864631,1.054298242007068,-0.359370785588688,-1.4558450170015949,1.544065603992309,1.1657625018787003,1.3667162774199206,0.0002248909612359085,-0.001199793701272973,0.0013313444072859536,-0.00012980481006074894,0.00034305271715162644,0.0003752512295711022,0.0011610978113877745,0.2173345386981964,-50.67837905883789,-6.519669532775879,17.13324737548828,1.5910745859146118,-1.3281967639923096,0.06596527993679047,,,,,,,,,
1739302555.9203327,-0.10216381761161843,1.0542982420016778,-0.3593726585589083,-1.455845304804694,1.5440649642310107,1.1657650636892134,1.3667132010073397,-0.000508433259267621,-0.00035289991823286377,-0.0002748325478705628,-0.0002439678950344579,-0.0013841871003170774,-0.0004495476509054923,-0.0012456475898489122,0.2173345386981964,-50.67837905883789,-6.495865821838379,17.13324737548828,1.5974832773208618,-1.3153793811798096,0.05314789339900017,,,,,,,,,
1739302555.931329,-0.10216521577215323,1.0542982539934673,-0.3593768579788257,-1.4558442286407138,1.5440656432385358,1.1657659842237702,1.3667172405323087,0.0010997461001374252,-0.00021506107292920443,-0.0012633867022676924,0.001000451575035157,-3.7128272987897276e-05,0.0006146583915433346,0.0024124591185110374,0.2411382496356964,-50.67837905883789,-6.468094825744629,17.15705108642578,1.5910745859146118,-1.3217880725860596,0.019273381680250168,,,,,,,,,
1739302555.9422505,-0.10216288812081038,1.0542999557216557,-0.35937087600237116,-1.4558424384981115,1.5440665578815966,1.1657659842246897,1.3667100621037076,0.00045712749836735914,-9.988762453055146e-07,0.00020259175667774082,-0.00011045131761978037,-0.0007681773036056101,0.00044696440869361877,-0.003187587822658888,0.2173345386981964,-50.70218276977539,-6.519669532775879,17.13324737548828,1.5846658945083618,-1.3217880725860596,0.07969819009304047,,,,,,,,,
1739302555.9532416,-0.10216744036764926,1.0543037829396134,-0.3593708750183449,-1.4558445999015424,1.5440644412418676,1.16576698934871,1.3667124763253202,-0.00016749605113609704,0.0007133202732463998,0.0010429236180509876,-0.0007285837803054948,-0.0012860385547302385,-9.023673387547563e-05,-0.00047694976807357404,0.2689092457294464,-50.75375747680664,-6.519669532775879,17.15705108642578,1.6038919687271118,-1.3346054553985596,0.03300629183650017,,,,,,,,,
1739302555.964359,-0.10216289732412279,1.0542962796007942,-0.3593724224564203,-1.4558414812442095,1.5440672292740407,1.1657659842218095,1.3667147693953041,0.00036513981109463075,-0.0010609336516052654,0.0007861585852606513,0.0004831151611892873,0.000766237309625324,0.0009198621874329985,-0.0008639269974192898,0.2173345386981964,-50.65060806274414,-6.495865821838379,17.08167266845703,1.5773416757583618,-1.3217880725860596,0.03941498324275017,,,,,,,,,
1739302555.9763157,-0.1021645347078308,1.0542962446423125,-0.3593747423814222,-1.4558396632600485,1.544063433427264,1.1657665790333052,1.3667164575963526,-0.00028081958029672454,-0.0016300874307639372,-0.0012789491587416502,0.0013024062037089454,-0.0016831233269351952,0.0002649241033618766,0.0007622148762256965,0.2411382496356964,-50.65060806274414,-6.468094825744629,17.05786895751953,1.5974832773208618,-1.3281967639923096,0.026597600430250168,,,,,,,,,
1739302555.9883242,-0.10216532009217903,1.0542982456355552,-0.3593677287913894,-1.455841207082357,1.5440651995419863,1.1657652221498187,1.3667116856610437,-0.0007440327079449073,-0.0006692118318158994,0.0013577928551609588,0.00048326607713421947,-0.000591495172432735,-0.0003464599964917227,-0.0014757717973767081,0.2411382496356964,-50.67837905883789,-6.571244239807129,17.08167266845703,1.5974832773208618,-1.3153793811798096,0.06596527993679047,,,,,,,,,
1739302555.9983416,-0.10216305484058426,1.0542962483488185,-0.3593726941380892,-1.455843524744362,1.544068025248317,1.1657648722587264,1.3667108179918197,-0.00026406788254305577,-0.001208454623357164,-0.0006046885637742045,-0.0006250639564705113,0.0001607332563618091,-5.669394554633389e-05,-0.000884379789360682,0.2173345386981964,-50.65060806274414,-6.495865821838379,17.10944366455078,1.5974832773208618,-1.3217880725860596,0.04673920199275017,,,,,,,,,
1739302556.0093057,-0.10216666414885882,1.0543019653272059,-0.359370639779607,-1.4558450699852912,1.5440680245270395,1.1657666241409208,1.366711237609568,-4.782795007227526e-06,0.0007674525674210137,0.0005230934144700471,-0.00016030568802760523,-0.0005010389608786281,0.0003346898962373369,-0.00012130338484832577,0.2689092457294464,-50.72995376586914,-6.519669532775879,17.13324737548828,1.5709329843521118,-1.3281967639923096,0.03300629183650017,,,,,,,,,
1739302556.019319,-0.10216280916258556,1.0543000227668085,-0.35937473856229707,-1.4558432078313803,1.544067985048563,1.165766741882774,1.3667163572279135,0.00042111383416030727,0.000670129267332073,0.00012561720455896033,3.999822779236832e-05,-0.0007457171619893929,0.00038962769164930443,-3.3156594431432034e-05,0.2173345386981964,-50.70218276977539,-6.468094825744629,17.10944366455078,1.5709329843521118,-1.3281967639923096,0.026597600430250168,,,,,,,,,
1739302556.0303085,-0.102167603531619,1.0543019530087285,-0.35937465579603256,-1.4558443546187485,1.5440687829602358,1.1657653232197278,1.3667116512481179,-0.0001157656549397049,0.0019847831285060066,-0.00013772792806757112,0.00033531237061563604,0.00040916187745967947,-3.434144525540537e-06,-0.0027151399143175462,0.2411382496356964,-50.72995376586914,-6.468094825744629,17.13324737548828,1.5910745859146118,-1.3281967639923096,0.06596527993679047,,,,,,,,,
1739302556.0403745,-0.10216033122244511,1.0543010078373025,-0.35937479179209053,-1.4558392912143028,1.5440695406203158,1.1657659447933022,1.3667139586409147,0.0017657638514436515,-0.0012776158792376477,-0.0013648287340949751,0.001996267665197008,0.0006722675844114522,0.00017525304843586204,-0.0006478129930918574,0.1697271168231964,-50.72995376586914,-6.468094825744629,17.08167266845703,1.5846658945083618,-1.3217880725860596,0.04673920199275017,,,,,,,,,
1739302556.0513222,-0.1021673629489121,1.0543019527849782,-0.35937473976577733,-1.4558445930996362,1.5440663616700372,1.1657605170077563,1.3667108152939227,-0.00020232367791546638,-0.00026172540490003985,-0.0008752903960963013,4.2993178334629195e-05,0.0003620011606841858,-0.0019988533911270297,-0.002033063094082519,0.2411382496356964,-50.72995376586914,-6.468094825744629,17.13324737548828,1.5846658945083618,-1.3153793811798096,0.07328949868679047,,,,,,,,,
1739302556.0613642,-0.10216484932161124,1.0542999547404446,-0.35937159124616586,-1.455841344517244,1.5440653172822152,1.1657649245068036,1.366716308244093,-0.001151463846654936,0.00046389233589818154,-0.0009455234118590575,0.000559088993280213,-3.184117637339729e-05,0.0007426958426818163,0.0011007003406197304,0.2411382496356964,-50.70218276977539,-6.519669532775879,17.10944366455078,1.5974832773208618,-1.3217880725860596,0.026597600430250168,,,,,,,,,
1739302556.0723143,-0.10216934324001688,1.0542989604188882,-0.3593726586714631,-1.455842098589232,1.5440656054482222,1.1657649239345558,1.366718500897972,1.547484300354297e-05,-4.057954072610767e-05,-0.0006514162642986624,-2.930938613724982e-05,-0.00035214633092536156,9.844286396324265e-05,0.0012744540808767566,0.2689092457294464,-50.67837905883789,-6.495865821838379,17.13324737548828,1.5910745859146118,-1.3217880725860596,-0.0008682189509272575,,,,,,,,,
1739302556.084317,-0.10216586403419725,1.05430398309752,-0.3593716265674147,-1.45584427378503,1.544067580762042,1.165764111325187,1.366712441825321,0.00015577132697022457,0.0016453113052440098,-0.0003389352675353182,-0.0002501770309912799,0.0010490873229062163,-0.00170038114171136,-0.001588961841768188,0.2173345386981964,-50.75375747680664,-6.519669532775879,17.13324737548828,1.5773416757583618,-1.3089706897735596,0.05955658480525017,,,,,,,,,
1739302556.0952446,-0.10216873332345046,1.0542992044342339,-0.3593708585764699,-1.4558438725916545,1.544065604477195,1.1657598638951752,1.3667124434828437,-0.0006477896324340642,-0.00040824308583787384,-0.00023985284318481467,-0.001210687389443492,-0.0003757717858048075,-0.002148866742392938,0.00011695624641444271,0.2689092457294464,-50.67837905883789,-6.519669532775879,17.15705108642578,1.5910745859146118,-1.3089706897735596,0.05955658480525017,,,,,,,,,
1739302556.105293,-0.102162897320625,1.054298242345023,-0.35937096429328896,-1.4558403070760417,1.5440672275493323,1.1657659839851977,1.3667130932168217,0.00027445813991592373,-0.001293783269856577,3.087357413733967e-05,0.0010824631582752177,0.00024231186335179635,0.0008950216376426481,-0.0008254561238951026,0.2173345386981964,-50.67837905883789,-6.519669532775879,17.10944366455078,1.5773416757583618,-1.3217880725860596,0.05314789339900017,,,,,,,,,
1739302556.1153347,-0.1021676034973226,1.054304181845955,-0.3593757577864286,-1.455842452843251,1.5440688352342105,1.1657652265646072,1.366713233769265,-6.005745951822368e-05,0.0016483390510001203,-0.0021784191796995326,0.0005383092333877326,0.0008082339464024224,0.0005032341063778998,0.0004937068882926632,0.2411382496356964,-50.72995376586914,-6.495865821838379,17.10944366455078,1.5910745859146118,-1.3153793811798096,0.05314789339900017,,,,,,,,,
1739302556.1253607,-0.10216673574218481,1.0542962482411953,-0.3593737936657662,-1.4558438812967334,1.5440687488999087,1.1657667417232622,1.3667157706665163,3.447494151551862e-05,-0.000866110924567861,-0.0004354137499312823,-0.000988401326131609,0.000787563746691166,0.001619276272917202,-0.0006496521888805932,0.2411382496356964,-50.65060806274414,-6.468094825744629,17.15705108642578,1.5645242929458618,-1.3281967639923096,0.019273381680250168,,,,,,,,,
1739302556.135372,-0.10216547299205184,1.0542972244441953,-0.35936871733954395,-1.4558403865490488,1.5440663827346472,1.1657651873187518,1.3667179557969837,-0.00015239390571765963,-0.0006450617122160711,0.0005641884116170458,-0.00048265701667365995,0.0006047683754387316,0.0011948256756453106,0.0010220280068350706,0.2411382496356964,-50.65060806274414,-6.547440528869629,17.10944366455078,1.5974832773208618,-1.3153793811798096,0.012864691205322742,,,,,,,,,
1739302556.1462905,-0.10216523619673515,1.0543041337753116,-0.35937265877599656,-1.4558420910617018,1.5440660749509665,1.1657627658488825,1.3667108197635467,-0.0007964392239492361,0.0009931213211118973,-0.0003597457965402173,-0.00015817133477354154,0.0013626323275952958,-0.0008774272935894352,-0.001184564705907761,0.2411382496356964,-50.72995376586914,-6.495865821838379,17.13324737548828,1.5910745859146118,-1.3217880725860596,0.07328949868679047,,,,,,,,,
1739302556.1572726,-0.10216587250259618,1.054302091725988,-0.3593719500344271,-1.4558420897530653,1.544066509928825,1.165765065202366,1.3667116856608221,-1.5437668047318996e-05,-0.0006862131031035003,0.0005506506434535625,-0.00034040929038774094,-0.0005902001013642366,-0.0009301880788762064,-0.0005975959883156821,0.2173345386981964,-50.70218276977539,-6.495865821838379,17.13324737548828,1.6103006601333618,-1.3153793811798096,0.06596527993679047,,,,,,,,,
1739302556.1673133,-0.10216742453285418,1.0543003919476992,-0.3593726586554247,-1.455840307076039,1.5440670681313466,1.165766722985882,1.3667152067467798,-0.0011953533054561215,-0.0008991745987889009,-0.000488789934834822,0.0005236465448122317,-0.0001867998690904399,0.0011543741663329588,-2.4395342477285544e-05,0.2689092457294464,-50.67837905883789,-6.495865821838379,17.10944366455078,1.5846658945083618,-1.3281967639923096,0.03300629183650017,,,,,,,,,
1739302556.1782918,-0.10216769165972502,1.0543043759797235,-0.3593687962005508,-1.45584383874405,1.5440664793936498,1.1657649187722527,1.366716339856767,-0.0009661199294460328,0.0013236172897471408,0.0012591010368084759,-0.0013174188123294159,0.0007480469729590899,-0.0003966586728316379,0.0003963246887556735,0.2411382496356964,-50.72995376586914,-6.547440528869629,17.15705108642578,1.5846658945083618,-1.3217880725860596,0.026597600430250168,,,,,,,,,
1739302556.1892407,-0.1021676653655231,1.0542983335163465,-0.35936804145841045,-1.455840374266209,1.544065643238535,1.1657659837341583,1.3667195869733981,-0.0003500189601152954,0.0002340077733485439,0.0013379033818784985,0.0004658681103558523,-0.00010270628737910154,0.0003116361475630486,0.0010979496640611875,0.2411382496356964,-50.67837905883789,-6.519669532775879,17.10944366455078,1.5910745859146118,-1.3217880725860596,-0.0008682189509272575,,,,,,,,,
1739302556.1993823,-0.10216769134728831,1.0543022824570538,-0.359366698854578,-1.4558420897541957,1.5440640902875775,1.1657659840631758,1.3667148250232466,0.00029916363138059616,0.000825035467116956,0.0014128559816176571,0.0005439930110809929,0.0004339687410008177,-0.0007640553623862968,3.2010446840012745e-05,0.2411382496356964,-50.72995376586914,-6.571244239807129,17.13324737548828,1.6038919687271118,-1.3217880725860596,0.03941498324275017,,,,,,,,,
1739302556.2102818,-0.10216854928736112,1.0543019527958968,-0.35937472614219845,-1.4558420135506862,1.5440656039920408,1.1657652265646086,1.366712443321349,-0.00045081821512768375,-0.00043572014633170707,0.0003908135174635064,0.00039073767637724403,-0.00091169579632176,5.860434013975829e-05,-0.0014225865268341856,0.2927129566669464,-50.72995376586914,-6.468094825744629,17.13324737548828,1.5910745859146118,-1.3153793811798096,0.05955658480525017,,,,,,,,,
1739302556.2203543,-0.10216768288741096,1.0543037536142212,-0.35937269606467614,-1.4558403070756087,1.5440654993363958,1.1657659842246897,1.3667179231890842,-0.0008571192235165987,0.0012009441505361645,0.00016302743326368583,-3.8981889034795595e-05,-0.0008517310461641692,0.001740821062221929,0.0009495941960738304,0.2411382496356964,-50.75375747680664,-6.468094825744629,17.10944366455078,1.5910745859146118,-1.3217880725860596,0.012864691205322742,,,,,,,,,
1739302556.2313209,-0.1021652938961601,1.054300990831557,-0.35937234370789656,-1.455843872430077,1.5440690696156094,1.165766741884768,1.3667089779122685,0.0006613044181528831,3.344409424447636e-05,0.00044307886498643856,-0.0007356403257802886,-0.0002291304608608608,0.0013122032453901794,-0.0019320776618539245,0.2173345386981964,-50.70218276977539,-6.495865821838379,17.15705108642578,1.5846658945083618,-1.3281967639923096,0.07969819009304047,,,,,,,,,
1739302556.2423077,-0.10216384828186126,1.0542983492068583,-0.3593687961987729,-1.455843872866142,1.5440663616673784,1.1657652265646112,1.3667108190952966,0.001752217636642814,-0.0014690349491534146,0.001109070635819323,-0.0006328651096420368,-0.0005446836933571479,0.0008521708641147183,-0.0018768409542900472,0.2173345386981964,-50.67837905883789,-6.547440528869629,17.15705108642578,1.5846658945083618,-1.3153793811798096,0.07328949868679047,,,,,,,,,
1739302556.2533116,-0.10216968665427935,1.0542999635725723,-0.3593701693287849,-1.4558438724300844,1.5440658928881126,1.1657659842246897,1.366716119627025,-0.00015859976878842739,-0.0007127591429816789,0.000642617568921628,-0.0007102708171753732,0.0005711253784417443,6.280089202508906e-06,-0.001126487311768597,0.2689092457294464,-50.70218276977539,-6.519669532775879,17.15705108642578,1.5974832773208618,-1.3217880725860596,0.019273381680250168,,,,,,,,,
1739302556.2642412,-0.1021659938884862,1.054300432558764,-0.3593727381389555,-1.4558393233562297,1.5440664793198509,1.1657659822866226,1.3667108590074026,-0.0002502435116728029,0.0002861528422579789,-0.0001403023406714237,0.0007914214233432349,0.0008072648843598497,-0.0004323685433050942,-0.002102179867603257,0.2173345386981964,-50.70218276977539,-6.495865821838379,17.13324737548828,1.5846658945083618,-1.3217880725860596,0.07328949868679047,,,,,,,,,
1739302556.2752576,-0.10216621646681923,1.0543029070181005,-0.359370955464612,-1.4558411173240915,1.544064846333928,1.165764816663409,1.3667119953432207,-0.00038325744839016356,0.0006301217237150041,0.00034451489556349194,0.00010133531955463994,-0.0010071701420518323,-0.0004999587814548605,-0.001096687256050129,0.2173345386981964,-50.70218276977539,-6.519669532775879,17.15705108642578,1.5974832773208618,-1.3153793811798096,0.026597600430250168,,,,,,,,,
1739302556.2862537,-0.10216769167385112,1.0543000381545538,-0.35937086323121153,-1.4558438724145244,1.5440673452868943,1.1657659449765192,1.366711685581116,-0.0012045215946944092,-0.001010770209333119,0.0013033408417005938,-0.0014408642742148692,0.001510716293624007,-0.00023445535412910343,-0.0006905802518832409,0.2411382496356964,-50.70218276977539,-6.547440528869629,17.15705108642578,1.5773416757583618,-1.3217880725860596,0.06596527993679047,,,,,,,,,
1739302556.29635,-0.10216355634236551,1.054301946794888,-0.35936809052265956,-1.4558410948705918,1.5440653303648317,1.1657683654418571,1.366711683674303,0.0013676286745872195,-0.00019294320603159727,0.0016201817052960827,0.001111510155013646,-0.0006920771611045413,-3.246616226868849e-05,-0.0015892657602431398,0.1935308277606964,-50.72995376586914,-6.547440528869629,17.13324737548828,1.5974832773208618,-1.3419296741485596,0.06596527993679047,,,,,,,,,
1739302556.3072813,-0.10216744613661125,1.0543021950244271,-0.3593747384532975,-1.4558456518121496,1.5440660084421145,1.1657652265646112,1.3667150182244345,-0.0003949043651740081,0.001193425713856693,-0.0011640425972368636,-0.0013846150357833603,-0.00021705365650028278,0.0005918207590220247,0.0005203565421643334,0.2411382496356964,-50.72995376586914,-6.468094825744629,17.18085479736328,1.5846658945083618,-1.3153793811798096,0.04673920199275017,,,,,,,,,
1739302556.318357,-0.10217139336094144,1.054298483585834,-0.3593728970860045,-1.455842089753002,1.5440665099201847,1.1657652265646112,1.3667132009993632,-0.001889427507775943,0.00036171557911388464,-0.0013014559335741336,0.00028802400541180415,-0.0002493905159594409,0.0008564295734642888,-0.0009427481030932593,0.2927129566669464,-50.67837905883789,-6.495865821838379,17.13324737548828,1.6103006601333618,-1.3153793811798096,0.05314789339900017,,,,,,,,,
1739302556.329276,-0.10216769167249495,1.0543022185724287,-0.35937265969747223,-1.4558382263413756,1.544066732313386,1.1657651088270413,1.3667148247002354,-0.0004925185407994694,-0.00016243459760517453,0.00012148590983212322,0.0005468915198702708,0.0001353562675088443,0.0009237189552110683,0.0003953032735345448,0.2411382496356964,-50.72995376586914,-6.495865821838379,17.08167266845703,1.5846658945083618,-1.3153793811798096,0.03941498324275017,,,,,,,,,
1739302556.340249,-0.10216595284479199,1.0543003109010947,-0.3593709034625235,-1.4558456182595814,1.5440656039982907,1.1657609859105273,1.3667181971940177,-0.0011292385885296806,8.377472497536048e-05,-0.00022256285574956283,0.00016188154279630422,0.0001644316378274,-0.00020895317009139976,-0.0006392447544339684,0.2173345386981964,-50.70218276977539,-6.519669532775879,17.18085479736328,1.5910745859146118,-1.3153793811798096,0.04673920199275017,,,,,,,,,
1739302556.3503206,-0.10216597918780229,1.0543037487104991,-0.3593708759905615,-1.4558402982576262,1.5440657217295837,1.1657606216934933,1.3667172057800456,8.523357415796096e-07,0.0011796809516995653,-0.0001497152260654407,0.0008741511114275092,0.00043697899427485757,-0.0025692740270728816,0.0010138782796215902,0.2173345386981964,-50.75375747680664,-6.519669532775879,17.10944366455078,1.5910745859146118,-1.3153793811798096,0.019273381680250168,,,,,,,,,
1739302556.3603373,-0.10216769167251208,1.0543020409858874,-0.35937475121218443,-1.4558419872937667,1.5440640886738508,1.16576442893467,1.3667108328455422,-0.0004957704890329464,0.00017161517448220954,-0.0014605611992398173,-0.00048520345384748257,9.390420476276513e-05,-0.000858332648368667,-0.002134048373531306,0.2411382496356964,-50.72995376586914,-6.468094825744629,17.13324737548828,1.6038919687271118,-1.3089706897735596,0.07328949868679047,,,,,,,,,
1739302556.371322,-0.10216769156425226,1.0542982422212068,-0.35936877658257865,-1.4558420900783715,1.5440686534821155,1.1657666239850155,1.3667172057563406,-0.0005980786796585752,-0.0004698100692282009,7.98252400940017e-05,-0.000141489664652341,0.0005736954671301423,0.0008433302344132306,0.0006169058353085663,0.2411382496356964,-50.67837905883789,-6.519669532775879,17.13324737548828,1.5773416757583618,-1.3281967639923096,0.019273381680250168,,,,,,,,,
1739302556.3813279,-0.10216769163642445,1.0542989663421052,-0.35936667159789787,-1.4558410918611357,1.5440695405745293,1.1657647030705163,1.366718721237671,0.0005573666455072259,-0.0018702184470610395,0.001481411626420508,-0.0008769838765511119,0.0005694702092314876,-0.001190435524229654,0.0012523258327954544,0.2411382496356964,-50.67837905883789,-6.547440528869629,17.15705108642578,1.5846658945083618,-1.3153793811798096,0.0064559997990727425,,,,,,,,,
1739302556.392252,-0.10216597915178006,1.0543001902196703,-0.35936735832999545,-1.455843540751899,1.544066361670037,1.1657612885336395,1.3667163338441504,0.0003835655887615042,-9.23295359310253e-05,0.0009833633079294427,0.0001335795686492487,0.0009686263013457048,-0.0008540189854376471,-0.00031506839895870456,0.2173345386981964,-50.70218276977539,-6.571244239807129,17.15705108642578,1.5846658945083618,-1.3089706897735596,0.026597600430250168,,,,,,,,,
1739302556.4023104,-0.10216597915178027,1.0543018212116637,-0.3593666703073932,-1.4558393318538816,1.544067384532751,1.1657656807392285,1.366711169960081,0.000867514298590237,0.001231470903914178,0.0014311269050246845,3.7180544066662565e-05,0.0012667263600790685,0.0007337267507182804,-0.0003874462581803851,0.2173345386981964,-50.72995376586914,-6.547440528869629,17.13324737548828,1.5773416757583618,-1.3281967639923096,0.07328949868679047,,,,,,,,,
1739302556.4142458,-0.10216515486614748,1.054303703938399,-0.3593689884979878,-1.45584364237134,1.5440691361199974,1.1657616931230323,1.3667195187752514,0.0002740081099433471,0.0019186183983186974,0.0002605109647933764,-0.0007087087745256038,0.0014831933559732642,-0.0010715043389231994,0.0009343775349369028,0.2173345386981964,-50.75375747680664,-6.519669532775879,17.15705108642578,1.5910745859146118,-1.3217880725860596,0.026597600430250168,,,,,,,,,
1739302556.4253244,-0.10216882692459975,1.0543022029828668,-0.35937087725194444,-1.4558393342727083,1.5440656045503045,1.1657608522693457,1.3667155821050454,-0.0006732428123403249,0.0006972312942945301,0.0006053916902211128,-0.0002761105511410667,0.000769514815298402,-0.0016551951049800645,-0.0009428013880442793,0.2173345386981964,-50.72995376586914,-6.519669532775879,17.13324737548828,1.5910745859146118,-1.3153793811798096,0.03300629183650017,,,,,,,,,
1739302556.436319,-0.10216674463700913,1.0542999900994654,-0.35937361237808774,-1.4558438682153771,1.544067867471836,1.1657659841999966,1.3667132415562506,0.00045815236981088924,0.0003991908264903493,-0.0007524126949554662,-0.0005626942194606391,-0.0002894913931846619,0.0014998145413247109,-0.0015247082823439027,0.2411382496356964,-50.70218276977539,-6.495865821838379,17.15705108642578,1.5709329843521118,-1.3217880725860596,0.07969819009304047,,,,,,,,,
1739302556.4473176,-0.10216745744078082,1.0543059164243758,-0.35937266849279714,-1.4558425674639914,1.5440648462778785,1.165762804610444,1.3667172064081239,-4.345214847091409e-05,0.0010605218444375087,-0.0002747494850629395,-0.00011926817212605783,-0.0009275717131190595,-0.0003756868107879656,0.0009462425370258024,0.2411382496356964,-50.75375747680664,-6.495865821838379,17.18085479736328,1.5974832773208618,-1.3217880725860596,0.019273381680250168,,,,,,,,,
1739302556.4582777,-0.10216589730649449,1.0543019536751503,-0.3593687962006063,-1.4558397910185916,1.5440644974798758,1.165765226546662,1.366716328586154,-3.7899204549219506e-05,0.0007518022707235709,0.001116618572421014,-0.00029075530421212133,-0.0002874085616680851,-0.00023799910152609392,0.0012279420458099748,0.2173345386981964,-50.72995376586914,-6.547440528869629,17.13324737548828,1.5974832773208618,-1.3153793811798096,-0.0008682189509272575,,,,,,,,,
1739302556.4683118,-0.1021659791476221,1.0542990634393123,-0.35937087599040646,-1.455839515840304,1.5440672275316008,1.165763358031744,1.3667131973031295,0.0004554364243337369,-0.0004341697620759009,0.00033965890945286513,0.0009539946724179986,0.0005689574834960888,-0.0006237144819896223,-0.0010723880748065061,0.2173345386981964,-50.67837905883789,-6.519669532775879,17.10944366455078,1.5773416757583618,-1.3025619983673096,0.05314789339900017,,,,,,,,,
1739302556.479317,-0.1021697687182943,1.054296243347709,-0.3593737370133557,-1.455840294372136,1.5440657217295835,1.1657648733512367,1.366707341050722,-0.0003644822595321931,-0.0017039662957729295,-0.0005966443422685752,-0.0002533303600183201,-0.0006806622606202449,0.0009346977394949302,-0.001590262928760486,0.2689092457294464,-50.65060806274414,-6.519669532775879,17.10944366455078,1.5910745859146118,-1.3153793811798096,0.06596527993679047,,,,,,,,,
1739302556.4893255,-0.10216769134907348,1.0542999815584289,-0.35937173674481143,-1.4558393091838997,1.5440663602005356,1.1657651088210594,1.3667148239685238,-0.000729043697996386,-0.0005873194033399748,-0.000295550474841078,0.0013903207232981696,-0.000769211574188554,0.0007351565516056437,-0.00034550595928687104,0.2411382496356964,-50.70218276977539,-6.547440528869629,17.13324737548828,1.5846658945083618,-1.3153793811798096,0.03941498324275017,,,,,,,,,
1739302556.5002377,-0.10216479754488525,1.0542999586651798,-0.3593748839604353,-1.4558372458835245,1.5440673984057587,1.1657659835780025,1.3667148975009742,6.6853057422340285e-06,-0.0005946652691642353,-0.0013807670521357826,0.0015766535130879908,-0.0006331259176195481,-0.0009478064786429911,-0.00013342053754911935,0.2173345386981964,-50.70218276977539,-6.495865821838379,17.10944366455078,1.6038919687271118,-1.3217880725860596,0.026597600430250168,,,,,,,,,
1739302556.5102942,-0.10216597913176965,1.054298330413939,-0.35937095550095166,-1.4558402176738545,1.5440648463879858,1.1657626875727207,1.3667108197391633,0.0011845752293983965,-0.00038156696940341373,-3.119741745251726e-05,0.0005690186706730385,-0.0007197480752834769,-0.0009288900843133915,-0.001351678090861345,0.2173345386981964,-50.67837905883789,-6.519669532775879,17.13324737548828,1.5974832773208618,-1.3217880725860596,0.07328949868679047,,,,,,,,,
1739302556.5203438,-0.10216769557892741,1.054297345562397,-0.359372658668772,-1.4558402777552977,1.5440640820665927,1.1657651741809731,1.3667108138040334,-0.0005390624625994381,-0.0005788102730216845,-0.0004598015601038569,0.0003700176287209742,-0.0011584912601504665,0.0013774681309067856,-0.0014215082371452424,0.2411382496356964,-50.67837905883789,-6.495865821838379,17.10944366455078,1.5773416757583618,-1.3153793811798096,0.07328949868679047,,,,,,,,,
1739302556.5312808,-0.10216640246417558,1.054302994653728,-0.35937265737134316,-1.4558420812496236,1.5440669257150226,1.165765984224394,1.3667139588029693,-0.0004570984439674367,0.0005674203582669658,-0.0006403618865541063,-0.0005602222591304796,-0.0005410378322405164,0.0021181445043882167,-0.0017081963055750006,0.1935308277606964,-50.72995376586914,-6.495865821838379,17.13324737548828,1.5709329843521118,-1.3217880725860596,0.04673920199275017,,,,,,,,,
1739302556.5413494,-0.10216769170868198,1.0542985733197647,-0.35937088482070223,-1.4558382272860393,1.544065605912138,1.1657644558225806,1.3667106126136945,-9.03330580553616e-05,-8.501541235282858e-05,1.7757128373940736e-05,0.00010738618791633864,0.00038138130012110714,-0.0007064059524644397,-0.0018481869604976635,0.2411382496356964,-50.67837905883789,-6.519669532775879,17.08167266845703,1.5910745859146118,-1.3089706897735596,0.06596527993679047,,,,,,,,,
1739302556.5522559,-0.1021669813838285,1.0542991066156102,-0.35937087599055595,-1.4558392838493432,1.5440656039920462,1.1657664399064955,1.366713947350699,0.0005317465671669979,-0.000801323062761777,0.0002940790648764363,0.0016002995433934291,0.0009430366301000114,0.0004530160786746452,0.0016803423376772109,0.2411382496356964,-50.65060806274414,-6.519669532775879,17.10944366455078,1.5910745859146118,-1.3346054553985596,0.019273381680250168,,,,,,,,,
1739302556.5623362,-0.10216598652181837,1.054299957841372,-0.35937088602091255,-1.4558382231746883,1.5440674212902212,1.1657641475278668,1.3667174786503504,0.000726022753560783,-0.0011350229838539235,-2.2325840484860733e-05,5.430114640635566e-05,-0.0005923247908358895,-0.00011180244576931443,0.00035705017230156904,0.2173345386981964,-50.70218276977539,-6.519669532775879,17.08167266845703,1.5846658945083618,-1.3153793811798096,0.012864691205322742,,,,,,,,,
1739302556.5733123,-0.10216864078733726,1.0543002288073475,-0.3593726583434238,-1.4558411712600332,1.5440652564504391,1.165765226078064,1.366715858587488,-0.0005202234338434253,-7.289432192775192e-05,0.00012584190205351583,-0.00018417794902949512,0.0003278135152453972,0.0007047699817893426,0.0007896382990657275,0.2411382496356964,-50.70218276977539,-6.495865821838379,17.13324737548828,1.5974832773208618,-1.3153793811798096,0.026597600430250168,,,,,,,,,
1739302556.5842483,-0.10216702380091983,1.0543048138148083,-0.35937265866742363,-1.4558420632932585,1.5440656039943288,1.1657654951857819,1.3667155826806083,0.0004273031514820816,0.0007448812122410598,-0.0003510396164110023,0.0004365817915413932,-0.001854668374447742,-0.0011682216891706271,0.000847657414911602,0.1935308277606964,-50.72995376586914,-6.495865821838379,17.13324737548828,1.5910745859146118,-1.3217880725860596,0.03300629183650017,,,,,,,,,
1739302556.5943036,-0.10216597919847319,1.0543030664402466,-0.35937468621123436,-1.4558436428413675,1.5440656601959566,1.165760988003812,1.366714824538738,-0.00012363931257109698,0.0009170038658468154,-0.0007090648597504426,-0.0007708189152449685,-6.165949854859378e-07,-0.002835333009379995,0.0002036470294915773,0.2173345386981964,-50.70218276977539,-6.468094825744629,17.15705108642578,1.5910745859146118,-1.3153793811798096,0.03941498324275017,,,,,,,,,
1739302556.606256,-0.10216769167251172,1.0543004149315074,-0.35937273813999027,-1.4558408877813833,1.5440656039923308,1.1657651872948278,1.3667100621035113,0.00038455318244870967,0.0008688713594492011,-0.0005459924700060275,0.0005078184609608933,-0.0007354480612958642,-0.00024366918189258656,-0.0013900543702297246,0.2411382496356964,-50.67837905883789,-6.495865821838379,17.15705108642578,1.5910745859146118,-1.3153793811798096,0.07969819009304047,,,,,,,,,
1739302556.6163454,-0.10216769178102303,1.0543021097018161,-0.35937082374570567,-1.455842013173092,1.544065752266088,1.1657674995441811,1.3667155419718053,-0.00010589964863927251,-8.97274160775775e-05,0.0005723031151564587,-0.0011080799653427507,-0.0009550163109239599,0.0013740719215345387,0.0006749933332957913,0.2411382496356964,-50.70218276977539,-6.519669532775879,17.13324737548828,1.6167093515396118,-1.3346054553985596,0.03300629183650017,,,,,,,,,
1739302556.6273227,-0.10216769167251166,1.0543021044362952,-0.3593726616471052,-1.4558411088558634,1.5440656046440175,1.1657665790691953,1.3667100621034356,-0.000661502948914715,-0.0014536860946898504,-0.0005366546418235197,-0.00034514505513292534,-0.0006144272070298284,-0.0002755008912288319,-0.0019036342945014217,0.2411382496356964,-50.70218276977539,-6.495865821838379,17.15705108642578,1.5910745859146118,-1.3281967639923096,0.07969819009304047,,,,,,,,,
1739302556.6393037,-0.10216749299717573,1.054302101827985,-0.3593748044346542,-1.4558395814481557,1.5440640884565198,1.1657652222030415,1.3667115656548525,0.0005610433209901397,0.00012175701816194467,-0.0006607008556940585,0.0006460821702364747,-0.001196210959739404,-0.0007154576046203593,-0.0004146124739157058,0.2411382496356964,-50.70218276977539,-6.495865821838379,17.10944366455078,1.6038919687271118,-1.3153793811798096,0.03941498324275017,,,,,,,,,
1739302556.650254,-0.10217140202471497,1.0542983346049501,-0.35937094384697704,-1.4558420885982344,1.5440667536261403,1.1657659449788085,1.3667133582102415,-5.266225614895706e-05,-0.00031202984566103693,0.00011603484022399671,-0.0008635346200511567,0.0008683105856327041,0.00016801897613608405,0.0002330163081034682,0.2927129566669464,-50.67837905883789,-6.519669532775879,17.13324737548828,1.5846658945083618,-1.3217880725860596,0.05314789339900017,,,,,,,,,
1739302556.6602721,-0.10216597904352044,1.0543068706442285,-0.3593687540163782,-1.45584208961308,1.5440664007386555,1.1657645582378415,1.366710806243768,0.0007891805713707748,0.0014118344007612287,0.0010286462201145531,-0.0007216833059822235,-0.000249418668933015,-0.0008489245528517737,-0.0001931810823733776,0.2173345386981964,-50.75375747680664,-6.519669532775879,17.13324737548828,1.5846658945083618,-1.3217880725860596,0.07328949868679047,,,,,,,,,
1739302556.6703453,-0.10216769167250964,1.0543058464538106,-0.3593708798790563,-1.4558438724300746,1.5440640886725188,1.1657659842005403,1.3667155821985792,-5.731627521217967e-05,0.00035493492096819743,-0.00030851035733400246,-0.0011398919244611956,-0.001205867398815583,0.000981709565470379,0.0010215997662354377,0.2411382496356964,-50.75375747680664,-6.519669532775879,17.15705108642578,1.6038919687271118,-1.3217880725860596,0.03300629183650017,,,,,,,,,
1739302556.6812916,-0.10216769037340093,1.054300681818589,-0.3593687962005728,-1.4558435425563405,1.544067698499604,1.1657644164152183,1.3667112907138694,0.00011358777423835155,-0.0005319459472771735,0.001282795329605903,-0.0008641865635561804,0.00013731277051743079,-0.0007968763862150154,-0.0018395431328455966,0.2411382496356964,-50.70218276977539,-6.547440528869629,17.13324737548828,1.5773416757583618,-1.3089706897735596,0.07328949868679047,,,,,,,,,
1739302556.691397,-0.10216895301767066,1.0543011429368956,-0.35937156961852734,-1.4558399981485375,1.544065643245846,1.1657639979533643,1.3667208556287622,0.0005406992983223133,-4.047433991892003e-05,0.00025093647683792586,0.00031119089022830625,-0.0007338100316449463,-0.000578048634438345,0.003208447488726234,0.2689092457294464,-50.67837905883789,-6.519669532775879,17.10944366455078,1.5910745859146118,-1.3089706897735596,0.019273381680250168,,,,,,,,,
1739302556.7033381,-0.10216769166835336,1.0543006710300398,-0.3593732689444118,-1.4558420897163211,1.5440640880260563,1.1657658214244035,1.3667179634366908,-0.0007630764943356054,-0.0002707073564984469,-0.0011248336341921825,-0.0005643505495268038,-0.000468610007855738,-0.0008690781109729302,0.0009746485920277212,0.2411382496356964,-50.70218276977539,-6.495865821838379,17.13324737548828,1.6038919687271118,-1.3217880725860596,0.012864691205322742,,,,,,,,,
1739302556.7142649,-0.10216574238888573,1.0543022298504496,-0.3593690346202783,-1.4558435404876524,1.5440656039920124,1.165765982770833,1.36671794511257,0.0003822605478551148,1.5413422583728247e-06,0.000512575637348445,0.00018424188140515587,2.2798882658376494e-05,0.00031502854745600774,0.0017539449560422858,0.2173345386981964,-50.72995376586914,-6.547440528869629,17.15705108642578,1.5910745859146118,-1.3217880725860596,0.012864691205322742,,,,,,,,,
1739302556.7243223,-0.10216550616585728,1.0542982422337932,-0.35937265867953844,-1.4558401962017424,1.5440672319099749,1.1657653246732043,1.3667163398579567,0.0004924778608715625,-0.001932746306397818,-0.0006007450658469227,0.0007839110226197747,0.00046732051779656785,0.00037063897098677396,0.0010409390147691712,0.2173345386981964,-50.67837905883789,-6.495865821838379,17.10944366455078,1.5773416757583618,-1.3281967639923096,0.026597600430250168,,,,,,,,,
1739302556.735285,-0.10216597911480385,1.0542992223849812,-0.3593726587037642,-1.4558420641380638,1.5440656039920218,1.1657666241445312,1.3667139586414976,0.0005559892739930951,-0.0004007068907218831,-0.0008381631204756593,-0.0011727809965827213,-6.428064564728718e-05,0.001461379267192012,-0.0005328205591470477,0.2173345386981964,-50.67837905883789,-6.495865821838379,17.13324737548828,1.5910745859146118,-1.3281967639923096,0.04673920199275017,,,,,,,,,
1739302556.7453167,-0.10216384861126361,1.054298326069821,-0.35936879620055145,-1.4558411713995787,1.5440656102907313,1.1657667288008216,1.3667100621035113,0.0007095948365926776,-5.270880635101856e-05,0.0007154049355584432,-0.0002608284134195898,-0.0007210119898284969,0.0009148039130846418,-0.0016707031308715405,0.2173345386981964,-50.67837905883789,-6.547440528869629,17.13324737548828,1.5910745859146118,-1.3281967639923096,0.07969819009304047,,,,,,,,,
1739302556.7553172,-0.10216331564605849,1.0543029155143988,-0.3593730133361116,-1.4558381348426979,1.5440680250849241,1.1657620476500015,1.36671482453873,0.000905235954771888,7.350942187630313e-05,0.0003379412704437518,0.001660468258676484,0.00016993707091071935,0.0003168013756042119,-0.00016678831118672956,0.1935308277606964,-50.72995376586914,-6.519669532775879,17.10944366455078,1.5974832773208618,-1.3153793811798096,0.03941498324275017,,,,,,,,,
1739302556.7662828,-0.1021658735829445,1.0543030811252951,-0.35937182970091897,-1.4558399086802774,1.544066362190441,1.1657651082886893,1.3667123226403317,0.0005728181555207069,0.0008986945575854325,-0.0008376744003586122,0.0002902389975518355,0.0009232814903559243,-0.0010864120164016213,-0.0007049363664437923,0.2173345386981964,-50.70218276977539,-6.519669532775879,17.13324737548828,1.5846658945083618,-1.3153793811798096,0.05955658480525017,,,,,,,,,
1739302556.7763112,-0.10216811509280034,1.054302418562097,-0.35937474129809716,-1.4558396904191897,1.5440648245286845,1.1657655113356753,1.3667186827865483,-0.0008332676141128322,0.0009993783249588892,-0.00234717432873696,0.0011460387938972585,-0.0009131050171727969,0.0005350414788350523,0.0007934036429328303,0.2173345386981964,-50.70218276977539,-6.468094825744629,17.13324737548828,1.5974832773208618,-1.3217880725860596,0.0064559997990727425,,,,,,,,,
1739302556.7873135,-0.10216968962542196,1.0542984850128496,-0.35937276365919274,-1.4558359313550324,1.5440640973930353,1.1657628008931462,1.3667189133806468,-0.0014703278152735965,-0.0009569342554192734,-0.0004686373144887424,0.0021013674809258684,-0.0005780771265440915,-0.0006949147812689191,0.0015401687033458709,0.2689092457294464,-50.67837905883789,-6.495865821838379,17.08167266845703,1.6038919687271118,-1.3217880725860596,0.0064559997990727425,,,,,,,,,
1739302556.797328,-0.10216769167251166,1.0543044526464755,-0.3593726591052686,-1.4558392781416156,1.5440655989854883,1.1657598720787228,1.3667148245419865,-0.0011675799636390184,0.0005763130029005404,-0.0002282696996819785,0.0009272664525561984,-0.0006767844274653322,-0.0021173940269254496,0.0004186816860472144,0.2411382496356964,-50.72995376586914,-6.495865821838379,17.10944366455078,1.5910745859146118,-1.3089706897735596,0.03941498324275017,,,,,,,,,
1739302556.80766,-0.10216745198661824,1.0542982422620486,-0.35937087893385306,-1.4558381288570432,1.544068378458948,1.1657644688266853,1.366710414654048,-0.0001577223846402716,-0.0009164477778115356,-0.0002579759903791471,0.0005377309624056179,0.0005764317009791255,-5.106768914711499e-05,-0.0009493715986257644,0.2411382496356964,-50.67837905883789,-6.519669532775879,17.10944366455078,1.5974832773208618,-1.3089706897735596,0.07969819009304047,,,,,,,,,
1739302556.818294,-0.10217345872010465,1.054302103451094,-0.359370875990423,-1.4558431835130252,1.544065608587944,1.1657642986238128,1.3667115656568427,-0.0016737002772313479,-0.0004802516824545582,0.0007085106906773991,-0.000966645155755381,-0.000643282244538788,-0.0011500070921916835,-0.0010409593781356126,0.2927129566669464,-50.70218276977539,-6.519669532775879,17.15705108642578,1.5910745859146118,-1.3089706897735596,0.03941498324275017,,,,,,,,,
1739302556.8283563,-0.10216761257010902,1.0543048141766986,-0.35937087599040646,-1.455840226440785,1.5440651989360896,1.1657659842218058,1.3667185865754505,0.0004836397936644651,0.0011299770877096899,-4.434806161605372e-05,-0.0004687325032973127,-0.0009414481264276829,-0.00040005023488081336,-7.898900681550416e-05,0.2411382496356964,-50.72995376586914,-6.519669532775879,17.10944366455078,1.5910745859146118,-1.3217880725860596,0.03300629183650017,,,,,,,,,
1739302556.8392735,-0.10216597915133374,1.0543000471297141,-0.3593708497447398,-1.4558410918606788,1.5440656041512326,1.1657648733519015,1.366710836780358,0.00044062971284577297,1.9816313773822274e-05,0.0005442333635012292,-0.00028761708213912996,0.00034957118729845004,0.0006751099555989195,-0.0004067987410736018,0.2173345386981964,-50.70218276977539,-6.519669532775879,17.15705108642578,1.5910745859146118,-1.3153793811798096,0.07328949868679047,,,,,,,,,
1739302556.849362,-0.10216597817744735,1.0543000737877726,-0.35937263242131434,-1.4558420634734244,1.5440663616520947,1.1657648731844141,1.3667132013006806,-0.00042002822886175607,-0.0005077606131565228,0.0008636421384856498,-0.0003770600435493002,-0.00029929855082286923,0.0005177347667503798,-0.0003815080965231073,0.2173345386981964,-50.70218276977539,-6.495865821838379,17.13324737548828,1.5846658945083618,-1.3153793811798096,0.05314789339900017,,,,,,,,,
1739302556.8602736,-0.10216861462467522,1.054300060813944,-0.35936974983871683,-1.4558372927895267,1.5440648464934408,1.1657658664312898,1.366709955837631,-0.0005085427292495878,9.135668944539259e-05,-0.00043499237827785884,0.0020691755377768573,-0.0017940340346967864,0.0001720783653678147,-0.0006763965763310772,0.2411382496356964,-50.70218276977539,-6.547440528869629,17.10944366455078,1.5974832773208618,-1.3217880725860596,0.05314789339900017,,,,,,,,,
1739302556.8712966,-0.10216982751082601,1.054305135847917,-0.3593708497501231,-1.4558410917041467,1.5440648310098486,1.1657648834019718,1.3667108177587521,-0.0012298880830601822,0.0020998149325773836,-9.61472415208125e-05,-0.0005986896989923936,-0.0017886484153626925,-0.000695395420314238,-0.0014485265901972339,0.2411382496356964,-50.72995376586914,-6.519669532775879,17.15705108642578,1.5846658945083618,-1.3217880725860596,0.07328949868679047,,,,,,,,,
1739302556.8822563,-0.10216644557631467,1.0542982549925841,-0.3593733739593534,-1.4558437576727383,1.5440663616434513,1.1657633565719803,1.3667176349470715,0.0005692167702257686,-0.0012305393135817668,-0.0006712483919932349,-0.0010391869271048392,-7.72867627922957e-05,-0.0010819032447522729,0.0007482975281426442,0.2173345386981964,-50.67837905883789,-6.495865821838379,17.15705108642578,1.5846658945083618,-1.3025619983673096,0.0064559997990727425,,,,,,,,,
1739302556.8923519,-0.10216766538922001,1.0543019615122624,-0.35937265870376606,-1.4558428762820372,1.5440656083526638,1.1657659449608138,1.366706838437272,-0.000291171580274361,-0.0006668695918814836,-0.0013789728649567384,-0.0010564650890201085,-1.3242208399213095e-05,0.0003899743800898543,-0.0017212169591826663,0.2411382496356964,-50.72995376586914,-6.495865821838379,17.15705108642578,1.5910745859146118,-1.3217880725860596,0.07969819009304047,,,,,,,,,
1739302556.9033048,-0.102164266486654,1.0543007053053548,-0.3593687962005509,-1.455840269270194,1.5440659580825407,1.1657648722586775,1.366710058112295,0.0009754791001513516,0.0001885691188797338,0.00031854665630938483,0.0012861219381368155,-0.00018481398690433162,-0.001673284681767255,-0.0022544610799592234,0.1935308277606964,-50.70218276977539,-6.547440528869629,17.10944366455078,1.5974832773208618,-1.3217880725860596,0.07969819009304047,,,,,,,,,
1739302556.9142492,-0.10216777110297351,1.0543005027937649,-0.35937265769536375,-1.4558408840028085,1.5440654862732712,1.165761929893822,1.3667163334312502,-0.0007096374046485425,-0.00034920557781888497,-0.0005503897290705584,0.0003256331046944784,-0.0005009602226146118,-0.001702689675358811,0.0011014193825570093,0.2411382496356964,-50.67837905883789,-6.495865821838379,17.15705108642578,1.5910745859146118,-1.3153793811798096,-0.0008682189509272575,,,,,,,,,
1739302556.9243317,-0.10216770339220871,1.054299967980511,-0.3593670135235263,-1.4558393220446235,1.544069084883788,1.1657666235902362,1.3667101012758205,-0.0009751314367748706,-0.0007060871037796624,0.0006636692211028118,0.001317237094451397,0.001022885404697768,0.0011909636355662513,-0.0007992364781172685,0.2411382496356964,-50.70218276977539,-6.571244239807129,17.13324737548828,1.5974832773208618,-1.3281967639923096,0.07969819009304047,,,,,,,,,
1739302556.9352841,-0.10216769167257762,1.054302067947905,-0.35937265477917857,-1.4558420047047447,1.5440631958435829,1.1657652206959073,1.3667156273129222,-0.0005257484543949931,0.0008954021118575055,5.0216215797555045e-05,-0.0010234987718948517,-0.0002981816578763316,-0.0006638886332281059,0.0013103086777562136,0.2411382496356964,-50.72995376586914,-6.495865821838379,17.13324737548828,1.5846658945083618,-1.3153793811798096,0.03300629183650017,,,,,,,,,
1739302556.9453056,-0.10216597915178027,1.0543036740342966,-0.359368796200485,-1.455838232171999,1.5440640674774762,1.1657638137136728,1.3667176320294805,0.00011618883317378943,0.0010079951243574872,0.0004896599691932485,3.635803131925796e-05,-0.0004778473847963778,-0.00012907274019469524,0.001045567768040306,0.2173345386981964,-50.75375747680664,-6.547440528869629,17.10944366455078,1.5773416757583618,-1.3153793811798096,0.026597600430250168,,,,,,,,,
1739302556.9553137,-0.10216769178102303,1.0543029328467148,-0.35936879620055084,-1.4558391047555856,1.5440656041000032,1.1657652265406844,1.366713958166751,-3.4562210413597e-05,0.0007485576727370852,0.0007499313022838893,-0.0005695526281046345,-0.0009293306829573861,-0.0006715466272988805,-0.00040416907260263307,0.2411382496356964,-50.72995376586914,-6.547440528869629,17.13324737548828,1.5910745859146118,-1.3153793811798096,0.04673920199275017,,,,,,,,,
1739302556.967233,-0.10216769156425287,1.0542994233077958,-0.3593708759904064,-1.4558393008040378,1.54406802445526,1.1657659318968805,1.3667160531490854,-0.0002162539384279647,-0.0015036341429806254,0.001283416190510183,0.0012138847602713085,0.0013310177689392871,0.000452841015978269,0.002211502170457528,0.2411382496356964,-50.65060806274414,-6.519669532775879,17.10944366455078,1.5709329843521118,-1.3217880725860596,0.03300629183650017,,,,,,,,,
1739302556.977292,-0.10216598012838374,1.0543023477744973,-0.3593747472875988,-1.455843761461986,1.544067240631498,1.1657641106848546,1.366717963472581,0.0009654291530233818,0.0004115290302527711,-0.0017761979090518687,-0.0009493333072595426,-0.0003374850560899753,-5.667868381609647e-05,0.0005693228811512326,0.2173345386981964,-50.70218276977539,-6.468094825744629,17.15705108642578,1.5773416757583618,-1.3089706897735596,0.012864691205322742,,,,,,,,,
1739302556.9873028,-0.10216608462503654,1.0543022187218158,-0.35937485325156127,-1.4558411718341984,1.544064841971506,1.165766439254628,1.3667124433213418,6.167905495905622e-05,0.0005171023219934591,-0.0006863277312052471,-0.0007027273915853082,-0.0008386340231594064,-0.0005131169041724651,-0.0004317938747230522,0.2173345386981964,-50.70218276977539,-6.468094825744629,17.13324737548828,1.5974832773208618,-1.3346054553985596,0.05955658480525017,,,,,,,,,
1739302556.9973922,-0.10216598013017053,1.0542984904880954,-0.35937480443658143,-1.4558420887927053,1.5440640886717831,1.165765226546655,1.3667195869733981,0.0011525832199313173,-0.0003324356643983554,-0.0014395155305555114,-0.0009122827180523801,-0.0007236464201091661,0.001152828080491288,0.0017027730263719583,0.2173345386981964,-50.67837905883789,-6.495865821838379,17.13324737548828,1.6038919687271118,-1.3153793811798096,-0.0008682189509272575,,,,,,,,,
1739302557.0082884,-0.10216593538856752,1.0543031732291377,-0.35937302176973124,-1.4558395036745868,1.5440640886718568,1.1657659798640387,1.3667139986779777,0.000156010526368682,0.000744728136755976,-0.0003652687324158469,0.001280781734709582,0.000296934076130522,0.0005733953740370086,-0.001034479601111907,0.2173345386981964,-50.70218276977539,-6.519669532775879,17.10944366455078,1.6038919687271118,-1.3217880725860596,0.07328949868679047,,,,,,,,,
1739302557.0183308,-0.10216769167177034,1.0543043756223676,-0.3593748045799926,-1.4558400231301643,1.5440703134948104,1.165766741884694,1.3667135850445546,-0.0002729352666626574,9.750274899634516e-05,-0.0006714973095177934,0.0006418722165873017,0.0023251352335206584,0.000553769295816135,0.0008825217937774265,0.2411382496356964,-50.72995376586914,-6.495865821838379,17.13324737548828,1.5910745859146118,-1.3281967639923096,0.019273381680250168,,,,,,,,,
1739302557.0292606,-0.10216596745978547,1.0542982701778927,-0.3593708760388589,-1.4558419763294796,1.5440682268483221,1.1657652249495554,1.3667132004091693,0.00027174080998377365,-0.0021742693247290465,-5.0604491758693464e-05,-0.0006463126799014197,0.0019004932848053465,0.0014381117187799387,-0.0002136074383188248,0.2173345386981964,-50.67837905883789,-6.519669532775879,17.13324737548828,1.6038919687271118,-1.3153793811798096,0.05314789339900017,,,,,,,,,
1739302557.0392675,-0.10216485051757916,1.0543020449095324,-0.3593708497447406,-1.4558390168167126,1.5440663617221722,1.1657609865585161,1.3667116856608124,0.0008807079116885082,0.0016937871733128825,-0.0002488185980221379,0.0014320325596299719,0.0009928192678976047,-0.001389326366430377,-0.0008759882309931096,0.2411382496356964,-50.72995376586914,-6.519669532775879,17.13324737548828,1.5846658945083618,-1.3153793811798096,0.06596527993679047,,,,,,,,,
1739302557.0492816,-0.10216597910366507,1.0542999822141044,-0.35937473845683654,-1.4558381503897866,1.5440648288893333,1.1657594706820653,1.366717205756119,-0.0003914849844255241,-0.0006349577265273537,-0.0007119644987724383,0.0016217959771681588,-0.0008911286734609371,-0.0011981989376797107,0.0003454142644232999,0.2173345386981964,-50.70218276977539,-6.468094825744629,17.08167266845703,1.5974832773208618,-1.3025619983673096,0.019273381680250168,,,,,,,,,
1739302557.0593097,-0.10216745393528323,1.054301182825002,-0.3593726704411825,-1.455837310039861,1.5440679661514485,1.1657648731185815,1.3667109375011597,-0.00025873674104168296,-0.0002755333025934233,9.402469566329558e-05,0.0009768029632255325,-0.0010665956729716847,-8.628813216236357e-05,0.00015138338949823374,0.2411382496356964,-50.67837905883789,-6.495865821838379,17.10944366455078,1.5709329843521118,-1.3153793811798096,0.07328949868679047,,,,,,,,,
1739302557.0693932,-0.10216597913970196,1.0543019531577427,-0.35936871746414917,-1.455839584145914,1.544065604475562,1.165760174738749,1.36671558220479,0.0004756034636641909,0.0003433856712210703,0.0012003964782095066,0.001604441007585446,-0.00045312414187575074,-0.0011974297281237565,-0.00035547265588170123,0.2173345386981964,-50.72995376586914,-6.547440528869629,17.10944366455078,1.5910745859146118,-1.3025619983673096,0.03300629183650017,,,,,,,,,
1739302557.0802896,-0.10216769156425223,1.054302906791678,-0.3593718384948924,-1.455838206347336,1.5440656432378712,1.1657652263785059,1.366716379320084,-0.0005513900393803075,6.658143648638622e-05,-0.00045307392388554285,6.096001197862614e-05,0.0008912958736020589,-0.00015220823394516758,0.0009900472126294294,0.2411382496356964,-50.72995376586914,-6.519669532775879,17.10944366455078,1.5910745859146118,-1.3153793811798096,0.026597600430250168,,,,,,,,,
1739302557.0902972,-0.10216765627174762,1.054299954865617,-0.35936879621685097,-1.455842945433208,1.5440657348122004,1.1657667418847648,1.3667100621041794,0.00020159024822451665,-0.0016657806902181322,0.0009872524582470845,-0.0013453736432488634,0.0011192929074081786,0.0014212829153352536,-0.002739155199315663,0.2411382496356964,-50.70218276977539,-6.547440528869629,17.15705108642578,1.5910745859146118,-1.3281967639923096,0.07969819009304047,,,,,,,,,
1739302557.100309,-0.10216384828513003,1.0543000346493696,-0.35937180341905645,-1.4558381600374224,1.5440633004774893,1.1657659390031263,1.3667163398588866,0.000932588637114708,-0.001848435273539751,-0.0006855821036880805,-0.00016064962094828396,0.002391156787425021,-0.0004141852289544531,-2.8716939106000132e-05,0.2173345386981964,-50.70218276977539,-6.519669532775879,17.10944366455078,1.5846658945083618,-1.3217880725860596,0.026597600430250168,,,,,,,,,
1739302557.111264,-0.10216769166048266,1.054302824703177,-0.35937087893908104,-1.4558392977293242,1.5440656039747331,1.1657647556140762,1.3667176767063987,-0.0004582192028085406,-0.0005562972366267658,-0.0005929002634278422,0.0007757004888928885,-0.00037377949388134617,-0.0005223761089009669,0.001444889223659269,0.2411382496356964,-50.70218276977539,-6.519669532775879,17.13324737548828,1.5910745859146118,-1.3153793811798096,0.019273381680250168,,,,,,,,,
1739302557.1213405,-0.10216597915177966,1.0542991960398371,-0.35937257960655483,-1.455839355052585,1.5440662439145212,1.1657667026149845,1.3667149423002265,0.0007154021203998112,-0.0011847953847723691,-0.0005299802938447119,0.0010552439445770782,-0.0002651974490062469,0.002078960070591318,-0.0007358304404784748,0.2173345386981964,-50.67837905883789,-6.495865821838379,17.10944366455078,1.5846658945083618,-1.3281967639923096,0.03941498324275017,,,,,,,,,
1739302557.131361,-0.10216811498488472,1.0543024271257793,-0.3593708788253925,-1.4558392964413336,1.5440655909093968,1.1657659842244679,1.3667154626895825,-7.81978660033076e-05,-0.0013365916937733923,-0.0004324169371870733,0.0003428783604131423,-0.0006174403109863464,-0.00021819703047851354,0.00046846144469627914,0.2173345386981964,-50.70218276977539,-6.519669532775879,17.13324737548828,1.5910745859146118,-1.3217880725860596,0.0064559997990727425,,,,,,,,,
1739302557.1422815,-0.10216669110820525,1.0542985974086707,-0.3593719500344425,-1.4558358208103124,1.544068378458959,1.16576446389786,1.3667179764796458,0.00044727623676783654,-0.0008033239007337527,0.0004493409567275581,0.0012995616171849957,-0.00033165312464157414,0.00013853836248201728,0.0019272652109945053,0.2173345386981964,-50.67837905883789,-6.495865821838379,17.08167266845703,1.5974832773208618,-1.3089706897735596,0.012864691205322742,,,,,,,,,
1739302557.1532671,-0.10217182448419311,1.054304822976643,-0.35937480442263664,-1.455842843073867,1.544065908936982,1.1657649245864756,1.366712852020565,-0.0016238733244941222,0.0011311548009345124,-0.0006166681810809392,-0.0012027475369628103,0.000640964560432859,0.0001539627165468935,0.00034784967303931136,0.2689092457294464,-50.72995376586914,-6.495865821838379,17.15705108642578,1.5974832773208618,-1.3217880725860596,0.05314789339900017,,,,,,,,,
1739302557.1643436,-0.1021659791557974,1.054300206076794,-0.35937084985779366,-1.4558420642413141,1.5440659572067228,1.1657602127459132,1.3667163791040866,0.0011400783440703285,-0.000829035570012464,0.0004002441978681649,-0.0018609073606227992,0.00043751331571787724,-0.0010147911000208643,0.0006616200202694279,0.2173345386981964,-50.70218276977539,-6.519669532775879,17.13324737548828,1.5910745859146118,-1.3089706897735596,0.026597600430250168,,,,,,,,,
1739302557.1753266,-0.10216384828572957,1.0543030163544458,-0.35937473834912664,-1.4558381519696226,1.5440640886738508,1.1657651870793877,1.366717963416309,0.0005440471859916684,-0.00032905648261240765,-0.0012612174399561271,0.0019174633187613163,-0.0010467658913505518,-0.00011131236491807138,0.002040398633010773,0.2173345386981964,-50.72995376586914,-6.468094825744629,17.10944366455078,1.6038919687271118,-1.3153793811798096,0.012864691205322742,,,,,,,,,
1739302557.1872296,-0.10216769162439626,1.0543044194347453,-0.3593730305519332,-1.4558435621710701,1.5440648873543532,1.1657641276804023,1.3667155821988084,-0.00017447760308166122,-0.00010034123662086032,-0.00024037857801043034,-6.251362347860592e-05,0.0006720081052917282,-0.0012471037139395878,-9.39669163411118e-05,0.2411382496356964,-50.72995376586914,-6.519669532775879,17.15705108642578,1.5974832773208618,-1.3153793811798096,0.03300629183650017,,,,,,,,,
1739302557.1973417,-0.10216573264555648,1.054304631136429,-0.3593726675099058,-1.4558392208953364,1.5440648463860018,1.1657628009434475,1.36671082121714,0.0001339177825527799,9.56178807119555e-05,-0.0009911491290846997,-0.0005109985236794053,-0.0009567827104706931,-3.0621579061691416e-05,-0.000924004055625285,0.2173345386981964,-50.75375747680664,-6.495865821838379,17.13324737548828,1.5974832773208618,-1.3217880725860596,0.07328949868679047,,,,,,,,,
1739302557.2083998,-0.1021641877086927,1.0543022715593335,-0.3593786659295002,-1.4558372104702353,1.5440656579887138,1.165765978392519,1.366710509827655,0.0023714820478780057,0.0008865312209774617,-0.0016890994534347345,0.0009517670365214279,0.0018043661153698577,3.7434612278958092e-06,-0.002499135738044749,0.1935308277606964,-50.72995376586914,-6.444291114807129,17.10944366455078,1.5910745859146118,-1.3217880725860596,0.07328949868679047,,,,,,,,,
1739302557.2193131,-0.1021679299634594,1.0542994614597567,-0.3593746481039866,-1.455839219899807,1.5440652009984999,1.1657659667820537,1.366722161739852,-0.0005261459349066714,-0.00044339141638674356,-0.00029428659361707856,4.6257554191484113e-05,-8.186049384345561e-05,0.0013680432474662365,0.0021853971328909937,0.2411382496356964,-50.65060806274414,-6.468094825744629,17.13324737548828,1.5974832773208618,-1.3217880725860596,0.012864691205322742,,,,,,,,,
1739302557.23029,-0.10216600942785165,1.0543020676389425,-0.3593687962000408,-1.4558425556668637,1.5440657346520323,1.1657659784103902,1.366715541995505,-0.0005531468590470121,0.0007457366651246018,0.00040554527644513,-0.0004420823189100428,0.000563033027306757,0.00032635984858001325,0.0008525284736469565,0.2173345386981964,-50.72995376586914,-6.547440528869629,17.18085479736328,1.5910745859146118,-1.3217880725860596,0.03300629183650017,740,755,729,40.631,0,0
1739302557.2412632,-0.10216427542065662,1.0543065263346414,-0.35937087595440415,-1.4558378965042733,1.5440674212909589,1.1657630876594165,1.3667179764978126,-3.5751194050387294e-05,0.001598362474236563,-0.0004893087832446923,-0.00040099227476850523,0.0014669021499058217,-0.001768936937152302,0.0013485809311183981,0.1935308277606964,-50.75375747680664,-6.519669532775879,17.10944366455078,1.5846658945083618,-1.3281967639923096,0.012864691205322742,740,753,729,40.631,0,0
1739302557.2513196,-0.10216769167266032,1.0543051405834714,-0.359374423401274,-1.4558372076461767,1.544063182755649,1.1657627878058139,1.366711290714091,-0.00026722018412890557,0.0007397345646851985,-0.000491053505524999,0.0005549223771799916,-0.0009995708492574376,5.029405218702349e-05,-0.001015483400662707,0.2411382496356964,-50.72995376586914,-6.468094825744629,17.10944366455078,1.5846658945083618,-1.3217880725860596,0.07328949868679047,740,752,728,40.631,0,0
1739302557.2632382,-0.1021696906261391,1.0543030133185671,-0.35937016443944375,-1.4558378963992948,1.5440648469600124,1.1657667411668664,1.366710806302066,-0.0006554291210149165,0.0014241725337187116,1.1561299497726634e-05,0.00025232079295522253,0.0009115961762039537,0.001554207616788824,-0.000499278944533416,0.2689092457294464,-50.72995376586914,-6.519669532775879,17.10944366455078,1.5974832773208618,-1.3281967639923096,0.07328949868679047,739,754,728,40.522,0,0
1739302557.2732527,-0.10216759246160993,1.0543044196164217,-0.35937095448718764,-1.4558389904553892,1.5440656046918748,1.1657644115162118,1.3667195869733222,-0.0011268894445545224,-0.00012730369761351383,-6.819603376439462e-05,-0.0001231061545913981,-0.0004489520565959257,-3.0868102888590365e-05,0.0006190647363996638,0.2689092457294464,-50.72995376586914,-6.519669532775879,17.13324737548828,1.5910745859146118,-1.3089706897735596,-0.0008682189509272575,740,753,728,40.631,1,0
1739302557.2832716,-0.10216621632279499,1.0543023433286622,-0.359371710908571,-1.4558389934608909,1.5440683384221243,1.1657651737513137,1.3667093552813527,0.0003191375800225381,-0.0011781235083171196,0.00029249228743493413,-0.0004472026173695517,0.0013853340968261684,0.0005042495074982701,-0.0008624755078444861,0.2173345386981964,-50.70218276977539,-6.495865821838379,17.13324737548828,1.5709329843521118,-1.3153793811798096,0.08610688149929047,739,753,730,40.631,0,0
1739302557.293303,-0.10216556081047726,1.0543023773404112,-0.3593708409801339,-1.455841056605935,1.5440656563258042,1.1657636959753077,1.366715253730665,0.000740137165230344,-0.0007264242502143379,0.00043606517617809806,-0.001535791310153941,-0.00022298197432682915,-0.0009414424473528416,0.00011074840180240854,0.2411382496356964,-50.70218276977539,-6.519669532775879,17.13324737548828,1.5910745859146118,-1.3153793811798096,0.026597600430250168,739,753,729,40.631,0,0
1739302557.3033075,-0.10216840249820117,1.054302339076277,-0.3593726910719184,-1.4558329822174145,1.544066714865688,1.165761692833926,1.3667108720730048,-0.00010626067974400089,-8.31578142510264e-05,-0.0008338816993440421,0.0014171179149853868,0.0003968658342144751,-0.0015942454336233662,-0.0009493810876892151,0.2411382496356964,-50.70218276977539,-6.495865821838379,17.08167266845703,1.5846658945083618,-1.3217880725860596,0.07328949868679047,739,754,724,40.522,0,0
1739302557.3143685,-0.10216313810957017,1.0542983346062893,-0.35937087631763814,-1.4558389902630786,1.5440663616540857,1.1657601910280986,1.3667155820335604,0.001233428196580152,-0.0010464742805881477,0.0009344079743106155,0.0005719979652553187,0.0017502392481095102,-0.0021270253209360055,0.00049021198141763,0.2173345386981964,-50.67837905883789,-6.519669532775879,17.13324737548828,1.5846658945083618,-1.3089706897735596,0.03300629183650017,738,751,728,40.631,1,0
1739302557.3262722,-0.1021659703667464,1.0543014340348795,-0.3593726589944761,-1.4558389903115292,1.5440648857392973,1.1657674601133354,1.3667163398588857,0.00046425613901810803,-0.00036961045020441713,-0.00014740592292165558,0.00046148523634374213,-0.0010444943172366987,0.0011716236958516238,0.0018114506260597189,0.2173345386981964,-50.67837905883789,-6.495865821838379,17.13324737548828,1.5974832773208618,-1.3346054553985596,0.026597600430250168,738,754,729,40.740,0,0
1739302557.3372874,-0.10216669992173905,1.0543028285606402,-0.3593687413428545,-1.455836493323581,1.5440689515183041,1.1657620345681967,1.3667167061535486,-2.6985215459587332e-05,0.00038124304268732467,0.00048243834599418254,0.000533394978840624,0.0014916119113711388,-0.0002685943141655829,0.0002798186756435356,0.2173345386981964,-50.70218276977539,-6.519669532775879,17.10944366455078,1.5910745859146118,-1.3153793811798096,0.026597600430250168,738,752,728,40.631,0,0
1739302557.3473487,-0.10216770004111757,1.0543048181135641,-0.35936903458297953,-1.4558372080423283,1.5440680253030137,1.165764910804529,1.366712443327544,-5.185238128006928e-05,0.0005769188087444007,0.0007676785163353593,0.00010627447862809636,-0.0002969250676500101,-0.0012891288473564422,0.00022348554747770276,0.2411382496356964,-50.72995376586914,-6.547440528869629,17.10944366455078,1.5974832773208618,-1.3217880725860596,0.05955658480525017,738,756,728,40.740,1,0
1739302557.358242,-0.10216526788881103,1.054304932257443,-0.3593727392681323,-1.4558389912563396,1.5440673453048395,1.1657641669204224,1.3667139586414976,0.0006301657379394548,0.0013196487993647613,-0.0006822713410012727,-0.00023429826656404663,0.0005121436131625511,-0.0009493941655290184,0.0002667194211980309,0.2173345386981964,-50.72995376586914,-6.495865821838379,17.13324737548828,1.5773416757583618,-1.3153793811798096,0.04673920199275017,739,753,728,40.631,0,0
1739302557.3682952,-0.10216645235072336,1.0543026713588992,-0.3593726586715204,-1.455837198804241,1.5440694936984545,1.1657667403773821,1.3667100751854635,0.00020285263954313896,-6.67552648938273e-05,-4.6021423741937953e-05,0.0007484971914034911,0.0005818973806635261,0.001239084064932901,-0.0018733334423714932,0.2173345386981964,-50.72995376586914,-6.495865821838379,17.10944366455078,1.5910745859146118,-1.3281967639923096,0.07969819009304047,738,751,724,40.522,1,0
1739302557.3793066,-0.1021659791544515,1.0543069628391881,-0.3593747384572811,-1.4558408523523423,1.5440648468384093,1.1657644689045246,1.3667116179451793,0.0005143064280257362,0.0010744302572008428,-0.00037857854135259596,-0.0004763423597644557,-0.0008321047840723386,-0.0002993461727808271,-0.0020592574034902283,0.2173345386981964,-50.75375747680664,-6.468094825744629,17.15705108642578,1.5974832773208618,-1.3089706897735596,0.09343110024929047,737,753,728,40.631,0,0
1739302557.3893301,-0.10216597926029185,1.0543030929377004,-0.35937087599040646,-1.4558407730939753,1.544067227549327,1.1657652264031055,1.3667192264557038,0.00018074714756647055,0.0005836492703404475,0.0008501896165404951,5.7999698710912246e-05,0.0005045078733464604,0.000321224650288316,0.0002705237463158504,0.2173345386981964,-50.70218276977539,-6.519669532775879,17.15705108642578,1.5773416757583618,-1.3153793811798096,-0.0008682189509272575,740,753,728,40.631,0,0
1739302557.4003143,-0.10216597492967165,1.0543041380754672,-0.3593660424338665,-1.4558425555565522,1.5440656041535192,1.1657659444943154,1.3667115649777777,0.00033140917624760517,-0.0004450488007095271,0.001983957334411597,-0.0007235215117164933,0.00018797643199586266,0.0006553182373587171,-7.524563997978617e-05,0.2173345386981964,-50.72995376586914,-6.571244239807129,17.18085479736328,1.5910745859146118,-1.3217880725860596,0.06596527993679047,735,753,727,40.631,1,0
1739302557.4113026,-0.10216900569296704,1.0542985896668957,-0.35937087892836383,-1.4558425556655672,1.5440677234297786,1.1657609835973834,1.366713200980738,-0.0013162196678159217,-0.0006818740393153877,0.0005147343175207227,-0.0005950516523602508,0.0010133760692303494,-0.0011560409619564506,-0.0007461556764955697,0.2689092457294464,-50.67837905883789,-6.519669532775879,17.18085479736328,1.5910745859146118,-1.3153793811798096,0.05314789339900017,739,751,728,40.631,1,0
1739302557.422273,-0.1021679289834401,1.0543031733750525,-0.359370875990423,-1.4558372076695036,1.5440667177838663,1.1657665834238393,1.3667179634160873,-0.00037958772875970067,5.573007041221185e-05,0.0007668215848415804,0.0006773692396567985,0.0009779404038187506,0.0005232653033934687,0.001721355305732201,0.2411382496356964,-50.70218276977539,-6.519669532775879,17.10944366455078,1.5846658945083618,-1.3281967639923096,0.012864691205322742,738,751,727,40.631,1,0
1739302557.4323254,-0.10216526930116183,1.054305064387154,-0.3593726586674255,-1.45583899031153,1.5440642450152922,1.1657643069117498,1.3667108197635898,-0.00039387558329894725,0.0011138882026399547,0.0002733997769139502,-0.00015550473615200003,-0.0011251212338679393,-0.0013448702534499682,-0.0017062897911508783,0.2173345386981964,-50.72995376586914,-6.495865821838379,17.13324737548828,1.6038919687271118,-1.3089706897735596,0.07328949868679047,738,753,727,40.631,1,0
1739302557.4432716,-0.10216761242276186,1.0542984839263443,-0.3593747374852193,-1.4558372082522695,1.5440673452877767,1.1657643451365067,1.3667144580260353,2.115402360515954e-05,-0.0019257319920341917,-0.0007455619053052095,0.0003722227085797037,0.001304460141377564,0.0007719675623240106,-0.0007656255676464338,0.2411382496356964,-50.67837905883789,-6.468094825744629,17.10944366455078,1.5773416757583618,-1.3089706897735596,0.03941498324275017,738,753,729,40.631,0,0
1739302557.4533634,-0.10216687810732777,1.054300785783737,-0.3593740386545504,-1.4558362624634946,1.5440631696617333,1.1657652120228206,1.3667116811725342,-0.0008727606034108725,0.00040211841381780557,-0.0011931773391867535,0.0013939330139571488,-0.0004764630284549912,0.0002093898073785671,-0.0019575459548342583,0.2411382496356964,-50.70218276977539,-6.468094825744629,17.10944366455078,1.5846658945083618,-1.3153793811798096,0.06596527993679047,738,754,728,40.740,1,0
1739302557.4642959,-0.10216621744164286,1.0543039050393812,-0.3593707972520897,-1.4558425553367405,1.5440672277766039,1.165764350682419,1.3667108184351977,0.0004476178599859246,-0.0013165820976730016,0.0001170785146580714,-0.00025898026178427277,-0.0009727258257512129,0.0011862313770655193,-0.0006921974156058559,0.2173345386981964,-50.75375747680664,-6.519669532775879,17.18085479736328,1.5773416757583618,-1.3089706897735596,0.07328949868679047,738,752,728,40.631,1,0
1739302557.4762878,-0.10216503242708201,1.05430317322909,-0.3593708759899619,-1.4558389903115276,1.544067985209404,1.1657659842240222,1.3667171382019003,0.002194461613681456,-0.0004068283510281777,0.0007069718621441502,-0.0003096393881273594,-0.0007429510079673086,0.0012948939645366126,0.0008028863186848053,0.2173345386981964,-50.70218276977539,-6.519669532775879,17.13324737548828,1.5709329843521118,-1.3217880725860596,0.04673920199275017,737,754,729,40.740,1,0
1739302557.4863462,-0.10216595273118849,1.0543029991102864,-0.3593708761357614,-1.4558372046910715,1.5440640486349362,1.1657641625119959,1.3667139491593436,0.000387214365870847,-0.00045748330456736255,0.0012158332695461004,1.8999527696780545e-05,-0.0012153964594034095,0.0002151738691558243,-0.0002519026297307864,0.2173345386981964,-50.72995376586914,-6.519669532775879,17.10944366455078,1.5773416757583618,-1.3153793811798096,0.019273381680250168,739,751,727,40.631,1,0
1739302557.4982274,-0.10216597915163111,1.0543031645486807,-0.35937264991887075,-1.4558410650727953,1.5440681822118045,1.165764468844691,1.3667179764796558,0.00042441706696370326,-0.0001192707388878287,-0.00038394861374114173,-0.0006262006406602871,0.0011991628103197073,-0.0006426286340449012,0.0020950374204723125,0.2173345386981964,-50.70218276977539,-6.495865821838379,17.13324737548828,1.5974832773208618,-1.3089706897735596,0.012864691205322742,737,752,731,40.957,1,0
1739302557.5082865,-0.10216384814138393,1.0543030899937653,-0.3593730593021627,-1.4558378934675675,1.544063483641436,1.1657666890724419,1.366710062103585,0.0013273391245742978,-9.650329041021528e-05,-2.4599265245932104e-05,-0.0004500573525490482,-0.00047856128229516003,1.7457627089067e-05,-0.0009666624141274276,0.2173345386981964,-50.70218276977539,-6.495865821838379,17.10944366455078,1.5846658945083618,-1.3281967639923096,0.07969819009304047,739,759,725,40.631,1,0
1739302557.5192938,-0.10216769184167093,1.0543050653678299,-0.3593687962028124,-1.4558425556694394,1.5440648462618536,1.165761726775721,1.3667179634160873,-0.00024463143788753,0.00018311939765696522,0.0011459615480685942,-0.0008027624890803592,-0.0009491827696662996,-0.0011658904314505985,0.0005284028591782096,0.2411382496356964,-50.72995376586914,-6.547440528869629,17.18085479736328,1.5974832773208618,-1.3217880725860596,0.012864691205322742,738,751,727,40.631,1,0
1739302557.5293226,-0.10217253739083998,1.054302909352064,-0.3593708763174553,-1.4558372085793185,1.5440598501193383,1.1657643510948628,1.3667124434828464,-0.002087434256006868,0.00040387213465222996,0.00033336743908443883,-0.00023564740585687915,-0.0018764829826746984,0.0003174193800260424,-0.0003748925735704625,0.2689092457294464,-50.70218276977539,-6.519669532775879,17.10944366455078,1.6038919687271118,-1.3089706897735596,0.05955658480525017,738,752,726,40.522,1,0
1739302557.5402696,-0.1021659528970383,1.0543010187922404,-0.35937481404189564,-1.455837207634516,1.5440641911172477,1.1657652133204883,1.3667132140633722,6.801585261393993e-05,-0.0005688160795234272,-0.00011490048398726718,-0.0003879637795653612,-0.000998233365299927,0.001192812366545923,0.00018668714043438824,0.2173345386981964,-50.70218276977539,-6.468094825744629,17.10944366455078,1.5910745859146118,-1.3153793811798096,0.05314789339900017,738,753,726,40.740,1,0
1739302557.5503023,-0.10216321710064188,1.05430293388207,-0.359372659652412,-1.4558371958607537,1.5440692044883078,1.165766739946028,1.3667108372068573,0.000678316402478588,-9.041948282887753e-06,-0.00047902268576379027,-0.0003036220168135947,0.0024025529828412087,0.0019290258489511247,-0.00016886103943899902,0.2173345386981964,-50.70218276977539,-6.495865821838379,17.10944366455078,1.5974832773208618,-1.3281967639923096,0.07328949868679047,737,753,725,40.740,1,0
1739302557.5603049,-0.10216258043185222,1.054305169910846,-0.3593708756664025,-1.4558387518927511,1.544066380622051,1.16576586600257,1.3667140763793628,0.0005776192306753777,0.0011063552225028593,0.001160888807507795,0.001168953835340803,0.0009002273715096154,0.00031423850863925457,5.786938976576271e-05,0.1697271168231964,-50.72995376586914,-6.519669532775879,17.13324737548828,1.5846658945083618,-1.3217880725860596,0.04673920199275017,738,751,726,40.631,1,0
1739302557.5703075,-0.1021659839357747,1.0543010271879756,-0.3593726851583769,-1.4558425293132402,1.5440662831604857,1.1657652206959075,1.3667148245393945,-0.0008544870659890353,-0.00013179470417689715,-4.8598909061768595e-05,-0.0009752511749260206,-6.64836639624022e-06,0.00024396266819512772,0.0002675584145306379,0.2173345386981964,-50.70218276977539,-6.495865821838379,17.18085479736328,1.5846658945083618,-1.3153793811798096,0.03941498324275017,737,753,724,40.740,1,0
1739302557.5803282,-0.10216769167259249,1.05430305169246,-0.35937473845772966,-1.4558372077390431,1.5440648062936855,1.1657635484467275,1.3667163797302637,-9.114597266323971e-06,0.0011712394756277589,-0.0015195909775018103,0.0010900396915294016,0.00012384067478456498,-0.00018743137940387838,-3.749495905686518e-05,0.2411382496356964,-50.72995376586914,-6.468094825744629,17.10944366455078,1.5709329843521118,-1.3025619983673096,0.05314789339900017,737,752,723,40.631,1,0
1739302557.5913267,-0.10216803446054057,1.0543024315235885,-0.3593729795023035,-1.45583899031153,1.5440655908921164,1.1657620083496123,1.3667132008338199,-0.0020064119866964733,-4.015919034831584e-05,-5.7539290626489135e-06,-0.00031494323658331987,-5.052711129987311e-05,-0.0008353138145517859,-0.0012190432189070424,0.2411382496356964,-50.70218276977539,-6.495865821838379,17.13324737548828,1.5910745859146118,-1.3153793811798096,0.05314789339900017,736,752,726,40.631,1,0
1739302557.6013925,-0.10216597915758541,1.0543051610720209,-0.35937119980141113,-1.455840771571337,1.5440672231884516,1.165766741830267,1.366716339858884,0.0006997369700708091,0.00030398798681589704,-0.0003831641739255753,-0.001405158598527779,-5.520540798695944e-05,0.0017113839178003964,0.000979115580131099,0.2173345386981964,-50.72995376586914,-6.519669532775879,17.15705108642578,1.5773416757583618,-1.3281967639923096,0.026597600430250168,736,753,725,40.740,1,0
1739302557.6122422,-0.10217040448754491,1.054304738085575,-0.3593715941914109,-1.4558372070732708,1.5440656046380112,1.1657641625658308,1.366709317470204,-0.0011595947273938445,0.0009753477841310042,-0.00018206329374986744,0.0009665580741898848,0.00012177260755555697,-4.013787802898449e-05,-0.0012557645143526583,0.2689092457294464,-50.75375747680664,-6.519669532775879,17.10944366455078,1.5910745859146118,-1.3153793811798096,0.08610688149929047,738,753,726,40.631,1,0
1739302557.6222973,-0.10216969060207505,1.0543049318960493,-0.3593726586795883,-1.4558407690639534,1.5440656039920244,1.1657658214090432,1.366716119627257,-0.0003513415501992011,0.0006698685072823558,-0.0009672216938020135,-0.0010974864958100499,6.726647396224111e-05,0.00047938200306719514,-0.001300531441179571,0.2689092457294464,-50.72995376586914,-6.495865821838379,17.15705108642578,1.5910745859146118,-1.3217880725860596,0.019273381680250168,738,752,726,40.522,1,0
1739302557.6332965,-0.10216840654669741,1.0543014608691776,-0.3593726585234164,-1.4558407729885265,1.544065657288856,1.1657654604611651,1.3667138374577275,-0.001121508762249277,-0.0002950845498046129,0.00014926483191343227,-0.0007342101334592582,0.0010962706651641983,-1.288489750964683e-05,0.000454889967970171,0.2411382496356964,-50.67837905883789,-6.495865821838379,17.15705108642578,1.5910745859146118,-1.3217880725860596,0.04673920199275017,738,755,726,40.631,1,0
1739302557.6442478,-0.1021677268423645,1.0543014255492584,-0.3593726586674231,-1.4558372107838695,1.5440656039929161,1.165766322160277,1.3667199401840555,-0.0004093421111052461,-0.00031847183426664613,-0.0005400013581055036,0.00012198006625509846,6.278108801394651e-05,0.0005604737701119392,0.0025732108819040674,0.2411382496356964,-50.67837905883789,-6.495865821838379,17.10944366455078,1.5910745859146118,-1.3346054553985596,-0.0008682189509272575,738,752,725,40.631,1,0
1739302557.6562226,-0.10216769167257764,1.05430049803878,-0.35937087566638587,-1.4558399379536184,1.544066479443497,1.1657658599708456,1.3667124433220055,-3.305838479405852e-05,-0.00039417202667539034,0.001089671798353098,-0.0008884052450276197,-0.0008230344855948971,-0.0003513353449721463,0.0003300282316910964,0.2411382496356964,-50.67837905883789,-6.519669532775879,17.13324737548828,1.5846658945083618,-1.3217880725860596,0.05955658480525017,737,754,725,40.631,1,0
1739302557.666295,-0.10216898066299022,1.0543014343741408,-0.3593729778670577,-1.4558403442948955,1.544066401060119,1.1657659842239882,1.3667116987427743,-0.0010523909279898521,-0.0008549074698034115,-0.0009904253255353654,0.0009124585195511147,0.00020010241459894135,0.0008082211340740914,-0.001149629452884435,0.2689092457294464,-50.67837905883789,-6.495865821838379,17.13324737548828,1.5846658945083618,-1.3217880725860596,0.06596527993679047,738,754,726,40.631,1,0
1739302557.676298,-0.10216769166050532,1.054300745505327,-0.35937264992427564,-1.4558389903344593,1.5440672806688645,1.1657609486047316,1.3667116722520427,0.00037304671867667967,-0.0016765696035513085,-0.0001895221356704115,-0.00036597392217089673,-0.00013363794314094838,-0.00056567899578032,-0.0002469911654821736,0.2411382496356964,-50.67837905883789,-6.495865821838379,17.13324737548828,1.6038919687271118,-1.3153793811798096,0.06596527993679047,739,753,726,40.740,1,0
1739302557.6873403,-0.1021676916725114,1.054305161516611,-0.35937158789788176,-1.4558407730235416,1.544065969658672,1.1657640055582552,1.3667166930715207,0.00018333358103617045,0.0003116048555668767,0.00020956057733275508,-0.0011724162627059285,-0.0008114330506304886,0.00027393559822685314,0.0009563206732910301,0.2411382496356964,-50.72995376586914,-6.519669532775879,17.15705108642578,1.5910745859146118,-1.3153793811798096,0.026597600430250168,738,753,726,40.631,1,0
1739302557.698361,-0.10216597817744737,1.0543014610521677,-0.35937098645041904,-1.4558407729885487,1.5440670648120751,1.1657627486149493,1.3667108197655837,-4.771396830553391e-05,-0.0002620193860874591,0.0005604532046320236,-0.0008942172169316544,0.0013939670919929283,-0.0005379087083438762,-0.0005641173501389869,0.2173345386981964,-50.67837905883789,-6.547440528869629,17.15705108642578,1.5910745859146118,-1.3217880725860596,0.07328949868679047,737,753,725,40.740,1,0
1739302557.7092497,-0.10216597915177478,1.0543014345976096,-0.35937087603910917,-1.4558389903115296,1.5440659751400896,1.1657652084038856,1.3667136581456136,-0.0005403483626885056,-0.00012828882210895768,0.0003815729581816141,-9.364771238339984e-05,0.0009910490935565233,-0.0002943444218771625,-0.00013617666774180998,0.2173345386981964,-50.67837905883789,-6.519669532775879,17.13324737548828,1.5910745859146118,-1.3153793811798096,0.012864691205322742,740,754,726,40.631,1,0
1739302557.7192502,-0.10216762317168496,1.0542964164696096,-0.3593706397794076,-1.4558387517839342,1.544065603998299,1.165764467450675,1.366709941349592,-0.00043852119291457075,-0.002135679344508631,0.0007602555660038108,0.0002676874204203814,-0.000514589494654236,0.0004434691870791786,-0.0016782726269141102,0.2411382496356964,-50.65060806274414,-6.519669532775879,17.13324737548828,1.5910745859146118,-1.3089706897735596,0.07969819009304047,739,752,724,40.522,0,0
1739302557.7292562,-0.1021676916713514,1.0543031733396686,-0.3593726586634252,-1.4558389903074902,1.544064088671857,1.1657647541607565,1.3667179638985592,-0.00010728870107511388,-0.00021364817961148837,0.00018024670892097277,0.0003307844268822346,-0.001841874378350348,0.0007415911438061855,0.0005372412156562479,0.2411382496356964,-50.70218276977539,-6.495865821838379,17.13324737548828,1.6038919687271118,-1.3153793811798096,0.012864691205322742,739,754,726,40.522,1,0
1739302557.7392936,-0.10216762479633015,1.0543030674274467,-0.35937473845728096,-1.4558407729885487,1.5440656044765304,1.1657667024694054,1.3667116856608301,0.0004204330511695419,4.7217924551457995e-05,-0.0005270089536292025,9.44355853286285e-05,-7.101217945835721e-06,-0.0002944744728687504,-0.00045948701679194876,0.2411382496356964,-50.70218276977539,-6.468094825744629,17.15705108642578,1.5910745859146118,-1.3281967639923096,0.06596527993679047,739,753,727,40.740,1,0
1739302557.7503111,-0.10216768755853628,1.054302219716346,-0.3593736211720596,-1.4558389903115296,1.5440648594138902,1.1657612551256593,1.3667131334726774,-0.00044163292767952534,-0.0011223960322427511,-0.0010943958716102568,-4.620475904551735e-06,-0.0006545401127151752,-0.0011956520760723227,-0.0015794985005990441,0.2411382496356964,-50.70218276977539,-6.495865821838379,17.13324737548828,1.5974832773208618,-1.3217880725860596,0.07969819009304047,739,750,726,40.631,1,0
1739302557.7613015,-0.10216811509337306,1.0543011518040248,-0.3593747384627144,-1.4558389903115296,1.544064086249347,1.1657612443650394,1.366711881357124,-0.0008486297380861105,-0.001458885789436871,-0.00018605108805301194,0.0008545361015738241,-0.00033237391698255224,-0.0018257115532963547,-8.392654245924593e-05,0.2173345386981964,-50.67837905883789,-6.468094825744629,17.13324737548828,1.6038919687271118,-1.3089706897735596,0.07328949868679047,739,753,727,40.522,1,0
