IITGN-Robotics/Franka_IITGN_ROBOTICS/franka_ros/franka_iitgn/data01/s_b_003.csv
time,fr3_joint1_pos,fr3_joint2_pos,fr3_joint3_pos,fr3_joint4_pos,fr3_joint5_pos,fr3_joint6_pos,fr3_joint7_pos,fr3_joint1_vel,fr3_joint2_vel,fr3_joint3_vel,fr3_joint4_vel,fr3_joint5_vel,fr3_joint6_vel,fr3_joint7_vel,fr3_joint1_eff,fr3_joint2_eff,fr3_joint3_eff,fr3_joint4_eff,fr3_joint5_eff,fr3_joint6_eff,fr3_joint7_eff,flexpin1,flexpin2,flexpin3,Force,ContactMic,ContactMic_gt
1739302675.0786676,-0.0914262105751286,1.0562540999947296,-0.37316811040230735,-1.4499017253944817,1.5427858872333873,1.1622603077893943,1.3493072085219602,-0.0006197119622471462,0.00030250595208288254,-0.0006325862042161788,-0.0005511722392633521,0.0018332793821348957,-2.3295762627304487e-05,0.0007644733823443884,0.5902593731880188,-50.49985122680664,-6.420487403869629,17.35541534423828,1.6304422616958618,-1.2696030139923096,0.012864691205322742,,,,,,,,,
1739302675.0896587,-0.09142563870055394,1.0562520238893607,-0.3731663264419123,-1.4499011141089158,1.542787224242372,1.1622604216512724,1.3493017283908737,-0.0009997555074518223,-0.0015782253421734542,0.0010130522590051155,-0.0014774701489579634,0.00024867296463063093,0.0004929817505822498,-0.0001879182756013008,0.5426519513130188,-50.47208023071289,-6.444291114807129,17.35541534423828,1.6231180429458618,-1.2696030139923096,0.05955658480525017,,,,,,,,,
1739302675.100709,-0.0914269465489692,1.056256427694285,-0.37316813340693905,-1.4498997353541858,1.5427905986821966,1.1622579771986215,1.349307327769188,-0.0007645186097371864,0.0008159793056970924,0.00037600450635792904,-0.0007673686263387327,0.0011571334708247308,-0.0011300085534977039,0.0007361175954958186,0.5664556622505188,-50.52365493774414,-6.420487403869629,17.35541534423828,1.6304422616958618,-1.2622787952423096,0.03941498324275017,,,,,,,,,
1739302675.111698,-0.09142512681681367,1.056254736799013,-0.3731681277365194,-1.4498955695694702,1.5427895363335544,1.1622583428383995,1.349306670848892,7.623045037803136e-06,-0.00029655523372047315,0.00044901270727642497,0.0005476543993841153,0.00163434771731613,-0.0016404445508201538,0.00039829000721308694,0.5426519513130188,-50.49985122680664,-6.420487403869629,17.30384063720703,1.6038919687271118,-1.2622787952423096,0.026597600430250168,,,,,,,,,
1739302675.1236749,-0.09142478662512535,1.0562503100616325,-0.37316813544033633,-1.4498990072301758,1.5427917495056482,1.162261144424077,1.3493047877975248,0.0009651839408064682,-0.0014304691391323256,0.00026403487137893923,-0.0005664715648825947,0.0007260322242920177,0.00024176917460145268,0.000662460379070091,0.5664556622505188,-50.44827651977539,-6.420487403869629,17.35541534423828,1.6167093515396118,-1.2760117053985596,0.03300629183650017,,,,,,,,,
1739302675.1347125,-0.09142764058785927,1.0562557331516165,-0.37316541756996097,-1.4498978714317554,1.54278906617167,1.1622565788248231,1.3493041718503551,-0.0010248975225909851,-0.00031794227506340173,0.00119092170594227,0.0004952342722351778,4.563753315253607e-05,-3.6998671054148014e-05,0.0004347552106205287,0.5664556622505188,-50.52365493774414,-6.444291114807129,17.30384063720703,1.6304422616958618,-1.2760117053985596,0.026597600430250168,,,,,,,,,
1739302675.1456437,-0.09142389691956311,1.056257764762966,-0.3731702161879006,-1.4499008364867167,1.5427883077145452,1.1622588024288405,1.3493082943797234,0.0010097143704573754,0.001864592678681299,-0.001126769172072764,-1.3902153391650676e-05,0.0009153620082048782,-0.0009784932027194276,0.0005083697154139273,0.5188482403755188,-50.54745864868164,-6.392716407775879,17.35541534423828,1.6103006601333618,-1.2558701038360596,0.012864691205322742,,,,,,,,,
1739302675.156619,-0.09142731485020532,1.0562540209597362,-0.37317407726909296,-1.449900917315195,1.5427869555930067,1.162258496116133,1.3493055840615247,-0.0008961830765687733,0.0004499688413280815,-0.0010873880467069889,-0.0008114364157957522,-0.0002947649229584697,-0.0014296807327355743,0.0004902370811677276,0.5664556622505188,-50.49985122680664,-6.341141700744629,17.35541534423828,1.6304422616958618,-1.2622787952423096,0.026597600430250168,,,,,,,,,
1739302675.1667254,-0.09142618423140988,1.0562542589404507,-0.3731702160505141,-1.4498990240611433,1.5427911021589535,1.1622601240280883,1.3493024458239449,-0.0001480201693865818,-8.212349278183739e-05,-0.0005755264299510813,0.001177389744479864,0.002021841344947363,0.0001338129647438658,-0.0008922933720437371,0.5902593731880188,-50.49985122680664,-6.392716407775879,17.33161163330078,1.6231180429458618,-1.2760117053985596,0.05314789339900017,,,,,,,,,
1739302675.1777277,-0.0914250059855748,1.0562540205259068,-0.37316837482190635,-1.4498994321707002,1.5427866879559824,1.1622583827212687,1.3493049477223469,-8.80811863385339e-05,-0.00012851369968761942,-0.00046114162398093797,-0.00038362427370966566,6.492181980817838e-05,-0.00041930041674748494,-0.0008684439126856937,0.5426519513130188,-50.49985122680664,-6.420487403869629,17.35541534423828,1.6231180429458618,-1.2622787952423096,0.03300629183650017,,,,,,,,,
1739302675.1877515,-0.09142104699392328,1.056258897239792,-0.3731857912032665,-1.4498987404354264,1.5427882699039257,1.1622586847106187,1.3493055847020972,-0.00047061712443092823,0.0014864461131563643,-0.002188806353713474,2.6636347082216043e-05,0.0001584148549117356,0.00011655423686913438,0.0002267250227397812,0.3918950855731964,-50.52365493774414,-6.519669532775879,17.35541534423828,1.6103006601333618,-1.2558701038360596,0.026597600430250168,,,,,,,,,
1739302675.1996584,-0.09141901367249644,1.0562549745410965,-0.37319825585655997,-1.4498987051102503,1.5427873000842016,1.1622517669434718,1.3493024072402646,0.00061044614910099,-0.0008088789438222337,-0.0001835087882152139,-0.001320959998095942,0.0009809549727983267,-0.0014977998931943858,-0.0012438351046739485,0.3442876636981964,-50.49985122680664,-6.571244239807129,17.35541534423828,1.6304422616958618,-1.2366440296173096,0.05314789339900017,,,,,,,,,
1739302675.2106526,-0.09142064082578247,1.0562571292679144,-0.37320414246976746,-1.449893094257963,1.5427858872360127,1.1622525202166576,1.3493089796419149,-0.000490981213832702,2.34435198013226e-05,0.0004674741812602501,0.0008127276546403565,-8.607724583621743e-05,0.00010836223509068523,0.002459405283402058,0.2927129566669464,-50.49985122680664,-6.622818946838379,17.28003692626953,1.6304422616958618,-1.2430527210235596,-0.0008682189509272575,,,,,,,,,
1739302675.22173,-0.0914190365003659,1.056258280026497,-0.3732052840295417,-1.4498980247397015,1.5427892281378421,1.162253114853014,1.3493009305058548,-0.0006260775579102325,0.0012237883634263218,9.362634478011253e-05,-0.000153715027328766,0.0006597159053166298,0.00012495505544950512,-0.001968967811139561,0.2689092457294464,-50.54745864868164,-6.646622657775879,17.35541534423828,1.6304422616958618,-1.2494614124298096,0.06596527993679047,,,,,,,,,
1739302675.2327173,-0.09141727283441636,1.0562577105834503,-0.3732055419031102,-1.4498902223805585,1.5427843908156373,1.1622531150182287,1.3493024458239484,0.0006955181417386339,-0.0005451569949784473,-0.0008491308406333577,0.0020096150623930336,0.0005998804969668979,-0.0002667409652889431,-0.0006582809167052301,0.2411382496356964,-50.54745864868164,-6.646622657775879,17.28003692626953,1.6432596445083618,-1.2494614124298096,0.05314789339900017,,,,,,,,,
1739302675.2437606,-0.09141731083722834,1.0562586069339572,-0.3732035302885569,-1.449894877588945,1.5427893988660273,1.1622546710595887,1.3493055280129562,-0.00023692348105342802,0.000467147394568977,0.0003813177036501691,-0.0012582041688902817,0.0011170294980590765,0.00015309405010574813,-0.0005947241300170016,0.2411382496356964,-50.52365493774414,-6.674393653869629,17.30384063720703,1.6038919687271118,-1.2622787952423096,0.026597600430250168,,,,,,,,,
1739302675.2556775,-0.0914236081493436,1.0562586337892175,-0.3732076607173776,-1.4498969577545018,1.5427875238194837,1.1622517564675805,1.3493055847013091,-0.0018304597503143022,-0.0001951370216944946,-0.0017454632141598707,-0.0003013025180460517,-0.0012450779159352376,-2.700581114982003e-05,0.00038484723269909573,0.2927129566669464,-50.52365493774414,-6.622818946838379,17.33161163330078,1.6167093515396118,-1.2366440296173096,0.026597600430250168,,,,,,,,,
1739302675.2667253,-0.09142010788898426,1.05625512629175,-0.3732034874456258,-1.4498968615156513,1.5427867589448123,1.1622496554778672,1.349308830362377,-0.0007075402940388161,-0.00045788816212693914,0.0005154826852333521,-0.0002946540668175905,-0.0004559627726788448,-0.0003074917875678755,-0.0007006947487107117,0.2689092457294464,-50.47208023071289,-6.674393653869629,17.30384063720703,1.6231180429458618,-1.2494614124298096,-0.0008682189509272575,,,,,,,,,
1739302675.2776487,-0.09141938802600834,1.0562575386080677,-0.3732064030852785,-1.449894878010837,1.5427917493432153,1.1622485280713033,1.3493024858894376,2.318797904406547e-05,-0.0005865929945383815,-0.0006563623268196293,0.0003379155474219144,0.0008983327080331397,-0.0008643830380386826,-0.00026416382379953107,0.2689092457294464,-50.54745864868164,-6.674393653869629,17.30384063720703,1.6167093515396118,-1.2494614124298096,0.05314789339900017,,,,,,,,,
1739302675.2876546,-0.09141939939302669,1.0562563277279204,-0.37320553065535833,-1.449896707453151,1.5427868098908266,1.1622489316608873,1.3492974496120314,0.0010427322340200171,0.00043221656177126256,0.0007447935064496002,-0.0006210078221310193,-4.901716983544925e-06,-0.001389594506844421,-0.001165597790205042,0.2689092457294464,-50.52365493774414,-6.646622657775879,17.33161163330078,1.6231180429458618,-1.2494614124298096,0.05955658480525017,,,,,,,,,
1739302675.2976668,-0.09141558478627393,1.0562552294136398,-0.37321018651515264,-1.449898701181426,1.5427872255353778,1.1622520174246398,1.3493064490733178,0.0014740941515890425,-0.00044832470994024125,-0.0014793723311773864,-0.0009141118651955114,0.00032312118031299804,0.0008820232556387682,9.970296321460014e-05,0.2173345386981964,-50.47208023071289,-6.622818946838379,17.35541534423828,1.6231180429458618,-1.2430527210235596,0.019273381680250168,,,,,,,,,
1739302675.307714,-0.0914173648589891,1.0562572114823547,-0.3732034902190372,-1.4498948768738196,1.542788269912294,1.162253491755166,1.3493055840553678,0.0013233823659542757,-0.0008208563738108228,6.351620837976533e-05,-0.000573622196261887,-0.0002240143497009457,0.00036832987342203547,-0.0013280880483146754,0.2411382496356964,-50.49985122680664,-6.674393653869629,17.30384063720703,1.6103006601333618,-1.2558701038360596,0.026597600430250168,,,,,,,,,
1739302675.3178144,-0.09141953037987142,1.0562589526731576,-0.37320874484302236,-1.4498987816396154,1.5427904789986557,1.1622487516027218,1.3493009305033186,-0.00020334404416925977,0.001105837381919281,-0.0008780776818710682,-0.0013325580818705051,0.00013512029436505628,0.0006531494271233975,-0.0004953677469830931,0.2411382496356964,-50.52365493774414,-6.646622657775879,17.35541534423828,1.6304422616958618,-1.2494614124298096,0.06596527993679047,,,,,,,,,
1739302675.3296804,-0.09141750542364736,1.0562571330998598,-0.37320390651501045,-1.4498947765570809,1.5427898048799387,1.1622516473957765,1.349305584701416,0.0006828018580368864,-0.00030876614464014223,0.0003493451096103975,-0.000620503107624504,0.0007016245588351327,0.0006210767396806172,0.00016572078116085272,0.2173345386981964,-50.49985122680664,-6.698197364807129,17.33161163330078,1.6103006601333618,-1.2494614124298096,0.026597600430250168,,,,,,,,,
1739302675.3397286,-0.09141778613533202,1.056256206024912,-0.37320595289685754,-1.4498955248390155,1.5427909655278729,1.1622501319277885,1.3493072107902164,0.0008351493101103735,-0.0003516348896740136,0.000958875829455675,0.0005378785561063729,0.0009277279861491969,-0.0005508908765759056,0.0012958461249781199,0.2173345386981964,-50.49985122680664,-6.674393653869629,17.35541534423828,1.6231180429458618,-1.2366440296173096,0.012864691205322742,,,,,,,,,
1739302675.34975,-0.09141608205634652,1.0562552412143373,-0.3732087492440441,-1.4498927772327164,1.542784856016767,1.162247671464409,1.3492993067845778,0.0025967178209219985,-0.0015501770487548736,-0.0011231950069905327,0.00041493034842820717,2.0983354593285207e-05,-0.0018082196507234168,-0.0015439823538230344,0.2173345386981964,-50.47208023071289,-6.646622657775879,17.28003692626953,1.6432596445083618,-1.2430527210235596,0.07969819009304047,,,,,,,,,
1739302675.36065,-0.091417820806331,1.056258704444521,-0.3732066665228844,-1.4498920037489338,1.542786240502632,1.1622502662608956,1.3493052314887053,0.001088129411200877,0.0010372548066664557,0.00011350703824125564,0.0019689717279065674,-0.0005184230815788701,-0.0001796802266469164,-0.0007602559793489808,0.2173345386981964,-50.52365493774414,-6.674393653869629,17.30384063720703,1.6304422616958618,-1.2622787952423096,0.026597600430250168,,,,,,,,,
1739302675.3707583,-0.09142024502263539,1.056258951689231,-0.3732105309520021,-1.4498962336197723,1.5427859017748393,1.1622489132893639,1.3493047855447746,-0.0001917207986362819,-5.921121103287974e-05,-0.0015174773475697748,-0.0010142328778152882,-0.00036150867433023355,0.0007890693869641176,-0.00021323676342544363,0.2411382496356964,-50.52365493774414,-6.622818946838379,17.33161163330078,1.6304422616958618,-1.2494614124298096,0.0064559997990727425,,,,,,,,,
1739302675.3817809,-0.09141803395082226,1.056258589738898,-0.37320874925617376,-1.4498939200346082,1.542789330027022,1.1622483893418931,1.3493053907272248,0.0006939073521538004,-0.0009501300143006683,-0.00033262741209827233,-0.0003159365869860538,0.0005695430677896047,-0.0005528039579886501,-0.000235003315928718,0.2411382496356964,-50.49985122680664,-6.646622657775879,17.30384063720703,1.6103006601333618,-1.2494614124298096,0.019273381680250168,,,,,,,,,
1739302675.3927276,-0.09142232069190041,1.0562571596347738,-0.3732105320412052,-1.4498947867126226,1.5427865183074618,1.162249146502384,1.3492982072654478,-0.0008933456737067787,0.00034375034841478626,-0.0010588020262112326,0.00013725541135750614,-0.001248899566810807,-9.707300446139483e-05,-0.001404213946862426,0.2689092457294464,-50.49985122680664,-6.622818946838379,17.30384063720703,1.6231180429458618,-1.2558701038360596,0.05314789339900017,,,,,,,,,
1739302675.4036922,-0.09141681891333263,1.056258951692969,-0.3732066030529029,-1.4498916681981397,1.5427899320436491,1.162248388842303,1.3493000515554212,0.0004840556955626322,0.0009820812423947697,0.0013842076286489956,0.00025344406598232466,0.0006870100613435362,-0.0007384437443519588,-0.001034651207153828,0.1935308277606964,-50.52365493774414,-6.646622657775879,17.30384063720703,1.6231180429458618,-1.2494614124298096,0.07328949868679047,,,,,,,,,
1739302675.414731,-0.09142121603091953,1.0562573516777747,-0.37320875054014624,-1.4498916947441665,1.5427885835286916,1.1622491465023814,1.3493040693811855,-0.0004614111299551527,-5.698595127048736e-05,-0.000704183737284962,0.0017108511038156,0.0007797279627991842,-0.0005315599653532892,-0.00047351099969186034,0.2689092457294464,-50.47208023071289,-6.646622657775879,17.30384063720703,1.6167093515396118,-1.2558701038360596,0.03941498324275017,,,,,,,,,
1739302675.425686,-0.09142224152854819,1.0562597075719684,-0.3732087492561865,-1.4498966089571517,1.5427867538364999,1.1622476356518916,1.3493040338138955,-0.00048363320565552914,0.0007512853743413281,-0.0007805393658598011,-6.217044923596972e-05,-0.0013388332189930797,-0.0006768963395610304,0.001245742461209225,0.2689092457294464,-50.54745864868164,-6.646622657775879,17.33161163330078,1.6231180429458618,-1.2430527210235596,0.012864691205322742,,,,,,,,,
1739302675.4366632,-0.0914229496621265,1.0562552402452872,-0.37321087807136144,-1.4498945348296286,1.542785186961597,1.162249508545434,1.3493040679097892,-0.0013076493835758526,-0.00046996323177480584,-0.0007167479069217827,-0.0009481467386144261,0.001336052073918524,0.0005723309081213664,0.0008169866673008554,0.2689092457294464,-50.47208023071289,-6.646622657775879,17.33161163330078,1.6368509531021118,-1.2558701038360596,0.03941498324275017,,,,,,,,,
1739302675.446721,-0.09141853155386309,1.056258950385206,-0.3732066696103823,-1.4498944896941686,1.5427883084886358,1.1622531625558385,1.349306850685231,1.0795897625263799e-05,0.0013430606436814888,-0.00044606196623145914,-0.00040851206725715317,-0.0012386394940590369,0.0020548178765955913,-0.0004515285643867118,0.2173345386981964,-50.52365493774414,-6.674393653869629,17.33161163330078,1.6368509531021118,-1.2622787952423096,0.012864691205322742,,,,,,,,,
1739302675.4577281,-0.09141829477898437,1.0562572390636633,-0.37320488689731235,-1.4498945481401637,1.5427917901143695,1.1622483889158777,1.3493040693792406,0.0012782054081515728,0.0006095898119484796,0.0007040077967878564,-0.00013565779049215754,0.0013235237994293813,-0.0002310466152579933,6.441604149958225e-05,0.2173345386981964,-50.49985122680664,-6.698197364807129,17.30384063720703,1.6167093515396118,-1.2494614124298096,0.03941498324275017,,,,,,,,,
1739302675.4686868,-0.09142223326913275,1.0562525750367855,-0.37321087515517687,-1.4498926399314713,1.5427883229890091,1.1622483888423034,1.349304787795481,-0.0015150380026031226,-0.0012816645125974272,0.00016042432430763063,0.0005588584872681329,0.0015657551102699608,-0.0006547839636445967,0.00011126893108930775,0.2689092457294464,-50.44827651977539,-6.646622657775879,17.30384063720703,1.6231180429458618,-1.2494614124298096,0.03300629183650017,,,,,,,,,
1739302675.478774,-0.09142024406216628,1.0562605833846428,-0.37320874936418613,-1.4498882009545708,1.5427915024435142,1.1622485095233122,1.3492998308267479,-0.0002229573101286469,0.001146070130132748,-0.000257517014556614,0.0015316003489861084,0.0013750697289009123,0.0002920195638117968,-0.002836862607432613,0.2411382496356964,-50.54745864868164,-6.646622657775879,17.25623321533203,1.6231180429458618,-1.2494614124298096,0.03941498324275017,,,,,,,,,
1739302675.4897099,-0.09142024405058123,1.056256805926054,-0.3732108468811981,-1.4498920051499726,1.5427863214889355,1.1622491465026084,1.3493009218830905,-0.0010339906144276943,-0.0013121940935901248,-0.0015063873141085073,-4.660566126552608e-05,-0.0019861948821005217,-0.0002730738969708457,-0.0015422005643974796,0.2411382496356964,-50.52365493774414,-6.622818946838379,17.30384063720703,1.6231180429458618,-1.2558701038360596,0.06596527993679047,,,,,,,,,
1739302675.5006888,-0.0914192411469395,1.056258948737866,-0.37320660352674756,-1.4498922696912095,1.5427916043999566,1.1622491465023814,1.349305583247817,0.0002506719959620229,0.0004854298048443869,0.00025732291861691885,0.0005488158852542105,0.00033034215737137414,-0.0004591161374304457,-0.00048444442988093125,0.2173345386981964,-50.52365493774414,-6.646622657775879,17.28003692626953,1.6103006601333618,-1.2558701038360596,0.026597600430250168,,,,,,,,,
1739302675.5117335,-0.09142024421062492,1.0562572391726703,-0.37320874909871155,-1.4498916593273379,1.542791161982655,1.162248388842303,1.349304825587779,0.00017849082103119093,-0.0009548089324760404,-0.00020408118853538733,0.0008186348528764825,0.0022243547129768442,-0.0005064711374415352,0.0002885102750398679,0.2411382496356964,-50.49985122680664,-6.646622657775879,17.30384063720703,1.6231180429458618,-1.2494614124298096,0.03300629183650017,,,,,,,,,
1739302675.5227456,-0.09142024503467426,1.0562563290890479,-0.37320452369910917,-1.449894454686471,1.542788267233363,1.1622476356518916,1.3493024458239238,0.0007278110906305706,0.0001787601375366803,0.0017701858542260092,0.00026266796427850227,-0.001013170171541925,-0.000802531689456143,-0.0002259561072331447,0.2411382496356964,-50.52365493774414,-6.674393653869629,17.33161163330078,1.6103006601333618,-1.2430527210235596,0.05314789339900017,,,,,,,,,
1739302675.5337293,-0.09141853154188066,1.0562581923575518,-0.3732066694138344,-1.4498937391413698,1.5427874315497356,1.162249904162468,1.3493096959039437,-0.00033506564466184805,0.00046599215099488416,-0.00030606871841852427,0.0003467788223384374,0.0009393750551396355,0.00041909132694316006,0.001764674103456741,0.2173345386981964,-50.49985122680664,-6.674393653869629,17.33161163330078,1.6304422616958618,-1.2622787952423096,0.019273381680250168,,,,,,,,,
1739302675.5437474,-0.09141853996565674,1.0562571332250164,-0.3732105319331975,-1.4498958849799135,1.5427867531567399,1.1622491465023814,1.3493049477773063,0.0001578988596075201,0.0010668299493867956,-0.0008468975997379855,-0.0017736205526166018,-0.001772530032939565,0.0001399074011550194,0.0005868986828153445,0.2173345386981964,-50.49985122680664,-6.622818946838379,17.33161163330078,1.6231180429458618,-1.2558701038360596,0.03300629183650017,,,,,,,,,
1739302675.554729,-0.09141821585806702,1.0562603464311286,-0.3732048632145366,-1.4498941360665454,1.5427878129302217,1.1622483887884678,1.3493111046354482,0.0003529834686133595,0.000995839291308523,0.0011698411672265256,-0.0011644337207685081,0.00015779593061230338,9.197382237554355e-05,0.002866408834116818,0.2173345386981964,-50.54745864868164,-6.698197364807129,17.30384063720703,1.6231180429458618,-1.2494614124298096,-0.020094294100999832,,,,,,,,,
1739302675.5667152,-0.09142025280938353,1.056258713273045,-0.3732066704382524,-1.44989373959007,1.5427896813075652,1.1622483757603503,1.3493048270413368,-0.0008106861621709854,-0.0006414360048183725,0.0009580602967571479,0.0008313766487914457,9.97445891595513e-05,0.0010063412284992484,0.0007486743628447202,0.2411382496356964,-50.52365493774414,-6.674393653869629,17.33161163330078,1.6103006601333618,-1.2494614124298096,0.03300629183650017,,,,,,,,,
1739302675.5786455,-0.09142024319630045,1.0562575580448237,-0.3732049130349731,-1.449898422097962,1.542786793832652,1.1622433926296827,1.34929768338873,3.809184315639169e-05,0.00029611602461357563,0.00016572639131850412,-0.0004349107419071642,-0.0007564986316879553,-0.0012601865080554286,-0.003323643060129318,0.2411382496356964,-50.49985122680664,-6.698197364807129,17.35541534423828,1.6231180429458618,-1.2430527210235596,0.09343110024929047,,,,,,,,,
1739302675.589695,-0.09142224200345819,1.0562563381550285,-0.37320666957447873,-1.4498916861482034,1.542788268450973,1.1622459675640666,1.3493010329731092,-0.001167724779886307,-0.000717786557632571,0.0008854544427081448,-0.00025045723116149385,0.0008270709453245078,-0.0006252174772689822,-0.0014682321035652947,0.2689092457294464,-50.49985122680664,-6.674393653869629,17.30384063720703,1.6103006601333618,-1.2558701038360596,0.05314789339900017,,,,,,,,,
1739302675.6006699,-0.09141854029043438,1.0562572391676008,-0.3732147434271678,-1.44989381391151,1.5427891074931714,1.1622491464844362,1.3493041274789548,0.0007155897458871867,-0.0005160180091921048,-0.0017861068312565321,0.0008059994479629559,-0.0006637735602745827,0.0004500630085006043,-0.00011459999480006563,0.2173345386981964,-50.49985122680664,-6.595047950744629,17.30384063720703,1.6304422616958618,-1.2558701038360596,0.03941498324275017,,,,,,,,,
1739302675.6117513,-0.09141853155389607,1.056257239027332,-0.37320882812908657,-1.4498976714886682,1.5427878665561345,1.1622483873887526,1.3493055847015252,0.00018613894923619326,0.00020521373100054958,0.00024089678330314646,-0.0007085337818881884,0.0006022436503616413,1.8475578686492173e-05,-5.215095344569671e-05,0.2173345386981964,-50.49985122680664,-6.646622657775879,17.35541534423828,1.6231180429458618,-1.2494614124298096,0.026597600430250168,,,,,,,,,
1739302675.6237125,-0.0914185315418789,1.0562605847412887,-0.37320388718081965,-1.4498955218291774,1.5427893681320786,1.1622483888422948,1.3493040693812592,-0.0004620805273366414,0.0009327927763521619,0.0012956724951772656,0.0017041308401473266,-0.0005830505029043309,-2.930075223876239e-05,0.0009194935709551119,0.2173345386981964,-50.54745864868164,-6.674393653869629,17.35541534423828,1.6368509531021118,-1.2494614124298096,0.03941498324275017,,,,,,,,,
1739302675.633737,-0.09142396370477725,1.0562589516929695,-0.3732066781991732,-1.4498916636018024,1.5427904453381407,1.1622499036779428,1.3493071951766642,-0.0006752278318735668,0.0009200458306768031,0.0016734436755104416,0.00010269839061528044,0.001153749033777451,0.0001061230074101445,-8.870563313776675e-05,0.2927129566669464,-50.52365493774414,-6.674393653869629,17.30384063720703,1.6038919687271118,-1.2622787952423096,0.012864691205322742,,,,,,,,,
1739302675.6447382,-0.0914229506365139,1.0562569212812483,-0.37320945788922755,-1.4498923863433475,1.5427863975990077,1.1622479178920204,1.3493055803406913,-0.0014422028511298763,-0.0004806471775870781,0.00035727367905138816,0.0001053032407689078,0.0010167421753311653,-0.00028252073735975396,0.00047633878366924726,0.2689092457294464,-50.49985122680664,-6.646622657775879,17.30384063720703,1.6304422616958618,-1.2494614124298096,0.026597600430250168,,,,,,,,,
1739302675.6556575,-0.09142024410261257,1.0562603198299627,-0.373206669470324,-1.4498980226973421,1.5427875114395684,1.1622476311795662,1.3493068626406821,-0.00042496690810488636,0.0014379376696158934,0.0007960161089125063,-0.002008369455374502,-0.0011120165487771454,-0.0003112423082836344,0.0014737628540400392,0.2411382496356964,-50.54745864868164,-6.674393653869629,17.37921905517578,1.6167093515396118,-1.2430527210235596,0.012864691205322742,,,,,,,,,
1739302675.6656783,-0.09141924017487851,1.056258951687586,-0.37320874925617936,-1.4498955320403963,1.5427878640033859,1.162248388842303,1.3493026143879636,9.024534702661967e-05,0.0012353588494839478,-0.00036574178323883804,-0.0013562343769969315,-0.0005011714040165469,0.00012498182154939446,-0.0006904242493176464,0.2173345386981964,-50.52365493774414,-6.646622657775879,17.35541534423828,1.6167093515396118,-1.2494614124298096,0.012864691205322742,,,,,,,,,
1739302675.6758134,-0.09142025284716786,1.0562582276073627,-0.37321053193319836,-1.4498915269460866,1.5427911650339288,1.162248388842303,1.349307965685302,-0.0003101663297205073,9.728652118172156e-05,-0.0011616349038075233,-0.00024247144332272387,0.00029864810594200397,0.00019812837985010864,0.0013944398656681734,0.2411382496356964,-50.52365493774414,-6.622818946838379,17.33161163330078,1.6167093515396118,-1.2494614124298096,0.0064559997990727425,,,,,,,,,
1739302675.6867378,-0.09142069535129971,1.0562589487365035,-0.3732087521723645,-1.4498880949242132,1.5427893280957488,1.1622491465023814,1.3493079654341775,-0.00043714629631176486,-0.0005808508219123018,0.00018633388599418053,-5.4493279836312944e-05,0.000639241077673559,0.00022862411234944588,0.00031879952240812276,0.2173345386981964,-50.52365493774414,-6.646622657775879,17.25623321533203,1.6103006601333618,-1.2558701038360596,0.0064559997990727425,,,,,,,,,
1739302675.697733,-0.09142032403565006,1.0562604248144072,-0.3732066967920754,-1.4498955227618553,1.5427875107966469,1.162248388842303,1.349309587860947,6.0919769556214804e-05,0.00033043938198326015,-0.0008082288134167599,-0.0005468783012462393,2.795872026765515e-05,8.496010168323124e-05,0.0015515965456074647,0.2411382496356964,-50.54745864868164,-6.674393653869629,17.35541534423828,1.6167093515396118,-1.2494614124298096,-0.0072769103571772575,,,,,,,,,
1739302675.7087266,-0.09142024503602611,1.0562618117311666,-0.37321158378863806,-1.4498886926541323,1.5427862406075699,1.1622491465023814,1.3493048270413102,-0.0004330490589310914,0.0013369656016217696,-0.0012296191887264075,0.001024226541079622,-0.0009066670339348186,6.79320930482375e-05,0.00016474231117982556,0.2411382496356964,-50.52365493774414,-6.646622657775879,17.30384063720703,1.6304422616958618,-1.2558701038360596,0.03300629183650017,,,,,,,,,
1739302675.7196414,-0.09141853154188066,1.0562596846151726,-0.37321119012051024,-1.4498898766312276,1.5427879861560958,1.1622476311822247,1.349308818733975,0.0006139913706055536,0.0007440916447538969,-0.0009875579194647186,0.001832341908195885,0.0009766566931899787,-0.0004569952681122116,0.000851284980557091,0.2173345386981964,-50.52365493774414,-6.646622657775879,17.28003692626953,1.6167093515396118,-1.2430527210235596,-0.0008682189509272575,,,,,,,,,
1739302675.7306528,-0.0914230727417951,1.0562568059386181,-0.373205919160195,-1.4498920312343393,1.5427882703968607,1.1622476311822247,1.3493072038977443,-0.0008414905672487793,-0.0005606010325471777,0.0007609167804539901,0.0012363277004445387,0.0012302400909232983,-0.0002783095810771175,-9.496313047701482e-06,0.2411382496356964,-50.52365493774414,-6.698197364807129,17.28003692626953,1.6103006601333618,-1.2430527210235596,0.012864691205322742,,,,,,,,,
1739302675.740678,-0.0914185315938491,1.0562552402385745,-0.3732069061151786,-1.449898365561565,1.5427867589447986,1.162248388842303,1.3493069056345184,0.0002699836520805425,-0.0014458839312434199,0.0008321892093783453,-0.002813411610122549,0.0002719911429405236,2.2833636574009423e-05,0.001807028683845146,0.2173345386981964,-50.47208023071289,-6.674393653869629,17.37921905517578,1.6231180429458618,-1.2494614124298096,0.0064559997990727425,,,,,,,,,
1739302675.7517126,-0.09141853154187912,1.0562572388456326,-0.37320666961166876,-1.449889913417621,1.5427884390006719,1.162248388842303,1.3493072082526312,0.00021088525638115533,-0.0008829675900192205,0.0006886017417730516,0.0013955086796548118,-0.0006486741521629506,0.00041493689926114073,0.00012740429710307252,0.2173345386981964,-50.49985122680664,-6.674393653869629,17.28003692626953,1.6103006601333618,-1.2494614124298096,0.012864691205322742,,,,,,,,,
1739302675.76176,-0.09141853154187884,1.0562629012276736,-0.3732087999016112,-1.4498938050816637,1.5427875631213623,1.162248388842303,1.3493016867103198,4.6223771785289724e-05,0.001826352707341247,-0.00017611695304650606,-0.0003532320415133519,0.0004949206027289583,0.00031119456206965584,-0.00044138948151224824,0.2173345386981964,-50.57522964477539,-6.674393653869629,17.30384063720703,1.6167093515396118,-1.2494614124298096,0.05955658480525017,,,,,,,,,
1739302675.7737231,-0.09142024406261004,1.056258935996425,-0.37320698543441366,-1.4498916976269909,1.5427859046762527,1.1622476311822247,1.34930645059864,0.00017277638849236057,0.000526724391396434,0.0008874647343678933,0.0008701581791174197,-0.0013013465612771486,8.902527717565058e-05,0.0007599129046501474,0.2411382496356964,-50.52365493774414,-6.674393653869629,17.30384063720703,1.6304422616958618,-1.2430527210235596,0.019273381680250168,,,,,,,,,
1739302675.7846813,-0.09141853154187884,1.056258512451013,-0.37320879669799983,-1.4498945203368503,1.542787830265187,1.1622491465023814,1.349301647965444,0.0004966304289980761,0.0004275884150090388,0.001366921911033443,0.00015466179561788817,0.0009468798594649457,0.00019140984992977367,0.000591408098981095,0.2173345386981964,-50.54745864868164,-6.674393653869629,17.30384063720703,1.6231180429458618,-1.2558701038360596,0.03300629183650017,,,,,,,,,
1739302675.7947476,-0.09142055901060958,1.0562549233039549,-0.373208759336842,-1.4498938152680056,1.5427872373425655,1.1622491465023814,1.3493053907451753,0.00028110931818084515,-0.0021133270021156518,0.00045007154698789613,0.0001000741541267113,0.0010445866212942041,0.00019886653216356052,0.001126007866529569,0.2411382496356964,-50.47208023071289,-6.646622657775879,17.30384063720703,1.6231180429458618,-1.2558701038360596,0.019273381680250168,,,,,,,,,
1739302675.80671,-0.09141692400559205,1.0562606642123546,-0.3732088542389027,-1.4498916593259994,1.542788623765759,1.1622483880509256,1.3493033229335487,0.001597198616358481,0.0009691461500658902,0.000680363517070138,-5.316267668027482e-05,0.0002492776161728902,0.00021111295029160247,-0.0004929625390241273,0.1935308277606964,-50.54745864868164,-6.646622657775879,17.30384063720703,1.6103006601333618,-1.2494614124298096,0.07328949868679047,,,,,,,,,
1739302675.8176887,-0.09142024406320268,1.056258916372147,-0.37321114636099073,-1.4498973044577228,1.5427878127707217,1.1622476311822203,1.3493016307939463,7.423851664839064e-05,-0.0003096170150474216,-0.00047572686240196277,-0.0009252832272955851,-0.000364959053917376,3.5583550103918745e-06,-0.0009269875034678119,0.2411382496356964,-50.52365493774414,-6.646622657775879,17.37921905517578,1.6231180429458618,-1.2430527210235596,0.05955658480525017,,,,,,,,,
1739302675.8277214,-0.09142025572735075,1.0562572388454388,-0.3732090245071889,-1.4498967060904469,1.542791766791767,1.1622476311822247,1.3493025566462316,0.0005925810268720489,-0.0004663132098867144,0.00047469305360211026,-3.107685936702524e-05,0.0011384481694786325,1.2315246340433234e-05,-0.00043467418428956377,0.2411382496356964,-50.49985122680664,-6.646622657775879,17.33161163330078,1.6167093515396118,-1.2430527210235596,0.019273381680250168,,,,,,,,,
1739302675.8386874,-0.09142048027380724,1.0562590301851258,-0.37320985729341544,-1.449892003746467,1.54278588730543,1.1622491465023814,1.3493032034180823,-0.0006177168843910339,0.0018471464869677396,-0.0001965713513100289,0.0009901445466290934,8.9699676719204e-05,3.2092712970745434e-05,-0.0014866602833702362,0.2411382496356964,-50.52365493774414,-6.674393653869629,17.30384063720703,1.6304422616958618,-1.2558701038360596,0.04673920199275017,,,,,,,,,
1739302675.8497183,-0.09141687534073958,1.0562562021013684,-0.37321183301399563,-1.4498955306129657,1.5427930935048106,1.1622476311822247,1.349298508764965,-0.00018813710544720073,-0.0008256550238057072,-0.0010699761442175383,-0.00037516031073312687,0.0011300231198463973,-0.0008089977272124138,-0.0018674890287927802,0.1935308277606964,-50.49985122680664,-6.646622657775879,17.35541534423828,1.5974832773208618,-1.2430527210235596,0.05955658480525017,,,,,,,,,
1739302675.860667,-0.09142024406271601,1.0562589428611489,-0.3732072620099361,-1.449893845552031,1.5427875151754888,1.1622476311822247,1.3493076137348385,0.00010289881648625051,-0.00016426292404149738,0.0015278659045952856,-0.0002892827811896045,-0.0009499884927700586,0.00024878789874287893,0.00048613300394820605,0.2411382496356964,-50.52365493774414,-6.698197364807129,17.33161163330078,1.6167093515396118,-1.2430527210235596,-0.0008682189509272575,,,,,,,,,
1739302675.8716745,-0.09142024449463747,1.0562582800282088,-0.3732137178517298,-1.4498923755525153,1.5427869512322088,1.162246872876124,1.3493027947643954,-0.00041418474024921886,9.566455597562694e-05,-0.0014547206617460712,0.0006887839743206542,-8.751994157028006e-06,-0.0007608992185356808,0.00033073392142152257,0.2411382496356964,-50.54745864868164,-6.622818946838379,17.30384063720703,1.6304422616958618,-1.2366440296173096,0.05314789339900017,,,,,,,,,
1739302675.881717,-0.09141861319506635,1.0562588692636603,-0.37321193796064905,-1.4498926957355363,1.5427851295792823,1.1622491479922668,1.3493016481289193,-0.0004347971219210632,-0.00032333270228059193,-0.0011764443896475016,-0.0006648270365977281,-0.0015657516928553254,-0.00020651735814069893,0.0006577849734410074,0.2173345386981964,-50.52365493774414,-6.646622657775879,17.30384063720703,1.6368509531021118,-1.2558701038360596,0.03300629183650017,,,,,,,,,
1739302675.8926532,-0.09141682031769088,1.056257238845173,-0.37320807531377875,-1.4498899561155203,1.5427911270247825,1.1622476311822332,1.3492993068742603,0.00041789140541800666,-0.0005028365071141149,0.0001771640521928825,0.0010615645810477304,0.002903602705634802,4.0497720167222476e-05,-0.002065635806912586,0.1935308277606964,-50.49985122680664,-6.698197364807129,17.28003692626953,1.6231180429458618,-1.2430527210235596,0.07969819009304047,,,,,,,,,
1739302675.9027102,-0.09142025572737271,1.0562560906704632,-0.3732098583148137,-1.449891659315175,1.5427902626551726,1.1622476311822247,1.349307965757188,-0.0008902487336042473,-0.000264294349503801,-0.000886380473358109,0.000981344273436289,0.0020660546501943267,-0.000250351957944337,0.0016203715867873325,0.2411382496356964,-50.52365493774414,-6.674393653869629,17.30384063720703,1.6304422616958618,-1.2430527210235596,0.0064559997990727425,,,,,,,,,
1739302675.9127252,-0.09142048027380724,1.0562587120272082,-0.3732119377806542,-1.4498916471040069,1.5427879832685931,1.1622476311822247,1.3493008126042731,-0.0009270485222038398,0.000547867417429194,-0.0005474041574407898,0.00043860718726021036,0.001715029675188309,-0.00019322640972424757,-0.00125080725694071,0.2411382496356964,-50.52365493774414,-6.646622657775879,17.30384063720703,1.6167093515396118,-1.2430527210235596,0.06596527993679047,,,,,,,,,
1739302675.922748,-0.09141853154587909,1.0562580227778646,-0.3732137207816883,-1.4498927759242626,1.5427869101220146,1.1622476326721136,1.3493045932614134,0.001489935733543818,-0.0005974878293900264,-0.00018345509709644561,-0.00010480595263876412,-0.0002560433382757368,-0.00011787143824697758,0.0014139343021263185,0.2173345386981964,-50.47208023071289,-6.622818946838379,17.28003692626953,1.6231180429458618,-1.2430527210235596,-0.0008682189509272575,,,,,,,,,
1739302675.9336786,-0.09142225075201865,1.056257239479099,-0.37321406357164433,-1.4498946967189532,1.5427881659823122,1.1622491465023899,1.3493056397956602,-0.0011899386859289167,-0.0010063686372927133,-0.001624126467809414,-0.0005289706750592289,0.0004074297878544127,0.0001910681546223177,0.001627812130834078,0.2689092457294464,-50.49985122680664,-6.646622657775879,17.33161163330078,1.6231180429458618,-1.2558701038360596,-0.0008682189509272575,,,,,,,,,
1739302675.9446616,-0.0914168190212958,1.0562606642141545,-0.37320984949425173,-1.4498937430444876,1.5427883144872971,1.1622468604401939,1.3493024268737381,0.0008919354867013543,5.2753214401641245e-05,-0.000162886621968038,0.0002662586454345475,-0.0005010899215869387,-0.0007393404542202304,-0.00270082346747096,0.1935308277606964,-50.54745864868164,-6.674393653869629,17.33161163330078,1.6368509531021118,-1.2366440296173096,0.05314789339900017,,,,,,,,,
1739302675.9546883,-0.0914178426021462,1.0562552412681725,-0.3732119382126318,-1.4498938050810632,1.5427872241526805,1.162248388842229,1.3493056527399268,-0.00013111980059266103,-0.0018512000597139563,-0.00039606686231104363,0.00027690806416298257,0.0001374686594740778,-0.0004326236894271455,0.0012185149226872072,0.1935308277606964,-50.47208023071289,-6.646622657775879,17.30384063720703,1.6231180429458618,-1.2494614124298096,-0.0008682189509272575,,,,,,,,,
1739302675.9647152,-0.09142023952321585,1.0562589415549057,-0.37321371786551044,-1.4498937774047336,1.5427886227645802,1.162248402251304,1.3493016881100321,-0.00028776792513897137,-0.0004467556892009891,-0.001229082525859466,-0.0003193002124504977,0.000595683343807197,0.00034853880621682487,0.00012368770712031893,0.2411382496356964,-50.52365493774414,-6.622818946838379,17.33161163330078,1.6167093515396118,-1.2494614124298096,0.05955658480525017,,,,,,,,,
1739302675.974718,-0.09141853154164821,1.0562606642136343,-0.373209858314671,-1.4498916596428237,1.5427869295511774,1.1622483888429842,1.3493047811901029,0.0008207506230189345,0.0009680257539142389,0.000421653658783469,0.0008572827078309237,-0.0008491446807504449,0.0005938077151958088,0.00012777463528143682,0.2173345386981964,-50.54745864868164,-6.674393653869629,17.30384063720703,1.6231180429458618,-1.2494614124298096,0.0064559997990727425,,,,,,,,,
1739302675.9856677,-0.09141754029094909,1.0562559594310104,-0.3732139327753386,-1.4498956375559813,1.5427890705625602,1.162248388842303,1.3493061486144946,0.0012900552838818761,-0.0007591688561657497,-0.0015586882973190625,-0.0005339700650659417,-7.173076524276742e-05,-0.00036642014866054596,-0.0003889370463285852,0.1935308277606964,-50.47208023071289,-6.646622657775879,17.35541534423828,1.6304422616958618,-1.2494614124298096,0.012864691205322742,,,,,,,,,
1739302675.995848,-0.0914186394529453,1.0562589526867272,-0.3732098583485991,-1.4498888121609281,1.5427899516410601,1.1622491465023814,1.3493046700399658,0.0001038434386179054,0.00012986897279583263,-0.00025948050906445116,0.0017915696573822949,0.0008798561865136121,0.000567521538609566,-0.00046660414572778983,0.2173345386981964,-50.52365493774414,-6.674393653869629,17.25623321533203,1.6231180429458618,-1.2558701038360596,0.03300629183650017,,,,,,,,,
1739302676.0066943,-0.0914211929394739,1.0562591465213254,-0.3732137217537557,-1.449893821524038,1.542792156355307,1.1622490941745725,1.3493023934952533,-0.000172755978308446,0.0003800431656341283,-0.001189241965732541,-6.147466153640205e-06,0.002002447701333418,-0.0004210896064618619,-0.001692343762105765,0.2411382496356964,-50.49985122680664,-6.622818946838379,17.33161163330078,1.6167093515396118,-1.2558701038360596,0.05314789339900017,,,,,,,,,
1739302676.0166996,-0.09141924051496772,1.0562565663407493,-0.3732098233206135,-1.4498899561110654,1.5427851298134545,1.1622483888414168,1.3493044718896745,9.827128619055518e-05,4.154767088390129e-05,-0.0008805787294824505,0.0014953764170274914,-0.0011345686947506245,4.752113993125768e-05,-0.00024188402564471567,0.2173345386981964,-50.52365493774414,-6.674393653869629,17.28003692626953,1.6368509531021118,-1.2494614124298096,0.03300629183650017,,,,,,,,,
1739302676.027748,-0.09141853165388787,1.056257239122883,-0.3732080746655409,-1.4498916710880347,1.5427911108742256,1.1622476311822247,1.3493079657551843,0.0010963168530049845,-8.593680349493318e-05,0.000730481518225318,0.0005393444503608165,0.001199453723283491,2.0061611776269248e-05,0.0008386033951837965,0.2173345386981964,-50.49985122680664,-6.698197364807129,17.30384063720703,1.6231180429458618,-1.2430527210235596,0.0064559997990727425,,,,,,,,,
1739302676.039656,-0.09141862291568181,1.0562589428631,-0.3732127759376897,-1.4498876513968049,1.5427874386761042,1.1622499041624597,1.3493112243059415,0.000927712515906505,7.086822331461981e-05,-0.0003068357107477292,0.00202178146586884,-0.00030297503196427945,0.0007258240893558679,0.0027180526915751083,0.2173345386981964,-50.52365493774414,-6.622818946838379,17.28003692626953,1.6167093515396118,-1.2622787952423096,0.0064559997990727425,,,,,,,,,
1739302676.0506463,-0.09141854127466881,1.0562570978875865,-0.37321192739821707,-1.4498938539299668,1.542787119443058,1.1622468691614953,1.3493073691911537,0.00039324121720873723,-0.0008811020173976407,-0.0009652071676272227,-0.0003887187949928895,0.00018112836191386792,-0.0004533041738660333,0.0003789450830109429,0.2173345386981964,-50.49985122680664,-6.646622657775879,17.33161163330078,1.6231180429458618,-1.2366440296173096,0.012864691205322742,,,,,,,,,
1739302676.0607405,-0.09141829477914915,1.0562606642117567,-0.3732098491340549,-1.4498973044596672,1.5427875101508464,1.1622476311821508,1.3493031904048,-0.00011612461858779023,0.0005540100957543744,0.0004872189688740605,-0.001088493314421591,-0.0001271411400053702,0.0002776687673831162,-0.0011000671294963509,0.2173345386981964,-50.54745864868164,-6.674393653869629,17.37921905517578,1.6167093515396118,-1.2430527210235596,0.04673920199275017,,,,,,,,,
1739302676.071744,-0.09142096144015498,1.0562589428631004,-0.37321193518833407,-1.4498905923286123,1.5427877078110015,1.1622476311822247,1.3493032579560642,0.000726660416827005,0.0006128126052464838,-0.00048065687063363885,0.0011459057302495522,0.00023587860919348257,-0.00016401542494037157,-0.0016197482886145744,0.2411382496356964,-50.52365493774414,-6.646622657775879,17.28003692626953,1.6432596445083618,-1.2430527210235596,0.019273381680250168,,,,,,,,,
1739302676.0826716,-0.09141853154592845,1.0562572391726373,-0.37320985817079355,-1.449893775882546,1.5427882222954243,1.1622480356295932,1.3493051819332371,0.0012044366137318788,0.0006079677127050989,8.764241582522869e-05,-0.0017016731647322052,0.0009559380207745725,-0.00042670649220970675,0.0004673309875997049,0.2173345386981964,-50.49985122680664,-6.674393653869629,17.33161163330078,1.6167093515396118,-1.2494614124298096,-0.0008682189509272575,,,,,,,,,
1739302676.0927277,-0.09141689786615441,1.056257000427059,-0.37321193810467396,-1.4498918977326156,1.5427868103075795,1.162248388840309,1.3493016473900243,0.0011475042746314286,0.000569311405214725,-0.0003522519793846775,0.0013820434730800785,0.0010540977144443849,0.00044588189174773964,0.0004951666260858842,0.1935308277606964,-50.49985122680664,-6.646622657775879,17.30384063720703,1.6231180429458618,-1.2494614124298096,0.05955658480525017,,,,,,,,,
1739302676.1037078,-0.09142118901506063,1.0562589516920704,-0.3732080668892446,-1.4498937394320794,1.5427899451272498,1.1622499041624597,1.3493062931304747,-0.001126423017173811,0.001588514502210377,0.0006763608028347767,7.00697634033107e-05,-0.0002769214032963784,0.0005029335617284826,0.0015709876674543637,0.2411382496356964,-50.52365493774414,-6.698197364807129,17.33161163330078,1.6231180429458618,-1.2622787952423096,0.019273381680250168,,,,,,,,,
1739302676.114644,-0.09142255695679692,1.0562586338019793,-0.37320807563775077,-1.4498958848708985,1.5427875151693349,1.1622483887884678,1.3493040693803702,-0.001580491446222788,0.0006666841125768672,0.0005050354760195426,-0.0002594394965012046,-0.00042217102671321686,0.00016570155739222838,0.0007778252465230541,0.2689092457294464,-50.52365493774414,-6.698197364807129,17.33161163330078,1.6167093515396118,-1.2494614124298096,0.03941498324275017,,,,,,,,,
1739302676.1247525,-0.09142027031361041,1.0562589245271539,-0.37321193680859244,-1.4498947811175174,1.542787999183622,1.1622498998018078,1.3493079773896288,8.816573775236448e-05,0.00024188883418381263,-0.0007180840482734615,-0.00024372516169102,-2.216879763652723e-05,0.00012258000141926752,-0.00019061996650166586,0.2411382496356964,-50.54745864868164,-6.646622657775879,17.33161163330078,1.6167093515396118,-1.2622787952423096,0.0064559997990727425,,,,,,,,,
1739302676.1356747,-0.09142395754883088,1.056258925173003,-0.3732080667812158,-1.4498944808680219,1.5427867531388577,1.1622476311821508,1.3493001533805478,-0.0007948058893491902,0.001826695815090275,0.0013668101194295066,-8.062057121353553e-05,-0.0011471979321658196,3.321083680451358e-05,-0.0027023772644649002,0.2927129566669464,-50.52365493774414,-6.698197364807129,17.33161163330078,1.6231180429458618,-1.2430527210235596,0.05955658480525017,,,,,,,,,
1739302676.1457207,-0.09142271115529028,1.0562572480028551,-0.3732115944506194,-1.4498916622614555,1.5427932791988417,1.162248388842303,1.349300889004657,-0.0013725145429457843,0.00015502767106378746,-0.00013887593831323104,0.0013012498398746642,0.0021886573403928473,0.00010968212661439456,-0.0022202977963949083,0.2411382496356964,-50.49985122680664,-6.622818946838379,17.30384063720703,1.6038919687271118,-1.2494614124298096,0.03941498324275017,,,,,,,,,
1739302676.1566832,-0.09142136608780163,1.0562570472882744,-0.37320769643753515,-1.4498946927780176,1.542787300323543,1.1622491465023814,1.349306148118017,-0.0012219474259821843,-1.9658178772960716e-05,0.001104928429822324,-0.0007227859278731512,0.0013740298277576907,4.489912128040623e-07,-0.0004736969438824867,0.2173345386981964,-50.52365493774414,-6.674393653869629,17.33161163330078,1.6304422616958618,-1.2558701038360596,0.012864691205322742,,,,,,,,,
1739302676.1667068,-0.09141898007037695,1.0562530158504948,-0.37321185922305644,-1.449891660311126,1.5427884390245696,1.1622498518346507,1.349309589458052,0.0005427243836619918,-0.0016849557555391388,-0.0007852862410484364,0.0004495842743520761,-0.0002388747494393522,0.0005306048268183093,0.0009644667521922087,0.1935308277606964,-50.47208023071289,-6.646622657775879,17.30384063720703,1.6103006601333618,-1.2622787952423096,-0.0072769103571772575,,,,,,,,,
1739302676.1777143,-0.09142331582586888,1.0562523801599835,-0.3732098466496332,-1.4498937391036903,1.5427878640043378,1.1622483888420077,1.3493024463205778,-0.0004522750900822468,-0.0017308602065205588,0.0003305466883570547,-0.00036534902177659133,-0.0004731739449309387,-9.810333373138695e-05,0.0003335407168568717,0.2411382496356964,-50.47208023071289,-6.674393653869629,17.33161163330078,1.6167093515396118,-1.2494614124298096,0.05314789339900017,,,,,,,,,
1739302676.1886978,-0.09141853159522131,1.0562542875413665,-0.37320984092564913,-1.4498937655946378,1.5427896814650819,1.162248388842303,1.3493022874034384,0.0006566214043720667,-0.0004942527912605929,0.00046477551854547865,-8.35881005584993e-05,0.0008042897655531437,0.00021598525752420056,-0.00012636525521405716,0.2173345386981964,-50.47208023071289,-6.674393653869629,17.33161163330078,1.6103006601333618,-1.2494614124298096,0.026597600430250168,,,,,,,,,
1739302676.1997533,-0.09142130263783105,1.056255239918255,-0.3732119556016877,-1.4498944573030108,1.5427879819104269,1.1622476311822247,1.349306906261952,-0.0011548960300278165,-0.00023800131329300487,-0.0004416035206011406,-0.000634928112375437,0.0002745190819046074,8.564517415225445e-05,0.0010288070228067878,0.2411382496356964,-50.47208023071289,-6.646622657775879,17.33161163330078,1.6167093515396118,-1.2430527210235596,0.0064559997990727425,,,,,,,,,
1739302676.210685,-0.0914168287477406,1.0562530954646145,-0.3732080756739012,-1.449892022408076,1.5427899326936565,1.162248388842303,1.3493020166264522,0.0015133899436590827,-0.0009031931795254382,0.000807462700080055,0.0007195607236118887,-0.0002470357108289107,-1.823404564347732e-05,0.00021100488700076005,0.1935308277606964,-50.47208023071289,-6.698197364807129,17.28003692626953,1.6231180429458618,-1.2494614124298096,0.06596527993679047,,,,,,,,,
1739302676.2217405,-0.09142048074169432,1.056256523904837,-0.37321135867169736,-1.449893740096944,1.5427885704467432,1.1622491465023814,1.3493040693873903,0.00011981364723021411,-0.0007718831750364112,0.00042658494115209433,-0.0002817561771060482,0.00012813013276101709,0.0005599998967387834,0.0006074029456558541,0.2411382496356964,-50.49985122680664,-6.622818946838379,17.33161163330078,1.6167093515396118,-1.2558701038360596,0.03941498324275017,,,,,,,,,
1739302676.2317448,-0.0914214448148829,1.0562545259639835,-0.37321193828068594,-1.449895964343773,1.54278588870485,1.162248388842303,1.3493016876793535,-0.0004555836978247918,-0.0006095019575389333,-0.00037928944971998466,-0.0007215672909859825,-0.0010671579370287324,-0.00029976023847745213,-0.0006077493069754613,0.2173345386981964,-50.47208023071289,-6.646622657775879,17.33161163330078,1.6304422616958618,-1.2494614124298096,0.05955658480525017,,,,,,,,,
1739302676.242733,-0.09141752781149003,1.0562572401417203,-0.3732137207816968,-1.4498937392503857,1.5427872764087,1.162248388842303,1.3493079644651362,-0.00028765798208318076,0.0003917963214765843,-0.0010804583945713117,7.236092715404889e-06,0.0012144103441544397,1.608825187385676e-05,0.0009638868936620489,0.1935308277606964,-50.49985122680664,-6.622818946838379,17.33161163330078,1.6231180429458618,-1.2494614124298096,0.0064559997990727425,,,,,,,,,
1739302676.2527776,-0.09141689776214867,1.0562615478068405,-0.37321091016979613,-1.4498937391036855,1.5427913628258874,1.1622476311822247,1.3493005772906332,0.0007300125213794959,-0.00016180936969791164,-0.00012864874766688514,0.0010212284146214358,0.001589454728943968,0.00040934628971828245,-0.001074803394799524,0.1935308277606964,-50.52365493774414,-6.698197364807129,17.33161163330078,1.6231180429458618,-1.2430527210235596,0.06596527993679047,,,,,,,,,
1739302676.2636635,-0.09141853154232332,1.0562515307849047,-0.37320594979080646,-1.4498955219260585,1.542786766292396,1.1622491465023814,1.3493064375147021,0.00037223033831680787,-0.003075017993163922,0.0015762746422424373,-0.00023890505306098115,-0.0018313772374919661,0.000712178145692956,-2.1022521944303685e-05,0.2173345386981964,-50.42050552368164,-6.698197364807129,17.35541534423828,1.6231180429458618,-1.2558701038360596,0.019273381680250168,,,,,,,,,
1739302676.273725,-0.09141947638587751,1.05625756509967,-0.3732097792177973,-1.449892031234342,1.5427867591065163,1.1622491465023814,1.3493055396411366,-0.0003496582354853641,-0.00044528359292093163,-0.0001862721034974506,-0.0002258832626216961,-0.0011082920407894123,0.00016616176848346896,0.0006150053321330295,0.2173345386981964,-50.54745864868164,-6.674393653869629,17.28003692626953,1.6231180429458618,-1.2558701038360596,0.026597600430250168,,,,,,,,,
1739302676.2846758,-0.0914202440679437,1.0562572378469972,-0.37321193810422826,-1.449891660634187,1.5427843319839811,1.162248388842303,1.3493048137976253,0.0005900146302191125,-0.0001678635397768683,-0.0008539082075464542,0.0005932917746616888,-0.0008583776473121238,0.00025583427296925286,-5.226260369611455e-05,0.2411382496356964,-50.49985122680664,-6.646622657775879,17.30384063720703,1.6167093515396118,-1.2494614124298096,0.03300629183650017,,,,,,,,,
1739302676.2947254,-0.0914202558353577,1.0562550919882412,-0.3732116231566752,-1.4498958861791142,1.5427914865571546,1.162248388842303,1.3493048270411134,-0.00034944404432958446,-0.00045186904432678414,4.779324784295842e-05,0.0003756206945396332,0.0009477465151843508,-0.000533587933282433,0.0013901878598519654,0.2411382496356964,-50.49985122680664,-6.646622657775879,17.33161163330078,1.6103006601333618,-1.2494614124298096,0.03300629183650017,,,,,,,,,
1739302676.3056788,-0.0914168219375322,1.0562606641777865,-0.37321193809934106,-1.4498966103015078,1.5427875676951293,1.1622476311822247,1.349304867106835,0.001318196853364888,0.0009233391733256785,-0.0008396487974208838,-0.0008487506371409418,0.00024160043426413918,0.00020361837632640269,0.0005192417254411195,0.1935308277606964,-50.54745864868164,-6.646622657775879,17.33161163330078,1.6167093515396118,-1.2430527210235596,0.03300629183650017,,,,,,,,,
1739302676.3156958,-0.09141928614982957,1.056257242116126,-0.37320975333215267,-1.449891651153817,1.5427878127690373,1.162248388842303,1.3493064487895485,0.00036448248105276973,4.69773011334769e-05,0.0007223433905743648,0.0018143353446098333,-0.0009231066609375204,-0.00020588518821791285,-0.00013040540657032818,0.1935308277606964,-50.49985122680664,-6.674393653869629,17.30384063720703,1.6231180429458618,-1.2494614124298096,0.04673920199275017,,,,,,,,,
1739302676.325705,-0.09141863753838812,1.0562552412318837,-0.3732118331202303,-1.4498973142690486,1.5427899335164699,1.162250770059692,1.3493040694362188,-0.00023714632400228717,-0.0012867688698256431,-0.0005431194305948797,-0.0010867258098431042,0.00024276988873568,0.0006364837740637847,-0.0007531084438242045,0.2173345386981964,-50.47208023071289,-6.646622657775879,17.37921905517578,1.6231180429458618,-1.2696030139923096,0.03941498324275017,,,,,,,,,
1739302676.336726,-0.09142251335329242,1.0562606642141494,-0.3732136420441013,-1.4498947282446824,1.5427868774001685,1.1622491460178646,1.3492974896478331,-0.000811865808326392,0.0007913823958476694,-0.00047697021934639387,-0.00041373363914675533,-0.00020478266054400665,0.000514855091870187,-0.00258879600262031,0.2689092457294464,-50.54745864868164,-6.622818946838379,17.33161163330078,1.6231180429458618,-1.2558701038360596,0.08610688149929047,,,,,,,,,
1739302676.3467534,-0.09141534401209375,1.0562587122936926,-0.3732119034331397,-1.4498935931701662,1.54278725357269,1.1622476311822165,1.3493040293262835,0.0013309239310278485,0.00013785815778124579,2.0368043870579904e-05,0.001293192115283956,0.0006573838237153523,-0.0003365731316732845,0.00028209574571873004,0.1697271168231964,-50.52365493774414,-6.646622657775879,17.30384063720703,1.6304422616958618,-1.2430527210235596,0.012864691205322742,,,,,,,,,
1739302676.3577113,-0.09141856654012329,1.0562569202960475,-0.3732119381040876,-1.4498898807031617,1.5427906897281922,1.162248388842303,1.349298509034141,0.0008324136526870726,-8.592087947047316e-05,-0.000229582488742368,0.0011336388233818438,0.00042093126664670785,-0.00012385573218605254,-0.0015760122870384858,0.2173345386981964,-50.49985122680664,-6.646622657775879,17.28003692626953,1.6167093515396118,-1.2494614124298096,0.05955658480525017,,,,,,,,,
1739302676.368674,-0.09142032279967577,1.0562601437857135,-0.37320985799079864,-1.449890670354588,1.5427875560361552,1.162248388842303,1.3493009304794241,0.0004389783270222397,0.0021253924641155726,0.0004971453452451422,0.0020357663406597253,0.0011771500672214828,0.00035655139197513706,-0.0010646749667803164,0.2411382496356964,-50.52365493774414,-6.674393653869629,17.30384063720703,1.6167093515396118,-1.2494614124298096,0.06596527993679047,,,,,,,,,
1739302676.3787253,-0.09141861416845905,1.056260607218829,-0.3732080753137741,-1.4498938186688126,1.542786871514945,1.162248388842303,1.3493064505986478,0.0006673286141364455,-4.1573197146633914e-05,0.0018035416225194527,-0.0009449487173395361,0.001627850215656524,-0.00011865932349707539,0.0001514698600115108,0.2173345386981964,-50.54745864868164,-6.698197364807129,17.33161163330078,1.6231180429458618,-1.2494614124298096,0.019273381680250168,,,,,,,,,
1739302676.3896818,-0.09141826087759411,1.05625894282644,-0.37320985831481734,-1.4498919860360346,1.542788583511415,1.162248388842303,1.349300157575461,0.00024802342789268666,0.00035221454856122975,0.00012073294395785052,0.000372967404462037,-0.00029688353451188393,-0.00027292945627508313,-0.0013642669838105186,0.1935308277606964,-50.52365493774414,-6.674393653869629,17.30384063720703,1.6167093515396118,-1.2494614124298096,0.05955658480525017,,,,,,,,,
1739302676.4007018,-0.09142105768641487,1.056257239172637,-0.3732098583148192,-1.4498958937030586,1.5427876677801473,1.1622476311822247,1.3493097096394286,-0.0008838804747717372,-7.891723441168425e-05,0.00012329498796622573,-0.00019781999460725274,0.00039566899346419655,-0.00021474169783817235,0.0008146296765804346,0.2411382496356964,-50.49985122680664,-6.674393653869629,17.33161163330078,1.6167093515396118,-1.2430527210235596,0.019273381680250168,,,,,,,,,
1739302676.411655,-0.09142444678806204,1.0562544906548255,-0.373211902786432,-1.4498955219382212,1.542791113782211,1.1622476311822247,1.349307090054927,-0.0016511944323492312,-0.0012715268799150645,-0.00029175897014933704,-0.0016010983611343152,0.0006608610436872114,-0.0001639701260135873,0.00039727204527007355,0.2689092457294464,-50.47208023071289,-6.646622657775879,17.35541534423828,1.6231180429458618,-1.2430527210235596,0.012864691205322742,,,,,,,,,
1739302676.422745,-0.0914175281235123,1.056257000741397,-0.3732119351878914,-1.4498955217807064,1.542787506665368,1.1622491465023814,1.3493023237237258,0.0005268735719457217,-0.00018660740443299765,0.00013241308876596263,-0.00012036805459899875,-0.0002985701743873262,0.0005332264162124611,-0.001657322985732808,0.1935308277606964,-50.49985122680664,-6.646622657775879,17.35541534423828,1.6167093515396118,-1.2558701038360596,0.05314789339900017,,,,,,,,,
1739302676.4337218,-0.09141861038821988,1.0562589212774305,-0.3732079968647925,-1.449894254139534,1.5427882053887803,1.1622475139412844,1.3493079652724427,0.0005569841769312873,0.0003080027265929289,0.0019969281443872723,-0.0008612787088524746,0.001415651891836764,-0.0002960257044229726,0.0007905259403288613,0.2173345386981964,-50.52365493774414,-6.698197364807129,17.35541534423828,1.6231180429458618,-1.2430527210235596,0.0064559997990727425,,,,,,,,,
1739302676.445101,-0.09142068498306985,1.0562589516932464,-0.3732098122052331,-1.449894772243705,1.5427899322146783,1.162248388841641,1.349303203430188,-0.0009617176584103542,0.0013400685613590873,0.0005782389049429207,-0.0021491551267095585,-0.0006291648564548581,-0.000528139833204845,-0.0005537955802612179,0.2173345386981964,-50.52365493774414,-6.646622657775879,17.33161163330078,1.6231180429458618,-1.2494614124298096,0.04673920199275017,,,,,,,,,
1739302676.4566422,-0.09141521149523921,1.0562605464765793,-0.37320991717634355,-1.4498944573086934,1.5427889236594503,1.1622491465023814,1.34930599018351,0.0005331122000368861,0.0012636493596162317,-0.00021235154611937623,-0.000150748542528118,0.0006431791120852584,0.0009349201044655019,-4.096085852217375e-05,0.1697271168231964,-50.54745864868164,-6.646622657775879,17.33161163330078,1.6167093515396118,-1.2558701038360596,0.012864691205322742,,,,,,,,,
1739302676.4667242,-0.09141856750875543,1.05625523828773,-0.373211937769246,-1.449891936982319,1.5427873059063701,1.1622491465023814,1.3493047078433413,0.0005575521662705768,-0.0014917950481375783,-0.00029198053175264675,0.0003238757129086356,0.00029139717928153655,-0.0003157718428983264,-0.0008471478525731747,0.2173345386981964,-50.47208023071289,-6.646622657775879,17.30384063720703,1.6304422616958618,-1.2558701038360596,0.03300629183650017,,,,,,,,,
1739302676.47769,-0.09141863663275525,1.0562606377231796,-0.37321193810467285,-1.449897304786339,1.5427897852324588,1.162248388842303,1.3493078480189464,1.6177309282271917e-05,0.00015829984593675964,-0.0008709037749673402,-0.0012469207282634338,0.0009180129124395568,3.811494483550223e-05,0.0006969336891587035,0.2173345386981964,-50.54745864868164,-6.646622657775879,17.37921905517578,1.5974832773208618,-1.2494614124298096,0.0064559997990727425,,,,,,,,,
1739302676.488644,-0.0914203529341167,1.0562579185460923,-0.3732146918713591,-1.4498958849799146,1.5427890718707453,1.1622467252480715,1.3493047865191243,-2.4998209778483735e-05,0.00024973317798338164,-0.0028028111282110487,-0.0012331662503640216,-0.00045917338747723433,-0.00021054799385550685,0.0014276385627650066,0.2411382496356964,-50.52365493774414,-6.622818946838379,17.33161163330078,1.6038919687271118,-1.2622787952423096,0.0064559997990727425,,,,,,,,,
1739302676.4987414,-0.09141895377855078,1.0562552412143373,-0.3732080630174432,-1.4498955218170442,1.5427858878801517,1.1622483887884678,1.3493078649294836,0.001247650770651365,-0.00027568969124320067,0.0014844026572658122,-0.0018891291630399121,-0.000342544888445118,0.0004177858794825834,-0.00027351965285474635,0.1935308277606964,-50.47208023071289,-6.698197364807129,17.35541534423828,1.6304422616958618,-1.2494614124298096,0.04673920199275017,,,,,,,,,
1739302676.5097196,-0.09141854451475263,1.0562572391363483,-0.3732105756963025,-1.4498937479340026,1.5427875109521743,1.162249146502381,1.349305532399921,0.00023384573194292825,-0.0001193906290564876,-0.0013472733392610088,0.0003502071298065023,-3.107241448708782e-05,0.0005832943040475919,-0.0011995066660465267,0.2173345386981964,-50.49985122680664,-6.674393653869629,17.33161163330078,1.6167093515396118,-1.2558701038360596,0.026597600430250168,,,,,,,,,
1739302676.5207136,-0.09141794106848795,1.0562572387366218,-0.3732098583188688,-1.4498955316285564,1.5427907042405564,1.1622491465023814,1.3493042302889762,0.0005209654000268139,0.0004502335309815578,-0.0003556506331812829,-9.042919050449797e-06,-0.00025083727917408425,0.0002527379178704848,0.000596516124193497,0.1697271168231964,-50.49985122680664,-6.674393653869629,17.35541534423828,1.6167093515396118,-1.2558701038360596,0.03941498324275017,,,,,,,,,
1739302676.531663,-0.09141905978343878,1.0562558083341613,-0.37320982332059705,-1.4498899122851854,1.542786702274355,1.1622491465023814,1.3493024055725953,-2.3081043891559e-05,-0.000584187204913047,0.00047761962216534586,0.001320347270043599,-0.0006513936834249034,0.000402087730012601,-0.0008008999554361411,0.1935308277606964,-50.49985122680664,-6.674393653869629,17.28003692626953,1.6231180429458618,-1.2558701038360596,0.026597600430250168,,,,,,,,,
1739302676.5426688,-0.09142160362960824,1.0562603580520515,-0.3732119381044772,-1.4498947588645748,1.5427910323822238,1.162248388842303,1.3493072081868351,-2.3102249206433372e-05,0.00017823606803196452,-0.0005044498371722817,1.5069761546408875e-05,0.0008614321778076919,-0.00013170756089251663,0.0004748607148192518,0.2173345386981964,-50.54745864868164,-6.646622657775879,17.30384063720703,1.6231180429458618,-1.2494614124298096,0.012864691205322742,,,,,,,,,
1739302676.55467,-0.09142161141079491,1.056258947767104,-0.3732080759618207,-1.449893765612135,1.5427882878555699,1.162248388842303,1.3493079659186944,4.238660832098061e-05,-8.435988577661904e-05,-0.00036024829735838365,-0.0004550386582649205,-0.00021608194121349448,0.00039439738968817897,0.0017664927097214278,0.2173345386981964,-50.52365493774414,-6.698197364807129,17.33161163330078,1.6103006601333618,-1.2494614124298096,0.0064559997990727425,,,,,,,,,
1739302676.56469,-0.09142168989582272,1.0562543738980812,-0.37321191182300767,-1.4498962383447858,1.5427882815328051,1.1622491465023814,1.3493079659186948,0.0001634878397211052,-0.0008638084654770586,-0.0003570440769675545,-0.0001449041007800633,-0.001259892731646416,0.0007531670928252305,0.000834068066169847,0.2173345386981964,-50.49985122680664,-6.646622657775879,17.35541534423828,1.6103006601333618,-1.2558701038360596,0.0064559997990727425,,,,,,,,,
1739302676.5758579,-0.09141716124070684,1.0562559821467683,-0.37320986123085603,-1.4498916506329114,1.5427869247034247,1.162248388842303,1.34930139959482,0.000804557591209278,0.00023147902324911323,0.0007014267844571282,0.001586741474792392,-0.000501660493939939,0.00016713158136930122,-0.0004013587094664876,0.1935308277606964,-50.52365493774414,-6.674393653869629,17.30384063720703,1.6231180429458618,-1.2494614124298096,0.05314789339900017,,,,,,,,,
1739302676.5867045,-0.09141959152698424,1.0562589512070635,-0.37321193810472414,-1.4498944553404214,1.542786058755189,1.1622467150851694,1.3493054965625677,-0.0008963413261159486,-0.0002298027215128375,-0.0007262011325457906,-0.0006203205396530532,0.0003794354881104017,-0.0018817614242864684,9.378520917256803e-05,0.2173345386981964,-50.52365493774414,-6.646622657775879,17.33161163330078,1.6304422616958618,-1.2366440296173096,-0.0008682189509272575,,,,,,,,,
1739302676.596725,-0.09142631970036891,1.0562589510393177,-0.3732098547505929,-1.4498938855390902,1.5427858877188394,1.1622476311813303,1.3493037161497219,-0.0008633045632801869,0.0004707275106720513,0.0005309130867833082,0.00032431866924832926,-0.0020572467812147634,-6.57444458540521e-05,-0.00010590707828526534,0.2927129566669464,-50.52365493774414,-6.674393653869629,17.30384063720703,1.6304422616958618,-1.2430527210235596,0.03941498324275017,,,,,,,,,
1739302676.607717,-0.09141965371050426,1.0562551617589706,-0.37321193810465464,-1.4498966005025884,1.5427876459708407,1.1622491465023814,1.3493064505966543,0.0005360103063952559,-0.0015799102054715264,-1.0486697580274992e-05,-0.0004976275493666268,-0.0009734572447198764,0.0005104194188026036,0.0008536877670576504,0.1935308277606964,-50.47208023071289,-6.646622657775879,17.33161163330078,1.6167093515396118,-1.2558701038360596,0.019273381680250168,,,,,,,,,
1739302676.6186461,-0.09142025293517433,1.0562606645407495,-0.3732098495662637,-1.4498937394468863,1.5427889236422674,1.1622475076304537,1.349301608396576,8.390522198524779e-05,0.0007112559808531765,-0.0005172053389082999,-0.0005709515861245251,0.0006712968071197015,-0.0005640733179634522,-0.0005965258204792131,0.2411382496356964,-50.54745864868164,-6.674393653869629,17.33161163330078,1.6167093515396118,-1.2430527210235596,0.03300629183650017,,,,,,,,,
1739302676.6287158,-0.09141991600996019,1.0562562060255165,-0.373209858314671,-1.449895601580618,1.5427914473890583,1.1622476311801322,1.3493079658641867,-2.749816595971563e-05,-0.000768952241504394,0.0003549374554196316,-0.0010757308626264087,-8.226723916245115e-05,-5.40670112089528e-05,0.0007160897558373552,0.1935308277606964,-50.49985122680664,-6.674393653869629,17.35541534423828,1.6103006601333618,-1.2430527210235596,0.0064559997990727425,,,,,,,,,
1739302676.6396897,-0.09142095404517621,1.0562585984385373,-0.37320914838573793,-1.4498969269578572,1.5427907310684275,1.162244907949864,1.3493087925700704,0.0003212057973459783,-0.000724508412819327,0.0003053465479501051,-0.002183318801317098,3.836619397617032e-05,-0.0011164732294236793,0.0008210304593343352,0.2411382496356964,-50.52365493774414,-6.674393653869629,17.33161163330078,1.6167093515396118,-1.2558701038360596,-0.0008682189509272575,,,,,,,,,
1739302676.64979,-0.09141856082376112,1.0562593849339166,-0.37321372076967113,-1.4498923847620657,1.5427886168189684,1.1622476311104444,1.3493024327413314,0.0006034070957648695,0.0009029449734145412,-0.0014766962449399334,0.0007578164639923486,0.0016135138102180283,-0.0005654408917951366,-0.0022435617149944714,0.2173345386981964,-50.49985122680664,-6.622818946838379,17.30384063720703,1.6432596445083618,-1.2430527210235596,0.05314789339900017,,,,,,,,,
1739302676.6607082,-0.09142025381939489,1.056261203436556,-0.37321056791987983,-1.4498937479380976,1.5427875151752786,1.1622527319050826,1.3493088274552028,-9.622633608868708e-05,0.0017685882058223546,-0.00031976365082765407,0.0003954791131611592,0.0008942845527949096,0.0008242856880008697,0.0015078550645310986,0.2411382496356964,-50.52365493774414,-6.674393653869629,17.33161163330078,1.6167093515396118,-1.2494614124298096,-0.0008682189509272575,,,,,,,,,
1739302676.6716633,-0.0914206929031828,1.0562579192652195,-0.3732078111568279,-1.4498968738665339,1.5427890428326492,1.162249902733426,1.3493072137336313,-9.765618686644352e-05,0.0010851567470222152,0.0007516526473401387,-0.0004406069043342878,0.0014245528723253501,0.001524209245008951,0.0011907751624650204,0.2173345386981964,-50.49985122680664,-6.674393653869629,17.33161163330078,1.6167093515396118,-1.2622787952423096,0.012864691205322742,,,,,,,,,
1739302676.6820195,-0.09141770441412761,1.056256726464864,-0.37320910343000313,-1.4498958879764396,1.542786753156532,1.1622483888422788,1.3493095899727279,0.0017292036115873586,8.791964057805213e-05,-0.0005561630502765944,0.00016579503688265141,-0.0007364378481028232,0.000724121737133866,0.0018244436003590548,0.1697271168231964,-50.52365493774414,-6.646622657775879,17.33161163330078,1.6231180429458618,-1.2494614124298096,-0.0072769103571772575,,,,,,,,,
1739302676.6926703,-0.09142048064829786,1.0562581022058828,-0.37320910341266783,-1.4498899561581386,1.5427867705731897,1.1622476306977079,1.3493005870352728,-4.109654601302897e-05,-0.00010513668924225488,0.0005839901054199304,0.0011767529295432279,0.00127270113335265,0.0015029209319853232,-0.001882558635210987,0.2411382496356964,-50.47208023071289,-6.646622657775879,17.28003692626953,1.6231180429458618,-1.2430527210235596,0.03300629183650017,,,,,,,,,
1739302676.70371,-0.09142237043097227,1.0562589251822765,-0.37320985858683553,-1.449891685805231,1.542792978007474,1.1622469365840988,1.3492977515650282,0.0006052975662576025,0.00019425830527100693,0.001081668100724559,0.0007099753336704826,0.0028724637726945924,-0.0003303592338856011,-0.0013085356708119676,0.2411382496356964,-50.52365493774414,-6.674393653869629,17.30384063720703,1.6103006601333618,-1.2494614124298096,0.06596527993679047,,,,,,,,,
1739302676.714713,-0.09141855814757627,1.056255241231385,-0.3732080455038912,-1.4498955482721054,1.5427875110319273,1.1622491463162816,1.3493092961378936,0.0005587558270721875,-0.0014388888796779621,0.0014682128414828946,-0.0004345503785388189,-0.00010189005641633286,0.000283810445590748,0.0032197723152142454,0.2173345386981964,-50.47208023071289,-6.698197364807129,17.35541534423828,1.6167093515396118,-1.2558701038360596,0.0064559997990727425,,,,,,,,,
1739302676.7257543,-0.09142058570035447,1.056257236229248,-0.37321371786545193,-1.4498938450675474,1.542788268504579,1.1622483888423025,1.3493062935997797,0.00045450201673221194,3.639297697386151e-05,0.00025444839199651793,0.0001865248515223688,0.0005713873024466189,0.00045564724372915887,0.00039813085768666394,0.2411382496356964,-50.49985122680664,-6.622818946838379,17.33161163330078,1.6103006601333618,-1.2494614124298096,0.019273381680250168,,,,,,,,,
1739302676.736705,-0.09142106689678936,1.0562568059261894,-0.3732119381046583,-1.4498920135082833,1.5427882030409827,1.1622476311822247,1.349302445823062,-0.0002087835013089119,-0.00018256718057624307,-0.00122196864254813,-0.00014599417744561906,-0.0007528389459134106,-4.13612882155817e-05,-0.0002769833200231528,0.2411382496356964,-50.52365493774414,-6.646622657775879,17.30384063720703,1.6103006601333618,-1.2430527210235596,0.05314789339900017,,,,,,,,,
1739302676.7476692,-0.091423080977673,1.0562625816525446,-0.3732098583148192,-1.44989381868756,1.5427901257855023,1.162248388842303,1.349307612705985,-0.0019119315994330242,0.0025277398939583654,-0.00017504525816603087,0.00031246690816011337,0.0008201192268501038,-0.00016264634070571677,0.00042595406309917804,0.2411382496356964,-50.57522964477539,-6.674393653869629,17.33161163330078,1.6304422616958618,-1.2494614124298096,0.0064559997990727425,,,,,,,,,
1739302676.7586334,-0.09142162955064626,1.0562571599164967,-0.37320806397305945,-1.4498928185511781,1.5427874948733928,1.1622491465023814,1.349306855039925,-8.612293583265128e-05,0.00022149719426328723,7.648008739453434e-06,0.0009523071846830188,-0.0017838206811639852,0.0007413803776779456,-0.00021986325305401008,0.2173345386981964,-50.49985122680664,-6.698197364807129,17.28003692626953,1.6167093515396118,-1.2558701038360596,0.012864691205322742,,,,,,,,,
1739302676.7687223,-0.09141861033236937,1.0562558519243936,-0.37320985820674646,-1.449891774233583,1.5427884056227286,1.1622476311283896,1.3493055846455868,-0.0003331659148124147,-0.0011283064458379795,2.9374089230779755e-05,0.0001204519439249903,-0.0007571831945289444,-0.0011072921143353534,0.0006048002650725639,0.2173345386981964,-50.52365493774414,-6.674393653869629,17.30384063720703,1.6103006601333618,-1.2430527210235596,0.026597600430250168,,,,,,,,,
1739302676.7787428,-0.09141861449248054,1.0562589516409233,-0.37320985831481734,-1.4498946692324333,1.5427868710319852,1.1622467557845755,1.3493079528367415,0.00014584434789366972,0.0007375908489241285,0.0007968140714174603,-0.0006027040245414503,0.0007340793999624512,-0.0007293513209245023,0.000556384099478945,0.2173345386981964,-50.52365493774414,-6.674393653869629,17.33161163330078,1.6231180429458618,-1.2366440296173096,0.0064559997990727425,,,,,,,,,
1739302676.7897265,-0.09141924892390163,1.056257266971835,-0.3732098583148192,-1.4498958849124859,1.5427875564974107,1.1622458138833522,1.3493032673235354,0.0012896800674263012,-0.00014552408136456218,0.0010036672974103433,0.0007943201607822378,-0.000234452328697214,-0.0003818585273517559,-0.0008925787596518156,0.2173345386981964,-50.49985122680664,-6.674393653869629,17.33161163330078,1.6167093515396118,-1.2366440296173096,0.019273381680250168,,,,,,,,,
1739302676.7997959,-0.09142136619403061,1.0562535287115735,-0.3732101271536773,-1.4498901976170435,1.5427922095481401,1.162247917874078,1.3493040630286324,1.0185830029689157e-06,-0.0016421955677616417,-0.001036618210915552,0.0015445234709292681,0.0003909228974140278,-0.0006632556531003425,-0.0005803705538093936,0.2173345386981964,-50.44827651977539,-6.646622657775879,17.28003692626953,1.6038919687271118,-1.2494614124298096,0.03941498324275017,,,,,,,,,
1739302676.8106863,-0.09142099868254709,1.0562573868900296,-0.3732116231260066,-1.4498919785188988,1.5427864536290314,1.1622483888343271,1.349307208258509,0.0005472167689587646,-0.0012902599012437719,-9.977410274166908e-05,0.001032301817153765,0.0008701904506199071,0.0008180924368798755,0.0003629280183500847,0.2173345386981964,-50.47208023071289,-6.646622657775879,17.30384063720703,1.6167093515396118,-1.2494614124298096,0.012864691205322742,,,,,,,,,
1739302676.8216696,-0.09141955707391437,1.0562606637578957,-0.3732096545750754,-1.4499003214835526,1.5427899322583263,1.1622487930743308,1.3493072618946207,-0.0002297886262945269,0.000922849099108384,1.9353331461359068e-05,-0.0028327316444398034,0.0001562288806869052,-5.607993410108392e-05,0.0007666261522635986,0.2173345386981964,-50.54745864868164,-6.646622657775879,17.37921905517578,1.6231180429458618,-1.2558701038360596,0.012864691205322742,,,,,,,,,
1739302676.83167,-0.09141888250826471,1.056257951484962,-0.373209385452784,-1.4498920041765506,1.5427893330955567,1.1622491464844253,1.3493044738313529,-9.915962086157786e-05,-0.0003410642956621265,0.0007992027844602111,-0.0014020995145474743,0.0009106337259884841,0.0005867123116106876,-0.0009887401017985198,0.2173345386981964,-50.49985122680664,-6.674393653869629,17.30384063720703,1.6103006601333618,-1.2558701038360596,0.03300629183650017,,,,,,,,,
1739302676.841708,-0.09141951152609003,1.0562568057848722,-0.3732080756351308,-1.4498944573048078,1.5427868069179558,1.162248086864252,1.3493018073893353,0.0005353105664604316,5.803365598395138e-05,0.0009742160179107363,-0.000931677548602611,-0.00022078387751632675,-0.0007078799251514481,-0.00046924678784594336,0.2173345386981964,-50.52365493774414,-6.698197364807129,17.33161163330078,1.6231180429458618,-1.2558701038360596,0.05955658480525017,,,,,,,,,
1739302676.8517094,-0.09142319331448592,1.0562599052223771,-0.3732139852666718,-1.4498898295539446,1.5427871063442073,1.1622472779515698,1.3493064501161507,0.0005090050949943957,0.0005167137392123731,-0.0008336187911048118,0.0006034910875442891,-0.0010639587171239135,-0.0008472597773350516,0.0003462902516875396,0.2411382496356964,-50.52365493774414,-6.646622657775879,17.28003692626953,1.6231180429458618,-1.2430527210235596,0.019273381680250168,773,748,737,41.174,0,0
1739302676.8617346,-0.09141876919879832,1.0562572382399849,-0.3732098616590316,-1.4498898766344177,1.5427879755842886,1.1622476311642786,1.3493016881638455,0.0006928086334010766,-0.0007416461294824917,0.0006926744463213779,0.0007339824196273213,0.00174089970108081,-0.0007904203125415697,-0.0006754327419339188,0.2173345386981964,-50.49985122680664,-6.674393653869629,17.28003692626953,1.6231180429458618,-1.2430527210235596,0.05955658480525017,774,748,739,41.174,0,0
1739302676.8717551,-0.09141955933648645,1.0562624237364182,-0.37321193810469366,-1.4498975428763017,1.5427865034872454,1.1622491465023812,1.3493046692667368,0.00024381235633608294,0.0009582034228053792,-0.0012357321231485589,-0.0010600417308641794,-0.0018789667408134027,0.001024455449132271,0.0008754988160267479,0.2173345386981964,-50.57522964477539,-6.646622657775879,17.37921905517578,1.6167093515396118,-1.2558701038360596,0.0064559997990727425,772,748,738,41.174,0,0
1739302676.882718,-0.09141973229594545,1.0562514512960441,-0.3732098466500785,-1.4498916593151747,1.5427875128845514,1.162248388842303,1.3493115134566454,-0.00038181527099790205,-0.0016365469731360652,-6.90770730107914e-05,0.000969021682370029,-7.195857461650981e-05,0.0006112126708284504,0.0019258988187382106,0.1935308277606964,-50.42050552368164,-6.674393653869629,17.30384063720703,1.6167093515396118,-1.2494614124298096,0.012864691205322742,772,748,737,41.174,0,0
1739302676.8927314,-0.09141709319189123,1.0562606642128034,-0.3732080766096643,-1.4498938453945465,1.5427932646633746,1.162248388842303,1.3493000646790279,0.0016764002135474482,0.0009230978004969872,0.0004874015680571917,-5.723353626094701e-06,0.0012655026242893949,0.00017450055641899954,-0.0007244179957532777,0.1935308277606964,-50.54745864868164,-6.698197364807129,17.33161163330078,1.6038919687271118,-1.2494614124298096,0.07328949868679047,773,748,737,41.283,0,0
1739302676.9036398,-0.09142240506538375,1.0562572303423694,-0.3732098848845119,-1.449895548381273,1.54278826847467,1.1622490228967752,1.3493032034840273,0.0008294053132457404,-0.00022402480532907276,0.0014003155384220032,0.00017494568933457372,-0.002416648522908583,0.0004311442650054126,-0.002219385740156887,0.2411382496356964,-50.49985122680664,-6.674393653869629,17.35541534423828,1.6103006601333618,-1.2558701038360596,0.04673920199275017,771,748,737,41.283,0,0
1739302676.9137075,-0.09142130278243438,1.0562562766679033,-0.3732062933932585,-1.4498955127328037,1.5427874236359649,1.1622476180981791,1.3493040635670581,-0.0013815897509790861,-0.0010835219368284389,0.0012010264918713282,0.0006107520220244129,-0.0007673034498464153,2.7424084221791257e-05,0.00040522079916744454,0.2411382496356964,-50.49985122680664,-6.722001075744629,17.35541534423828,1.6304422616958618,-1.2430527210235596,0.03941498324275017,774,748,738,41.283,1,0
1739302676.9237201,-0.09141992034801377,1.0562513565456537,-0.37320988456049314,-1.44989381890344,1.5427867594553235,1.1622443999398062,1.3493048137977812,-9.796168951860577e-05,-0.0020249103426205725,0.0007774096773700255,0.00010160274162685924,0.0012932554336435348,-0.0015196859844113172,-0.0006387387468997697,0.1935308277606964,-50.44827651977539,-6.674393653869629,17.33161163330078,1.6231180429458618,-1.2430527210235596,0.03300629183650017,781,747,738,41.283,1,0
1739302676.9357765,-0.09141927518660709,1.0562582380606629,-0.3732119381048229,-1.4498955335912498,1.542790402747057,1.1622483888240625,1.3493031904019999,0.0001021532882453376,-0.000675889764057249,-0.0004101421386636415,-0.0004017427054777581,-0.00045452116098854665,0.0009161746966679238,-0.0011368159527553941,0.2173345386981964,-50.52365493774414,-6.646622657775879,17.35541534423828,1.6103006601333618,-1.2494614124298096,0.04673920199275017,772,748,735,41.391,0,0
1739302676.9467192,-0.09142051949349941,1.0562572390259892,-0.3732119381046748,-1.4498916594592062,1.5427886746951356,1.1622467553000595,1.3493064506170172,-0.0006252838436898124,6.159230071501351e-05,2.7870048199404147e-05,0.0003298621509036417,0.0008862011811209204,-0.0008119662896596618,3.313152762710004e-05,0.2411382496356964,-50.49985122680664,-6.646622657775879,17.30384063720703,1.6103006601333618,-1.2366440296173096,0.019273381680250168,773,748,738,41.283,0,0
1739302676.9577188,-0.0914231576571813,1.0562588717844925,-0.37321088624969784,-1.4498919889790256,1.5427879817432382,1.1622499041617922,1.3493024438858814,9.479480740996206e-05,0.0009416216887383084,-0.0004846741942785628,0.00019100854629768076,0.00042630796869350715,0.0005810125199790051,0.00012727516548896128,0.2411382496356964,-50.52365493774414,-6.622818946838379,17.30384063720703,1.6167093515396118,-1.2622787952423096,0.05314789339900017,772,749,737,41.283,1,0
1739302676.968653,-0.09141862329215136,1.056258951692967,-0.37321293293006075,-1.4498898766386707,1.542788307860764,1.1622491406881803,1.3492985088766625,-0.0005727274325255836,0.00024082575336967747,-0.0012015007682962715,0.0015014237356475635,-0.0008765311398200754,-0.0003742790272915678,-0.0014768192656437387,0.2173345386981964,-50.52365493774414,-6.674393653869629,17.28003692626953,1.6103006601333618,-1.2558701038360596,0.05955658480525017,773,749,735,41.174,1,0
1739302676.9796226,-0.09142130404243785,1.0562612316435278,-0.3732098495836199,-1.449896238344636,1.5427914474730242,1.16224838884227,1.3492977496329492,-3.709852218984829e-05,0.0007696663886447657,0.00036566125772955496,-0.0008280374948550633,-0.00018341763590547222,0.0004390409167905392,-0.00219478736785808,0.2411382496356964,-50.57522964477539,-6.674393653869629,17.35541534423828,1.6103006601333618,-1.2494614124298096,0.06596527993679047,773,749,736,41.174,1,0
1739302676.9897263,-0.09142171743813657,1.0562603462984845,-0.3732098495661158,-1.4498916858169173,1.5427899472803364,1.162248388842303,1.3493032034301584,-0.00029021581585025516,0.0011615501184616562,0.0005370503549113724,0.0010899454748452952,0.001157853344940612,0.0002928862083585441,-0.00046017173526241876,0.2173345386981964,-50.54745864868164,-6.674393653869629,17.30384063720703,1.6231180429458618,-1.2494614124298096,0.04673920199275017,772,749,737,41.174,0,0
1739302676.9997756,-0.09142127936230274,1.0562582351241017,-0.37321194102071176,-1.449888820989734,1.5427897838249933,1.1622483757603506,1.3493072082586157,-0.00023928651453786206,0.0004724867633174301,-5.7760025231704166e-05,0.00173220260180561,0.0015727742631478907,-0.0006555049109757769,0.0011439308071676914,0.2411382496356964,-50.52365493774414,-6.646622657775879,17.25623321533203,1.5974832773208618,-1.2494614124298096,0.012864691205322742,772,747,738,41.391,1,0
1739302677.0106833,-0.09141863750245138,1.056258227603318,-0.37320985831483566,-1.4498917741120638,1.5427875107906655,1.1622498910804335,1.3493079244283341,0.0012119241710434638,-0.00019489129928463442,-0.00023108625412993363,0.0006556587354380587,-0.0011889127001436075,0.0006503463180698519,0.0014007566496160788,0.2173345386981964,-50.52365493774414,-6.674393653869629,17.30384063720703,1.6167093515396118,-1.2622787952423096,-0.020094294100999832,772,748,738,41.174,1,0
1739302677.0217035,-0.09141992522699334,1.0562569996235192,-0.3732122530526743,-1.4498945696266046,1.5427906897050532,1.1622497849712656,1.349299249282707,-3.850763273622465e-05,0.0008051089423527884,-0.0008084566221524456,-0.0019164343785404905,-9.397820557536046e-05,-0.00018252160903626532,-0.0029725241462261985,0.1935308277606964,-50.49985122680664,-6.646622657775879,17.33161163330078,1.6167093515396118,-1.2622787952423096,0.07969819009304047,771,755,737,41.283,1,0
1739302677.0326283,-0.09142032393321542,1.0562606645398458,-0.37320831087851597,-1.449897316236168,1.5427867939017739,1.1622483888416302,1.3493018181336887,0.0018557707373405704,0.0015541464627075985,0.0005652302174580998,9.594696573118748e-05,-0.0016256819879674259,-3.5127566221471976e-05,-0.0007796588116148662,0.2411382496356964,-50.54745864868164,-6.698197364807129,17.37921905517578,1.6231180429458618,-1.2494614124298096,0.019273381680250168,771,748,737,41.283,1,0
1739302677.0426958,-0.09142246760388915,1.0562572656636458,-0.3732080766138457,-1.4498938185767438,1.5427882684514338,1.1622499041624597,1.349304069302808,0.00018229196292711674,0.0005470818169714585,5.4628596807176195e-05,0.0011958460942288643,-0.00045265849673451847,0.0010947196450497888,-0.00017272050211502394,0.2689092457294464,-50.49985122680664,-6.698197364807129,17.33161163330078,1.6103006601333618,-1.2622787952423096,0.03941498324275017,773,749,737,41.283,1,0
1739302677.053645,-0.09142310581615494,1.0562523791191707,-0.3732119381046913,-1.4498937391050304,1.5427867531305868,1.1622482536621301,1.349303727366176,0.0005606678647487915,-0.0013660980878888135,-0.0006863849395778879,0.00037992145389912176,-0.00011886833732120309,-0.0010191363158659245,-0.0012694181823764616,0.2411382496356964,-50.47208023071289,-6.646622657775879,17.33161163330078,1.6231180429458618,-1.2494614124298096,0.0064559997990727425,772,748,739,41.065,1,0
1739302677.0637171,-0.0914224614595709,1.0562589516772614,-0.3732128829486734,-1.449894762679943,1.5427928602159704,1.1622468730368665,1.3493040695228757,7.44902904874759e-05,0.0016749851943267335,-0.0009127626182534319,0.0002444880240478844,0.0019985144700543547,-0.0001288824570924984,-0.0007734086991335931,0.2411382496356964,-50.52365493774414,-6.646622657775879,17.30384063720703,1.6103006601333618,-1.2366440296173096,0.03941498324275017,773,747,738,41.174,1,0
1739302677.074706,-0.09141888290070699,1.05625894871364,-0.3732119842551521,-1.4498901853884008,1.5427906897309738,1.1622483888423,1.3493059131165857,0.0003282685111136948,-0.0001153059615391646,-0.0004055159314417763,0.001588376142730448,-0.0005126544711759192,0.00023362142332847524,0.0011884789064462247,0.2173345386981964,-50.52365493774414,-6.674393653869629,17.28003692626953,1.6167093515396118,-1.2494614124298096,0.03300629183650017,771,748,738,41.065,1,0
1739302677.0857012,-0.09142238163229804,1.0562530659211629,-0.3732087843068021,-1.4498940570003522,1.542790435996229,1.162248388842303,1.3493006264445608,0.00038900797703613843,-0.0015316198243167417,0.001070629311255576,0.0001828951038548659,0.001975146722089638,0.00012580052398116466,-0.001047260809036174,0.2411382496356964,-50.47208023071289,-6.698197364807129,17.33161163330078,1.6231180429458618,-1.2494614124298096,0.05955658480525017,772,747,735,41.174,1,0
1739302677.0966384,-0.09141906301970996,1.056255092412049,-0.37321193854070267,-1.4498937391054791,1.542788426100982,1.1622476311822247,1.3493088326538005,8.550052991015397e-05,-0.00026290630489373535,-0.0006036559789358966,-6.22651932970659e-05,0.0013602207299208777,-0.0010681095706762912,0.0015284996992681985,0.1935308277606964,-50.49985122680664,-6.646622657775879,17.33161163330078,1.6103006601333618,-1.2430527210235596,-0.0008682189509272575,771,747,737,41.174,0,0
1739302677.1067286,-0.0914207723008362,1.0562589515359446,-0.3732098122056802,-1.4498917400948839,1.542785887449585,1.1622472114666036,1.3493019978790934,0.00040633472534908175,0.0003757659926943972,-7.203211940176287e-05,0.0010045475432812364,-0.0010504250758109441,-0.0006968839481165882,-0.0006302659264289885,0.2173345386981964,-50.52365493774414,-6.646622657775879,17.30384063720703,1.6304422616958618,-1.2494614124298096,0.05955658480525017,770,747,737,41.174,0,0
1739302677.1176515,-0.09141989024482217,1.0562543781497369,-0.3732119380566717,-1.4498966806901121,1.5427909918446108,1.162243392623061,1.34930527502143,-0.0009164876822044608,-0.0015254155260680962,-0.00029264353102673786,-0.0013611534425886187,0.0018055507857280104,-0.0007001905469044624,0.0002623131153954774,0.1935308277606964,-50.49985122680664,-6.646622657775879,17.33161163330078,1.6231180429458618,-1.2430527210235596,0.06596527993679047,772,748,738,41.174,1,0
1739302677.1276622,-0.09142309128341991,1.0562552408563335,-0.37320977925379795,-1.4498955219395357,1.542791109492457,1.1622476311104444,1.3493048271149124,-0.0024090996367001896,-3.179954649362357e-05,0.0006363457551448253,-0.00011572553603254616,-6.118964723703846e-05,0.00027947159443823485,0.0005937493735314356,0.2411382496356964,-50.47208023071289,-6.674393653869629,17.35541534423828,1.6231180429458618,-1.2430527210235596,0.03300629183650017,772,748,737,41.174,0,0
1739302677.137673,-0.09142343160923772,1.0562551611048703,-0.37320988445114006,-1.4498987020032894,1.542787646206119,1.1622491072565235,1.349297449611354,-0.000456229811202929,-0.0006209663529293518,0.0002844921101411175,-0.0022396817516855128,0.000937142225352145,-0.000353863201423399,-0.002144475246592008,0.2411382496356964,-50.47208023071289,-6.674393653869629,17.35541534423828,1.6167093515396118,-1.2558701038360596,0.05955658480525017,770,748,738,41.283,0,0
1739302677.1477017,-0.09141855827355427,1.056258951692061,-0.37321218598085776,-1.44989660050754,1.5427901650340214,1.1622483495957816,1.34930669467082,0.0011131114292181371,0.001036630537394452,0.00024247288333819245,-0.00013922641995212526,0.0006716019466775681,0.00027866978535441827,0.0007529841300386189,0.2173345386981964,-50.52365493774414,-6.646622657775879,17.33161163330078,1.6304422616958618,-1.2494614124298096,0.019273381680250168,772,748,738,41.174,0,0
1739302677.1577485,-0.09141713537368906,1.0562543781497378,-0.3732080493963313,-1.4498956134028271,1.542787630215736,1.16224751344399,1.3493055847055493,-0.0004067024585290162,-0.00012697454056103308,0.0005067403951176914,-0.00018077453118397455,-0.00043395159957082655,0.0001380992690013889,0.0006648180816304584,0.1935308277606964,-50.49985122680664,-6.698197364807129,17.35541534423828,1.6167093515396118,-1.2430527210235596,0.026597600430250168,772,748,738,41.174,1,0
1739302677.1688085,-0.09142077153390657,1.0562572391565366,-0.3732098495661155,-1.4498930115454813,1.542791447796487,1.1622491465017166,1.3493088318159274,0.00024680005705917144,0.0004309882097644974,0.0001156029299208004,0.00067915334821231,0.0012787000382987919,0.001009893634083458,0.0009330137881244144,0.2173345386981964,-50.49985122680664,-6.674393653869629,17.28003692626953,1.6103006601333618,-1.2558701038360596,-0.0008682189509272575,772,747,738,41.391,0,0
1739302677.1796823,-0.09141717329628853,1.0562596669491553,-0.3732112296156355,-1.4498973045844357,1.5427875631902566,1.1622499041624597,1.3493009132974723,0.0015959422673917415,0.0005215627025517008,0.00047043334042193915,-0.0007592201068791386,-0.000610604377456122,0.0009718689432929304,-0.0012979382004576455,0.1935308277606964,-50.52365493774414,-6.646622657775879,17.37921905517578,1.6167093515396118,-1.2622787952423096,0.05314789339900017,772,746,736,41.174,1,0
1739302677.1906419,-0.09142065787490315,1.0562550934095127,-0.3732119376686479,-1.4498955247241434,1.5427854842398316,1.1622476305362024,1.3493079659100435,0.0003456194855815924,-0.0003999599007676877,-0.0006056882118278793,-0.0009113701132915567,-0.0006628865810503787,-0.00018199854550914616,0.0013320547379604012,0.2173345386981964,-50.49985122680664,-6.646622657775879,17.35541534423828,1.6368509531021118,-1.2430527210235596,0.0064559997990727425,771,748,737,41.283,1,0
1739302677.2006445,-0.09142171119179755,1.05625894871364,-0.3732097533321453,-1.4498939110449036,1.5427867668645676,1.1622491421417198,1.3493053903144963,-0.001639977263553061,0.0009606238748799371,0.0006846935149309244,7.034767177354164e-05,-9.460972961713022e-06,0.0008615969000480701,-9.071584467596318e-06,0.2173345386981964,-50.52365493774414,-6.674393653869629,17.30384063720703,1.6231180429458618,-1.2558701038360596,0.019273381680250168,772,747,738,41.174,1,0
1739302677.2106845,-0.09141948659236986,1.056256691132025,-0.37321032781885544,-1.4498916593519622,1.5427869101142457,1.1622491334203553,1.3493015311624876,-4.773124974948836e-06,-0.0006100801537214139,0.00016853957388502134,0.000461247312622156,-0.0007878629324947007,0.0001093152285403533,-0.0013707707038052462,0.2173345386981964,-50.52365493774414,-6.674393653869629,17.30384063720703,1.6231180429458618,-1.2558701038360596,0.05955658480525017,772,743,738,41.174,1,0
1739302677.2217188,-0.09142069341255102,1.0562545266174332,-0.37321185922631606,-1.4498916947804552,1.5427906913748304,1.1622473292040996,1.3493029690053553,-0.00036271667765350803,9.55967660851385e-05,-0.00026798200725879344,0.0015401808282938052,-7.29856532364046e-05,-0.0009884214995434472,0.00018158989716943007,0.2173345386981964,-50.47208023071289,-6.646622657775879,17.30384063720703,1.6167093515396118,-1.2494614124298096,0.012864691205322742,773,747,738,41.283,0,0
1739302677.23277,-0.09142332792264168,1.056258633688929,-0.3732119381042295,-1.4498916720689325,1.5427871238576891,1.1622476310147374,1.34930546688608,-0.0016325682868519418,-0.00034522974432085924,0.0006851700560080849,0.0014100430803869414,0.0013415947491381738,-0.00024097904629832617,0.00013658956226873854,0.2411382496356964,-50.52365493774414,-6.646622657775879,17.30384063720703,1.6231180429458618,-1.2430527210235596,0.026597600430250168,771,747,738,41.391,1,0
1739302677.2437372,-0.09141853202731703,1.0562552412300388,-0.3732119419929216,-1.4498937392491116,1.5427875558528157,1.162248388842302,1.3493088318152622,0.0020138329274848807,-0.0006584922397850232,-0.0003623461455987451,8.990512558748316e-05,0.0003106712955336188,-0.00016301323833753197,0.0023578863678530492,0.2173345386981964,-50.47208023071289,-6.646622657775879,17.33161163330078,1.6167093515396118,-1.2494614124298096,-0.0008682189509272575,770,747,738,41.391,1,0
1739302677.2546976,-0.09141853298197303,1.0562575571004647,-0.37320986112301946,-1.449890600831882,1.542789984373038,1.1622491445643144,1.3493021394852467,0.0015334634380075973,0.00045183686911446817,0.0003556289665457219,0.0011249643586569193,-3.0354072131469866e-05,4.558113934853271e-06,-0.0010189340642371221,0.2173345386981964,-50.49985122680664,-6.674393653869629,17.28003692626953,1.6231180429458618,-1.2558701038360596,0.04673920199275017,771,746,736,41.283,1,0
1739302677.2656333,-0.09142340369527467,1.0562592960811943,-0.3732108831919476,-1.4498916606342884,1.542791030983682,1.1622491072564918,1.3493025387748312,-0.00018252074515892264,0.0018679689774839504,-0.000690605291119139,-0.0003661735234206857,0.0009036065372730515,2.2569827809805005e-05,-0.002618102113904475,0.2411382496356964,-50.52365493774414,-6.674393653869629,17.30384063720703,1.6231180429458618,-1.2558701038360596,0.03941498324275017,772,748,738,41.174,1,0
1739302677.2757263,-0.09142120202927709,1.0562589546024628,-0.3732137207874793,-1.4498937420471314,1.5427882713819925,1.16224879328945,1.349308831807287,0.0010547836202388302,0.0016584947854473614,-0.0013528469124219175,-0.0008129016236603086,0.0002613945766575253,-0.0012399816033871172,0.0016799809852818147,0.2411382496356964,-50.52365493774414,-6.622818946838379,17.33161163330078,1.6103006601333618,-1.2558701038360596,-0.0008682189509272575,772,747,738,41.283,1,0
1739302677.2866237,-0.09141585304923054,1.0562589874871093,-0.37320985831481923,-1.4498898771092303,1.5427911617484993,1.162249899799815,1.3493024453394316,0.0016876680558386074,5.349993808815629e-07,0.0005125923292082802,0.0025387818763308893,0.00146809069645864,0.0004887775311714388,-0.0003099082508073486,0.1697271168231964,-50.52365493774414,-6.674393653869629,17.28003692626953,1.6231180429458618,-1.2622787952423096,0.05314789339900017,770,747,736,41.283,1,0
1739302677.2966332,-0.09142171991698633,1.0562582810101109,-0.37320985863883976,-1.449889876636818,1.5427882745011103,1.1622499022243187,1.3493088303623688,0.00022088625613410497,-4.000202906000118e-05,-0.0006324806507525348,0.001449932195747595,0.0010941882536565552,0.0002416577690313998,0.001172335421218921,0.2173345386981964,-50.54745864868164,-6.674393653869629,17.28003692626953,1.6103006601333618,-1.2622787952423096,-0.0008682189509272575,771,748,738,41.174,1,0
1739302677.3067005,-0.0914234290228506,1.0562589865382643,-0.37321193810468023,-1.4498948085532781,1.5427858877179734,1.162249546589066,1.3493030633791092,-0.0010037781612164893,-0.00023496190404305846,-0.0008273222090782619,-0.0014263231932442034,-0.0006328583737163921,-0.0003820392173176889,-0.0014794400804424262,0.2411382496356964,-50.52365493774414,-6.646622657775879,17.33161163330078,1.6304422616958618,-1.2622787952423096,0.03941498324275017,772,746,740,41.283,1,0
1739302677.3177478,-0.09142148320729099,1.0562552412320305,-0.37320984621805103,-1.4498955335604977,1.5427911273477963,1.1622483888402844,1.3492966914606381,-0.00033847027279788287,-0.0002652897245265546,0.00031991476322925787,-0.0009709750925671213,-9.71410537442306e-05,0.00017835835085437335,-0.0032911224621747976,0.2173345386981964,-50.47208023071289,-6.674393653869629,17.35541534423828,1.6231180429458618,-1.2494614124298096,0.06596527993679047,773,747,739,41.174,2,0
1739302677.3296483,-0.09142245307154578,1.0562561949061504,-0.37320807174948495,-1.4498916552802934,1.5427891840715104,1.1622491465023814,1.3493055773935845,0.0006832521062225675,-0.00058383433724467,0.0003952300019383532,0.0006586807946238539,-0.0005828973704933635,0.00044383342955266777,0.0005607054072318132,0.2411382496356964,-50.47208023071289,-6.698197364807129,17.30384063720703,1.6304422616958618,-1.2558701038360596,0.026597600430250168,772,748,738,41.174,1,0
1739302677.3406236,-0.09141616512410938,1.0562552324068997,-0.3732119251438298,-1.449893739103662,1.5427891073502766,1.1622468735221463,1.349301674920371,0.0017613080208611106,-0.0007701872470940495,0.000336084661897332,-8.442080130163624e-05,-0.0003443271909420775,-0.0004315639555516386,-0.000996287551920299,0.1697271168231964,-50.47208023071289,-6.646622657775879,17.33161163330078,1.6304422616958618,-1.2366440296173096,0.05955658480525017,772,749,738,41.174,0,0
1739302677.3507204,-0.09142342951486543,1.0562589507122218,-0.37321265008581317,-1.4498923745695662,1.5427890275825498,1.1622465715440953,1.3493024458238736,-0.0014642125543352052,6.277652866113425e-05,-0.0012438254463060443,-0.00072838240274234,-0.0005034217375172582,-0.00011671815993583926,-0.00023667521878793026,0.2411382496356964,-50.52365493774414,-6.646622657775879,17.30384063720703,1.6038919687271118,-1.2430527210235596,0.05314789339900017,773,749,739,41.174,1,0
1739302677.3617098,-0.09142343388541925,1.0562606642141437,-0.37320783943081964,-1.4498937391077222,1.5427929125437876,1.162249146281059,1.3493079659186948,-0.0012851044246325373,0.001044129449681741,0.0008537278689513962,0.0002207251226730356,0.001913129130487261,0.0003382873857785288,0.0016542969578886618,0.2411382496356964,-50.54745864868164,-6.698197364807129,17.33161163330078,1.6103006601333618,-1.2558701038360596,0.0064559997990727425,772,749,738,41.283,2,0
1739302677.3717158,-0.09142172039039081,1.0562554796504129,-0.3732077606858004,-1.4498906743088462,1.5427906899452069,1.1622486755520978,1.349305584701416,0.00033114888289713005,-0.0010437737322542737,0.0009290838367205121,0.00098371307176749,0.001017121139127257,0.00022304591834359277,0.000940433853505284,0.2173345386981964,-50.47208023071289,-6.698197364807129,17.28003692626953,1.6167093515396118,-1.2558701038360596,0.026597600430250168,775,749,738,41.174,0,0
1739302677.3826864,-0.0914234212463648,1.0562552412331796,-0.3732096221020416,-1.4498957602037854,1.5427867929327417,1.1622483888396444,1.3493048095987348,-0.0006265612385152289,-0.00028640067584584806,0.00045953811879443463,-0.0005783310351946838,-0.0009183092615679072,-0.00022249553669746497,-0.0005753020161499199,0.2411382496356964,-50.47208023071289,-6.674393653869629,17.35541534423828,1.6231180429458618,-1.2494614124298096,0.03300629183650017,773,749,739,41.174,0,0
