IITGN-Robotics/Franka_IITGN_ROBOTICS/franka_ros/franka_iitgn/data01/s_b_012.csv
time,fr3_joint1_pos,fr3_joint2_pos,fr3_joint3_pos,fr3_joint4_pos,fr3_joint5_pos,fr3_joint6_pos,fr3_joint7_pos,fr3_joint1_vel,fr3_joint2_vel,fr3_joint3_vel,fr3_joint4_vel,fr3_joint5_vel,fr3_joint6_vel,fr3_joint7_vel,fr3_joint1_eff,fr3_joint2_eff,fr3_joint3_eff,fr3_joint4_eff,fr3_joint5_eff,fr3_joint6_eff,fr3_joint7_eff,flexpin1,flexpin2,flexpin3,Force,ContactMic,ContactMic_gt
1739303358.7468636,-0.06765924727709761,1.0394919921536139,-0.39626663043064836,-1.4678701667337821,1.536086578004475,1.1835946053110453,1.3546055614238384,-0.0006901762775178217,0.0005019684238803842,0.0008658850068942309,0.00014533594482061673,-0.0005019178628209128,-0.0008738053033279432,0.003505850656400778,0.5188482403755188,-50.36893081665039,-7.229813575744629,16.93488311767578,1.5709329843521118,-1.2888290882110596,-0.0072769103571772575,,,,,,,,,
1739303358.7584975,-0.06765801039168244,1.0394959511749495,-0.396262476544417,-1.467866970026165,1.5360848704372296,1.1835977441885126,1.354601183851309,0.0007632321153162628,-0.0005641362264722448,-0.0003151054821204152,0.00016711752980274152,-0.000480454664616967,0.0005915316458491155,0.00160602171833526,0.4434697926044464,-50.42050552368164,-7.257584571838379,16.95868682861328,1.5581156015396118,-1.3153793811798096,-0.0008682189509272575,,,,,,,,,
1739303358.7694814,-0.06767126325156872,1.0394979478090103,-0.3962601866238536,-1.4678661815990615,1.5360915439067322,1.183596228868356,1.354603729976251,-0.0017858947121156118,0.0001121568651592103,0.0005543000582494282,-0.0005028816857611774,0.0011749568578545253,-0.0002786003289198307,0.0011321182570944615,0.5426519513130188,-50.44827651977539,-7.281388282775879,16.98249053955078,1.5645242929458618,-1.3025619983673096,0.012864691205322742,,,,,,,,,
1739303358.780558,-0.0676710649316109,1.0394980361121804,-0.3962590023112471,-1.4678722130027606,1.5360855796007489,1.183595363467753,1.3546033222481177,-0.0012761358319775102,0.00032224349578230583,0.00025888164952330263,-0.002386556870340717,-0.00022608314350793256,0.00047278105115642656,0.0020883633644161537,0.4910772144794464,-50.44827651977539,-7.257584571838379,17.03406524658203,1.5517069101333618,-1.2952377796173096,-0.020094294100999832,,,,,,,,,
1739303358.7914846,-0.06766766913996165,1.0394988198309318,-0.39625720769836725,-1.4678608213195732,1.5360900538093039,1.1835938476509695,1.35460026262913,-0.0011327733979039677,-0.0012781130706580697,-0.00011265916244389957,0.0008972567685923891,0.001702555479218224,0.00018000322471257974,-0.0002762934336811683,0.4434697926044464,-50.42050552368164,-7.281388282775879,16.91107940673828,1.5452982187271118,-1.2824203968048096,0.03300629183650017,,,,,,,,,
1739303358.8014925,-0.0676676754552474,1.0394968951644148,-0.39626208894471715,-1.4678633649043036,1.5360888252199256,1.1835899110765005,1.3546022623188085,0.00035813950283766804,-0.0003079622135217667,-0.00019332446699219788,-0.0017974870671421837,0.00029473884498030893,-0.0006745398370073957,5.097638933455797e-05,0.4434697926044464,-50.42050552368164,-7.257584571838379,16.95868682861328,1.5517069101333618,-1.2760117053985596,0.019273381680250168,,,,,,,,,
1739303358.8115518,-0.06766743284634713,1.0394962981911364,-0.39625898911961305,-1.467862963968162,1.536084822578791,1.1835953629172882,1.354599546428497,0.0004023905501614059,-0.0017913352863914796,7.750201096385452e-05,-0.0014504123857892095,-0.0007124540945773283,0.00042929698274904763,0.0015894170926945297,0.4434697926044464,-50.42050552368164,-7.257584571838379,16.98249053955078,1.5581156015396118,-1.2952377796173096,0.012864691205322742,,,,,,,,,
1739303358.8224778,-0.06767618332067778,1.0394953098877728,-0.39625930728560427,-1.4678661010050025,1.5360873756156024,1.1835962288683555,1.3546005922699345,-0.002199120392448479,-0.0005459355469411614,-0.00025492630229031056,0.0009859032003033705,-1.494399775519732e-05,0.0002713368809931246,-0.0004633079777341173,0.5188482403755188,-50.39670181274414,-7.257584571838379,17.03406524658203,1.5645242929458618,-1.3025619983673096,0.012864691205322742,,,,,,,,,
1739303358.8334923,-0.06766974311842516,1.0395011633710207,-0.39625922847223094,-1.4678610487871118,1.5360880764974847,1.1835969865284341,1.3546061648490948,0.0005845469649558545,0.0007773387404215734,0.00021817661486010328,0.0002138033851598408,6.075810168455614e-05,0.0002392577665076041,0.0010342196591045377,0.4672735035419464,-50.44827651977539,-7.257584571838379,16.95868682861328,1.5581156015396118,-1.3089706897735596,-0.0072769103571772575,,,,,,,,,
1739303358.8445873,-0.06766803433657241,1.039497429507266,-0.3962572073725952,-1.4678583463955666,1.5360869612631345,1.1835946231897132,1.3546025646434134,0.0005169088902818856,0.0013816345581094379,0.0011036971483351877,0.0012455696423593898,-0.0011212024889295637,0.0007447742158700592,-0.00024903796481784445,0.4434697926044464,-50.39670181274414,-7.281388282775879,16.95868682861328,1.5645242929458618,-1.2888290882110596,-0.013685601763427258,,,,,,,,,
1739303358.855502,-0.06766603362778026,1.0395011633709768,-0.39625901555807147,-1.4678605677135232,1.5360870385337746,1.1835946053110789,1.3546021353907998,0.0025111935716784096,0.0010067841087909204,-0.000162010524556683,-0.0013751520540786384,0.0009306542202595497,0.00025725098631318953,0.0014424041529688338,0.4156987965106964,-50.44827651977539,-7.257584571838379,16.98249053955078,1.5709329843521118,-1.2888290882110596,-0.0008682189509272575,,,,,,,,,
1739303358.8655615,-0.06767430064501033,1.0394982758934106,-0.3962614527262157,-1.4678580963802341,1.5360891179310447,1.1835938521206337,1.3545977663904756,0.00032216782047406824,-0.0013455397012779016,-0.0006127717968432743,0.0006919770473635979,0.0002243670841054103,0.0006400287791132574,-0.0014964695679427205,0.4910772144794464,-50.44827651977539,-7.257584571838379,16.95868682861328,1.5452982187271118,-1.2824203968048096,0.026597600430250168,,,,,,,,,
1739303358.8775887,-0.06767511577677471,1.0395028701702558,-0.3962572724176998,-1.4678619320171302,1.5360855802363962,1.1835949337800744,1.35459879317667,-0.0022652184290083525,0.000909251622325098,0.0003952605448540931,-0.0012551742881432592,-0.001066935835666492,0.0007152578794726422,-0.0009333157235558811,0.4910772144794464,-50.47208023071289,-7.309159278869629,17.01026153564453,1.5517069101333618,-1.2824203968048096,0.019273381680250168,,,,,,,,,
1739303358.8875897,-0.06767300554803173,1.0395011664597713,-0.3962512180363389,-1.4678619310358323,1.5360862366620813,1.1835953629772547,1.3545973327115928,-6.148957356158166e-05,0.00028361016828525753,0.001378890405015978,-0.0012862449595323422,-0.0010742707509490935,0.0002771109588192912,-0.0010309320929394869,0.4434697926044464,-50.44827651977539,-7.332962989807129,17.01026153564453,1.5645242929458618,-1.2952377796173096,0.03941498324275017,,,,,,,,,
1739303358.8985062,-0.06767256191356538,1.0394991156460778,-0.39626130722754804,-1.467858067587806,1.5360888384546665,1.1835946053110453,1.3545970221264543,1.3306877710506852e-05,0.0009601352642904738,-0.0010828158677985884,0.0004148149876574171,-0.00014333316324124527,0.00016199635518369298,0.000851448960909531,0.4672735035419464,-50.42050552368164,-7.229813575744629,16.95868682861328,1.5517069101333618,-1.2888290882110596,0.03300629183650017,,,,,,,,,
1739303358.9085329,-0.06767501098052461,1.0394990206899228,-0.3962574451478357,-1.4678580685689024,1.5360887179453262,1.1835969865284344,1.3545946811308454,-0.000537445973072004,0.0005752921008611278,-0.0001795357240641168,-0.00010336018478288727,0.002184111059315852,0.0005435869241093651,-0.0009451399511831526,0.4910772144794464,-50.44827651977539,-7.281388282775879,16.95868682861328,1.5517069101333618,-1.3089706897735596,0.05314789339900017,,,,,,,,,
1739303358.9194922,-0.06767087576130848,1.0395001483410382,-0.3962610688574212,-1.4678562594009799,1.5360833072586344,1.1835946053110453,1.354597856213619,0.0015400862769246139,0.0003927438853124027,-0.0008901497545172879,0.0006101899168088208,-0.001105967705392434,-5.1530069555323784e-05,-0.0004096024562293752,0.4434697926044464,-50.42050552368164,-7.229813575744629,16.93488311767578,1.5709329843521118,-1.2888290882110596,0.03941498324275017,,,,,,,,,
1739303358.9295309,-0.0676756660900746,1.039497429196828,-0.39626110858866165,-1.4678619309263619,1.5360873177759669,1.1835939683319758,1.3545978814387727,-0.00044430002792967204,-0.001875804356077617,-3.5656074893143586e-05,-0.0026867034422277817,0.0011614344625726818,-6.237501391015784e-05,-0.0013663223585282333,0.4672735035419464,-50.39670181274414,-7.257584571838379,17.01026153564453,1.5645242929458618,-1.2824203968048096,0.05314789339900017,,,,,,,,,
1739303358.9405525,-0.06767675613771545,1.0395025447365218,-0.3962551266122065,-1.467857750641174,1.5360880673916903,1.1835946053117266,1.354598284926348,-0.00041558309585266724,0.000564482134034819,0.0007818291196203778,0.0005182058852092875,0.0005097306049446079,7.18294635783436e-05,-1.7668111631516023e-05,0.4910772144794464,-50.47208023071289,-7.309159278869629,16.95868682861328,1.5581156015396118,-1.2888290882110596,0.026597600430250168,,,,,,,,,
1739303358.9505594,-0.06767746179546118,1.0395028789748917,-0.3962551266002419,-1.4678555692136002,1.5360880808004926,1.1835946053110453,1.3546010492521052,0.00021764207579093675,0.0008515900125145143,0.0003282220557667344,0.0013926677813713851,0.0006849780944481404,-0.000374491603734657,-4.77232833206257e-05,0.4910772144794464,-50.47208023071289,-7.309159278869629,16.93488311767578,1.5581156015396118,-1.2888290882110596,-0.0008682189509272575,,,,,,,,,
1739303358.9615645,-0.0676756792433682,1.0395011660237559,-0.3962589890671164,-1.467855922761356,1.5360873217611164,1.1835952059876969,1.3545946099425408,0.00043899782235237716,-4.697731181702079e-05,-0.00022932291172723707,-0.0003236966496196615,5.547199326418089e-05,-0.0005727836194882158,-0.001094144154809974,0.4672735035419464,-50.44827651977539,-7.257584571838379,16.95868682861328,1.5645242929458618,-1.2952377796173096,0.05314789339900017,,,,,,,,,
1739303358.972559,-0.06767554446025514,1.0394994062834468,-0.3962571276530974,-1.4678570784347502,1.5360872683956261,1.183594605310159,1.3546010267450928,0.0001363877035953506,-0.0005022495294401401,-0.0002361421460204061,0.0012265066925414903,-0.000852982219400548,0.00023256016829361985,-0.0012706895599249436,0.4672735035419464,-50.42050552368164,-7.281388282775879,16.95868682861328,1.5645242929458618,-1.2888290882110596,0.026597600430250168,,,,,,,,,
1739303358.9835055,-0.06767773375108112,1.039496740746526,-0.3962610688556385,-1.4678577051349424,1.536088080965336,1.1835938476509666,1.3545989950291235,-0.001782489839889656,-0.0019645863289956367,-0.000901721640731636,-0.00012494559521141423,0.0006469556782244261,-0.00029066936746061155,0.0010940243657779943,0.4910772144794464,-50.39670181274414,-7.229813575744629,16.98249053955078,1.5581156015396118,-1.2824203968048096,0.019273381680250168,,,,,,,,,
1739303358.9945157,-0.06767406805390272,1.03949899420031,-0.39625515996396,-1.4678559226765728,1.5360880675572648,1.1835953629711233,1.3546027645278818,0.00025073463997166357,-0.000228221846263072,0.00045929645948775057,-0.00016124232011211046,0.0007398146396027235,0.0004890902021566125,0.001065746947559518,0.4434697926044464,-50.44827651977539,-7.281388282775879,16.95868682861328,1.5581156015396118,-1.2952377796173096,0.012864691205322742,,,,,,,,,
1739303359.0045607,-0.06767486361860499,1.0395027906405871,-0.39625935212265284,-1.4678553194263724,1.5360881481140853,1.1835952958230769,1.3546012092273383,0.0008019513228067904,0.0007019016827662748,0.00025814098299037466,0.0007783116977891501,0.00013042037625671466,0.0007600713658280091,0.0009229851465399249,0.4672735035419464,-50.47208023071289,-7.281388282775879,16.93488311767578,1.5452982187271118,-1.2824203968048096,-0.0008682189509272575,,,,,,,,,
1739303359.014569,-0.0676740720434533,1.039501086985465,-0.39625898910345453,-1.4678540341445412,1.5360879543011756,1.1835946053355701,1.354601893485822,0.0005421170035334408,0.00041537230944358063,-0.0006318013378070784,0.0012478618070468031,-0.00034311636694451,-0.0001980413234141164,0.0017683212803541104,0.4434697926044464,-50.44827651977539,-7.257584571838379,16.93488311767578,1.5581156015396118,-1.2888290882110596,-0.0072769103571772575,,,,,,,,,
1739303359.025582,-0.06767357468450602,1.0395020142779947,-0.3962581338187477,-1.467859842050471,1.5360848282255308,1.1835953629711238,1.3546016320169025,0.0008444886244178057,0.0005813646279763735,-0.0003459785732977937,-0.0022875702805450504,-6.911602759574595e-05,0.00021261752988624,0.000949028689367445,0.4672735035419464,-50.44827651977539,-7.281388282775879,16.98249053955078,1.5581156015396118,-1.2952377796173096,0.0064559997990727425,,,,,,,,,
1739303359.0365367,-0.06767578349302901,1.0395012959848562,-0.3962592274874406,-1.467858068568935,1.5360897517738394,1.1835946053110453,1.3545949664133554,-7.337661978723973e-05,-0.0003792297424165678,-0.0008869123278849711,-0.0009908895753281597,0.001962077673948893,-0.00019897553184759027,-0.0014585126383923454,0.4672735035419464,-50.44827651977539,-7.257584571838379,16.95868682861328,1.5452982187271118,-1.2888290882110596,0.05955658480525017,,,,,,,,,
1739303359.048534,-0.06767602123440901,1.039502876037844,-0.3962587527134534,-1.4678596123549883,1.5360880804705137,1.1835946048265285,1.3545953851602266,0.00042132748994358135,0.0004985162624784242,-0.0005401450135691107,-0.0011442336509695553,0.0009172435113995825,1.3794946953476513e-05,-0.002549136999472844,0.4672735035419464,-50.47208023071289,-7.257584571838379,16.98249053955078,1.5581156015396118,-1.2888290882110596,0.04673920199275017,,,,,,,,,
1739303359.059506,-0.06767407195123433,1.0394950885851155,-0.3962599476830589,-1.4678579802289864,1.536090381374022,1.1835952959886191,1.3546034550393409,0.0016848925134846787,-0.003546972608958243,-0.00098457194844695,5.2844338371729044e-05,0.0005800161295349552,0.000648785471237173,0.0016973656284383623,0.4434697926044464,-50.42050552368164,-7.257584571838379,16.95868682861328,1.5645242929458618,-1.2824203968048096,0.019273381680250168,,,,,,,,,
1739303359.0695784,-0.06767887159118177,1.039499168449874,-0.39625626156233285,-1.467855839402799,1.5360880941000066,1.1835938879024974,1.354599506387236,-2.6899239979411032e-05,-0.0007840609571342291,0.0007411283222511895,0.0005156661228578908,0.0005881694900279842,0.00038902488072617934,-0.0006802069503227006,0.4672735035419464,-50.42050552368164,-7.281388282775879,16.95868682861328,1.5581156015396118,-1.2824203968048096,0.012864691205322742,,,,,,,,,
1739303359.080565,-0.06767407326732623,1.0395004410655702,-0.39626104260597167,-1.467855912614305,1.5360905022206495,1.1835938084053372,1.3546022538707092,0.0005554853049107133,0.00017765134752775454,-1.9224476708776597e-05,0.0004378989385218526,0.000269738751701703,-0.0005006988269300875,0.0014253699599008271,0.4434697926044464,-50.44827651977539,-7.229813575744629,16.95868682861328,1.5645242929458618,-1.2824203968048096,-0.0072769103571772575,,,,,,,,,
1739303359.0915189,-0.06767995231117968,1.0395029084026601,-0.39626107016472256,-1.4678552159697633,1.5360877544891636,1.183593847650302,1.3546025891503508,-0.001352555826343447,0.00041301853534299413,-0.00032661073646054713,0.0017033394591070923,0.0012723796717952298,0.0003425852073911818,3.6275845730571025e-05,0.4910772144794464,-50.47208023071289,-7.229813575744629,16.93488311767578,1.5517069101333618,-1.2824203968048096,0.026597600430250168,,,,,,,,,
1739303359.10161,-0.06767467942605518,1.0395011635528864,-0.39626106885697926,-1.4678570049638586,1.5360865649778161,1.183594605311045,1.3546010269221627,0.0011501960142435866,-0.0004104279134654845,-0.0013817898990916078,0.0005526827808185141,0.0006951532048207653,-0.0008538281316613483,0.0011685641491126053,0.4156987965106964,-50.44827651977539,-7.229813575744629,16.95868682861328,1.5709329843521118,-1.2888290882110596,-0.0008682189509272575,,,,,,,,,
1739303359.1136038,-0.06767699528897193,1.0394971371256352,-0.3962590224308346,-1.4678566329343674,1.5360873218162945,1.1835951692302265,1.35459902284456,0.0003327842721396083,-0.0016793276076714299,-0.001412063168789715,-0.0001513473242628592,-0.00047240083516036886,-0.0004184861960693166,-0.000899225757189202,0.4434697926044464,-50.39670181274414,-7.229813575744629,16.98249053955078,1.5645242929458618,-1.3025619983673096,0.026597600430250168,,,,,,,,,
1739303359.1245425,-0.06767586741560523,1.0395007988405338,-0.39625683690660124,-1.4678566414254717,1.5360873233061845,1.1835953629691296,1.354600839813697,0.0008235759169467881,0.001546676757872974,0.0005365133539439663,-0.00018133184399937594,-0.00042679521197669433,-9.283794632297866e-05,0.0008165188083002514,0.4672735035419464,-50.47208023071289,-7.257584571838379,16.98249053955078,1.5645242929458618,-1.2952377796173096,0.012864691205322742,,,,,,,,,
1739303359.1355143,-0.06767652146025223,1.03950285236884,-0.3962589890549673,-1.4678566325952032,1.5360868405821506,1.1835946054765885,1.354605353540785,-0.00023266928147331153,0.00044823749586391166,0.0001763856908030881,-0.0006930056909716063,-0.0006037354040679505,-0.00018418600216048246,0.0019644617693409952,0.4434697926044464,-50.47208023071289,-7.257584571838379,16.98249053955078,1.5645242929458618,-1.2888290882110596,-0.0008682189509272575,,,,,,,,,
1739303359.1465626,-0.06767512565151733,1.0394991685188177,-0.39625368830561464,-1.4678530668212006,1.5360865787253364,1.183592332330811,1.3545972846839724,-0.0002604792991748312,-0.0007696271336783712,0.0011907459990537165,0.0014399508555208258,0.00021301754087852082,4.152438716719498e-05,-0.002227347595339759,0.4434697926044464,-50.42050552368164,-7.332962989807129,16.93488311767578,1.5709329843521118,-1.2696030139923096,0.05955658480525017,,,,,,,,,
1739303359.1565716,-0.06767683817626549,1.039504635123322,-0.39625720639592943,-1.4678549473786713,1.536091009137483,1.1835938476509669,1.3545974716464626,-0.00027100384660454804,0.0007278672328887416,0.00040316230886396597,-0.000893850566290626,0.0020236744474027585,0.0003024548042652035,-0.001446286359510763,0.4672735035419464,-50.49985122680664,-7.281388282775879,16.95868682861328,1.5452982187271118,-1.2824203968048096,0.06596527993679047,,,,,,,,,
1739303359.1665864,-0.06767702170735636,1.0395033024114737,-0.39626178411270935,-1.4678527836254327,1.5360873262008758,1.1835947662190573,1.3545991419315129,0.0010192606252882994,0.00045248036865853735,-0.0015827804976740398,-0.00012222652554958214,0.0008128995130460368,0.0008509844129660971,-0.0009638600327342497,0.4434697926044464,-50.44827651977539,-7.229813575744629,16.95868682861328,1.5645242929458618,-1.2888290882110596,0.05314789339900017,,,,,,,,,
1739303359.1775167,-0.06767695353894669,1.0394994072766532,-0.39626113451434536,-1.4678546014704363,1.536087322080107,1.183596228869264,1.3545971774129486,0.00047292772716014166,8.024865977493954e-06,-0.00014548299727617408,-0.00024329533904703863,0.00021539541032479208,0.0004657358218606685,-0.002301416849318598,0.4434697926044464,-50.42050552368164,-7.257584571838379,16.98249053955078,1.5645242929458618,-1.3025619983673096,0.05955658480525017,,,,,,,,,
1739303359.188568,-0.06768057831471551,1.0394991685230113,-0.3962533443956211,-1.4678545241041672,1.536087908102782,1.183597863698293,1.35459468135157,7.14473740672716e-05,-0.0006269847322349019,0.0013522712316341363,0.0012904816075841135,-0.000203353608977358,0.0010752305217830908,-0.003088265612398343,0.4910772144794464,-50.42050552368164,-7.332962989807129,16.93488311767578,1.5581156015396118,-1.2888290882110596,0.05314789339900017,,,,,,,,,
1739303359.199486,-0.06767898077037975,1.0395028789805523,-0.396255209997688,-1.4678566326100075,1.5360855395151383,1.1835946053355701,1.3545970176507658,0.00014104475455595673,0.0017282577015076011,0.0006805386053204989,-0.0007443486593346886,0.00015116338599829632,6.82719838453073e-05,-0.0027702004229340285,0.4672735035419464,-50.47208023071289,-7.309159278869629,16.98249053955078,1.5517069101333618,-1.2888290882110596,0.03300629183650017,,,,,,,,,
1739303359.2095478,-0.06767898077059609,1.039500702688785,-0.3962572152218274,-1.467858693329676,1.5360873232503165,1.1835946867461982,1.3545964139460016,-0.0004133396414075323,0.00028921643348991184,-0.0002862375643865396,9.760951091807555e-05,1.2964176474304211e-05,7.492374854338381e-05,-0.0029384219701480397,0.4672735035419464,-50.47208023071289,-7.281388282775879,16.98249053955078,1.5645242929458618,-1.2888290882110596,0.03941498324275017,,,,,,,,,
1739303359.2204902,-0.06767726695075436,1.0395055627304648,-0.3962613897282386,-1.467856635445247,1.5360862353520914,1.1835953629715832,1.3545978288446416,3.1051850851727004e-05,0.0018182601195483841,-0.001508167878923989,-0.0003036379257975602,-0.001621826512523894,-5.0354669107372576e-05,-0.0017698309467258859,0.4434697926044464,-50.49985122680664,-7.229813575744629,16.98249053955078,1.5645242929458618,-1.2952377796173096,0.03941498324275017,,,,,,,,,
1739303359.2305832,-0.06767524692500027,1.0395004500165188,-0.3962572063955313,-1.467852768694056,1.5360860829036478,1.1835946053110453,1.3546034550661283,0.0009022232819962505,-0.0004678322680004807,0.0004221565655369529,0.0012464269887158385,-0.0010568410332297512,-7.743778363142963e-05,0.002404358894077163,0.4156987965106964,-50.44827651977539,-7.281388282775879,16.93488311767578,1.5709329843521118,-1.2888290882110596,0.019273381680250168,,,,,,,,,
1739303359.241544,-0.06767737347768601,1.0394991661165658,-0.39625512761772697,-1.4678521488513916,1.5360895918140303,1.1835953629711236,1.3545997481913843,-0.00033480808058395056,-0.0009933609499371233,0.0009567867734117091,0.001732213188678848,-0.00022624134498030335,0.0004715196093852985,0.0013386183440423592,0.4434697926044464,-50.42050552368164,-7.309159278869629,16.93488311767578,1.5452982187271118,-1.2952377796173096,0.012864691205322742,,,,,,,,,
1739303359.2525887,-0.06767740117565657,1.0395011666051623,-0.3962589890671221,-1.4678545672767633,1.5360904962609943,1.1835938476509669,1.3546010149778485,0.0011935304210881233,-0.00034566527574049423,-0.0014367065363551704,-0.000122682094073899,-0.0009429757977928762,-0.00018480753995561678,0.00018789891465224862,0.4156987965106964,-50.44827651977539,-7.257584571838379,16.98249053955078,1.5645242929458618,-1.2824203968048096,-0.0008682189509272575,,,,,,,,,
1739303359.264517,-0.06767527122320074,1.0395028779994064,-0.39625898939416515,-1.467856632443523,1.5360841319731897,1.1835953629711236,1.3546053944217846,-0.0007022196611918903,0.0005841534091710653,-9.938517180299968e-05,-0.0009227735726919096,-0.0005232136487400215,0.00010667442952615378,0.00040780685110298543,0.4156987965106964,-50.47208023071289,-7.257584571838379,16.98249053955078,1.5517069101333618,-1.2952377796173096,-0.0008682189509272575,,,,,,,,,
1739303359.2756286,-0.06767726824987005,1.0395049629355342,-0.3962580901577334,-1.4678530672411145,1.5360881142798324,1.1835946053110453,1.3545993988926908,-0.00022442400043716845,0.0013529778370278721,-2.851367566170038e-05,0.0005377184306750464,0.0002318589423712716,-0.00018396049981438304,0.0009016174149299857,0.4434697926044464,-50.47208023071289,-7.281388282775879,16.93488311767578,1.5581156015396118,-1.2888290882110596,0.012864691205322742,,,,,,,,,
1739303359.2864745,-0.06767899246259089,1.0395011664637424,-0.39626106785057086,-1.4678530672411152,1.5360877203768513,1.183594605973218,1.3545966411304653,0.0001497431829337676,0.0005661824681273019,6.153609731940931e-05,0.0006504270503926077,-0.00046971666670234433,-4.51622087294209e-05,-0.0015713188034080987,0.4672735035419464,-50.44827651977539,-7.229813575744629,16.93488311767578,1.5581156015396118,-1.2888290882110596,0.04673920199275017,,,,,,,,,
1739303359.2965617,-0.0676772701987287,1.039499062555155,-0.39626106885695483,-1.4678527846049287,1.5360897400847235,1.1835953629711347,1.3546042733843942,-9.34442939394378e-06,-0.0011314125422338826,-0.0015620740295081465,-0.0006978620027041135,0.0004905447441880161,0.00019775662648595377,0.0017879467777487672,0.4434697926044464,-50.42050552368164,-7.229813575744629,16.95868682861328,1.5709329843521118,-1.2952377796173096,-0.0008682189509272575,,,,,,,,,
1739303359.3074787,-0.06767503354612832,1.0395021648507181,-0.3962589890671164,-1.467852707082703,1.5360880809841855,1.1835938476509669,1.3546025110635107,0.0017441552703198306,0.0005590444177298597,-0.001135536959670581,0.0013492620196045215,-0.0008273998820318021,-0.0004619458433254499,0.0014982494993906403,0.4156987965106964,-50.47208023071289,-7.257584571838379,16.95868682861328,1.5581156015396118,-1.2824203968048096,-0.0008682189509272575,,,,,,,,,
1739303359.317549,-0.06767940008623892,1.0394998834355624,-0.3962589890671164,-1.4678545652147257,1.5360897445604975,1.1835938476509669,1.354604441745943,0.00048506753492901574,-0.0008483287951328469,-0.0003805946232618007,-0.001191801506499134,0.0003147112863716019,4.917125517975697e-05,0.0006186670394528569,0.4434697926044464,-50.42050552368164,-7.257584571838379,16.98249053955078,1.5709329843521118,-1.2824203968048096,-0.0008682189509272575,,,,,,,,,
1739303359.3285556,-0.06767907143167641,1.0395011664638565,-0.3962572063900973,-1.4678547732370721,1.5360869184339694,1.1835953629711236,1.3546006452861648,-0.0002444856688062045,-0.00021453250676382483,-0.0004921642662643965,-0.0004963063191540332,0.001037092328325734,0.0001831448046843005,-0.0002858248036052385,0.4672735035419464,-50.44827651977539,-7.281388282775879,16.95868682861328,1.5709329843521118,-1.2952377796173096,0.0064559997990727425,,,,,,,,,
1739303359.3395512,-0.06768076734113941,1.0395048680910877,-0.39625512656423945,-1.4678547696090505,1.5360894938190963,1.1835946053110453,1.3546010739278196,-0.00038703700876892457,0.0009256124064972941,0.0004420569888593896,-0.0006047453822332792,0.0007769131112466681,0.0009638813913072949,-0.0002694867517561571,0.4910772144794464,-50.49985122680664,-7.309159278869629,16.95868682861328,1.5581156015396118,-1.2888290882110596,0.026597600430250168,,,,,,,,,
1739303359.3505661,-0.06767898062666848,1.039499142027965,-0.39625752413752674,-1.4678548129652036,1.536087323314163,1.1835946053110453,1.3545979352869384,0.00035155762478653675,-0.0007751046513982125,-0.0008938499150103901,-0.0004952504205396872,0.0002459261997134301,0.0002943566833745392,-0.0024385724983754745,0.4672735035419464,-50.42050552368164,-7.281388282775879,16.95868682861328,1.5645242929458618,-1.2888290882110596,0.05314789339900017,,,,,,,,,
1739303359.3614953,-0.06767737304478036,1.0395011664596714,-0.39625898903290774,-1.4678548499179258,1.536088838626344,1.1835956914401278,1.354597143800863,0.0005404531502251231,-0.00023822469218800916,-0.0009854875842337874,0.0003878529906419181,0.0007267310573645149,0.0006856348845394104,-0.0006249131362963669,0.4434697926044464,-50.44827651977539,-7.257584571838379,16.95868682861328,1.5517069101333618,-1.2888290882110596,0.05955658480525017,,,,,,,,,
1739303359.3715951,-0.0676789807723708,1.0395087352093482,-0.3962589803185602,-1.4678548494982198,1.536088094048218,1.1835946053294388,1.354597777518317,-0.0003903065827352305,0.001817011709262216,1.149139326389091e-05,-0.0006302625054266344,-0.00010225099618893978,3.627607474856304e-07,-0.0007568152086679644,0.4672735035419464,-50.52365493774414,-7.257584571838379,16.95868682861328,1.5581156015396118,-1.2888290882110596,0.026597600430250168,,,,,,,,,
1739303359.3824806,-0.06768111163664682,1.0395012812660644,-0.3962582775178828,-1.4678541608384121,1.5360844605360646,1.1835953629711236,1.3545967288211846,-0.0004096174348468021,-0.00013099444443352874,6.205778537378558e-05,-0.0001935193320991717,-0.0013999069262873947,0.0006197156015605214,-0.0008363305193326747,0.4672735035419464,-50.44827651977539,-7.257584571838379,16.95868682861328,1.5581156015396118,-1.2952377796173096,0.03941498324275017,,,,,,,,,
1739303359.3925765,-0.06767894583895732,1.0395011664617653,-0.39625970431080354,-1.4678529566869494,1.536088079249521,1.1835962303582448,1.3545996271478893,0.00023982577521807353,-0.0002478944236009363,-0.0013220485282113745,0.000647788059437589,0.000631920173641626,0.0008496095951351084,-0.0023306485676891984,0.4672735035419464,-50.44827651977539,-7.257584571838379,16.93488311767578,1.5581156015396118,-1.3025619983673096,0.03941498324275017,,,,,,,,,
1739303359.4026108,-0.06767835232528449,1.0395026405619732,-0.39626106595289945,-1.4678530662944353,1.536084721856919,1.183595362486632,1.354602231791533,-2.184260215389722e-05,5.561778903325783e-05,-0.0021344811990712913,0.0004084534479249862,-0.0012154114158506755,-3.814340132659308e-05,-0.0006581139367387188,0.4672735035419464,-50.47208023071289,-7.229813575744629,16.93488311767578,1.5773416757583618,-1.2952377796173096,0.026597600430250168,,,,,,,,,
1739303359.4135516,-0.0676789807670485,1.0394993019535346,-0.39625898906709994,-1.4678548384754584,1.536087340742659,1.1835938877164613,1.3546045458214273,0.00015516818587863796,-0.00032083971446379564,-0.0005147087913492846,-0.0016184899421314053,-0.0005714763497465033,-0.0012618760432693593,0.002742290362676176,0.4672735035419464,-50.42050552368164,-7.257584571838379,16.95868682861328,1.5645242929458618,-1.2824203968048096,0.0064559997990727425,,,,,,,,,
1739303359.4245133,-0.06767898084276888,1.039503285845849,-0.3962532651862228,-1.4678539060552176,1.5360850772470944,1.1835930899911147,1.3546064931809019,0.0006688024235439806,-0.0004207741073519254,-0.00015501572694672666,0.0009237005968323669,-0.001584094606912396,-0.0008701886545180594,0.0011786423813512216,0.4672735035419464,-50.44827651977539,-7.332962989807129,16.95868682861328,1.5709329843521118,-1.2760117053985596,-0.0072769103571772575,,,,,,,,,
1739303359.4346066,-0.06767901194925009,1.0395033084473555,-0.3962562351910917,-1.4678548494822354,1.5360871623729688,1.1835946053110453,1.3546010627322926,-0.00029783033291718597,0.0007519486768302801,0.001073754035933817,-4.96501063719915e-05,-0.0008348145237842923,0.00046027022055139896,-7.725337436417421e-05,0.4672735035419464,-50.44827651977539,-7.281388282775879,16.95868682861328,1.5645242929458618,-1.2888290882110596,-0.0008682189509272575,,,,,,,,,
1739303359.4455574,-0.06767729455702919,1.0395035648139885,-0.39625441937897177,-1.467852086250748,1.536088080799814,1.1835935456729159,1.3546042696110385,-0.00017804945670758717,-0.00026601527959775557,0.0004981333494322891,0.001397324855287227,0.00017479431784482482,-0.0008816564386669912,0.0005855074694474461,0.4434697926044464,-50.47208023071289,-7.309159278869629,16.95868682861328,1.5581156015396118,-1.2888290882110596,-0.0008682189509272575,,,,,,,,,
1739303359.4555614,-0.06767759270316587,1.0395028804093782,-0.39625508047912344,-1.4678520679376663,1.5360865611764392,1.1835962288504107,1.3546015455970473,-0.0002301410545521203,-0.0005778666395225087,0.001017622596490018,0.0018542592159399682,-0.00030424965263777383,0.0005819958897621787,0.0018206404023663942,0.4434697926044464,-50.47208023071289,-7.281388282775879,16.95868682861328,1.5709329843521118,-1.3025619983673096,-0.0008682189509272575,,,,,,,,,
1739303359.4666207,-0.06767898077242764,1.0395027852265692,-0.39625710183149504,-1.4678566325794489,1.5360865662921062,1.1835962288683557,1.3546074052158015,0.0003784465060750518,-0.00013729243813910427,0.0007731431670380945,-0.0006242516138379053,-0.0004991151153483236,0.0008539526373449088,0.0018430320609902026,0.4672735035419464,-50.47208023071289,-7.281388282775879,16.98249053955078,1.5709329843521118,-1.3025619983673096,-0.013685601763427258,,,,,,,,,
1739303359.477581,-0.0676806932913273,1.0395002916969236,-0.39625720638950707,-1.4678547384308305,1.5360898640363563,1.1835969865284341,1.3546047508724357,2.661755581734272e-06,-1.2089487778125575e-05,-8.598648847059253e-06,-0.0002319332005849855,0.00023899698009525444,0.0007613799586179303,0.0012521831236568255,0.4910772144794464,-50.47208023071289,-7.281388282775879,16.95868682861328,1.5581156015396118,-1.3089706897735596,-0.0008682189509272575,,,,,,,,,
1739303359.488569,-0.06767903338457265,1.0395014432011824,-0.3962571276530974,-1.4678559570103074,1.5360880810301665,1.183594605311045,1.3546007302305176,-0.00012203584914034566,-8.111484170733561e-05,0.0010644315162619156,-0.00027335330065808767,-4.706835825696615e-05,1.66547460516144e-05,0.0013928886093754942,0.4672735035419464,-50.44827651977539,-7.281388282775879,17.01026153564453,1.5581156015396118,-1.2888290882110596,0.03941498324275017,,,,,,,,,
1739303359.499568,-0.0676806932916243,1.03950113997043,-0.3962589890666719,-1.4678565301204574,1.5360865656461093,1.1835953629711233,1.3545954406988028,4.575970798130791e-05,-0.00010618359179230793,-0.0010410416641638115,-0.0012247867096082058,0.00016122272809912172,0.0004235505146255135,-0.0007036947553109255,0.4910772144794464,-50.44827651977539,-7.257584571838379,16.98249053955078,1.5709329843521118,-1.2952377796173096,0.05955658480525017,,,,,,,,,
1739303359.5105076,-0.06767727701886099,1.0395014844601265,-0.3962551003545751,-1.4678559436898193,1.5360848618248748,1.1835930899908884,1.3545991125735948,0.0010708785795558121,-0.0007297653184176604,0.001110991935497399,-0.0015312055009464543,0.000150630323062471,-0.0007183131978262654,0.00018631996848118295,0.4434697926044464,-50.44827651977539,-7.309159278869629,16.98249053955078,1.5581156015396118,-1.2760117053985596,0.019273381680250168,,,,,,,,,
1739303359.520521,-0.06768069459058633,1.0395007332187256,-0.39625935215686475,-1.4678579979937727,1.536088067337205,1.183594605311045,1.3546025798640924,-0.0006244211966134242,0.0001582637474320123,-0.00011403119290542447,-0.0025176205965700207,-0.0005605557023172085,-3.639687790906866e-05,0.001500591198740389,0.4910772144794464,-50.47208023071289,-7.281388282775879,17.01026153564453,1.5581156015396118,-1.2888290882110596,-0.0008682189509272575,,,,,,,,,
1739303359.5305717,-0.06768101774420475,1.039502480380736,-0.39625899793377284,-1.4678520934821777,1.536090019496308,1.1835938476509666,1.3545978354920283,0.00016196713017196685,0.00033277960159819114,-0.0009943251289512892,0.0016397146918382638,0.0003899349526547054,-0.000508649803746306,-0.0020513203976858085,0.4910772144794464,-50.47208023071289,-7.257584571838379,16.95868682861328,1.5645242929458618,-1.2824203968048096,0.03941498324275017,,,,,,,,,
1739303359.5415666,-0.06768068788019828,1.0395033122247828,-0.3962572034739622,-1.4678558299829825,1.536092021916603,1.1835938476509666,1.354602691212939,-0.0005132769331181833,4.794996885689132e-05,-0.00028870021390934165,0.000567179608335157,0.0017164063672373431,-0.0003027340474257935,0.000957299077101125,0.4910772144794464,-50.44827651977539,-7.281388282775879,16.98249053955078,1.5517069101333618,-1.2824203968048096,-0.013685601763427258,,,,,,,,,
1739303359.5526009,-0.06767726824983435,1.0394984531299885,-0.39625890935803826,-1.4678530661518054,1.5360865658794196,1.183594303332994,1.3546046626706516,0.0019473864610015503,-0.001297846595282362,-0.00023342202463180615,0.0002836992449951042,7.37737668421151e-05,-0.0004914737165884894,0.0006635990835076462,0.4434697926044464,-50.42050552368164,-7.257584571838379,16.93488311767578,1.5709329843521118,-1.2952377796173096,0.0064559997990727425,,,,,,,,,
1739303359.5634875,-0.06768013571158747,1.0394991950058827,-0.39625741888960864,-1.4678536111002507,1.5360873407487916,1.183596228862374,1.3546039095048115,4.470322393593923e-05,-0.0010007846583282558,-0.00030024114132159784,-6.133840139703017e-05,-3.970217835998335e-05,0.0009824509142003102,0.0014568212165632628,0.4434697926044464,-50.42050552368164,-7.281388282775879,16.98249053955078,1.5645242929458618,-1.3025619983673096,0.012864691205322742,,,,,,,,,
1739303359.5735557,-0.0676807050318828,1.0395026405624217,-0.396257206393696,-1.4678520948078289,1.53609468236117,1.1835947259920543,1.3546017532566927,0.0006751386951051059,6.634648860302171e-05,0.00034369064126019676,0.0004691170506068198,0.002520218675245108,-0.00019876489333590542,0.00037413802957457986,0.4910772144794464,-50.47208023071289,-7.281388282775879,16.95868682861328,1.5379739999771118,-1.2888290882110596,0.03300629183650017,,,,,,,,,
1739303359.5854712,-0.06768172792467338,1.0395002431996976,-0.3962589627134429,-1.4678500702606725,1.5360905022443985,1.1835946053117266,1.3546073656747506,-0.0009489675028251603,-0.0011217243108907642,0.00037743050979187435,0.0009842536962233186,0.0007484394203703126,-0.0006112643089971786,0.002561925526926557,0.4910772144794464,-50.44827651977539,-7.257584571838379,16.93488311767578,1.5645242929458618,-1.2888290882110596,-0.013685601763427258,,,,,,,,,
1739303359.5955832,-0.06767727843207126,1.039497455956686,-0.3962558683467835,-1.4678563179572846,1.536086565664054,1.1835930899908886,1.3545978737884206,0.0009547106685069428,-0.000814672711119043,-7.317274586352677e-05,-0.001027285227427598,-0.0008522797467918859,-0.0005409287043087833,0.0007309524923306185,0.4434697926044464,-50.39670181274414,-7.309159278869629,16.98249053955078,1.5709329843521118,-1.2760117053985596,0.03941498324275017,,,,,,,,,
1739303359.606617,-0.06768282516785479,1.0395003452402705,-0.3962571014479567,-1.4678503083659795,1.5360884207699748,1.1835946053110453,1.3546039385928401,-0.0007541179643085851,-0.0004965151930663539,-6.988038384565473e-06,0.001084513860900953,-0.0005909060363771632,2.1376266892210338e-05,0.0018096488292385633,0.4910772144794464,-50.44827651977539,-7.281388282775879,16.93488311767578,1.5581156015396118,-1.2888290882110596,0.0064559997990727425,,,,,,,,,
1739303359.6166322,-0.0676752707781522,1.0395011566344494,-0.39625720682438514,-1.4678507590292804,1.5360893715906598,1.1835953629711236,1.3546015935074607,0.002120230277107817,-0.00011460539730416921,-8.272950245898303e-06,-0.00030648163402022943,-0.0002039125805562153,0.0003378587061124122,0.002574753429362772,0.4156987965106964,-50.44827651977539,-7.281388282775879,16.93488311767578,1.5379739999771118,-1.2952377796173096,0.0064559997990727425,,,,,,,,,
1739303359.6275158,-0.06767754041352407,1.0395014048783446,-0.3962597043228561,-1.4678502324901699,1.536088731681203,1.1835938476509669,1.354599265207924,0.00047097213454648295,0.00010556999747283587,-0.0005972193769841997,0.0010172299259459596,0.0009844033009040276,-0.00035189585467351964,-0.0013195091414759136,0.4434697926044464,-50.44827651977539,-7.257584571838379,16.93488311767578,1.5645242929458618,-1.2824203968048096,0.026597600430250168,,,,,,,,,
1739303359.637525,-0.06767976998485363,1.0394971022286532,-0.39626114801792395,-1.4678524423952317,1.5360861991572656,1.1835949337800493,1.354595768774367,0.00041849257263572976,-0.001232888868034647,-0.0008953726557152275,0.0009636958514283066,8.478202326953787e-05,0.0004781682534768594,-0.0017319741716990233,0.4672735035419464,-50.42050552368164,-7.229813575744629,16.95868682861328,1.5709329843521118,-1.2824203968048096,0.05314789339900017,,,,,,,,,
1739303359.6475859,-0.06767740118842798,1.039498420414341,-0.3962599427427734,-1.467854259722433,1.5360881991821458,1.1835938476693604,1.354605721554562,0.0004280563544018345,-0.0016294108098469902,-0.000941390094790346,-0.0010109149147452341,0.001148741903917014,-0.0011312560847115197,0.0015231712495023808,0.4156987965106964,-50.42050552368164,-7.257584571838379,16.98249053955078,1.5581156015396118,-1.2824203968048096,-0.0008682189509272575,,,,,,,,,
1739303359.6584964,-0.06767726839421075,1.0395028789678828,-0.3962572034900627,-1.467850481017486,1.5360840649209417,1.1835946053110455,1.3546057759131427,0.0005949932450348861,0.0008043402832715673,-0.0003698828375120215,0.001010364907816003,-0.0010716838772771554,-0.0006646314660782393,0.0012011749569710492,0.4434697926044464,-50.47208023071289,-7.281388282775879,16.91107940673828,1.5645242929458618,-1.2888290882110596,-0.0008682189509272575,,,,,,,,,
1739303359.6695597,-0.06768361434136014,1.039501246913827,-0.39625720639008094,-1.4678481863172108,1.5360862035295069,1.1835953629711236,1.3545994457987574,-0.0014292359955577127,-0.00020731407980214902,-0.0004621827810535762,0.0013195389231729685,-0.0009361333626452285,6.387798578967402e-05,0.0006375613110016026,0.4910772144794464,-50.44827651977539,-7.281388282775879,16.91107940673828,1.5709329843521118,-1.2952377796173096,0.012864691205322742,,,,,,,,,
1739303359.6805406,-0.0676772695544719,1.039502413262906,-0.39626107020150586,-1.4678563017082669,1.5360840647527152,1.1835946053110453,1.3546026358989773,0.0002150670142115902,0.0011016257739540534,-0.0010621360436666371,-0.0016314140052429624,-0.0007057042677697564,-0.0003000331448452396,-0.0006531610263395094,0.4434697926044464,-50.49985122680664,-7.229813575744629,17.01026153564453,1.5645242929458618,-1.2888290882110596,0.026597600430250168,,,,,,,,,
1739303359.691486,-0.06768563761701919,1.0395015521094313,-0.3962610698381259,-1.4678524477485473,1.5360865507826595,1.1835953629711236,1.3546048653221279,-0.0018178072355933836,-0.00031670008337333975,-0.0011916065681223812,-0.0008687002451302386,-0.0007985753687951032,0.00032540361541327507,0.0006082270634970239,0.5188482403755188,-50.42050552368164,-7.229813575744629,16.95868682861328,1.5709329843521118,-1.2952377796173096,0.0064559997990727425,,,,,,,,,
1739303359.7015376,-0.06767750506265667,1.0394991685593342,-0.39625512660025836,-1.4678499682313098,1.5360877189229865,1.1835953629711236,1.354602632247512,0.0017390135845716098,-0.0008422836325175209,0.0006479709400022145,0.0004856568124967609,-0.0010279637942834216,0.00035208671004499615,0.00015564097019119048,0.4434697926044464,-50.42050552368164,-7.309159278869629,16.93488311767578,1.5581156015396118,-1.2952377796173096,-0.0008682189509272575,,,,,,,,,
1739303359.7125225,-0.0676856507203868,1.0394954610008236,-0.3962550804911003,-1.4678484175452595,1.5360880816061568,1.1835938476509669,1.354603497445887,-0.0015939937823539986,-0.0011799879755308744,0.0003024740109413285,0.0007687698207381325,0.0009223264797797303,-0.00014034439787922282,0.0017371962469536462,0.5188482403755188,-50.36893081665039,-7.281388282775879,16.91107940673828,1.5581156015396118,-1.2824203968048096,0.019273381680250168,,,,,,,,,
1739303359.722571,-0.06767969140076369,1.0394989301004054,-0.3962602811509517,-1.4678497205520022,1.5360887849903435,1.183596228868356,1.354598216584917,0.0012359869668680697,-0.00216795550256176,-0.001827337207353998,0.00066424941982374,-0.00034503806763976053,0.0009298482734261731,-0.002711240101530891,0.4672735035419464,-50.42050552368164,-7.229813575744629,16.93488311767578,1.5517069101333618,-1.3025619983673096,0.05955658480525017,,,,,,,,,
1739303359.7335374,-0.06767980799126216,1.039499167533784,-0.3962593874652403,-1.4678500443248204,1.536088476582408,1.183595245730183,1.3545991465665077,-0.000495250122891227,-0.0010753368748605814,-0.0009228572211662284,0.0007600188876887858,-0.0010713491220559436,0.0005016571971586847,-0.0013715078605792913,0.4672735035419464,-50.42050552368164,-7.281388282775879,16.93488311767578,1.5517069101333618,-1.2952377796173096,0.05314789339900017,,,,,,,,,
1739303359.7454686,-0.06768167552870553,1.0395029055078422,-0.3962551619377297,-1.46785175047675,1.5360888385704816,1.1835946058074542,1.3546051926202174,-0.0012400906960340343,0.0008081519549759155,0.0010138839246575531,0.0009687310405593792,0.0009494054977218625,-7.40581870939165e-05,0.0011589290713409613,0.4910772144794464,-50.47208023071289,-7.309159278869629,16.95868682861328,1.5517069101333618,-1.2888290882110596,-0.0072769103571772575,,,,,,,,,
1739303359.7555535,-0.06767898955622646,1.039501148908651,-0.3962572063906957,-1.467849967799587,1.5360873233061862,1.1835962288683641,1.3546051924857871,-0.0006868336150994811,-9.57442438844925e-05,-0.0005294057470378339,0.001229125435121989,0.0002798467984743738,0.0004048130732767254,0.0007223480200087473,0.4672735035419464,-50.44827651977539,-7.281388282775879,16.93488311767578,1.5645242929458618,-1.3025619983673096,-0.0072769103571772575,,,,,,,,,
1739303359.7665405,-0.06767908892156445,1.0395051277681047,-0.3962589886350889,-1.467852034128932,1.5360873233061871,1.1835953629172882,1.3546031392444913,-0.0006275471024219705,0.0009416175495174804,-0.000917322434180478,0.0002949656968294291,-0.0013473053413807234,4.198240791713245e-06,0.00015472553470977443,0.4672735035419464,-50.47208023071289,-7.257584571838379,16.93488311767578,1.5645242929458618,-1.2952377796173096,0.019273381680250168,,,,,,,,,
1739303359.7775838,-0.06767972599152894,1.039501484545648,-0.3962589893941627,-1.4678501970603512,1.5360856873050215,1.1835938476509664,1.3546015250869843,0.00043982193325977953,0.0002715866947369462,-0.0014107463270231625,0.0014325840017362598,-0.0006293983272731634,-0.0003254397354734766,0.0005960317962100044,0.4672735035419464,-50.44827651977539,-7.257584571838379,16.93488311767578,1.5773416757583618,-1.2824203968048096,0.03300629183650017,,,,,,,,,
1739303359.7885714,-0.06768069362031172,1.0395011925165045,-0.3962550478632437,-1.4678499678008812,1.5360880412230982,1.1835953629711233,1.3545951660867368,0.0015561116037031424,-0.0010951115977145896,0.0008926333948921629,0.0014484583764408452,0.00015017328243309332,0.0006946538341629807,-0.0016029159442920316,0.4910772144794464,-50.44827651977539,-7.309159278869629,16.93488311767578,1.5581156015396118,-1.2952377796173096,0.05314789339900017,,,,,,,,,
1739303359.800475,-0.0676829118834272,1.0395058305958689,-0.39626106853250687,-1.4678535239962585,1.5360855795766992,1.1835930899908884,1.3546067015156396,-0.0015352053538924934,0.001837589172711341,-0.0006491362584192734,-0.000657652423518391,-0.00039945361876629783,-0.00032782647542690284,0.0016262150228951934,0.4910772144794464,-50.49985122680664,-7.229813575744629,16.98249053955078,1.5517069101333618,-1.2760117053985596,-0.020094294100999832,,,,,,,,,
1739303359.8115182,-0.06767900709010839,1.039500848682782,-0.3962572063900955,-1.4678517504765545,1.5360865655725304,1.183596449100206,1.3545957515517164,0.0007105073412481108,-0.0006838895181452403,7.08688596464045e-06,-0.0001310550926456772,-0.0005734660733139851,0.0004002633361451734,-0.002276054456638193,0.4672735035419464,-50.44827651977539,-7.281388282775879,16.95868682861328,1.5709329843521118,-1.2952377796173096,0.05314789339900017,,,,,,,,,
1739303359.8215325,-0.06767599228983878,1.0395033122252388,-0.39625731333505665,-1.4678537627418864,1.5360895969324444,1.1835946053171764,1.354596787472836,0.0008730168136000258,0.00010937504118911103,0.0006435960844699254,-0.00024395144839050838,-0.0002617108425383006,-0.0005324189976323475,-0.0012625511485067635,0.4156987965106964,-50.44827651977539,-7.281388282775879,16.98249053955078,1.5452982187271118,-1.2888290882110596,0.03941498324275017,,,,,,,,,
1739303359.8325133,-0.06768069763392254,1.0395011659510782,-0.3962589890689275,-1.4678532828561608,1.5360862036030924,1.1835946053110453,1.3545970038448005,-0.0005590475075352586,0.0013872944171088271,-0.00023202336215720238,0.000752157606114597,-0.0003034026704835275,-9.716536833237312e-05,6.553489667557603e-06,0.4910772144794464,-50.44827651977539,-7.257584571838379,16.98249053955078,1.5709329843521118,-1.2888290882110596,0.04673920199275017,,,,,,,,,
1739303359.8425179,-0.06767730444455229,1.039499168518965,-0.39626288685526195,-1.467853533152212,1.5360905022185316,1.1835946053110453,1.3546065961330958,-0.0005159600403692703,-0.0004987098506933235,-0.0014001839629608679,-0.00035688901028093695,1.4710101442584083e-05,0.0005289238033936924,0.00269018640366313,0.4434697926044464,-50.42050552368164,-7.206009864807129,16.98249053955078,1.5645242929458618,-1.2888290882110596,-0.0072769103571772575,,,,,,,,,
1739303359.8525848,-0.0676783325467815,1.039499406937547,-0.39625686057958115,-1.467853533153625,1.5360886281102506,1.183596228868356,1.3546015520798016,0.00042614236553727483,0.0001285668502220387,-0.00021383481781986845,-0.0007614780228699136,0.0017006070867415443,0.0002925564120477998,0.002416457386118175,0.4434697926044464,-50.42050552368164,-7.257584571838379,16.98249053955078,1.5452982187271118,-1.3025619983673096,-0.0008682189509272575,,,,,,,,,
1739303359.8625886,-0.06768001000893932,1.0395065865027349,-0.3962573659276235,-1.4678517491199592,1.536086941184783,1.1835946058076747,1.3546031330356008,-0.0006717443992050033,0.0011281796746553988,0.0008039465140042404,0.0001724598628735876,-0.0006783037853844322,0.0002479847514353094,0.0011947110961192191,0.4672735035419464,-50.52365493774414,-7.281388282775879,16.95868682861328,1.5581156015396118,-1.2888290882110596,0.012864691205322742,,,,,,,,,
1739303359.8735397,-0.0676773066876949,1.039504877902535,-0.39625511493640164,-1.4678517382667764,1.5360858078140534,1.1835953629711262,1.354601190031323,0.001513636843255224,0.0008483289362505131,0.0003383554443057469,0.00014535479459298862,-0.0006946871990651999,-0.00014702224633709627,-0.0006128220173337219,0.4434697926044464,-50.49985122680664,-7.309159278869629,16.95868682861328,1.5773416757583618,-1.2952377796173096,-0.0008682189509272575,,,,,,,,,
1739303359.8855388,-0.06768285082544731,1.0395019252699025,-0.39625934340868785,-1.467853605499982,1.5360840707331398,1.1835930899908886,1.3546011839964527,0.0004361194376010971,-0.00028387731292993726,-4.816213214835701e-05,-0.0008179915030307253,-0.0008039267985947681,-0.0006542248380616653,-0.0012187662573573564,0.4910772144794464,-50.47208023071289,-7.281388282775879,16.98249053955078,1.5645242929458618,-1.2760117053985596,-0.0008682189509272575,,,,,,,,,
1739303359.8964682,-0.06767901142013215,1.039501175284755,-0.3962548116643057,-1.467855612943889,1.5360873232878263,1.1835953629711236,1.3546018872710757,0.0008312171068073765,0.0007610568580234985,0.0011799999042929206,-0.0013592782136650813,-0.0003867833891568181,0.0004296337270231482,-0.0006291767501409835,0.4672735035419464,-50.44827651977539,-7.309159278869629,17.01026153564453,1.5645242929458618,-1.2952377796173096,0.03300629183650017,,,,,,,,,
1739303359.9065826,-0.06768145795803591,1.0395050247841526,-0.39625888706245,-1.4678535327014095,1.5360869188588187,1.1835906687365787,1.3545978343765024,-0.0010654575075685136,0.0008712386719693245,-0.0006465481112076111,-0.00045221485453389334,-0.00020389066231927606,-0.0008685919744723367,-0.0015986710302474225,0.4672735035419464,-50.47208023071289,-7.257584571838379,16.98249053955078,1.5709329843521118,-1.2824203968048096,0.06596527993679047,,,,,,,,,
1739303359.9175506,-0.06768343708209941,1.0395005991879107,-0.3962589429573991,-1.467852515770808,1.5360880260577074,1.1835953629531784,1.354603580816252,-0.0012938540732483365,-0.0005267735921862032,-0.00022388903826729603,-6.647193086849418e-05,-0.000796013648477423,0.0007772847745078936,0.0014709934919534796,0.5188482403755188,-50.42050552368164,-7.229813575744629,16.95868682861328,1.5581156015396118,-1.2952377796173096,0.0064559997990727425,,,,,,,,,
1739303359.9295886,-0.0676835608655194,1.0395057400479162,-0.3962553649708178,-1.467853450741646,1.5360864434749009,1.183594605311045,1.3546061117638697,-0.0005923102509967224,0.0007035178083439688,0.00047172198502579946,5.214119194061896e-05,0.0006744080261324696,-1.3989547611075973e-05,-1.0578971813070574e-06,0.4910772144794464,-50.47208023071289,-7.309159278869629,16.98249053955078,1.5709329843521118,-1.2888290882110596,-0.0072769103571772575,,,,,,,,,
1739303359.9396605,-0.06768104810532445,1.0395011665082734,-0.3962589890711532,-1.4678535340970371,1.536088838624275,1.1835930899908884,1.3546085525759266,-9.65641539127783e-05,0.00018427417137954782,-0.0005046557032304824,8.576664201222171e-05,0.0003046634190288207,-0.0005538545379845466,0.0014447425229050619,0.4910772144794464,-50.44827651977539,-7.257584571838379,16.98249053955078,1.5517069101333618,-1.2760117053985596,-0.027418512850999832,,,,,,,,,
1739303359.9505498,-0.06768003439802069,1.0395006343517135,-0.39625688268154147,-1.467853534666396,1.536087323140644,1.183596449100206,1.354604428244544,-0.0006713461424612427,-0.0005041975176480571,0.0008231341430521989,-0.00016588536802343595,-0.00040222181966875585,0.0009536243807442512,0.00153100441719505,0.4672735035419464,-50.42050552368164,-7.281388282775879,16.98249053955078,1.5645242929458618,-1.2952377796173096,-0.020094294100999832,,,,,,,,,
1739303359.961468,-0.06768146629976991,1.0395021637330895,-0.39625921873531256,-1.4678499677995955,1.536088838626343,1.1835899110826318,1.3546017701394542,-0.00108354288510862,5.9042035942601686e-05,-0.0006086500379727336,0.0005524893165005118,0.0006996974914304484,-0.0011750497610184957,0.0015966254275520237,0.4672735035419464,-50.47208023071289,-7.257584571838379,16.93488311767578,1.5517069101333618,-1.2760117053985596,0.0064559997990727425,,,,,,,,,
1739303359.9715369,-0.06768388825518198,1.039505197719945,-0.39625508050276864,-1.4678535056815254,1.5360888386263438,1.1835946051495398,1.3546081649421406,-0.0003473802279945652,0.0012624856279941769,0.0005062214875997837,-0.00012349962768950514,0.0006459633530463046,0.0005243742101681088,0.0013038610219822215,0.4910772144794464,-50.49985122680664,-7.281388282775879,16.98249053955078,1.5517069101333618,-1.2888290882110596,-0.020094294100999832,,,,,,,,,
1739303359.982547,-0.06768046357460557,1.0395029947564327,-0.3962558418519788,-1.4678535330028348,1.5360880809662656,1.1835946053110449,1.3545967889287551,0.0007706723362272258,0.00030231792580264524,0.000989780107816184,0.00016741308346620475,0.00018737440054114872,0.0005655751385734345,-0.0015455155545044256,0.4434697926044464,-50.47208023071289,-7.309159278869629,16.98249053955078,1.5581156015396118,-1.2888290882110596,0.03941498324275017,,,,,,,,,
1739303359.9935317,-0.0676821419936713,1.03949845359224,-0.39625712766521026,-1.467851008729913,1.5360880750067096,1.1835953629711233,1.3546025167930997,6.751967813094716e-05,-0.002006738584287708,0.00033569376116370766,0.0002223696889286804,0.0005444070563108537,5.3539874980927736e-05,0.0016998218098464456,0.4672735035419464,-50.42050552368164,-7.281388282775879,16.95868682861328,1.5581156015396118,-1.2952377796173096,-0.0008682189509272575,,,,,,,,,
1739303360.0055654,-0.06768217696134696,1.0394990206912638,-0.39625720638994916,-1.4678526688282558,1.5360873234676815,1.1835938878779697,1.3546026317289295,0.0002389121826123672,-0.0006293329401976714,-0.00037869479219971284,-0.000998144339020428,0.0004601231431132537,0.00010176048089755564,-0.0011788879193959851,0.4672735035419464,-50.44827651977539,-7.281388282775879,16.95868682861328,1.5645242929458618,-1.2824203968048096,-0.0008682189509272575,,,,,,,,,
1739303360.0165596,-0.06768004522928835,1.0395028903142063,-0.3962588840844498,-1.4678517508982487,1.5360873226440146,1.183595362971199,1.3545943944052465,0.0011064688553009635,-0.0008487460272110346,0.0004894879103298703,0.0004887947186335911,-0.0003005625978196193,0.000627554693695519,-0.002347408750331314,0.4672735035419464,-50.47208023071289,-7.257584571838379,16.95868682861328,1.5645242929458618,-1.2952377796173096,0.05955658480525017,,,,,,,,,
1739303360.0274804,-0.06768122705899247,1.0394991699363714,-0.396258942956197,-1.4678548681443417,1.5360873188365092,1.1835946053110453,1.354599492652657,0.0007202517129102659,-0.0010561699779305946,-0.0004727270279255844,-0.0007644493577922261,-0.00032874835212486227,0.0003433161677394871,-0.0004676929362885441,0.4672735035419464,-50.42050552368164,-7.229813575744629,17.01026153564453,1.5645242929458618,-1.2888290882110596,0.05314789339900017,,,,,,,,,
1739303360.0374813,-0.06768214086964645,1.039496787276624,-0.3962582020121655,-1.4678517504724018,1.5360879587953424,1.1835953629711236,1.3546055681280107,0.0002683992574064199,-0.0017901737756579636,0.0002470558535768401,-0.00015842689797688228,0.00024195204063745478,0.00031436887033865264,0.0018826686958669096,0.4672735035419464,-50.42050552368164,-7.257584571838379,16.95868682861328,1.5581156015396118,-1.2952377796173096,-0.0072769103571772575,,,,,,,,,
1739303360.0474894,-0.06767762339359364,1.039501166310478,-0.3962579216325057,-1.467848185122568,1.536084697426273,1.1835930899908886,1.3546041523404027,0.0015865930885669368,-0.00024554865835253373,-4.792752875715364e-05,0.0005979941573531601,-0.0009905155655597637,-0.00047736592693250536,0.0007098561951382104,0.4434697926044464,-50.44827651977539,-7.281388282775879,16.91107940673828,1.5581156015396118,-1.2760117053985596,0.012864691205322742,,,,,,,,,
1739303360.057538,-0.06768388651103024,1.0394970256951928,-0.39625509161813227,-1.467851631430841,1.5360873230833436,1.1835953629711236,1.3545982713902074,-0.0007911686967119809,-0.0007794522360263641,0.0008122732970228869,-0.000524548496821515,0.0004179285712010104,0.0004486363936301289,-0.0014164445190085228,0.4910772144794464,-50.42050552368164,-7.309159278869629,16.95868682861328,1.5645242929458618,-1.2952377796173096,0.03300629183650017,,,,,,,,,
1739303360.0675676,-0.06768154551793633,1.0394991687007116,-0.3962590243877949,-1.467851502208208,1.536088080966262,1.1835938476509669,1.354598390675176,0.0003149475732686528,0.00011292132403870156,-0.0001732816686586277,0.0007683341321155849,0.0007439374198740939,-0.00028965279444760416,-0.0012264468487626803,0.4672735035419464,-50.42050552368164,-7.257584571838379,16.95868682861328,1.5581156015396118,-1.2824203968048096,0.05955658480525017,,,,,,,,,
1739303360.0785644,-0.06768217739012762,1.0394992479918286,-0.3962572063902967,-1.4678487834884424,1.536083735953306,1.1835953629711236,1.3546037322080526,-0.0009969062488603766,0.000925181748329493,0.00042931407648780267,0.001455394663237615,-0.001413255416335871,0.0003923107504437718,0.0010703076164391622,0.4672735035419464,-50.42050552368164,-7.281388282775879,16.95868682861328,1.5581156015396118,-1.2952377796173096,0.012864691205322742,,,,,,,,,
1739303360.0885658,-0.0676821770696776,1.0395027199271623,-0.3962572063900973,-1.4678535340481864,1.536086565572526,1.1835938476509669,1.3546050292008356,2.8614106974938728e-05,4.050242099070843e-06,0.0004025438956842224,-0.000496116505634675,0.0006987862220776879,-2.4968330921789058e-05,0.0005229160821898639,0.4672735035419464,-50.47208023071289,-7.281388282775879,16.98249053955078,1.5709329843521118,-1.2824203968048096,0.0064559997990727425,,,,,,,,,
1739303360.099516,-0.06768046454894099,1.0395027311896343,-0.3962589891034551,-1.467851750511604,1.5360888386801788,1.1835953629711236,1.3546033940366466,0.0016885515703976596,0.001576301226841453,-0.0006036278566793184,-0.00042574888216436195,0.0005758445568077134,0.00017748439630530335,-0.000631438560929795,0.4434697926044464,-50.49985122680664,-7.257584571838379,16.95868682861328,1.5517069101333618,-1.2952377796173096,0.019273381680250168,,,,,,,,,
1739303360.1095226,-0.06768217706967218,1.0394991774219637,-0.3962580354745628,-1.4678535331536255,1.5360856868083927,1.1835946053110453,1.3546050148545548,0.00030277820190230224,-0.001468936174697017,0.00032120577971383405,0.00053424114257559,-0.0011158694486047966,-0.00015372543256147702,0.0028169580275941787,0.4672735035419464,-50.42050552368164,-7.257584571838379,16.98249053955078,1.5773416757583618,-1.2888290882110596,-0.020094294100999832,,,,,,,,,
1739303360.1214714,-0.06768046454894099,1.0394991714624575,-0.39625720627670735,-1.467848185122568,1.5360873213189845,1.1835946053110453,1.3546021665200354,-0.0004131780639054952,-0.0013090068002844905,0.0003799861765119786,0.0009875495083221482,0.00044830612345444853,-0.00019394755684880053,-0.0007299738953566443,0.4434697926044464,-50.42050552368164,-7.281388282775879,16.91107940673828,1.5645242929458618,-1.2888290882110596,0.026597600430250168,,,,,,,,,
1739303360.1314764,-0.06768517724471693,1.0395031095499765,-0.3962544145830272,-1.4678510171955,1.536087323306176,1.1835938345690145,1.3546026473278165,-0.001102736445993926,0.0005102197791040095,0.0006968446574165905,5.6918239573300366e-05,0.0003665947016580099,-0.0006086224590333522,-0.0007690225695553833,0.5188482403755188,-50.47208023071289,-7.309159278869629,16.95868682861328,1.5645242929458618,-1.2824203968048096,0.026597600430250168,,,,,,,,,
1739303360.1415398,-0.06767917566108556,1.0395018817194628,-0.39625720637803924,-1.4678527913945163,1.536084813530668,1.1835938476507453,1.3546035153798006,0.0013013876009081383,0.001112419105919471,0.00022488109049813464,-0.000608122819286066,-0.0011069821795299576,0.00016033214877738075,0.0012950593857987318,0.4156987965106964,-50.44827651977539,-7.281388282775879,16.98249053955078,1.5581156015396118,-1.2824203968048096,0.019273381680250168,,,,,,,,,
1739303360.1524973,-0.06768046469695276,1.0395032765827508,-0.39625704997900607,-1.4678527914027473,1.536086956775048,1.1835950097584136,1.3546033420132184,0.00010080438840953155,0.00027164049625599503,0.00018413681031056311,-0.00010354322914977033,-0.0002996985828707478,0.0001579870182622964,-0.00046125759910926986,0.4434697926044464,-50.44827651977539,-7.281388282775879,16.98249053955078,1.5645242929458618,-1.2952377796173096,-0.0072769103571772575,,,,,,,,,
1739303360.162591,-0.06768266918494036,1.039501163661133,-0.3962553189070306,-1.4678535331410634,1.5360865656399019,1.1835953629651417,1.3546048102463972,-0.0002605140329556534,0.0002186840749171043,-0.0003657730731437892,-0.0006051419122068503,-0.0002828024451534812,0.0005418603842877993,0.0003797867754309029,0.4434697926044464,-50.44827651977539,-7.281388282775879,16.98249053955078,1.5709329843521118,-1.2952377796173096,-0.0008682189509272575,,,,,,,,,
1739303360.1735053,-0.06768217711811969,1.039501166459805,-0.39625720504735784,-1.467848185122568,1.5360865254191058,1.183594605311045,1.3546058772224268,-0.0007574376588189364,-0.0005648431486848309,-0.0012000065644272914,-0.00013904590849546394,0.00023813034034196462,-0.0005868468849142946,-0.00013975038705194888,0.4672735035419464,-50.44827651977539,-7.281388282775879,16.91107940673828,1.5709329843521118,-1.2888290882110596,-0.0008682189509272575,,,,,,,,,
1739303360.1845422,-0.06768046454894125,1.0394990511081479,-0.39625898906710877,-1.4678537893338515,1.5360888387876224,1.18359460525721,1.3546033544717155,0.00035896547592280045,-0.0002397295562797796,-0.00044591254748446046,-0.0006411706974427392,0.000825066502241611,-0.00014188385809788917,0.0005107416344928043,0.4434697926044464,-50.44827651977539,-7.257584571838379,16.95868682861328,1.5517069101333618,-1.2888290882110596,0.019273381680250168,,,,,,,,,
1739303360.1954763,-0.067685699805541,1.0394991654909098,-0.3962610776512874,-1.4678535331651346,1.5360860827565301,1.183595362971123,1.354596331499318,-4.858465532237184e-05,-0.0013211600388414277,-0.0004711839362132754,-0.0009185480797667382,-0.001953278904698334,0.00012945744301006757,-0.00306887546165472,0.4910772144794464,-50.42050552368164,-7.229813575744629,16.98249053955078,1.5709329843521118,-1.2952377796173096,0.07969819009304047,,,,,,,,,
1739303360.2064652,-0.06768249204832788,1.0395032776529944,-0.39625584185612794,-1.467849967799587,1.536088080958088,1.1835953629711233,1.3546002215813457,-0.0001698298567009081,0.0006989793809164091,0.0008883719576427628,0.0007987416045635135,7.987960078847305e-05,0.00010381308854023003,-0.0014720743706760767,0.4672735035419464,-50.47208023071289,-7.309159278869629,16.93488311767578,1.5581156015396118,-1.2952377796173096,0.04673920199275017,,,,,,,,,
1739303360.2165382,-0.06768398580585186,1.0394991685575572,-0.39625720635813266,-1.4678517500243906,1.5360916130933637,1.183594605311045,1.354604271549653,-0.0007537562531329334,-0.00034861518115356115,-0.00041623475138176337,-0.0001500316043376219,0.0007749762676554071,-9.913094936547643e-05,0.0014721842173464517,0.4910772144794464,-50.42050552368164,-7.281388282775879,16.95868682861328,1.5581156015396118,-1.2888290882110596,0.012864691205322742,,,,,,,,,
1739303360.2275002,-0.06768046519676821,1.0395050247477642,-0.39625898906711615,-1.4678517504766035,1.536088838646283,1.1835953644610124,1.3546011341624398,0.0007848444019426871,0.0005306561620089079,-0.0008049344241829341,2.4357305419410934e-05,0.0009155701587319866,0.0005074554095589077,-0.00019107648185947256,0.4434697926044464,-50.47208023071289,-7.257584571838379,16.95868682861328,1.5517069101333618,-1.2952377796173096,0.03941498324275017,,,,,,,,,
1739303360.2375169,-0.06768389250659952,1.0395028814152487,-0.396257036156454,-1.467853496524159,1.5360862040875987,1.1835946053110704,1.354601016205262,-0.0009742681590988682,0.0007887774545016798,0.0005490482700467782,0.00012734060652775322,-0.0016379733591420098,0.00017738418878301732,-2.052688368943986e-05,0.4910772144794464,-50.47208023071289,-7.309159278869629,16.98249053955078,1.5709329843521118,-1.2888290882110596,-0.0008682189509272575,,,,,,,,,
1739303360.2485032,-0.06768046411592059,1.039499237308247,-0.396255140610527,-1.4678497202113217,1.5360880803020518,1.1835946053110453,1.3545999279441145,0.0009748858831987882,-0.001002464428827148,0.00015586871332783485,0.0007878227461515586,0.00053812291111459,-0.00018451791181476847,1.3612683258013404e-05,0.4434697926044464,-50.42050552368164,-7.309159278869629,16.93488311767578,1.5581156015396118,-1.2888290882110596,0.012864691205322742,,,,,,,,,
1739303360.2595375,-0.06768196655243694,1.039501166460986,-0.39625728586319425,-1.4678516680561142,1.5360904781363574,1.1835930899908886,1.3546022476235065,0.00037470907912449567,5.688537722522467e-05,-0.00044044056196757046,-0.00032122990973042844,0.0019391117159271928,0.00017398191758813067,0.00026999898315291685,0.4672735035419464,-50.44827651977539,-7.281388282775879,16.95868682861328,1.5379739999771118,-1.2760117053985596,0.026597600430250168,,,,,,,,,
1739303360.2705781,-0.06768004609496611,1.039499145116809,-0.3962572063422438,-1.4678577016249728,1.5360898580554454,1.1835953629711236,1.3546002280374565,0.0009432584148086666,-0.00232823863609742,0.0005293443790739457,-0.0017618529737332936,0.00019050851975930532,0.00024613752642564267,-0.00038765217911276026,0.4672735035419464,-50.42050552368164,-7.281388282775879,17.03406524658203,1.5517069101333618,-1.2952377796173096,0.04673920199275017,,,,,,,,,
1739303360.2814837,-0.06768217997382793,1.0394987014931418,-0.3962548903892418,-1.4678499678013144,1.536087309902941,1.1835906687365787,1.3546037366795376,-3.701733566801441e-05,-0.0015981843503640872,0.0021523228991555763,-0.0002679785903510584,-0.00047568023234344746,-0.0008728019609287709,0.00022719154997588825,0.4672735035419464,-50.42050552368164,-7.309159278869629,16.93488311767578,1.5645242929458618,-1.2824203968048096,0.012864691205322742,,,,,,,,,
1739303360.292536,-0.06768214199370419,1.0394990499429702,-0.3962551296877026,-1.4678497548247957,1.5360888386262683,1.18359460383955,1.3546060359816272,-0.00010733364590689365,-0.0009651003070087926,0.00014948420047858075,-5.837127326411006e-05,0.001014996824655253,-0.00027310385449977564,0.0009866314562442767,0.4672735035419464,-50.42050552368164,-7.309159278869629,16.95868682861328,1.5517069101333618,-1.2888290882110596,0.0064559997990727425,,,,,,,,,
1739303360.3035748,-0.06768217706947417,1.0395011665681677,-0.3962589890671338,-1.4678517607478627,1.5360880809662656,1.1835953629711151,1.354606652607437,0.00012466377320051106,-0.00023121630361089529,0.00033408636435034887,0.00021636974009329785,0.002068494642767636,0.0011379733644097654,0.0020709961409663986,0.4672735035419464,-50.44827651977539,-7.257584571838379,16.95868682861328,1.5581156015396118,-1.2952377796173096,-0.0072769103571772575,,,,,,,,,
1739303360.3144963,-0.06768123001809408,1.0395023739243097,-0.3962572417113683,-1.4678555212568194,1.5360880410582363,1.183594605311045,1.3545979276808346,-0.0002144656972914282,0.0013780575454971674,-0.0007225372870781027,-0.0004891015803521219,0.0006898303018404022,0.0005659329247613964,-0.004272111548629274,0.4672735035419464,-50.42050552368164,-7.281388282775879,17.01026153564453,1.5581156015396118,-1.2888290882110596,0.05314789339900017,,,,,,,,,
1739303360.3245904,-0.06768429905529917,1.0395002128397883,-0.39625512649283307,-1.4678517503619994,1.5360873233055115,1.1835953629711233,1.3545980619095905,-0.0008976897258904711,-0.0005489585149724982,0.0011656226693977738,-0.0008020946133209094,-0.0005612044112387315,0.00028594868656468765,-0.0019535126756794665,0.4672735035419464,-50.44827651977539,-7.309159278869629,16.95868682861328,1.5645242929458618,-1.2952377796173096,0.05314789339900017,,,,,,,,,
1739303360.3354626,-0.06767933235028699,1.0395021201179877,-0.39625898906711454,-1.4678512214273118,1.536087390454234,1.1835938476509666,1.354599389734051,0.0006376323147919405,0.0003413277675074219,-0.0013248609890496128,0.0014617773676924043,-0.0002932245298148486,8.597211953802707e-07,-0.0017074872212883892,0.4156987965106964,-50.44827651977539,-7.257584571838379,16.98249053955078,1.5517069101333618,-1.2824203968048096,0.05314789339900017,,,,,,,,,
1739303360.3455126,-0.0676807285345193,1.0395011664652043,-0.3962530242760128,-1.4678556098779754,1.5360857802817487,1.183594605311045,1.3546086709731118,-5.118891363264625e-05,-0.0009939135655703932,0.0007718519292203528,-0.0008267354930970297,-0.0010211239058665438,-0.0002122019337327814,0.002645243290073272,0.4672735035419464,-50.44827651977539,-7.309159278869629,17.01026153564453,1.5645242929458618,-1.2888290882110596,-0.03382720425724983,,,,,,,,,
1739303360.3564796,-0.06768046454076396,1.0394992745191196,-0.39625536500695313,-1.4678481860673582,1.5360880809575552,1.183594605311045,1.354596909149123,0.0008042188900827762,0.0002231021637117743,0.00011896399620969067,0.0007904545341584155,-0.0007728041686277868,-0.00015765297657157557,-0.0011983206952077183,0.4434697926044464,-50.42050552368164,-7.309159278869629,16.91107940673828,1.5581156015396118,-1.2888290882110596,0.06596527993679047,,,,,,,,,
1739303360.36658,-0.0676784666080878,1.0395009290241832,-0.39625720639413475,-1.4678517500244066,1.536087718923238,1.1835927880128374,1.3545990212097272,0.0011778814574889321,0.00037117741267326566,0.00048521395116539196,-0.00039209435812146635,-0.0003113990851463944,-0.0007837194694824891,-0.002194750313471395,0.4156987965106964,-50.44827651977539,-7.281388282775879,16.95868682861328,1.5581156015396118,-1.2824203968048096,0.04673920199275017,,,,,,,,,
1739303360.3774977,-0.06768217706967217,1.0395011664584806,-0.3962597043228537,-1.4678510088698844,1.5360888386243001,1.1835946053050634,1.3545962517142203,0.0006595150013198022,0.00011052153896590265,-0.0015408048123292323,0.0004132362250683599,-0.00037948041591361536,7.958900458512224e-05,-0.0019066919346479977,0.4672735035419464,-50.44827651977539,-7.257584571838379,16.95868682861328,1.5517069101333618,-1.2888290882110596,0.05314789339900017,,,,,,,,,
1739303360.3895094,-0.0676822033153388,1.039501192950774,-0.396258989071154,-1.4678542582826593,1.536088082419816,1.1835953624866067,1.3545993893539208,-0.000382998193852194,-0.0001983260491518985,-0.0004645583281222593,-0.00029258586880941866,-0.0013813709487473357,0.0001042513910149714,8.610803025130699e-05,0.4672735035419464,-50.44827651977539,-7.257584571838379,16.95868682861328,1.5581156015396118,-1.2952377796173096,0.05314789339900017,,,,,,,,,
1739303360.400566,-0.06768218128198904,1.0394996059081167,-0.39625896282144973,-1.4678517230092254,1.5360880809662685,1.1835930899908875,1.354603866654455,0.0006409944442500067,0.00046428380683269203,7.18172175015031e-05,-0.00027041985020129683,0.0008968646366025984,-0.0004915718941520255,0.0020878578794794275,0.4672735035419464,-50.39670181274414,-7.257584571838379,16.95868682861328,1.5581156015396118,-1.2760117053985596,-0.0072769103571772575,,,,,,,,,
1739303360.4116063,-0.06768175872437643,1.0395009290345245,-0.3962602552411582,-1.4678546239477381,1.536087758960159,1.183594605311045,1.354599182120397,7.00061916062948e-05,-2.1930367510557172e-05,-0.0003053858293064793,-0.0008573214070825342,-0.00038816529723150416,-7.992214037096516e-05,-0.001249726982055941,0.4910772144794464,-50.44827651977539,-7.229813575744629,17.01026153564453,1.5846658945083618,-1.2888290882110596,0.04673920199275017,,,,,,,,,
1739303360.422461,-0.06768388957837457,1.0394991685176276,-0.39625584170737704,-1.4678517504710231,1.5360879049545404,1.1835971060382144,1.3545987484692608,-0.0006109546565718209,-0.001393902021869124,0.0004175563905527,-0.0006303366302466547,-6.976247334360863e-05,0.00045623168774847365,-0.0035550489037030164,0.4910772144794464,-50.42050552368164,-7.309159278869629,16.95868682861328,1.5581156015396118,-1.2824203968048096,0.05955658480525017,,,,,,,,,
1739303360.432462,-0.06768388959040315,1.0394992479918275,-0.39625720934564695,-1.4678493116615514,1.536086907624175,1.1835953631918477,1.3546063658250351,-0.0003490501980428407,-0.00044905122965821005,-0.00014204848612505843,0.0015852642370628297,-0.0015117955440111792,0.0003344940801233273,-0.00025805057117838444,0.4910772144794464,-50.42050552368164,-7.281388282775879,16.95868682861328,1.5645242929458618,-1.2952377796173096,0.012864691205322742,,,,,,,,,
1739303360.4425178,-0.06768066568395627,1.0395028789818979,-0.39625720639014733,-1.467848217963803,1.536087324752698,1.1835938476509704,1.3546049057461547,0.00034630762696153896,0.0010295322811059032,0.0003162020272148461,0.0005982165110712139,-0.00045996212262404933,-0.0003262394099383665,0.00046171929339888275,0.4434697926044464,-50.47208023071289,-7.281388282775879,16.91107940673828,1.5645242929458618,-1.2824203968048096,0.0064559997990727425,,,,,,,,,
1739303360.453469,-0.06768046357574349,1.0395010869869612,-0.3962572063900973,-1.4678516680604927,1.536091561858713,1.1835938476509669,1.3546057759154018,-0.0005723489431139862,-0.0009413750233150387,0.0002613297238492515,-0.00017741651879615755,0.0013926833485834466,-0.000272148800978838,0.0005527551915155089,0.4434697926044464,-50.44827651977539,-7.281388282775879,16.95868682861328,1.5645242929458618,-1.2824203968048096,-0.0008682189509272575,,,,,,,,,
1739303360.4634979,-0.06768501192567226,1.0394990772710053,-0.3962572181638543,-1.4678535321347441,1.5360873233779675,1.1835938655296347,1.3546058951051836,-0.0011641674115639954,-7.738087408299614e-05,0.00036490505275727864,0.0003978445206037626,0.000286259763126636,0.001038717398227453,0.0009515731331160134,0.4672735035419464,-50.42050552368164,-7.281388282775879,16.98249053955078,1.5645242929458618,-1.2824203968048096,-0.0008682189509272575,,,,,,,,,
1739303360.4735703,-0.06768046470495637,1.0394992476632334,-0.39625512660044115,-1.4678556129434635,1.536088064375606,1.1835938478168126,1.354597545816282,-0.00020086458027613403,0.0001019590116701916,0.0005852284282103288,-0.00044907993194850005,0.00019562547081221788,-0.00011447900831173993,-0.0027193874818479593,0.4434697926044464,-50.42050552368164,-7.309159278869629,17.01026153564453,1.5581156015396118,-1.2824203968048096,0.03300629183650017,,,,,,,,,
1739303360.484533,-0.06768388959040601,1.0395059783144045,-0.39625897740237565,-1.4678517491199592,1.5360880630873166,1.183594605311048,1.354599527808597,-0.0003159892212475918,0.0015852119612133101,-0.00018351604076951325,0.0002684672938214464,0.00042965469071040013,-1.3579267336222102e-05,-0.001048762102057699,0.4910772144794464,-50.47208023071289,-7.257584571838379,16.95868682861328,1.5581156015396118,-1.2888290882110596,0.05314789339900017,,,,,,,,,
1739303360.49558,-0.06768417075850085,1.039501881733503,-0.3962551179606805,-1.467851324265991,1.5360880789797133,1.1835938476509669,1.354602638209901,-0.0013117208393313815,0.0014720981491979257,0.000559657138452524,-0.00011851806287971464,9.620443367098415e-05,-0.00047735523190825285,0.0014392524568510266,0.4910772144794464,-50.44827651977539,-7.309159278869629,16.98249053955078,1.5581156015396118,-1.2824203968048096,-0.0008682189509272575,,,,,,,,,
1739303360.507471,-0.06768075775439283,1.0395050336184581,-0.3962568647643549,-1.4678499677494332,1.536087323306176,1.1835946187200461,1.3546036260909247,0.00043365825883185717,0.0013837115999600065,-8.98202654797274e-05,0.0012155135509935374,0.00042452470339468594,0.00028688490344349384,0.00024497519746649664,0.4672735035419464,-50.47208023071289,-7.281388282775879,16.93488311767578,1.5645242929458618,-1.2888290882110596,-0.013685601763427258,,,,,,,,,
1739303360.5184774,-0.06768501159899747,1.0395031177302343,-0.3962571792201778,-1.467851750476606,1.536086547767441,1.1835946053110704,1.3546066540845274,-0.0009096445455848424,8.875130621767866e-05,-5.295561785171254e-05,0.0005498498943354623,-0.0008194592182658637,-0.0002550354041561169,0.0017268434978858645,0.4672735035419464,-50.47208023071289,-7.281388282775879,16.95868682861328,1.5709329843521118,-1.2888290882110596,-0.0072769103571772575,,,,,,,,,
1739303360.5285957,-0.06768022750927181,1.0394988388578155,-0.39625898906665624,-1.467851749459121,1.5360895338537228,1.1835938476509669,1.3546058965971133,0.0006980205154454428,-0.0009469236534058656,-0.001203975524813133,-0.0005116492947306426,0.0010912676926402385,-0.0003928129344680924,0.0020869945971517304,0.4434697926044464,-50.42050552368164,-7.257584571838379,16.95868682861328,1.5846658945083618,-1.2824203968048096,-0.0008682189509272575,738,742,757,42.151,0,0
1739303360.538634,-0.06768388969439594,1.0395057547151147,-0.3962610836831844,-1.4678497970800934,1.536088082497578,1.1835938476509669,1.3546053959944115,0.00021428745468771995,-2.5115289264167286e-05,-0.0003379387129346473,0.000204917151823207,0.0023080577554271545,-0.00034085914469516947,0.0008839676869285568,0.4910772144794464,-50.47208023071289,-7.229813575744629,16.93488311767578,1.5581156015396118,-1.2824203968048096,-0.0008682189509272575,739,740,756,42.260,0,0
1739303360.5495515,-0.06768003775864652,1.039502120586436,-0.3962572068262461,-1.4678517504756425,1.5360865522371168,1.1835946053110453,1.354598687971101,-0.00013562149893748345,0.0007682059485168162,0.0006647706592808758,-0.0006368473017086751,-0.0002901362936950628,-0.0009519370989952725,-0.0016329009615556325,0.4672735035419464,-50.44827651977539,-7.281388282775879,16.95868682861328,1.5709329843521118,-1.2888290882110596,0.019273381680250168,737,741,758,42.260,0,0
1739303360.5605798,-0.06768557050226771,1.039499168524354,-0.3962589920105581,-1.467853533153625,1.5360888386262683,1.1835953629711236,1.3545997450662008,0.00023409877560173862,-0.0010331698586404708,-0.00037089532428143644,-0.00030448374031892176,0.0011251022825937381,-0.0004427496695960355,-0.0028434484509960232,0.5188482403755188,-50.42050552368164,-7.257584571838379,16.98249053955078,1.5517069101333618,-1.2952377796173096,0.04673920199275017,738,743,757,42.260,0,0
1739303360.5705912,-0.06768588752803155,1.0395011651516257,-0.39625584316422413,-1.4678573864631332,1.5360862370115616,1.1835969472825776,1.3546029644467066,-0.0017933014364771246,-0.00024081980078196735,0.0015705815565816756,-0.001731730583608354,0.00044530873457340894,0.0009205031594429719,-0.0012672747694596092,0.5188482403755188,-50.44827651977539,-7.309159278869629,17.03406524658203,1.5645242929458618,-1.3089706897735596,0.04673920199275017,739,743,757,42.369,1,0
1739303360.5814977,-0.06767846660808789,1.039501167877025,-0.39625898907116136,-1.4678517408669722,1.536086564977804,1.183593089990667,1.354601133515495,0.0019081372843311494,-0.0006879716693078107,-0.0007182806581149193,0.0003056728026254714,-0.0015826711347514538,-0.0001150773274837163,-0.0010066821876387696,0.4156987965106964,-50.44827651977539,-7.257584571838379,16.95868682861328,1.5709329843521118,-1.2760117053985596,0.03941498324275017,735,741,757,42.369,1,0
1739303360.5915062,-0.06768046454894097,1.0395022966156702,-0.39626189007652224,-1.4678535331534623,1.5360865626299811,1.183594605311045,1.3546026494825938,0.00017847391575533935,-0.0011590663550492693,-0.0021745901383107644,-0.0005767520887041619,-0.000561849682395871,-0.0001608894666538913,0.0006626896924896658,0.4434697926044464,-50.47208023071289,-7.229813575744629,16.98249053955078,1.5709329843521118,-1.2888290882110596,0.026597600430250168,737,742,757,42.260,0,0
1739303360.602468,-0.06768046537665709,1.0395035945600508,-0.3962551619261485,-1.4678535301011695,1.5360839395475223,1.183594605311045,1.354596735513484,0.0002981367181465331,0.0007733272418830853,0.0006759550087698417,0.0006807884850390803,-0.0019245733803747434,-0.00021548294558706616,-0.0013968463979365314,0.4434697926044464,-50.47208023071289,-7.309159278869629,16.98249053955078,1.5645242929458618,-1.2888290882110596,0.03941498324275017,736,743,757,42.260,1,0
1739303360.6125238,-0.06768381066945255,1.0395012017932102,-0.39625720639069556,-1.4678535331535734,1.5360851770224309,1.183594605311045,1.354600965123653,-0.0009843923797697553,-0.00011628626152232585,-2.9854667469103835e-05,-0.000352329891844515,0.0006702658402725156,-0.0004348431225832689,-0.0009110278818076877,0.4910772144794464,-50.44827651977539,-7.281388282775879,16.98249053955078,1.5581156015396118,-1.2888290882110596,0.04673920199275017,735,744,761,42.369,1,0
1739303360.6225567,-0.06768046357327155,1.0395013139597293,-0.3962572093335366,-1.4678477415420301,1.5360877172186274,1.1835938476509666,1.3546045705601009,0.00042823593634534567,-0.000443336071645495,0.00023214743046036325,0.0011915544785106864,5.99086695775815e-05,-0.00017308237679198674,0.001519829322089842,0.4434697926044464,-50.42050552368164,-7.281388282775879,16.93488311767578,1.5581156015396118,-1.2824203968048096,0.019273381680250168,736,744,757,42.369,1,0
1739303360.6325765,-0.06768244795009985,1.039501405677847,-0.3962573086699209,-1.4678532857539723,1.5360907082462005,1.1835938476509666,1.3546062385960325,-0.0013491468895333624,0.00011370061316932776,-0.000393525015843843,-0.0009064677935030208,0.0014314412205085416,9.317637931676538e-06,0.0007502926719453753,0.4672735035419464,-50.44827651977539,-7.309159278869629,16.98249053955078,1.5452982187271118,-1.2824203968048096,-0.0072769103571772575,737,745,756,42.260,0,0
1739303360.6435893,-0.06767675376410823,1.0395014048797504,-0.39625719477401317,-1.4678515032263126,1.5360884184839225,1.1835953629711233,1.3546058951048807,0.0008272563010262325,2.8053822521051632e-05,0.00022988441678781308,-0.00028192561785424767,5.584756908194079e-05,0.00025477997475364516,5.261895997507566e-05,0.3918950855731964,-50.44827651977539,-7.281388282775879,16.95868682861328,1.5517069101333618,-1.2952377796173096,-0.0008682189509272575,733,744,756,42.260,0,0
1739303360.6545353,-0.06768049079460578,1.0395028701515803,-0.39625512660017614,-1.4678489791175398,1.5360872157047585,1.183594605311045,1.3546066544186917,0.00032654828681678144,-0.0003722779981451299,0.0013252017433701322,0.0012697893469477439,5.069802696635658e-05,-0.00010623019557098141,0.0015429724564231262,0.4434697926044464,-50.47208023071289,-7.309159278869629,16.93488311767578,1.5645242929458618,-1.2888290882110596,-0.0072769103571772575,736,744,755,42.369,1,0
1739303360.6645844,-0.06768225190978493,1.0395029054713558,-0.3962571801444307,-1.4678517463899219,1.5360912729607838,1.1835953629711233,1.35460577541948,0.0005374636518922806,0.0012056772428969027,0.0010334446503271035,0.0006954695840046975,0.00035848995470980484,-9.189880722918586e-05,-0.0007245085261372547,0.4672735035419464,-50.47208023071289,-7.281388282775879,16.95868682861328,1.5581156015396118,-1.2952377796173096,-0.0008682189509272575,737,744,756,42.260,1,0
1739303360.675493,-0.06767974840786896,1.0395012047246808,-0.39625755077234115,-1.4678499389708175,1.5360844762493646,1.1835930899908884,1.3546030326551164,0.0007434240320193224,0.0015874230727774066,-0.0007966973904435269,0.0007407994270264161,-0.00211213757387288,-0.0006185164584341303,3.021649391554576e-05,0.4434697926044464,-50.44827651977539,-7.281388282775879,16.93488311767578,1.5517069101333618,-1.2760117053985596,0.019273381680250168,736,744,756,42.260,0,0
1739303360.6854935,-0.06768285938355498,1.039499168519616,-0.3962593551065806,-1.467853533040083,1.5360880826649121,1.183594605311045,1.3546023072407989,-0.0007073768136700101,-0.0001919422832932334,9.187287058949942e-05,-0.0008634225621717994,0.0007775590617492391,-6.3643630442962606e-06,-0.0004899183958497242,0.4672735035419464,-50.42050552368164,-7.281388282775879,16.98249053955078,1.5581156015396118,-1.2888290882110596,0.04673920199275017,735,738,755,42.369,1,0
1739303360.695496,-0.06768216831223113,1.0395004482606445,-0.3962610688933606,-1.4678548710837342,1.536087323306216,1.1835961896224991,1.3546012851534626,-0.000658310470808372,-0.0002285363257693459,-0.000743856095777128,-0.0006310500377707453,-0.000750571857492379,0.0004764279836628704,-0.0005301606117196376,0.4672735035419464,-50.44827651977539,-7.229813575744629,17.01026153564453,1.5645242929458618,-1.3025619983673096,0.0064559997990727425,733,740,756,42.260,1,0
1739303360.7055395,-0.06768287693352677,1.0395035942241266,-0.3962572063900979,-1.4678535331410616,1.5360873213196686,1.1835946053103805,1.3546033555795125,-0.0008586781734507395,0.0010318889548241264,0.00035933142316226907,-0.00011957687521378812,-0.000756536511326833,-0.00020022599641337965,0.0004597683957222891,0.4672735035419464,-50.47208023071289,-7.281388282775879,16.98249053955078,1.5645242929458618,-1.2888290882110596,-0.0072769103571772575,738,741,756,42.151,1,0
1739303360.7155423,-0.06768004632348057,1.039501195906326,-0.39625900084087334,-1.4678531943310624,1.5360888386263103,1.183594605311045,1.3546033822395391,-2.203518390835106e-07,-0.00031619989575222226,-0.0005757250030449491,0.0001932698189808427,-0.0002280013308751241,-0.00012442384726532715,5.3546914725319055e-05,0.4672735035419464,-50.44827651977539,-7.257584571838379,16.98249053955078,1.5517069101333618,-1.2888290882110596,-0.0072769103571772575,734,740,756,42.151,0,0
1739303360.7265327,-0.06768188068625115,1.0395051090172072,-0.3962589978975006,-1.4678481860654629,1.5360857939148567,1.1835938476509666,1.354601876905166,0.0006395188338722816,0.002156505441927981,-0.000389331682873609,0.0007274043016078678,-0.0006310683332034591,-0.00017615167210727515,-0.000776515702319427,0.4434697926044464,-50.49985122680664,-7.257584571838379,16.91107940673828,1.5773416757583618,-1.2824203968048096,0.03300629183650017,733,742,757,42.369,1,0
1739303360.737557,-0.06767850161030423,1.0395035944192934,-0.39625724171141813,-1.4678535328144686,1.5360873756339168,1.1835953629711233,1.3546059592754116,0.002041813882535385,0.0007160305474543428,-0.00039651303487436845,-0.000900653575681353,0.00047251398049853277,0.0004285401155920841,0.002233092770846096,0.4156987965106964,-50.47208023071289,-7.281388282775879,16.98249053955078,1.5645242929458618,-1.2952377796173096,-0.013685601763427258,733,739,755,42.151,1,0
1739303360.7485268,-0.06768225580686965,1.0395028672108337,-0.39625898906731577,-1.4678545055357404,1.5360895784080497,1.1835938476509666,1.3546018875974468,-0.0006507599587409311,-0.0007210502626284069,-0.00038061398760371937,-0.0014594017540332793,0.0012222506426624042,-0.0002443542259771809,0.0005687416783509164,0.4672735035419464,-50.47208023071289,-7.257584571838379,16.95868682861328,1.5452982187271118,-1.2824203968048096,-0.0072769103571772575,733,739,756,42.260,0,0
1739303360.7594779,-0.0676831218058561,1.0395050250747464,-0.39625512660024176,-1.4678535290992367,1.5360873618897701,1.1835938475971315,1.3545994912096722,0.0006380299911906139,-0.00010058245579634963,0.000747245485097311,2.3306812220133337e-05,-0.0002298060824079649,-0.00015827746191201156,-0.0011769671272298613,0.4672735035419464,-50.47208023071289,-7.309159278869629,16.98249053955078,1.5645242929458618,-1.2824203968048096,0.05314789339900017,736,741,757,42.477,1,0
1739303360.769492,-0.06768046456494016,1.0395033125904258,-0.3962533442502715,-1.4678517464065968,1.5360873237913575,1.1835953629711224,1.3546035019705076,0.001041793976708313,0.0009184867228189583,0.0015398387455137945,4.152941750971238e-05,0.0002119487863416953,0.00014741299547711389,0.0011651332467017782,0.4434697926044464,-50.44827651977539,-7.332962989807129,16.95868682861328,1.5645242929458618,-1.2952377796173096,0.019273381680250168,735,740,757,42.260,1,0
1739303360.7795017,-0.06768430296866944,1.0395000961747412,-0.3962589929917076,-1.467853533153556,1.5360873233061956,1.1835938476509666,1.3546020536329557,-0.0006741647684637281,0.0007136413792142404,-0.00032775943472020835,-0.0002873955231902823,-0.00030522021697635695,-8.784115936103102e-05,-0.0001319128062556615,0.4672735035419464,-50.42050552368164,-7.257584571838379,16.98249053955078,1.5645242929458618,-1.2824203968048096,0.019273381680250168,738,739,756,42.151,2,0
1739303360.7895806,-0.06768130879109625,1.039502879323311,-0.3962551266003082,-1.4678517504766062,1.5360881260263235,1.1835938476509666,1.354607586781199,0.0005439632862935461,0.0013264040703116669,0.0008851615409822628,-0.0005038561750196611,0.0015661030707562096,-0.00017953579707679875,0.0016443923319503157,0.4672735035419464,-50.47208023071289,-7.309159278869629,16.95868682861328,1.5581156015396118,-1.2824203968048096,-0.027418512850999832,737,739,757,42.260,1,0
1739303360.8005393,-0.06767846663918875,1.0395040010281575,-0.39625722703993194,-1.4678517504766062,1.5360880941023076,1.183595349835336,1.3546066542490165,0.0012876305553044824,0.0001666801622906796,-0.0003782858887072967,5.810060154693233e-05,0.0005884395192510857,-0.00021170805082638803,0.0018788221450100726,0.4156987965106964,-50.44827651977539,-7.281388282775879,16.95868682861328,1.5581156015396118,-1.2952377796173096,-0.0072769103571772575,735,741,755,42.260,0,0
1739303360.8114703,-0.06768003624352222,1.0395011693422476,-0.39625721522076474,-1.4678517382667842,1.5360843668972133,1.183595362970901,1.3546018898360077,0.00021410370352054834,0.00029073163258726856,0.0003373734318379582,0.0007109796219039598,-0.00018249298142308855,0.00028452150753253904,-0.0005809364906715526,0.4672735035419464,-50.44827651977539,-7.281388282775879,16.95868682861328,1.5709329843521118,-1.2952377796173096,0.03300629183650017,737,741,757,42.260,1,0
1739303360.8214958,-0.06768288436730556,1.0395007595953258,-0.3962589978975836,-1.4678499677993802,1.5360888385891078,1.1835938476509666,1.3545997855411454,-0.0009862512033143676,-0.00011757426521336734,-0.0008986927255901717,0.0005534707374428726,-0.00046107037595736496,-0.00016682692066179728,-0.001781500225075735,0.4672735035419464,-50.47208023071289,-7.257584571838379,16.93488311767578,1.5517069101333618,-1.2824203968048096,0.04673920199275017,734,740,757,42.151,2,0
1739303360.8325305,-0.06768362767553866,1.0394991654261856,-0.39625791872966604,-1.4678573956204999,1.5360885244230644,1.183594605311045,1.3546041523394943,-0.0009925881833656282,-0.002537345570591591,0.00012449881109182038,-0.0024087703519749676,0.0006747987696701866,0.0004975049167805601,0.0005653359616089264,0.4672735035419464,-50.42050552368164,-7.281388282775879,17.03406524658203,1.5517069101333618,-1.2888290882110596,0.012864691205322742,736,740,756,42.151,0,0
1739303360.8434863,-0.06768329912512797,1.0395020155713899,-0.3962572062861116,-1.4678532859047282,1.5360887179435612,1.1835962288683557,1.3546010939347637,-0.0010516439082159097,-0.0004400577135479408,0.000458334569573863,-0.000985830520310659,-5.809287065708152e-05,0.00031181208596826806,0.00044395101015512885,0.4434697926044464,-50.49985122680664,-7.281388282775879,16.98249053955078,1.5517069101333618,-1.3025619983673096,0.03941498324275017,733,739,759,42.369,1,0
1739303360.8536417,-0.06768047615342629,1.0395031173506741,-0.39625921582095297,-1.467855338218297,1.5360888386243001,1.1835930899908884,1.3545991289803905,-0.0007653559871118615,0.00046444308177194266,-0.0011301961678399988,-0.0009236052478224556,-2.5609449374413797e-05,-0.0005255270331695135,-0.0011566677944480617,0.4434697926044464,-50.47208023071289,-7.257584571838379,17.01026153564453,1.5517069101333618,-1.2760117053985596,0.019273381680250168,734,740,757,42.260,2,0
1739303360.8645682,-0.06768217710573997,1.0395011755821943,-0.39625935215858926,-1.467853356159818,1.5360880675572646,1.1835938476509666,1.3545970098532067,-4.6213728321312575e-05,0.0004327474795286438,-0.0005361902964419075,-0.00037448230507563943,0.0003087834560381435,-0.00028096431492822795,-0.0009341691648734773,0.4672735035419464,-50.44827651977539,-7.281388282775879,17.01026153564453,1.5581156015396118,-1.2824203968048096,0.04673920199275017,736,741,757,42.260,1,0
1739303360.8755622,-0.06768217197215283,1.0395011841206108,-0.39625994277777155,-1.4678533601930905,1.5360872883965284,1.1835930899908884,1.3545993362329425,0.0005220799369293216,0.00018115072802828128,0.0003523535106255709,-0.00035378226684718397,0.0003711188429734942,-0.0005554428407104866,-0.0007680229968379873,0.4672735035419464,-50.44827651977539,-7.257584571838379,17.01026153564453,1.5645242929458618,-1.2760117053985596,0.05314789339900017,734,738,759,42.260,0,0
1739303360.886519,-0.06768217706966258,1.0395028794287633,-0.3962558418577736,-1.4678532868076122,1.536084460480744,1.1835938476509666,1.3546026494822767,-0.0005269939800894753,0.0013691840520187923,0.0010257145179091015,-0.0006274630456445969,-0.0004237309267985965,-0.0002261206205034984,-0.00010749943332377822,0.4672735035419464,-50.47208023071289,-7.309159278869629,16.98249053955078,1.5581156015396118,-1.2824203968048096,0.026597600430250168,734,738,756,42.260,1,0
1739303360.8965418,-0.06768585830341352,1.0395011664598437,-0.3962611378141064,-1.4678535346188855,1.5360912596967142,1.183594605311045,1.3545982702210224,-0.0012194179295269415,-0.0009367814926729231,-0.0006180850603426868,-0.0013161703306416252,0.0016693785262576002,0.00011094037735425284,-0.0023093323278138315,0.5188482403755188,-50.44827651977539,-7.257584571838379,16.98249053955078,1.5581156015396118,-1.2888290882110596,0.05955658480525017,734,742,757,42.369,1,0
1739303360.9074738,-0.06768426774828418,1.0394990210317707,-0.3962589439431646,-1.4678517504640474,1.5360875446122062,1.1835942101906238,1.354601014430925,-0.00036336505891464653,-0.0018110963121418275,-0.0009871959869791292,-0.0003063833202740491,-0.0006311085279062157,-0.00017463852820598876,0.0005642672847016422,0.4672735035419464,-50.44827651977539,-7.229813575744629,16.95868682861328,1.5581156015396118,-1.2824203968048096,0.012864691205322742,736,739,758,42.260,1,0
1739303360.9185255,-0.06768046501637424,1.0395029583080626,-0.39625720624610483,-1.467851668060307,1.536087202616095,1.183595362977263,1.3546011339417199,0.00042078861757675917,0.00026369856983376533,0.00029094387061903866,-2.1051010287039787e-06,0.00022480408414110885,1.4873237576282179e-05,0.0004407539114860916,0.4434697926044464,-50.47208023071289,-7.281388282775879,16.95868682861328,1.5645242929458618,-1.2952377796173096,0.03941498324275017,732,739,757,42.260,0,0
1739303360.928528,-0.06767933591494052,1.0395011546865116,-0.39625697017909683,-1.467849720550225,1.5360880407385813,1.1835888514383712,1.3546034973356247,0.0014048193802617007,-0.0005850162873941353,-0.0004445043811170817,0.0007904512761451573,-0.0009869749878974334,-0.0013276340821397183,2.3502065668169097e-05,0.4672735035419464,-50.44827651977539,-7.281388282775879,16.93488311767578,1.5581156015396118,-1.2760117053985596,0.019273381680250168,733,740,756,42.260,1,0
1739303360.9385371,-0.06768243980224384,1.039504876921206,-0.39625720638609707,-1.4678517500202033,1.5360873625513627,1.183594605239265,1.3546055165095718,-2.5640886694720454e-05,-1.6951505192073254e-05,0.0006037787781996272,-0.0015918593572225438,-0.00043652547388834783,-0.00012447847696524106,-0.00032277255486829956,0.4672735035419464,-50.49985122680664,-7.281388282775879,16.95868682861328,1.5645242929458618,-1.2888290882110596,-0.0008682189509272575,733,740,756,42.260,1,0
1739303360.9495368,-0.06768215076713328,1.039502891081358,-0.39625512660024165,-1.4678498856982163,1.536087323306852,1.1835938461974154,1.3546042323097358,0.0012230189437418995,0.0006742413622797136,3.371000978755488e-05,0.00020045715329938287,0.0002761799815579047,-0.00047118268486276297,-2.2107957457137124e-05,0.4672735035419464,-50.47208023071289,-7.309159278869629,16.93488311767578,1.5645242929458618,-1.2824203968048096,0.012864691205322742,733,741,756,42.369,0,0
1739303360.9604895,-0.06768046442860347,1.0395004512041064,-0.39625544319559824,-1.4678492260401803,1.5360860675265526,1.1835953649576394,1.3546058965970396,0.00023382433302051003,-0.0001781505179221955,0.0004508212717074762,0.0005229860018663005,-0.0013047268262690878,0.00017470445410409726,0.000846818694985097,0.4434697926044464,-50.44827651977539,-7.309159278869629,16.93488311767578,1.5709329843521118,-1.2952377796173096,-0.0008682189509272575,735,741,756,42.260,0,0
1739303360.9715576,-0.06768288570267049,1.0395028785404494,-0.39625512660202894,-1.467847742555328,1.5360873247569258,1.1835930899908997,1.3546042730398054,-1.1445569049707525e-05,0.0006707086798815258,0.0005891545449327004,0.00045676396487188324,-0.0012549861875636335,-0.00023540605312523627,-0.00042612272190246383,0.4672735035419464,-50.47208023071289,-7.309159278869629,16.93488311767578,1.5645242929458618,-1.2760117053985596,0.012864691205322742,734,740,756,42.260,1,0
1739303360.9825213,-0.06768217707367243,1.0395004521852276,-0.3962611483298316,-1.467850978235796,1.5360889657907604,1.1835923323308102,1.3545977014581871,0.0006306191897769665,-0.0010730575782920274,-0.0005115187579481785,8.516580701748892e-05,0.00010535931883563733,-0.000687649201277571,-0.001428943162126079,0.4672735035419464,-50.44827651977539,-7.229813575744629,16.98249053955078,1.5581156015396118,-1.2696030139923096,0.03941498324275017,738,741,756,42.260,1,0
1739303360.9925723,-0.0676839245846256,1.0395053782754264,-0.39626185009141146,-1.4678487799419049,1.5360873188515047,1.1835938476509669,1.354595923525209,-0.00016550875545020378,0.0008996126387147024,-0.0009680426834723753,0.0012806892774650624,0.00030289286918935864,-0.00021135099199607148,-0.0013250754568177505,0.4910772144794464,-50.47208023071289,-7.257584571838379,16.95868682861328,1.5645242929458618,-1.2824203968048096,0.04673920199275017,734,739,757,42.260,0,0
1739303361.003496,-0.06768389056266264,1.0395056349622658,-0.3962610697826008,-1.4678517380992768,1.536088838626319,1.1835938476509669,1.3546025287218884,0.00015415214909950868,0.0004080229314083536,-0.0016737139486784106,0.000652933542549068,0.00011336790308057092,-0.0002150515233912585,0.0007384705785709442,0.4910772144794464,-50.47208023071289,-7.229813575744629,16.95868682861328,1.5517069101333618,-1.2824203968048096,0.026597600430250168,734,740,757,42.260,1,0
1739303361.014512,-0.06768217706968864,1.0395011663974774,-0.3962522920682614,-1.4678583680024073,1.5360880809662656,1.1835953629711236,1.3545991529827937,0.00015372964188509672,-0.00020751027033810742,0.0012028270411748824,-0.0014693850501043327,0.00012657842675923257,0.00033610438046307385,0.0002801634950325454,0.4672735035419464,-50.44827651977539,-7.309159278869629,17.01026153564453,1.5581156015396118,-1.2952377796173096,0.019273381680250168,735,742,756,42.151,1,0
1739303361.0246568,-0.06768218095791907,1.0395011664598206,-0.39626321853276847,-1.467848978819552,1.536087382859434,1.1835938476509669,1.3546042725185499,0.0008205753417383154,-0.0009727995605438478,-0.002260960125959851,0.0013844192907012545,-0.0001310807517984172,-0.00025021830419445475,-0.00011697637274697535,0.4672735035419464,-50.44827651977539,-7.229813575744629,16.93488311767578,1.5517069101333618,-1.2824203968048096,0.012864691205322742,738,741,756,42.151,1,0
1739303361.0354755,-0.06768217717770098,1.0395012004728965,-0.3962572064022323,-1.467849216889947,1.536087349134825,1.1835930899908886,1.3546023889685674,-0.0002068352188728943,0.0001342918501362409,0.00042035703753284055,0.0023214473327459106,6.43952577612099e-05,-0.0003441618120311074,-8.120821039003597e-05,0.4672735035419464,-50.44827651977539,-7.281388282775879,16.93488311767578,1.5645242929458618,-1.2760117053985596,0.019273381680250168,733,745,756,42.260,0,0
1739303361.0464525,-0.06767836138013542,1.039501166460013,-0.39625507951903866,-1.4678477425552765,1.5360883791208177,1.1835946053110453,1.3546017294721018,0.0020259189955651926,-0.00041004657472263484,0.000983877928061499,0.0008676382103007521,0.0007799134006865489,1.4394372253058847e-05,-0.00068870174987885,0.4156987965106964,-50.44827651977539,-7.281388282775879,16.93488311767578,1.5645242929458618,-1.2888290882110596,0.03300629183650017,734,738,757,42.151,1,0
