IITGN-Robotics/Franka_IITGN_ROBOTICS/franka_ros/franka_iitgn/data01/s_b_014.csv
time,fr3_joint1_pos,fr3_joint2_pos,fr3_joint3_pos,fr3_joint4_pos,fr3_joint5_pos,fr3_joint6_pos,fr3_joint7_pos,fr3_joint1_vel,fr3_joint2_vel,fr3_joint3_vel,fr3_joint4_vel,fr3_joint5_vel,fr3_joint6_vel,fr3_joint7_vel,fr3_joint1_eff,fr3_joint2_eff,fr3_joint3_eff,fr3_joint4_eff,fr3_joint5_eff,fr3_joint6_eff,fr3_joint7_eff,flexpin1,flexpin2,flexpin3,Force,ContactMic,ContactMic_gt
1739303520.21734,-0.06961750619312364,1.0434411065748679,-0.397257248501568,-1.4663656007955799,1.5435082108808464,1.1765414059584618,1.3476773786903693,-0.0014718543017972036,-0.00290806247459504,0.00012313305951317378,-0.0022470538850761002,0.0010627111863389185,-0.00011174772877924382,0.0015622811628410247,0.2411382496356964,-50.39670181274414,-7.356766700744629,17.35541534423828,1.6432596445083618,-1.1249496936798096,0.012864691205322742,,,,,,,,,
1739303520.2274158,-0.0696134027952868,1.0434456846088327,-0.3972600599464622,-1.4663653394171872,1.5435097260395148,1.1765389843584586,1.347676108507379,-0.0002466528280000001,-0.0004632693121106058,0.00021631490430888,0.00028287290817870616,0.0012172825475248402,-0.001577794000489003,0.0015449903943330334,0.1697271168231964,-50.42050552368164,-7.332962989807129,17.37921905517578,1.6304422616958618,-1.1313583850860596,0.026597600430250168,,,,,,,,,
1739303520.2383802,-0.06960969332507631,1.04344722940648,-0.3972628491204214,-1.46636347715827,1.5435089683794283,1.1765373756577158,1.3476773788525427,0.0009588488496589658,0.0005916611965085148,-0.0003603575253522714,-0.00021172694112505533,0.0005041527899808132,0.0002028332352068474,0.0014828129609790552,0.11815241724252701,-50.44827651977539,-7.309159278869629,17.35541534423828,1.6368509531021118,-1.1176254749298096,0.012864691205322742,,,,,,,,,
1739303520.2503073,-0.06961498456271585,1.0434479476142138,-0.39726249794190527,-1.4663634594975845,1.5435050186691743,1.1765385420094,1.3476757552946776,-0.0008655740635166677,-0.0001638185834206573,0.0007799289712128029,0.000750634547472783,-0.0008214681456675248,-0.0007472145841455596,0.001542413305198703,0.1935308277606964,-50.44827651977539,-7.332962989807129,17.35541534423828,1.6432596445083618,-1.1249496936798096,0.026597600430250168,,,,,,,,,
1739303520.2603915,-0.06961298839084681,1.0434501026518628,-0.39726415259069536,-1.4663623842271316,1.5435050317509043,1.176537321397773,1.3476713867137018,0.00048220179908599976,0.0010015788787257158,-0.00022889339201113919,0.0005569438065978992,-0.0008807686891090704,-0.0007199610314947306,-0.0013382479586190807,0.1935308277606964,-50.44827651977539,-7.332962989807129,17.33161163330078,1.6432596445083618,-1.1176254749298096,0.05314789339900017,,,,,,,,,
1739303520.2723782,-0.06961795091893898,1.0434459244502605,-0.39726425083297484,-1.4663637156870135,1.5435074921376408,1.1765392982335665,1.3476741223961426,-0.0017308576109250548,-0.000203841762935532,-0.000320397284024601,0.00039470924698454884,0.0003546548012935777,0.00020975179025009368,-0.0005227157673961245,0.1935308277606964,-50.42050552368164,-7.356766700744629,17.35541534423828,1.6496683359146118,-1.1313583850860596,0.03941498324275017,,,,,,,,,
1739303520.2824197,-0.0696096934131682,1.0434460291501324,-0.39726500814818877,-1.4663644087399192,1.543507341136123,1.1765373218782766,1.3476726164165462,-0.00010414081845803145,-0.0009505261910795229,8.422962625287926e-05,-0.00011326219115331262,-0.0004964314870791393,-0.0009747680356012452,0.0006735450111464278,0.11815241724252701,-50.42050552368164,-7.309159278869629,17.35541534423828,1.6496683359146118,-1.1176254749298096,0.05314789339900017,,,,,,,,,
1739303520.294342,-0.06961181926016193,1.0434496702052833,-0.39726322541965237,-1.4663616679955067,1.5435057893029027,1.176538187289001,1.347672614479143,-0.0003225109134187432,0.00041488754468571197,3.869965456929253e-05,0.00101314221503285,-0.0010837765944753416,-0.0002028235555048081,-0.000530306584820075,0.11815241724252701,-50.47208023071289,-7.332962989807129,17.33161163330078,1.6368509531021118,-1.1249496936798096,0.05314789339900017,,,,,,,,,
1739303520.304377,-0.06961341249851148,1.0434422657069546,-0.3972650079876549,-1.466365949647039,1.5435089290797337,1.1765381872889984,1.3476718187201784,-0.001077315772656509,-0.0008014525051915856,0.0004051485075555027,-0.0006892601845096696,0.00033421478339795056,-0.00020259014868972107,0.0006704909124824563,0.1697271168231964,-50.36893081665039,-7.309159278869629,17.35541534423828,1.6368509531021118,-1.1249496936798096,0.03300629183650017,,,,,,,,,
1739303520.3143983,-0.06961341257081738,1.0434463829240455,-0.39726500809667054,-1.4663654810795437,1.543506942216891,1.1765389449490766,1.347676267961255,-0.00022206991319563256,-0.0003633695252589827,-0.00030044002754436855,-0.00018719879337585207,-0.001453771716286774,-0.00011974030763395012,0.0005903323217653883,0.1697271168231964,-50.39670181274414,-7.309159278869629,17.37921905517578,1.6496683359146118,-1.1313583850860596,0.019273381680250168,,,,,,,,,
1739303520.3263516,-0.06961553004527982,1.0434480271032407,-0.3972632254196521,-1.466364165924253,1.5435023909495142,1.1765392981617864,1.3476738990505952,-0.0015291185065139331,0.0005637728807772998,0.0004905414074687093,-0.000787159746029106,-0.001839733999780926,0.00048258211599365783,0.0005315333735489266,0.1697271168231964,-50.44827651977539,-7.332962989807129,17.35541534423828,1.6560770273208618,-1.1313583850860596,0.012864691205322742,,,,,,,,,
1739303520.336396,-0.06961140690142642,1.0434430768811576,-0.3972614437056101,-1.4663619192766348,1.5435089670092497,1.1765389449510704,1.3476749975611204,-0.00032615682827844363,-0.0010786477569824531,0.00019244272398983013,-0.0004689262351981573,-0.0012327352000685988,4.482367008186181e-05,0.0005373709057320435,0.1419561207294464,-50.42050552368164,-7.356766700744629,17.33161163330078,1.6368509531021118,-1.1313583850860596,0.03300629183650017,,,,,,,,,
1739303520.3484118,-0.06961245959627767,1.0434449959868817,-0.3972614427062997,-1.4663635304684441,1.5435033987472275,1.1765381818139589,1.3476711010427773,-0.0012482958098642338,-0.0006883001941207331,0.0007231056581935368,-0.0002955246314733021,-0.0016897210212982474,-0.0005033693372846588,-0.0007401537315200879,0.1419561207294464,-50.42050552368164,-7.356766700744629,17.35541534423828,1.6560770273208618,-1.1249496936798096,0.06596527993679047,,,,,,,,,
1739303520.3604095,-0.06961140588334257,1.043449660137205,-0.3972614432062886,-1.466359589181539,1.5435081975773595,1.176538187288988,1.3476743969579472,0.0006993480403000168,0.0021635765484949196,0.0012507778066401822,0.0016158530769434009,0.0003052503278898646,-0.0003902343621241925,0.0016946074149830413,0.1419561207294464,-50.47208023071289,-7.356766700744629,17.30384063720703,1.6432596445083618,-1.1249496936798096,0.03941498324275017,,,,,,,,,
1739303520.3713825,-0.06961081537242944,1.043448198137653,-0.3972652421000923,-1.4663617063638266,1.5435090689973816,1.1765390626866465,1.3476777832995421,0.0005556599596736262,0.00186622133538686,8.868186642519446e-05,0.0002870444468775651,0.001266883307867634,0.00016946253406771334,0.002214969339338572,0.09434870630502701,-50.44827651977539,-7.309159278869629,17.33161163330078,1.6368509531021118,-1.1313583850860596,0.0064559997990727425,,,,,,,,,
1739303520.3823178,-0.06961448941716782,1.0434442374879753,-0.3972671668546067,-1.4663617477906565,1.543508210721054,1.176538944785527,1.3476757552886958,-0.0018265766646165455,-0.00022446346586151814,-0.0004987191054452321,0.00042210945306681306,0.0008246641643409505,-5.8110898821761795e-05,0.0006277847099007607,0.1419561207294464,-50.39670181274414,-7.281388282775879,17.33161163330078,1.6432596445083618,-1.1313583850860596,0.026597600430250168,,,,,,,,,
1739303520.3923492,-0.06961143225243994,1.043442239215833,-0.39726145529744616,-1.4663661046026042,1.5435073353217017,1.1765389507632764,1.3476764642084833,-0.0013500425796338221,-0.001706253732106899,0.001096039250247956,-0.0003695206161321393,-0.0005076072021224868,0.00048816024564564333,-0.0003742665311770194,0.1419561207294464,-50.36893081665039,-7.356766700744629,17.37921905517578,1.6496683359146118,-1.1313583850860596,0.019273381680250168,,,,,,,,,
1739303520.4023817,-0.06961141463036195,1.0434516670191865,-0.3972635529465282,-1.4663634506818721,1.5435089678929175,1.176539600139936,1.3476726164145514,0.0002754468393386838,0.0026355132726812885,0.00045102222950467447,-0.0003110863775012072,0.0012966651631992564,0.0008226998928297879,-0.0015332671276995769,0.1419561207294464,-50.49985122680664,-7.356766700744629,17.35541534423828,1.6368509531021118,-1.1249496936798096,0.05314789339900017,,,,,,,,,
1739303520.4133127,-0.0696156350280451,1.0434459496775665,-0.39726144266935326,-1.4663679785257897,1.5435073348371766,1.1765389449730033,1.3476766211919098,-0.0011210544726971588,-0.0006004383240828387,0.001060285937848627,-0.00031498479207352995,-0.0008209143364198329,1.5027219534364392e-05,0.0017656417733094,0.1697271168231964,-50.42050552368164,-7.356766700744629,17.40302276611328,1.6496683359146118,-1.1313583850860596,0.019273381680250168,,,,,,,,,
1739303520.423342,-0.06961384688496072,1.0434400934486192,-0.39726712279424614,-1.4663616709389709,1.543507908579126,1.176539662382152,1.3476726163633748,-0.0006219451683438685,-0.001432221875685148,-9.246026284087579e-05,0.0009578857416590509,0.0007834211464699135,-6.671044543386074e-06,-0.0007124378581458333,0.1419561207294464,-50.36893081665039,-7.309159278869629,17.33161163330078,1.6368509531021118,-1.1377670764923096,0.05314789339900017,,,,,,,,,
1739303520.433426,-0.06961255418016588,1.0434459614148335,-0.3972660596038849,-1.4663659574302412,1.5435074511032567,1.1765397024429305,1.347670041296977,-0.0004590591486596506,0.00059055535579431,0.0005098139280022249,-0.00021154422103691688,0.00017450163772744038,0.00024884904517602675,-0.0006093842299404438,0.11815241724252701,-50.42050552368164,-7.332962989807129,17.37921905517578,1.6496683359146118,-1.1377670764923096,0.06596527993679047,,,,,,,,,
1739303520.4453096,-0.06961192523103929,1.0434516585523228,-0.3972644967868093,-1.4663626309712239,1.543508210719339,1.1765387840410633,1.3476663429626679,0.0003714826693131032,0.0017630218648250465,-0.00023807658120803335,-0.0006593849034506877,0.000935047160097815,-0.0007422913143248257,-0.0025546304330300775,0.11815241724252701,-50.49985122680664,-7.356766700744629,17.33161163330078,1.6432596445083618,-1.1313583850860596,0.10624848306179047,,,,,,,,,
1739303520.4563758,-0.0696121149949875,1.043447426629524,-0.39726392841013,-1.4663652696519898,1.5435071450516789,1.1765397023875224,1.3476725503076157,0.0007539522025606875,-0.00019657168816423768,0.00023774649235994846,-0.0003131265647931478,-0.0006660762982040817,4.628245234120429e-06,8.621679040386786e-05,0.1419561207294464,-50.44827651977539,-7.332962989807129,17.37921905517578,1.6432596445083618,-1.1377670764923096,0.05314789339900017,,,,,,,,,
1739303520.467309,-0.06961143212836077,1.0434479744352898,-0.397261446595864,-1.4663626345284027,1.5435082102328281,1.176538187288998,1.347669561845092,0.0001413130400548047,0.0006799202886929995,0.0005375404654377606,-0.0004986385022807627,0.0007170334710605284,-0.00014996417299674685,-0.0013338795801592098,0.1419561207294464,-50.44827651977539,-7.356766700744629,17.33161163330078,1.6432596445083618,-1.1249496936798096,0.07969819009304047,,,,,,,,,
1739303520.4773493,-0.06961343438859834,1.043444237157138,-0.39726116161255115,-1.4663617474793265,1.5435088504803445,1.1765381872889982,1.3476781030817284,0.0003329702766739056,-0.0009059293554433965,0.00038166112713414473,0.0004446153519212325,-0.00014736261129699038,0.00022993548539307465,0.0025112414436409864,0.1697271168231964,-50.39670181274414,-7.332962989807129,17.33161163330078,1.6368509531021118,-1.1249496936798096,0.0064559997990727425,,,,,,,,,
1739303520.4883635,-0.06961037568734792,1.0434466650421688,-0.3972607274752455,-1.4663634507039047,1.5435050274436455,1.1765381872889982,1.347673180174697,0.0007019856770846149,0.0002945029301150734,0.0008160635889310952,-0.00035699566194237345,-0.0013511582688291272,-0.0004925743822379006,-0.0006536069177229004,0.11815241724252701,-50.42050552368164,-7.356766700744629,17.35541534423828,1.6432596445083618,-1.1249496936798096,0.03941498324275017,,,,,,,,,
1739303520.4983683,-0.06961141766566266,1.0434486641943155,-0.39726533143832105,-1.4663637786970696,1.543510589944763,1.176538187123455,1.3476733827806422,-0.0008116519984293616,0.0018765217388236532,-0.00032269226042969687,-0.0007249973314145102,0.0017054345036308933,-0.00015762162746390775,0.0008670750255529541,0.1419561207294464,-50.44827651977539,-7.332962989807129,17.35541534423828,1.6231180429458618,-1.1249496936798096,0.04673920199275017,,,,,,,,,
1739303520.5084243,-0.06961246575286241,1.0434442005393532,-0.3972666975107092,-1.466364168871849,1.5435082107193163,1.1765389449490737,1.3476754685850265,-0.00105578343678174,-0.0006320630739895411,-0.0010831004437714179,-0.0003579157398426026,0.0004443592358843127,0.0006591599322305747,0.0012151744695241258,0.1419561207294464,-50.39670181274414,-7.281388282775879,17.35541534423828,1.6432596445083618,-1.1313583850860596,0.03300629183650017,,,,,,,,,
1739303520.5193853,-0.06961411246119487,1.0434479476180614,-0.39726251979148147,-1.4663616768244703,1.5435080663707477,1.1765397026091549,1.347675755297336,-0.0015163465325055835,0.00036081068940284995,0.001075252694858475,0.0004582962815196715,0.0006182903365293836,0.0002335006756735996,0.0015278669715041225,0.1697271168231964,-50.44827651977539,-7.332962989807129,17.33161163330078,1.6368509531021118,-1.1377670764923096,0.026597600430250168,,,,,,,,,
1739303520.5303857,-0.06961364583959972,1.043447506102381,-0.39726333808398223,-1.4663620520042981,1.543503919618591,1.1765365637316874,1.3476729295929992,-0.0005310807149029913,0.0003975003688024238,6.61182004839008e-05,6.906026149585114e-05,-0.0011445940729447321,-0.0006677970691652376,0.0012603407723419716,0.1419561207294464,-50.44827651977539,-7.332962989807129,17.30384063720703,1.6432596445083618,-1.1112167835235596,0.026597600430250168,,,,,,,,,
1739303520.541314,-0.06961253971455514,1.0434459496749229,-0.3972678160293336,-1.4663616683673941,1.5435089683013696,1.1765381470619953,1.3476758734469778,-0.00022479322073931603,-4.6818319163726926e-05,-0.0011107098681828295,-0.00023437282557268714,0.001247775348426963,-0.0002020524811807963,0.0004901376641238111,0.11815241724252701,-50.42050552368164,-7.309159278869629,17.33161163330078,1.6368509531021118,-1.1249496936798096,0.026597600430250168,,,,,,,,,
1739303520.551404,-0.06961168113103866,1.043447947618268,-0.39726322643018175,-1.4663681208580452,1.543508968379427,1.176538187288317,1.3476757378540754,-0.0003693013296090802,2.293970144907457e-05,5.8892102501599295e-05,-0.0014525253799687748,-0.00015300682448098987,-7.243913455494411e-05,-0.00011458681196646023,0.1419561207294464,-50.44827651977539,-7.332962989807129,17.37921905517578,1.6368509531021118,-1.1249496936798096,0.026597600430250168,,,,,,,,,
1739303520.562375,-0.06961361062691734,1.0434460291502747,-0.39726227573991285,-1.4663634506834173,1.543508981407545,1.1765389449490764,1.3476757556175902,0.0003227732214527601,0.0006566421039722212,0.0005099748994892445,-0.00026714327072022766,0.001416070191555399,7.066442122361376e-05,0.0012748684051698557,0.1419561207294464,-50.42050552368164,-7.332962989807129,17.35541534423828,1.6368509531021118,-1.1313583850860596,0.026597600430250168,,,,,,,,,
1739303520.573452,-0.06961353312488724,1.0434442371934713,-0.3972635460856448,-1.4663691617883674,1.5435084973753868,1.1765404604307388,1.347671101096615,-0.00019495108954687012,-0.0011366472206524483,0.00019245582931176608,-0.002141972562670345,-0.0008908112088189082,0.0008786076408152363,-0.0013113321425901395,0.1419561207294464,-50.39670181274414,-7.332962989807129,17.40302276611328,1.6368509531021118,-1.1441757678985596,0.06596527993679047,,,,,,,,,
1739303520.5844,-0.06961141561398544,1.043445941828244,-0.39726154770894034,-1.466366315626765,1.54350790873864,1.1765381857991102,1.3476769787652703,0.00024326447317412465,-0.00046203211152550695,0.0009380274214729757,-0.0006514809594353236,0.00025461351633347044,-0.00046013882520180697,0.0017374874339085545,0.1419561207294464,-50.42050552368164,-7.356766700744629,17.35541534423828,1.6368509531021118,-1.1249496936798096,0.019273381680250168,,,,,,,,,
1739303520.5953927,-0.06961431915041062,1.0434442373383335,-0.39726330374237706,-1.4663656328982744,1.543505032283497,1.1765389449490682,1.3476749976366178,-0.00040235456135948,-0.00041323991322648253,0.00022217323797535306,0.000534022088622429,0.0007713833888398084,2.98600834867842e-05,0.00010451019533376873,0.1419561207294464,-50.39670181274414,-7.332962989807129,17.35541534423828,1.6432596445083618,-1.1313583850860596,0.03300629183650017,,,,,,,,,
1739303520.6063259,-0.06960971965927906,1.0434496601390004,-0.3972662677855495,-1.46636380698094,1.5435081917514193,1.1765381872889982,1.347673022561791,8.438101078162279e-05,0.0010673269218788718,-0.00024507868368496566,-0.00039602817298286196,0.0008340703582590677,6.82508178355629e-08,-0.0009745264885226418,0.11815241724252701,-50.47208023071289,-7.332962989807129,17.35541534423828,1.6432596445083618,-1.1249496936798096,0.012864691205322742,,,,,,,,,
1739303520.6163716,-0.06961151118849228,1.0434459764954171,-0.39726708793804943,-1.46636376856459,1.5435082086194563,1.1765389449490764,1.3476722618386814,0.00026808126811477293,0.00026282247029355975,-0.00022512526840856784,-0.0002080904081198368,-0.0006371674955991357,-0.0001444742280259193,-0.0010949014464179609,0.1419561207294464,-50.42050552368164,-7.281388282775879,17.35541534423828,1.6432596445083618,-1.1313583850860596,0.05314789339900017,,,,,,,,,
1739303520.6264029,-0.06960994123868842,1.043445950659016,-0.3972650084176644,-1.466362450209722,1.5435082107193145,1.1765389449490764,1.3476761085013824,0.0007321116646989852,-0.00020603365600938022,0.0009224509949967256,1.4064784287927618e-05,0.001362270021120147,-0.0002809301047578889,0.00033995414509319625,0.11815241724252701,-50.42050552368164,-7.309159278869629,17.30384063720703,1.6432596445083618,-1.1313583850860596,0.026597600430250168,,,,,,,,,
1739303520.6374874,-0.06960981141406034,1.0434516584432456,-0.3972670969813117,-1.4663674100154471,1.5435057311615246,1.1765381874505039,1.3476757552966714,0.0012200007838815562,0.0007453996402971353,-0.0017736304456553418,-0.0007685574205211909,-3.8255960811996105e-05,-0.0001574965576497631,2.3665620513997116e-05,0.11815241724252701,-50.49985122680664,-7.281388282775879,17.37921905517578,1.6368509531021118,-1.1249496936798096,0.026597600430250168,,,,,,,,,
1739303520.6483834,-0.06961141009429371,1.0434516904940252,-0.3972695754627889,-1.4663637685708433,1.5435084930502236,1.1765389449490775,1.3476749995726662,0.000707740148888745,0.0003365896743362819,-0.0011902347833178068,-0.0004747663507266345,0.00016335061601372946,7.909703295853855e-05,-0.00024670876217358986,0.1419561207294464,-50.49985122680664,-7.257584571838379,17.35541534423828,1.6368509531021118,-1.1313583850860596,0.03300629183650017,,,,,,,,,
1739303520.658386,-0.06961245992036381,1.0434426365806784,-0.39726536612954505,-1.4663652627839125,1.543511345228117,1.176539702609155,1.3476742399745536,-0.000604511097157031,-0.00199340111743752,-0.0008138289565900335,-0.0007572941850816721,0.001263176790307316,0.0005552412774964483,0.000520024627685002,0.1419561207294464,-50.36893081665039,-7.332962989807129,17.37921905517578,1.6167093515396118,-1.1377670764923096,0.03941498324275017,,,,,,,,,
1739303520.6693153,-0.06961216967636316,1.0434442375949922,-0.39726745642437583,-1.466362396037244,1.5435078444246633,1.1765381872889984,1.3476764249087914,0.00023371310630444068,-0.0006538903243261196,-0.0010502662422895836,0.0004975018796705018,-0.00041943774282019976,-6.518666036838264e-05,0.0009745141104044071,0.11815241724252701,-50.39670181274414,-7.309159278869629,17.33161163330078,1.6432596445083618,-1.1249496936798096,0.019273381680250168,,,,,,,,,
1739303520.679363,-0.06961588013739563,1.0434472323625383,-0.39726614756143774,-1.466363451115512,1.5435105919305359,1.1765406172526598,1.3476718456718555,-0.00012420937508462473,-0.0011095203086308545,-0.0007252590738177822,0.00038708504337227714,0.001996975139927561,0.0009591996132290204,-0.0006489051595202015,0.1697271168231964,-50.44827651977539,-7.332962989807129,17.35541534423828,1.6231180429458618,-1.1441757678985596,0.05955658480525017,,,,,,,,,
1739303520.690382,-0.06961217260057714,1.0434481889762488,-0.3972659470157788,-1.4663635687317385,1.5435071467205699,1.1765373213926518,1.3476705371773576,0.0011459113764609682,0.0008860954762499534,-0.0005352755308363256,6.558352631541914e-05,0.0008080844698831629,9.735926839080555e-06,-0.0011833903906045,0.11815241724252701,-50.44827651977539,-7.309159278869629,17.35541534423828,1.6432596445083618,-1.1176254749298096,0.07969819009304047,,,,,,,,,
1739303520.7013419,-0.06961284321517842,1.0434459761697308,-0.3972671787326609,-1.466366312126798,1.543508850635852,1.1765381872889984,1.347678136517938,-0.00039276677840042193,-0.00018584320888866108,-0.0007380727417937759,-0.0006024260982406179,0.000794923662452283,-0.00020602868812950973,0.000997034453889386,0.11815241724252701,-50.42050552368164,-7.281388282775879,17.35541534423828,1.6368509531021118,-1.1249496936798096,0.0064559997990727425,,,,,,,,,
1739303520.7113864,-0.06961000944257584,1.0434443166299923,-0.39726460034587907,-1.4663598267762972,1.5435100792502225,1.1765381872889984,1.3476757552946776,0.0006977270154529717,-0.0005828970849468794,-0.000784521897624836,0.001562187686757028,0.0009674894769635153,0.0003883400585645657,0.001693980976410199,0.11815241724252701,-50.39670181274414,-7.356766700744629,17.30384063720703,1.6304422616958618,-1.1249496936798096,0.026597600430250168,,,,,,,,,
1739303520.723354,-0.06961193731344233,1.043445949641525,-0.39726928491863067,-1.4663626520813002,1.5435097202272996,1.1765389449490766,1.3476776157222543,0.00016771817634309109,0.0008587877004684625,-0.001545686133077585,-0.0003263194595207873,0.001429168288773063,0.00020444264561027297,0.0012785465210006402,0.11815241724252701,-50.42050552368164,-7.281388282775879,17.33161163330078,1.6304422616958618,-1.1313583850860596,-0.0008682189509272575,,,,,,,,,
1739303520.7333708,-0.06961153744652776,1.0434463829238956,-0.39726325157509773,-1.4663637803378682,1.543507149143121,1.1765373213917658,1.3476773744833994,0.0008588841283541514,-0.0007217733673378161,0.000703291297927364,-0.00044611874163589605,-0.0011737860006176852,-0.0006267458547437271,0.0013254699733020047,0.09434870630502701,-50.39670181274414,-7.332962989807129,17.35541534423828,1.6432596445083618,-1.1176254749298096,0.012864691205322742,,,,,,,,,
1739303520.744327,-0.06961456838240981,1.0434500676781495,-0.3972656811185393,-1.4663652346579146,1.543508210701372,1.1765381872889984,1.347679002409115,-0.00034227687940368006,0.0007115291745361164,-0.0007702867709014429,-0.0005659585092460429,-0.0008557979676440206,-0.00018434005884934338,0.0024342697573649687,0.1419561207294464,-50.47208023071289,-7.332962989807129,17.37921905517578,1.6432596445083618,-1.1249496936798096,-0.0008682189509272575,,,,,,,,,
1739303520.754404,-0.06961116965277792,1.043442240199278,-0.3972617850769996,-1.4663691617883747,1.543506192405023,1.1765381872889984,1.3476731672544393,0.0004162110682652259,-0.0025301878111674897,0.00037025773425702663,-0.0011748676341017106,-2.2625097562041746e-05,-0.0002895298020272422,-0.0006315577062381599,0.09434870630502701,-50.36893081665039,-7.356766700744629,17.40302276611328,1.6304422616958618,-1.1249496936798096,0.03941498324275017,,,,,,,,,
1739303520.7653732,-0.06961246836282838,1.0434480957716814,-0.39726614916253516,-1.4663578065164828,1.54350896399883,1.1765381872889984,1.3476755586406244,0.0002087209297349634,-0.00020069199728150718,0.00038616785749099756,0.0020939311689799813,0.0013215740474710174,-0.00039304360686712663,0.001605438884298514,0.1419561207294464,-50.42050552368164,-7.332962989807129,17.28003692626953,1.6368509531021118,-1.1249496936798096,0.019273381680250168,,,,,,,,,
1739303520.7753766,-0.06961071728417699,1.0434405631428776,-0.3972638988115835,-1.4663634869695514,1.5435097245858822,1.176539581928146,1.3476726178527658,-0.00013403693303506477,-0.0024918514744350184,0.00018974326997670514,0.0002738939704449507,0.0009114729339281132,7.981449925700961e-06,0.0007231819259049777,0.11815241724252701,-50.34512710571289,-7.356766700744629,17.35541534423828,1.6304422616958618,-1.1377670764923096,0.05314789339900017,,,,,,,,,
1739303520.7853847,-0.06961584857479654,1.0434458047951127,-0.3972679302385879,-1.466363533084031,1.5435078560530653,1.176539648971107,1.3476698355972039,-0.0005946003314907433,-0.0011759401255471752,-0.0009186897875237945,0.00017320318030854048,-0.0002305175609477337,-0.0002265008484796479,-0.0016586653871143798,0.1697271168231964,-50.44827651977539,-7.309159278869629,17.35541534423828,1.6432596445083618,-1.1377670764923096,0.07969819009304047,,,,,,,,,
1739303520.7953937,-0.06960977257159406,1.0434461908941284,-0.39726816713883223,-1.4663655967627736,1.5435074130163446,1.176538944948168,1.3476757553007412,0.0008315674172404205,-0.00028259210906693373,-0.0005075114404345354,0.00024523762109956234,0.0011305420629096614,0.00019577036426088388,0.0007377550256963414,0.11815241724252701,-50.42050552368164,-7.309159278869629,17.35541534423828,1.6231180429458618,-1.1313583850860596,0.026597600430250168,,,,,,,,,
1739303520.8063102,-0.06961288107603526,1.043446030132783,-0.3972681671428442,-1.466361694529505,1.5435074121265788,1.1765382265348547,1.3476746836677462,-6.556415824031402e-05,0.0004415220564896105,-0.0011623134494368804,0.0006648197862238678,-0.0004821065647316842,0.0001813098072585735,-0.0011326685293449852,0.11815241724252701,-50.42050552368164,-7.309159278869629,17.33161163330078,1.6496683359146118,-1.1249496936798096,0.03300629183650017,,,,,,,,,
1739303520.8163917,-0.06961284429923358,1.0434459496787778,-0.39726179278478635,-1.4663653128174454,1.543504673137758,1.1765397026098194,1.3476694788260297,-0.00042436467188930856,-0.00040598636222547184,9.341120132716225e-05,0.0008372228408575247,-0.0012985204646894372,0.00014695012566932794,-0.0014253382064672699,0.11815241724252701,-50.42050552368164,-7.356766700744629,17.37921905517578,1.6368509531021118,-1.1377670764923096,0.07969819009304047,,,,,,,,,
1739303520.8273842,-0.06961456833996552,1.0434422392158311,-0.39726815813920163,-1.4663652338169888,1.5435089741693824,1.1765373215532713,1.347675652771532,-0.0005025392888684263,-0.0015638111611391231,0.0006045467300351699,-0.0009907071409911254,0.00046694597525662,-0.0005996967000203735,0.0011398979316892854,0.1419561207294464,-50.36893081665039,-7.309159278869629,17.37921905517578,1.6368509531021118,-1.1176254749298096,0.03941498324275017,,,,,,,,,
1739303520.8383508,-0.06961075620250731,1.043445775360103,-0.3972642754033979,-1.4663637950858508,1.5435078544754557,1.1765404602692342,1.347674259363166,5.482315786656536e-05,-0.00031661386518754784,0.00046563738431764734,-0.0015363210368053287,-0.0006172552582570663,0.0008851386672057635,0.0012008697185493552,0.11815241724252701,-50.44827651977539,-7.332962989807129,17.35541534423828,1.6368509531021118,-1.1441757678985596,0.03941498324275017,,,,,,,,,
1739303520.848377,-0.06961425188311034,1.0434479505249201,-0.3972681671071271,-1.466365950961067,1.543508210700486,1.1765404602692333,1.3476770768741555,-0.001348981744893031,-0.0004992656291953221,-0.0010384657170007278,0.00018210001673851905,0.0006917749053518411,0.0008642716164425206,0.0002599835056988425,0.1419561207294464,-50.44827651977539,-7.309159278869629,17.35541534423828,1.6432596445083618,-1.1441757678985596,0.0064559997990727425,,,,,,,,,
1739303520.859406,-0.06961288090777168,1.0434459526209037,-0.3972638737781648,-1.4663617064061674,1.543505316576693,1.1765356865618288,1.3476679092438333,-0.00021949298656107877,-0.00037022782063342503,0.000883363456714858,0.0005251719114066522,-0.0010585512642436682,-0.000361171787226205,-0.0011253245371197474,0.11815241724252701,-50.42050552368164,-7.356766700744629,17.33161163330078,1.6368509531021118,-1.1313583850860596,0.06596527993679047,,,,,,,,,
1739303520.8704395,-0.06961288174162795,1.0434459496774207,-0.3972663844525667,-1.4663637729556178,1.5435054313823462,1.1765381916435178,1.3476733740712823,-0.0012264932587744636,-0.000345324308871239,0.0008862665778763066,-0.0012413057501227676,-0.0020940903898850442,0.000912230888783031,0.00017766505770843723,0.11815241724252701,-50.42050552368164,-7.332962989807129,17.35541534423828,1.6368509531021118,-1.1249496936798096,0.04673920199275017,,,,,,,,,
1739303520.8813357,-0.06961459472985265,1.0434487430012618,-0.3972661504624049,-1.4663624758249807,1.5435082106455482,1.1765397026091795,1.3476694600966992,-0.0016652278242088336,0.000428886076725031,-0.00030031740464686477,0.0006995321265089686,0.0011956121126783827,0.00012422908141704417,-0.0013911232889527794,0.1419561207294464,-50.42050552368164,-7.332962989807129,17.30384063720703,1.6432596445083618,-1.1377670764923096,0.07969819009304047,,,,,,,,,
1739303520.8914332,-0.06961456837618181,1.0434479476655734,-0.39726806313736124,-1.4663634629258415,1.543508092497262,1.1765381872889984,1.3476712188338875,-9.168894646071572e-05,0.000471062867641711,-0.0005060783602319925,0.0006745251235603071,-0.00023690808796310252,-8.75837223850729e-05,-0.0017191735593976064,0.1419561207294464,-50.44827651977539,-7.309159278869629,17.35541534423828,1.6432596445083618,-1.1249496936798096,0.06596527993679047,,,,,,,,,
1739303520.9023502,-0.06961239009370966,1.0434480996962618,-0.3972663067911468,-1.4663661873455707,1.5435097257158281,1.1765382544370449,1.3476708511449493,0.0001602236999736536,0.000968638147991074,-0.00019376728238769983,-0.00031202794222310866,0.0019895908533524315,-0.00043350440858150026,-0.0012070354544804283,0.1419561207294464,-50.42050552368164,-7.332962989807129,17.37921905517578,1.6304422616958618,-1.1377670764923096,0.07969819009304047,,,,,,,,,
1739303520.9124098,-0.06961459458451273,1.0434460255891487,-0.3972681671415288,-1.466363893246326,1.5435094993723903,1.1765373212016974,1.3476765761551144,-0.0006234672269469829,-0.00038724661449809255,-0.0017082720690006043,0.0010749672815605403,0.001586284718201562,-0.000397287238765393,0.0017019753742976529,0.1419561207294464,-50.42050552368164,-7.309159278869629,17.33161163330078,1.6432596445083618,-1.1176254749298096,0.019273381680250168,,,,,,,,,
1739303520.9233742,-0.06960704160080829,1.0434459775496696,-0.3972681658588748,-1.466367406959397,1.5435077352541884,1.176538187288997,1.347676319321165,0.0009692374874967606,-8.247868826943302e-05,-0.0009792506340072192,1.5329217140955134e-05,-0.0006983896708030433,-0.0005647546801885644,0.00017255568607666945,0.06657771021127701,-50.42050552368164,-7.309159278869629,17.37921905517578,1.6432596445083618,-1.1249496936798096,0.012864691205322742,,,,,,,,,
1739303520.934338,-0.06961425352416437,1.0434460552416591,-0.3972663844301521,-1.466368095796567,1.5435082106628308,1.1765373207295928,1.3476730208585976,-5.147345126465402e-05,-0.0003064518523025336,0.0007438824039737331,-0.001393605499318198,0.00017821354419753446,-0.0010327929082349046,-0.0005011557476890009,0.1419561207294464,-50.42050552368164,-7.332962989807129,17.37921905517578,1.6432596445083618,-1.1176254749298096,0.04673920199275017,,,,,,,,,
1739303520.94438,-0.06961256973275874,1.0434480531478036,-0.39726637579903123,-1.4663657034277644,1.5435067935078592,1.1765373213917545,1.3476749932679668,-0.0008239635103568346,0.0012688427757475275,-0.0005654465296289999,-0.0007250501954914371,-0.0005688866064098945,-0.0005765779313395973,-0.0002973644302761561,0.1419561207294464,-50.44827651977539,-7.332962989807129,17.35541534423828,1.6432596445083618,-1.1176254749298096,0.03300629183650017,,,,,,,,,
1739303520.9554048,-0.0696165110060921,1.0434479829401349,-0.3972672282401833,-1.4663665887131214,1.5435074005081217,1.1765381872889982,1.3476766211918851,-0.002192721603921417,0.0003576745241703305,-0.0006268603875887002,-0.000791397230808884,-0.00030820849108536554,-3.627300179521564e-07,-2.7723000716233014e-05,0.1697271168231964,-50.44827651977539,-7.309159278869629,17.35541534423828,1.6496683359146118,-1.1249496936798096,0.019273381680250168,,,,,,,,,
1739303520.9663763,-0.06961263325339015,1.04344802818149,-0.39726435590336895,-1.466361695516251,1.5435089678946148,1.1765389449490764,1.3476741382260036,-0.00022634437254383125,-7.494030455006785e-05,0.0015056776768676706,0.0002818363917321197,-8.102110458397361e-05,8.7648528549868e-05,0.0004993756154754805,0.11815241724252701,-50.44827651977539,-7.356766700744629,17.33161163330078,1.6368509531021118,-1.1313583850860596,0.03941498324275017,,,,,,,,,
1739303520.9773934,-0.06961459105697379,1.0434516580803075,-0.3972680631399361,-1.4663635654614033,1.5435074133288953,1.1765373213917656,1.3476790024086145,-0.0005926609256353642,0.0017945136093401506,0.00021376326037238978,0.00016086302297120151,0.00015268589586834425,-0.0004760630972758955,0.002471892841683328,0.1419561207294464,-50.49985122680664,-7.309159278869629,17.35541534423828,1.6496683359146118,-1.1176254749298096,-0.0008682189509272575,,,,,,,,,
1739303520.9874148,-0.06961446677164916,1.0434501728583399,-0.39726297515650755,-1.4663617604603518,1.5435028482114193,1.1765365637316874,1.3476748798970293,-0.00016236797057099604,0.001145871963139633,0.0013317782215246981,0.0015313554696670016,-0.0021030784429202434,-0.0006317804340401035,-2.2522298127366322e-05,0.1697271168231964,-50.44827651977539,-7.309159278869629,17.30384063720703,1.6496683359146118,-1.1112167835235596,0.03300629183650017,,,,,,,,,
1739303520.9983413,-0.06961075197838804,1.0434459585202944,-0.39726568242625554,-1.4663645599132527,1.5435094391422077,1.1765365637316874,1.3476742400276913,0.000434713296282393,-9.749034638913877e-05,-0.0003055785760016801,0.0006932787318357015,0.0014560372986694593,-0.0007006828192066281,-0.0011729765985931326,0.11815241724252701,-50.42050552368164,-7.332962989807129,17.33161163330078,1.6368509531021118,-1.1112167835235596,0.03941498324275017,,,,,,,,,
1739303521.0093727,-0.06961288219763491,1.0434479509978223,-0.3972625210320105,-1.4663620157683197,1.5435079087439563,1.176539538685026,1.3476770256391686,-0.00017539338178380924,0.0011164064543800517,0.0013668088172455175,-0.0009563712315269507,-0.0001517107256784649,-0.0007569739197108384,-0.00021952771716881258,0.11815241724252701,-50.44827651977539,-7.384537696838379,17.33161163330078,1.6368509531021118,-1.1377670764923096,0.012864691205322742,,,,,,,,,
1739303521.0203352,-0.06961459181367004,1.043448062412418,-0.3972606543867422,-1.4663623832477988,1.5435080927604576,1.1765389449481511,1.347679054735004,-0.0019219091050595412,0.0001516987441783028,0.0011239683880460856,0.0017328591782051358,0.0002650886301155842,0.0004659536695900319,0.002914666319580553,0.1419561207294464,-50.44827651977539,-7.384537696838379,17.33161163330078,1.6432596445083618,-1.1313583850860596,-0.0008682189509272575,,,,,,,,,
1739303521.0303392,-0.06960877226064015,1.0434479829414833,-0.3972701691199829,-1.4663606252841175,1.5435102367839646,1.1765381872889982,1.347680231020433,0.00043788840573205244,0.0001372502453670517,-0.001473755052187585,0.0015174543784418455,0.001120365360445139,-5.019375703554525e-05,0.0027396267232412783,0.09434870630502701,-50.44827651977539,-7.281388282775879,17.30384063720703,1.6231180429458618,-1.1249496936798096,-0.0072769103571772575,,,,,,,,,
1739303521.0404112,-0.06961046090732242,1.0434429897934374,-0.39726484020606745,-1.4663640561180382,1.543508088615115,1.176539581928146,1.3476797996297567,0.00037207119497566167,-0.001373230989742605,0.0002792374193931423,-0.00021909918847543242,0.00045288241873474804,0.0004873029444017794,0.0016749805997131404,0.09434870630502701,-50.36893081665039,-7.356766700744629,17.33161163330078,1.6432596445083618,-1.1377670764923096,0.019273381680250168,,,,,,,,,
1739303521.0504313,-0.06961075629865987,1.0434463839177535,-0.3972681661839048,-1.4663635302894362,1.5435084969425639,1.1765381872869545,1.3476684186010224,0.00014301350569383603,1.2595904625754253e-05,-0.0010471725427209468,0.0006882724067990441,0.00046259977148569126,-0.00012259544504075227,-0.0013450279675422238,0.11815241724252701,-50.39670181274414,-7.309159278869629,17.35541534423828,1.6368509531021118,-1.1249496936798096,0.07969819009304047,,,,,,,,,
1739303521.0604548,-0.06961388303666177,1.0434479863553991,-0.39726460178878986,-1.4663637715033437,1.543509201299884,1.1765389449490764,1.347672918377328,9.987622959199672e-05,0.0011577643501300286,-1.522642626513443e-05,-0.0011919801771366045,-0.0004975514171416502,-2.5274551655655824e-05,-0.00046333803075934905,0.1419561207294464,-50.44827651977539,-7.356766700744629,17.35541534423828,1.6304422616958618,-1.1313583850860596,0.05955658480525017,,,,,,,,,
1739303521.0713983,-0.06961659266669082,1.0434442374839514,-0.39726808914170414,-1.4663635312319507,1.5435077391200858,1.1765381872889982,1.3476694760917336,-0.0016887488181200018,-0.0007752687003340454,-0.0017412467063556512,0.0015933056432027028,0.000204325450038165,-0.00027254497116970043,-0.0006549763896333539,0.1697271168231964,-50.39670181274414,-7.309159278869629,17.35541534423828,1.6432596445083618,-1.1249496936798096,0.07969819009304047,,,,,,,,,
1739303521.0833132,-0.06961238573758177,1.0434480311247316,-0.3972663844653848,-1.46636523367164,1.5435066801282786,1.1765381872889982,1.347668680633359,0.0009641821619770843,0.0009709506534676646,-0.0003598145541846268,0.0001017406439139374,-0.0022935430760569913,0.00048571849105599404,-0.0013012632807280385,0.1419561207294464,-50.44827651977539,-7.332962989807129,17.37921905517578,1.6432596445083618,-1.1249496936798096,0.08610688149929047,,,,,,,,,
1739303521.0933244,-0.06961496381240286,1.0434479476187395,-0.3972642697682498,-1.4663641670790382,1.543508968370788,1.1765389580310286,1.3476747639102853,0.0004565492383107405,-0.0005148818807845445,9.138378090465094e-05,-8.811810499583872e-05,0.0002364523602992911,0.00021002563644175276,0.0010233639359255484,0.1419561207294464,-50.44827651977539,-7.332962989807129,17.33161163330078,1.6368509531021118,-1.1313583850860596,-0.0008682189509272575,,,,,,,,,
1739303521.105306,-0.06961648769012531,1.043445958507733,-0.39726460177686856,-1.4663664176679867,1.5435057894650401,1.1765389449491503,1.347668414162618,-0.0019058013124522233,0.0005263271344420569,0.0003690796235092795,-0.0025308391660385883,-0.0006131192748182216,0.0001670731348108597,-0.0020295439852802593,0.1697271168231964,-50.42050552368164,-7.356766700744629,17.35541534423828,1.6368509531021118,-1.1313583850860596,0.07969819009304047,,,,,,,,,
1739303521.1154132,-0.06961455926701078,1.043443886326552,-0.3972663843231618,-1.4663616650997466,1.543505383206719,1.1765381872889984,1.347673375524836,0.00016835468692913218,-0.00035944174946391265,-0.0001716818148563087,0.0010357111997283419,-0.0013975701666835184,-0.00036537658093463947,-0.0009177413675994016,0.1419561207294464,-50.42050552368164,-7.332962989807129,17.33161163330078,1.6368509531021118,-1.1249496936798096,0.04673920199275017,,,,,,,,,
1739303521.1263888,-0.0696134315257719,1.043450808593231,-0.39726641095677756,-1.4663699565169481,1.5435088499217624,1.1765381872889984,1.3476737160918277,0.0005151687339468128,0.0008696960873280568,0.0009346334926918845,-0.0017449324759101863,-0.0002180013088116295,-0.00011262976708813267,-0.0005326757129392031,0.1697271168231964,-50.44827651977539,-7.332962989807129,17.40302276611328,1.6368509531021118,-1.1249496936798096,0.07969819009304047,,,,,,,,,
1739303521.1373014,-0.0696145820392058,1.0434479476344185,-0.3972663584655947,-1.4663616812340048,1.5435073346750106,1.1765389449490766,1.3476723960723034,-0.00015963548338163028,0.00021792844743284868,4.688745402630111e-05,0.00035134027835183703,-0.000721034531006412,0.00023635231530577585,-0.00018721863476095914,0.1419561207294464,-50.44827651977539,-7.332962989807129,17.33161163330078,1.6496683359146118,-1.1313583850860596,0.06596527993679047,,,,,,,,,
1739303521.147434,-0.06961351285492166,1.0434459496774153,-0.39726460178836576,-1.4663626219916877,1.543508092979775,1.1765381872889984,1.347673374099219,-0.0004357940637004623,1.9236558898669753e-05,0.0011675605891221614,0.0003707517411856661,0.0005637348145647495,-0.00029806985786215076,3.696593825958241e-05,0.1697271168231964,-50.42050552368164,-7.356766700744629,17.33161163330078,1.6432596445083618,-1.1249496936798096,0.04673920199275017,,,,,,,,,
1739303521.1583474,-0.0696128471980523,1.0434442372657002,-0.39726638446582513,-1.4663638225930133,1.5435077790142624,1.1765381828193313,1.3476742792203775,0.0007323718413181045,0.0007105076781083149,0.0008226681245139956,0.0006171451383561303,0.0002991786477887577,-0.0001120396672069766,0.0013889663679761501,0.11815241724252701,-50.39670181274414,-7.332962989807129,17.33161163330078,1.6432596445083618,-1.1249496936798096,0.03941498324275017,,,,,,,,,
1739303521.1693194,-0.06961459138144503,1.0434480954446277,-0.3972657231071218,-1.4663674851236628,1.5435072917127572,1.1765389449490513,1.3476694775395237,-0.0011838658977007133,0.0008631552501156723,-0.00043016592708001837,-0.0019270073253830253,-0.0005399876250502319,0.0006486113423400913,-0.0013730699875037276,0.1419561207294464,-50.42050552368164,-7.309159278869629,17.37921905517578,1.6496683359146118,-1.1313583850860596,0.07969819009304047,,,,,,,,,
1739303521.1794147,-0.06961459181361342,1.043448186509251,-0.39726334293312887,-1.4663652451560274,1.5435042610601988,1.1765389449490764,1.3476710996430628,8.642813793803517e-05,0.0009440892573090927,0.0001623181838592764,1.0525492474038246e-05,-0.00020176832111141443,0.000436262202570294,-0.0013490851065359444,0.1419561207294464,-50.44827651977539,-7.332962989807129,17.37921905517578,1.6496683359146118,-1.1313583850860596,0.06596527993679047,,,,,,,,,
1739303521.191374,-0.06961176019784285,1.0434479477649719,-0.39726816698301143,-1.4663656763796593,1.5435057371192122,1.176539701119266,1.3476746965343493,0.0011735490922958874,7.439584402696355e-06,-0.0008234665836806293,-0.00017490991628674434,-0.000703868423557496,0.0003992469628923709,0.0005132356763678482,0.1419561207294464,-50.44827651977539,-7.309159278869629,17.35541534423828,1.6368509531021118,-1.1377670764923096,0.03300629183650017,,,,,,,,,
1739303521.202341,-0.06960903502404198,1.0434449874998302,-0.3972654263763496,-1.4663634902563236,1.5435082234542659,1.1765356463348229,1.3476766207068265,0.0010426763795905424,-0.0004117281499774968,-0.0007628080860325609,3.403464153410548e-05,0.0019273942667309026,-0.0008740056238841622,0.0005009470399325633,0.09434870630502701,-50.42050552368164,-7.332962989807129,17.35541534423828,1.6432596445083618,-1.1313583850860596,0.019273381680250168,,,,,,,,,
1739303521.2124367,-0.06961285592784276,1.0434442459707072,-0.39726435403976934,-1.4663644041119586,1.5435075555288047,1.1765372811089003,1.3476712034048572,-0.0015067004675072334,-0.0006490216042135332,0.000562270030564364,-5.3871844001612075e-05,0.001314427765338118,-0.0003449453840316341,-0.00034749274777470677,0.11815241724252701,-50.39670181274414,-7.332962989807129,17.35541534423828,1.6368509531021118,-1.1176254749298096,0.05314789339900017,,,,,,,,,
1739303521.2233794,-0.06961075620250792,1.0434479210183485,-0.3972642524232013,-1.4663637962863716,1.5435082087733074,1.176539741854784,1.3476757577092848,0.00025671384447678493,-0.0002752517758176418,-5.620871225684346e-05,0.00021480539475960965,0.0003060703072419375,0.00046168538737635493,0.0019505907654886346,0.11815241724252701,-50.44827651977539,-7.332962989807129,17.35541534423828,1.6432596445083618,-1.1377670764923096,0.026597600430250168,,,,,,,,,
1739303521.2343462,-0.06961264170247115,1.043449766139001,-0.39726459264632175,-1.4663578143554923,1.54350880703534,1.1765356865620502,1.3476805177293594,0.0008519248385968183,0.0014620223118108687,0.001307016172488926,0.0013792592732817938,-0.0003482809710544851,-0.0009869942372546768,0.002519460206636471,0.11815241724252701,-50.47208023071289,-7.356766700744629,17.28003692626953,1.6368509531021118,-1.1313583850860596,-0.013685601763427258,,,,,,,,,
1739303521.2453158,-0.06961075339312028,1.0434496601395977,-0.3972646017887545,-1.4663655551602106,1.5435073604782905,1.1765365637132938,1.3476718598498414,0.00018979951348878994,0.001589082823654579,0.00045857651755623076,-0.0009309839734932655,0.0002911544048122835,-0.0004859156949344021,-0.001103595755968571,0.11815241724252701,-50.47208023071289,-7.356766700744629,17.37921905517578,1.6231180429458618,-1.1112167835235596,0.06596527993679047,,,,,,,,,
1739303521.25534,-0.06961288206560157,1.0434500168560596,-0.39726638544697157,-1.4663617504118474,1.5435073307448202,1.1765373213917654,1.3476742399873702,-0.0010954033962411712,5.5821178667682814e-05,-4.725226159280483e-05,0.0006518500231868214,0.00013446163803310725,-0.0005688119974189451,0.00048066418157516013,0.11815241724252701,-50.44827651977539,-7.332962989807129,17.33161163330078,1.6496683359146118,-1.1176254749298096,0.03941498324275017,,,,,,,,,
1739303521.266376,-0.0696111687168664,1.043445949725435,-0.3972646017888116,-1.4663655777269937,1.5435088112338056,1.1765381872889982,1.3476726165787156,-0.0005906155457945662,-0.001201133247040003,0.0006232244429338132,-0.00016542002733537466,0.00038536133731676054,5.708707208333656e-06,-2.2101434830355815e-05,0.09434870630502701,-50.42050552368164,-7.356766700744629,17.37921905517578,1.6368509531021118,-1.1249496936798096,0.05314789339900017,,,,,,,,,
1739303521.2764037,-0.06961116968891247,1.043446041033049,-0.39726993492813945,-1.4663617073508033,1.5435038539420844,1.1765381872889982,1.3476782542495291,-0.0006370949232333981,-9.006676780864578e-05,-0.0006649037892160802,0.0009242625136863481,-0.001167062955890382,-0.0003662253717736136,0.00272135445827444,0.09434870630502701,-50.42050552368164,-7.281388282775879,17.33161163330078,1.6432596445083618,-1.1249496936798096,0.0064559997990727425,,,,,,,,,
1739303521.2884004,-0.06961288220966012,1.0434507024803965,-0.39726638446406387,-1.466367019982302,1.543508210694756,1.1765381872889982,1.3476732716086355,-0.0006043918275351139,0.0011756404680553943,0.00026010993818580765,-0.0005486029847902507,0.0010674422397259336,-0.0006329842330260048,8.369150338301094e-06,0.11815241724252701,-50.47208023071289,-7.332962989807129,17.40302276611328,1.6432596445083618,-1.1249496936798096,0.05955658480525017,,,,,,,,,
1739303521.2984405,-0.06961325877759131,1.043440553191937,-0.39726428978424577,-1.4663637774979124,1.5435077266332828,1.176540460269233,1.3476734422854975,-0.0005205203014865104,-0.003442751061800786,0.0007447866723441966,6.657814234581059e-05,-0.0006350523429569162,0.00031252145791496984,0.0005013244339415352,0.11815241724252701,-50.34512710571289,-7.356766700744629,17.35541534423828,1.6432596445083618,-1.1441757678985596,0.019273381680250168,,,,,,,,,
1739303521.3103266,-0.06961075728712178,1.0434442464232163,-0.3972663840360741,-1.4663654835383173,1.5435092157868024,1.1765364442219073,1.3476694775213571,3.6002378739254855e-05,-0.0007008962416068178,0.000894957257514213,-1.0529866098757065e-05,0.0005756120296511167,0.0003884518798246206,-0.0020733044559948384,0.11815241724252701,-50.39670181274414,-7.332962989807129,17.37921905517578,1.6304422616958618,-1.1377670764923096,0.07969819009304047,,,,,,,,,
1739303521.3213027,-0.06960825641593466,1.0434479479937862,-0.39726613794370264,-1.4663653396839205,1.5435074356157086,1.1765389449429453,1.3476707590103016,0.0021952822226548197,0.0005807767388476865,0.0006317849720439638,-0.0015886681124714387,-0.0006247411107937326,0.000560198645596478,-0.0029764436686021975,0.09434870630502701,-50.44827651977539,-7.332962989807129,17.37921905517578,1.6496683359146118,-1.1313583850860596,0.03300629183650017,,,,,,,,,
1739303521.331314,-0.06961177173251071,1.0434442375927553,-0.39726816713866936,-1.4663666299103548,1.543508927679726,1.1765397026091549,1.3476715171548954,0.0007071973760813622,-0.0004903825959217874,0.00023145673771548083,-0.0013598048836167731,0.0007834240704792653,0.00015072786509638808,-0.00248349377542375,0.1419561207294464,-50.39670181274414,-7.309159278869629,17.35541534423828,1.6368509531021118,-1.1377670764923096,0.026597600430250168,,,,,,,,,
1739303521.3413575,-0.06961280310083195,1.0434459496774224,-0.39726356486905795,-1.4663663500086175,1.543504728372671,1.1765373213917656,1.3476773789416105,-0.0002984023781041038,-0.0008079534077849548,0.0009935592537226071,-0.0013109230426106594,-0.0005880316184721672,-0.00035569071048831876,0.0008361327771203567,0.11815241724252701,-50.42050552368164,-7.332962989807129,17.35541534423828,1.6368509531021118,-1.1176254749298096,0.012864691205322742,,,,,,,,,
1739303521.3513691,-0.06961459440449501,1.043444237156684,-0.39726460142006365,-1.4663693434815928,1.5435096692792423,1.1765381872889982,1.347675755294679,-0.0003877602469063631,-0.0007955950844311545,4.6308673065415445e-05,-0.002809153952016175,0.000564409818995291,-0.00017092793349906768,2.0912999248046116e-05,0.1419561207294464,-50.39670181274414,-7.356766700744629,17.35541534423828,1.6304422616958618,-1.1249496936798096,0.026597600430250168,,,,,,,,,
1739303521.3624043,-0.06961183238299312,1.043447978033807,-0.39726635461353493,-1.466363817715161,1.5435067978143553,1.1765389449490764,1.3476725763802895,0.00042819469111220795,0.000832962152111836,0.0001906727023521078,0.0006271991764843031,-0.0004988868559837354,-0.00011912071599447925,0.0014145593540095508,0.11815241724252701,-50.44827651977539,-7.332962989807129,17.33161163330078,1.6432596445083618,-1.1313583850860596,0.026597600430250168,,,,,,,,,
1739303521.3733387,-0.06961455971785421,1.0434459849992013,-0.3972680852892905,-1.4663617868542367,1.5435048747976077,1.1765389449490764,1.3476759717614049,-0.0014718715663334858,-0.0004994334995092029,-0.0005380925278934331,0.00018912472104768677,8.008972347765859e-05,0.00022926968751059619,9.05815817679506e-05,0.1419561207294464,-50.42050552368164,-7.309159278869629,17.33161163330078,1.6432596445083618,-1.1313583850860596,0.012864691205322742,,,,,,,,,
1739303521.3834352,-0.06961385985099203,1.043448422166583,-0.3972667022498045,-1.4663616945180613,1.5435097260206754,1.1765389449490764,1.3476733739078397,-0.0005402774544021329,0.0009709819633141294,-0.0008437807923608152,0.0017200846504130353,0.0011357711286750201,0.0003799840341805159,-0.0011429564047552264,0.1419561207294464,-50.42050552368164,-7.332962989807129,17.33161163330078,1.6304422616958618,-1.1313583850860596,0.04673920199275017,,,,,,,,,
1739303521.3943083,-0.06961449266603906,1.0434471011733684,-0.39726460965794075,-1.4663658383254279,1.5435057880114897,1.1765381872889982,1.3476774058069558,-0.0008110593694699895,5.374312540746217e-05,0.0003913574503541601,-0.0002354309138720424,3.531890547559489e-07,0.00022495082881515517,0.0005234242790293497,0.1419561207294464,-50.39670181274414,-7.356766700744629,17.35541534423828,1.6368509531021118,-1.1249496936798096,0.03941498324275017,,,,,,,,,
1739303521.404386,-0.06961484026001745,1.0434442372051862,-0.39726459933607333,-1.46635969714793,1.5435075504680562,1.1765389434591875,1.347674695710162,-0.00029717163961058324,0.0001571081766076623,0.0002869866479203526,0.0011177946571274894,0.00025514322981905516,0.00011424096082724838,-0.0001402571441230739,0.1419561207294464,-50.39670181274414,-7.356766700744629,17.30384063720703,1.6368509531021118,-1.1313583850860596,0.026597600430250168,,,,,,,,,
1739303521.4153655,-0.06961459343515901,1.043444237156684,-0.39726709843757924,-1.4663598630672092,1.543502912305358,1.1765389449490682,1.3476764308874745,-0.0008972790593046709,-0.0011785619900049657,-0.0007312788719259798,0.0019904732493655278,-0.0010699416612267635,0.0002139413835442669,-0.00034341722497028583,0.1419561207294464,-50.39670181274414,-7.332962989807129,17.30384063720703,1.6432596445083618,-1.1313583850860596,0.04673920199275017,,,,,,,,,
1739303521.4263294,-0.06961288318398572,1.043444237156684,-0.3972663584694755,-1.466365589501837,1.5435089487535079,1.1765390626866465,1.347674200799755,-0.00035594751438947173,-0.0011614944651100968,-2.7091480670292823e-05,-0.0014543659357550897,0.0014253179160173338,0.000461323925790869,0.0008436512820169464,0.11815241724252701,-50.39670181274414,-7.332962989807129,17.37921905517578,1.6368509531021118,-1.1313583850860596,0.03941498324275017,,,,,,,,,
1739303521.4373674,-0.06961288210165877,1.0434480954809657,-0.3972646590992224,-1.4663662757960445,1.5435081714733827,1.1765388242687318,1.3476749976343783,-0.0007400404257090375,-0.00036511284450278894,0.00020872234600501278,-0.0008911784738261748,0.0003405234287143424,-9.508857740911475e-05,0.0006131448923057775,0.11815241724252701,-50.42050552368164,-7.384537696838379,17.37921905517578,1.6432596445083618,-1.1313583850860596,0.03300629183650017,,,,,,,,,
1739303521.4484425,-0.06961446839862714,1.0434471011715243,-0.3972681671549082,-1.4663624522815322,1.5435089247726994,1.1765382003702691,1.3476757552946774,-0.0010153015097586634,-0.0004112808213807596,-0.00027666392532935016,0.0006223765717667576,0.0011206311506848233,0.00021038401425306784,0.0005165031933119765,0.1697271168231964,-50.39670181274414,-7.309159278869629,17.30384063720703,1.6368509531021118,-1.1249496936798096,0.026597600430250168,,,,,,,,,
1739303521.4593863,-0.0696143497583085,1.0434459506747291,-0.39726816757890937,-1.4663620783660145,1.5435097253932382,1.1765373213918395,1.3476757428587476,-0.0007496103587109645,-0.000799676935473167,-0.0007648879928336262,-0.00040265003864840376,0.0011326120453544408,-0.00047377991682068227,-0.00030092621289064177,0.1419561207294464,-50.42050552368164,-7.309159278869629,17.30384063720703,1.6304422616958618,-1.1176254749298096,0.026597600430250168,,,,,,,,,
1739303521.470378,-0.06961451501941081,1.0434479476182739,-0.3972663844658276,-1.4663679701819328,1.543507907287745,1.1765389404794095,1.3476700356442126,-0.0005431050601082189,0.0002618625755442571,0.0005142773576027507,-0.0012875999028870316,0.0015436498492046907,0.00016800561337724146,-0.0020966675226173582,0.1419561207294464,-50.44827651977539,-7.332962989807129,17.40302276611328,1.6368509531021118,-1.1313583850860596,0.06596527993679047,,,,,,,,,
1739303521.481343,-0.0696137581382624,1.043444237592749,-0.3972653591018015,-1.4663595885326777,1.5435069758581372,1.176538187288973,1.3476701174557961,-0.000924319206937115,-0.0004795061995117025,0.0002966583741831379,0.0005369675693633496,-0.0017516889043857461,0.0011412477924193267,-0.0008763983746371345,0.1697271168231964,-50.39670181274414,-7.309159278869629,17.30384063720703,1.6167093515396118,-1.1249496936798096,0.07328949868679047,,,,,,,,,
1739303521.492404,-0.06961435836284571,1.0434444874580437,-0.39726638474531956,-1.4663617474629635,1.5435100002019169,1.1765373213917656,1.347679002407195,0.0006085805228402357,-2.3033940754795294e-05,-0.0001889671200750789,0.0007242426204232628,0.0017997719500269281,-0.00019988572272238917,0.0010191563118046906,0.1419561207294464,-50.39670181274414,-7.332962989807129,17.33161163330078,1.6304422616958618,-1.1176254749298096,-0.0008682189509272575,,,,,,,,,
1739303521.503337,-0.06961287356891903,1.043447947618739,-0.39726460050483725,-1.466361668111377,1.543509712796565,1.176539704547222,1.3476728783583407,0.00023098558359716594,0.0008623625744051788,0.000460456963868912,0.0016563900008381668,0.00038359590470379883,0.0006900499766155106,8.095949257374123e-05,0.11815241724252701,-50.44827651977539,-7.356766700744629,17.33161163330078,1.6304422616958618,-1.1377670764923096,0.03300629183650017,,,,,,,,,
1739303521.5133681,-0.06961074756196127,1.0434463842320911,-0.3972663584654234,-1.4663634594974368,1.5435057763828635,1.1765389449491093,1.3476787003952477,-0.0007009503805353052,-0.0010785462849083743,-0.00019868162181963021,0.00030755053411348296,0.00021598794986392268,0.00023862575129430643,0.0010163138730857899,0.11815241724252701,-50.39670181274414,-7.332962989807129,17.35541534423828,1.6368509531021118,-1.1313583850860596,-0.0072769103571772575,,,,,,,,,
1739303521.524341,-0.06961458594514931,1.0434479329374329,-0.3972681411420239,-1.466361338325052,1.5435065470710618,1.1765389047220736,1.3476718187022656,-8.991953637902219e-05,3.425966022126333e-05,-0.0005543050179421363,0.0006935205957226757,0.0006896259522359486,-0.00021301440662741615,-0.00040038003457979214,0.1419561207294464,-50.44827651977539,-7.309159278869629,17.33161163330078,1.6304422616958618,-1.1313583850860596,0.03300629183650017,,,,,,,,,
1739303521.5353203,-0.06961448834305002,1.0434459496409936,-0.39726252401560475,-1.4663617768954895,1.5435074086437548,1.1765389449488493,1.3476730208466337,0.00018495193841940873,-0.0008336905091758662,0.0010214304958021004,1.0327825881398153e-05,0.00034744554113753413,0.0006902504450237339,0.000569602194895951,0.1419561207294464,-50.42050552368164,-7.384537696838379,17.33161163330078,1.6231180429458618,-1.1313583850860596,0.04673920199275017,,,,,,,,,
1739303521.546391,-0.06961288188543938,1.0434442487124085,-0.39726638446582896,-1.4663648058540097,1.5435089683734384,1.1765389449490764,1.3476766210297397,-0.00030166807626970957,-2.4690633289495127e-05,-2.1002158124217496e-06,-0.0014403185210108368,0.0017032213863844982,-0.00013709100570779558,0.0005681366432671414,0.11815241724252701,-50.39670181274414,-7.332962989807129,17.33161163330078,1.6368509531021118,-1.1313583850860596,0.019273381680250168,,,,,,,,,
1739303521.5573328,-0.06961288206564915,1.0434431927811965,-0.39726816714284424,-1.4663616683348604,1.5435056324816134,1.1765381872889982,1.347676621191909,-0.0002414906931155082,-0.0004910713430294885,-0.001558849871345151,0.00022141299405004298,0.0002498655582541067,-0.00035931009962883546,0.0016058551224409276,0.11815241724252701,-50.36893081665039,-7.309159278869629,17.33161163330078,1.6368509531021118,-1.1249496936798096,0.019273381680250168,,,,,,,,,
1739303521.5673707,-0.0696145820930504,1.0434479783770045,-0.3972663844658252,-1.4663616984056431,1.543509720168812,1.1765397026091549,1.347671101096613,0.0008331774216327664,0.00024234758039539794,0.0007897977943211314,0.00043895037937326264,-5.8586847070621014e-05,-9.57819839953196e-06,-0.0006468830705674723,0.1419561207294464,-50.44827651977539,-7.332962989807129,17.33161163330078,1.6304422616958618,-1.1377670764923096,0.06596527993679047,,,,,,,,,
1739303521.5783734,-0.06961004767759281,1.043445977513076,-0.39726709968589663,-1.466363795049681,1.5435089620806774,1.176540460269233,1.3476781365119563,-3.658980871216089e-06,-0.0008134945443436979,-0.0008537757899501888,-3.3376596109781356e-05,0.0005438633324017523,0.0004821698231309962,0.0009580846105948027,0.11815241724252701,-50.42050552368164,-7.332962989807129,17.35541534423828,1.6368509531021118,-1.1441757678985596,0.0064559997990727425,,,,,,,,,
1739303521.589397,-0.06961052008366246,1.0434460556413854,-0.3972624957620615,-1.4663605327191365,1.5435065363161586,1.1765381872889982,1.3476694781853245,-0.00012919626151316902,-0.0010271326084780963,0.0011590807668200103,0.001502572510046197,-0.0016499252660936658,5.4447423498714743e-05,-0.002274214708958756,0.11815241724252701,-50.42050552368164,-7.356766700744629,17.30384063720703,1.6560770273208618,-1.1249496936798096,0.07969819009304047,,,,,,,,,
1739303521.6003933,-0.06961108755437986,1.0434459486968668,-0.39726427875020337,-1.466365631760932,1.5435081551231422,1.1765389449490764,1.3476736237275342,0.0010368543140411364,-0.0013645482453154207,-0.00020651692195415637,-0.0003971506641553321,-8.049767874408992e-05,0.00047234228723469105,-0.0017805186023000055,0.09434870630502701,-50.42050552368164,-7.332962989807129,17.35541534423828,1.6496683359146118,-1.1313583850860596,0.05314789339900017,,,,,,,,,
1739303521.6113157,-0.06961288188517589,1.0434459614511666,-0.39726638345529547,-1.4663617861033682,1.5435085977280787,1.176538187773515,1.3476734918205446,-0.0003161319609335371,-0.0007073983481810291,0.0003360880236790536,1.9362865126497494e-05,-0.0008465355059617887,0.000272610297252773,0.00020468208898912458,0.11815241724252701,-50.42050552368164,-7.332962989807129,17.33161163330078,1.6368509531021118,-1.1249496936798096,0.04673920199275017,,,,,,,,,
1739303521.621326,-0.06961116936490286,1.0434459614513716,-0.3972681671428271,-1.4663680943690858,1.5435051720603086,1.1765365637316956,1.3476773788538723,0.0011071785518186764,-0.0006990959831966329,-0.0004243134657518934,0.0001682429756516004,-0.0008952804103749862,-0.0002782301904985099,0.0020715774110313073,0.09434870630502701,-50.42050552368164,-7.309159278869629,17.37921905517578,1.6304422616958618,-1.1112167835235596,0.012864691205322742,,,,,,,,,
1739303521.6323292,-0.06961277722699177,1.0434496605024535,-0.397264523787666,-1.466365233360287,1.5435067915440857,1.176539702609155,1.3476764104854384,0.00015250347381944886,9.841965437584396e-05,0.0003366739965156709,-3.908027749272578e-05,-0.0018127959814898736,0.0010576120393550172,0.0009155414741451601,0.11815241724252701,-50.47208023071289,-7.356766700744629,17.37921905517578,1.6432596445083618,-1.1377670764923096,0.03300629183650017,,,,,,,,,
1739303521.6424181,-0.06961296112884707,1.0434460252256954,-0.3972681632896151,-1.4663647978471657,1.5435113495727837,1.1765389449490766,1.3476693603101757,-0.0008464849060604385,0.0001134343288831858,-0.0004029954047913821,0.0010495076356706033,0.001290442590187485,0.00030507602139432353,-0.0017878840430718725,0.11815241724252701,-50.42050552368164,-7.309159278869629,17.33161163330078,1.6167093515396118,-1.1313583850860596,0.07969819009304047,,,,,,,,,
1739303521.652459,-0.06961287799872914,1.0434480954459064,-0.3972654485610953,-1.4663652425545073,1.5435082042591262,1.1765389449490766,1.3476694775373168,0.0003733913673425649,-0.0010630773852792963,0.0006192524628074135,0.00014640426632344533,-0.0008060293437919461,-6.803154451982964e-05,-0.0019453684221885296,0.11815241724252701,-50.42050552368164,-7.332962989807129,17.37921905517578,1.6432596445083618,-1.1313583850860596,0.07969819009304047,,,,,,,,,
1739303521.6633651,-0.06960917174805209,1.043445958519846,-0.39726814255439247,-1.4663684123675926,1.543508166321742,1.1765389449490766,1.34767817769588,0.0004786714940711972,-0.0005980941563789463,-0.0009296836355907254,-0.001712036327923933,0.0010068578019857173,0.00025190035689757947,0.0008025311188324185,0.06657771021127701,-50.42050552368164,-7.309159278869629,17.37921905517578,1.6167093515396118,-1.1313583850860596,0.0064559997990727425,,,,,,,,,
1739303521.6752996,-0.06961117066326183,1.0434479510341612,-0.3972681671427054,-1.4663636979702985,1.5435053304317576,1.176539702609155,1.347674999088382,0.0007505915902511427,0.0003827361736679439,-0.0009676580867677809,-0.00014541309556843972,-0.0003163270839209048,0.0007781453905821728,0.00016001205192040625,0.09434870630502701,-50.44827651977539,-7.309159278869629,17.35541534423828,1.6304422616958618,-1.1377670764923096,0.03300629183650017,,,,,,,,,
1739303521.685347,-0.069611879977618,1.0434499338788688,-0.39726638446582513,-1.466360541875955,1.5435057894402266,1.1765389449490766,1.3476670963219213,5.647830032871307e-05,0.0015215288763725135,0.0005135227347197585,0.001114857592843447,0.0006284253399129042,0.0004636132857360258,-0.0030989560369532824,0.09434870630502701,-50.47208023071289,-7.332962989807129,17.30384063720703,1.6368509531021118,-1.1313583850860596,0.09983979165554047,,,,,,,,,
1739303521.6963232,-0.06961176020186892,1.0434488110289586,-0.39726460309700135,-1.4663648599918222,1.5435104334279819,1.1765389449490766,1.3476726164172101,0.000594330043908474,0.0009494179358926634,0.00017410806154450923,-0.0002458938908404748,0.0011803068500321602,8.457956458083836e-05,-0.000295088924444487,0.1419561207294464,-50.42050552368164,-7.356766700744629,17.33161163330078,1.6231180429458618,-1.1313583850860596,0.05314789339900017,,,,,,,,,
1739303521.706341,-0.06961256721365759,1.0434422667363878,-0.3972645902331038,-1.466366418798099,1.5435089494805907,1.1765389449490766,1.34767662119191,-0.0003931459953336402,-0.0010168081252193493,5.631755006619985e-05,-0.0006617966885349018,-0.0010314195161974093,0.00021871040843632968,0.0005228170301400134,0.11815241724252701,-50.36893081665039,-7.356766700744629,17.35541534423828,1.6368509531021118,-1.1313583850860596,0.019273381680250168,,,,,,,,,
1739303521.7173116,-0.06961287345932643,1.0434459496775705,-0.39726638446575996,-1.4663644308854806,1.543509601949277,1.1765397024436117,1.3476743134426568,-9.16133157718524e-07,0.0006165912151308695,0.00036162414954899694,0.0002116451015795474,-9.928807274669452e-06,0.0001327539967526161,7.26873189832711e-05,0.11815241724252701,-50.42050552368164,-7.332962989807129,17.35541534423828,1.6304422616958618,-1.1377670764923096,0.06596527993679047,,,,,,,,,
1739303521.727347,-0.06961287821325818,1.0434459496774153,-0.3972645931220128,-1.4663652602877548,1.5435042588745294,1.1765389449490737,1.347674240028922,-0.00034822503229604027,-0.0002321835518394969,0.0008628064595443273,-0.00021749468109512262,-0.0012225197727434155,0.00025881197647807094,0.0007541513392234424,0.11815241724252701,-50.42050552368164,-7.356766700744629,17.37921905517578,1.6368509531021118,-1.1313583850860596,0.03941498324275017,,,,,,,,,
1739303521.7383723,-0.06961458598127719,1.0434422392158311,-0.3972685315411834,-1.4663637950496613,1.5435105526104618,1.1765397026091549,1.3476773832125293,-0.0011388594660356622,-0.0019060776619733255,-0.0008082575757412322,-0.0008550732014204271,0.0002152958262703844,0.0005303502360282397,0.0017163324519565491,0.1419561207294464,-50.36893081665039,-7.332962989807129,17.35541534423828,1.6231180429458618,-1.1377670764923096,0.012864691205322742,,,,,,,,,
1739303521.7503686,-0.06961288220961075,1.0434459496774153,-0.39726628047642537,-1.4663596004483475,1.5435089171445475,1.1765373257524163,1.3476765529917012,-0.0002487251731173616,-0.00045573500297936277,9.912179464950698e-05,0.0012459819727492622,0.0009623486408635807,-0.0001459103596296135,0.0003997982425427436,0.11815241724252701,-50.42050552368164,-7.332962989807129,17.30384063720703,1.6432596445083618,-1.1176254749298096,0.04673920199275017,,,,,,,,,
1739303521.7603881,-0.06961459440583471,1.0434442342132448,-0.39726638446523815,-1.4663657151531146,1.5435091506858303,1.176538944949101,1.3476718631357276,-0.000358435442772539,-0.000523316101365266,0.0003201288912419172,-0.0006262877445329031,0.0001317485084331058,7.557573064797532e-05,-0.00029602938991530844,0.1419561207294464,-50.39670181274414,-7.332962989807129,17.35541534423828,1.6432596445083618,-1.1313583850860596,0.05955658480525017,,,,,,,,,
1739303521.771298,-0.06961459472985347,1.0434459761683519,-0.39726638468587655,-1.4663673350518787,1.543508615010519,1.1765381872889984,1.347677222029982,-0.0006509505780480577,-0.0004042535642779575,-0.00023952401850457197,-0.0002146766361504823,0.0005367703608912555,0.0003683960229176816,0.001236721803638229,0.1419561207294464,-50.42050552368164,-7.332962989807129,17.40302276611328,1.6368509531021118,-1.1249496936798096,0.012864691205322742,,,,,,,,,
1739303521.7813668,-0.06961093304590184,1.0434470496358836,-0.3972646026629588,-1.4663595883146618,1.5435088490208182,1.1765389449490766,1.3476797600666115,0.000768426907919241,-0.0004267604061964171,4.8712682260390345e-05,0.00025292913748356494,0.000433830844581713,0.0005665118181252033,0.0019089003526444118,0.09434870630502701,-50.47208023071289,-7.356766700744629,17.30384063720703,1.6368509531021118,-1.1313583850860596,-0.0072769103571772575,,,,,,,,,
1739303521.792401,-0.06961456848018109,1.043445949633206,-0.39726816714285906,-1.466361933880779,1.5435085975605887,1.1765389270704085,1.3476716338337078,-0.0011326701992220897,-0.0008912516181656836,-0.00057662297999595,2.0383278110065614e-05,-0.0014219374799263021,-9.599447680986392e-05,-0.0016159461056162398,0.1419561207294464,-50.42050552368164,-7.309159278869629,17.33161163330078,1.6368509531021118,-1.1313583850860596,0.026597600430250168,,,,,,,,,
1739303521.8023996,-0.06961659270664657,1.0434458812875769,-0.3972663844301593,-1.4663652599456067,1.5435067978664176,1.1765373213916648,1.3476711010733473,-0.0007850585717302512,-0.0009992072288557822,-0.0008898530019848111,0.0003804316261673901,-0.0004523897473049113,-0.0002367818488956069,-0.0005359292514511779,0.1697271168231964,-50.44827651977539,-7.332962989807129,17.37921905517578,1.6432596445083618,-1.1176254749298096,0.06596527993679047,,,,,,,,,
1739303521.8133066,-0.06961116839284684,1.04344666194171,-0.39726638446582496,-1.4663637963578546,1.5435089683176173,1.1765389493097271,1.3476781367272972,-5.082758084679821e-05,9.229577623284867e-05,0.0005039262214706082,-0.0002526978406197062,0.0007770672861967925,0.0002964327630195203,0.0032600240381160006,0.09434870630502701,-50.42050552368164,-7.332962989807129,17.35541534423828,1.6368509531021118,-1.1313583850860596,0.0064559997990727425,,,,,,,,,
1739303521.8233795,-0.06961256726163863,1.0434459761804307,-0.39726042351451685,-1.4663634519811666,1.5435051255649264,1.1765389449491503,1.3476773788518819,0.00040848041713142594,-0.0013025458164177253,0.0016481740523451383,-0.00029140122427536195,-0.001984592437762835,-4.264291851191506e-05,0.0015306464715728052,0.11815241724252701,-50.42050552368164,-7.384537696838379,17.35541534423828,1.6560770273208618,-1.1313583850860596,0.012864691205322742,,,,,,,,,
1739303521.8334165,-0.0696108534395134,1.0434462675693028,-0.39726785510274587,-1.4663684387494997,1.5435069418839804,1.176538187123455,1.3476723297074116,0.0011266414943445547,0.00010172822583263764,-0.000755132490203194,-0.0013001725956914532,-0.0004365646789093019,0.00016140130262678315,-0.001390415793648687,0.09434870630502701,-50.42050552368164,-7.309159278869629,17.37921905517578,1.6231180429458618,-1.1249496936798096,0.05955658480525017,,,,,,,,,
1739303521.844413,-0.06961116957556636,1.0434519760856913,-0.39727024692741536,-1.4663652688287074,1.543509721617042,1.1765381872889955,1.3476687198871995,-0.00014290675863365637,0.0019510160802613805,-0.0008356205164428013,-0.00039489015706430444,-0.0003770729233076446,9.527022655706868e-05,-0.002326627956263871,0.09434870630502701,-50.49985122680664,-7.281388282775879,17.37921905517578,1.6304422616958618,-1.1249496936798096,0.08610688149929047,,,,,,,,,
1739303521.855373,-0.06961116954491958,1.0434459851567526,-0.3972646822428122,-1.4663645319686665,1.543505736634761,1.1765389449490764,1.3476774951358979,0.0006785838785469955,5.997446991710724e-05,0.0001868056674666958,0.0014978042265254505,-0.0004984917789556374,-0.0007687994247330332,0.0005850379093656584,0.09434870630502701,-50.42050552368164,-7.356766700744629,17.33161163330078,1.6368509531021118,-1.1313583850860596,0.012864691205322742,,,,,,,,,
1739303521.8663626,-0.06961288285997001,1.0434486981958773,-0.3972646017901686,-1.4663634864729551,1.5435081567217555,1.1765381872889982,1.3476769744065888,-4.8041599238364275e-05,0.00046787726479620347,-0.00044284411304828516,0.0003508069013725992,0.0010635693285762887,-8.739799975419373e-05,0.0019454062005412763,0.11815241724252701,-50.44827651977539,-7.356766700744629,17.35541534423828,1.6432596445083618,-1.1249496936798096,0.019273381680250168,,,,,,,,,
1739303521.877462,-0.0696175148055581,1.04344889050451,-0.3972680888207118,-1.4663619451096548,1.5435036199228513,1.1765397026091549,1.3476770256411623,-0.0028884472373683786,0.0005320097938691795,-0.0006386266566000807,0.000508364394536878,-0.000521272117705246,0.0001048583025437063,0.0013372490365366574,0.1419561207294464,-50.42050552368164,-7.309159278869629,17.33161163330078,1.6432596445083618,-1.1377670764923096,0.012864691205322742,,,,,,,,,
1739303521.8883936,-0.06961460937759749,1.0434422468525033,-0.39726460178865874,-1.46636770886051,1.5435089662532722,1.1765373213917656,1.3476736760546746,0.00015489365877519035,-0.0013881062108654142,0.00039353460248045264,-0.0004955823915389762,0.0008868244493184358,-0.00019556257644925563,-7.564555179493933e-05,0.1419561207294464,-50.36893081665039,-7.356766700744629,17.37921905517578,1.6368509531021118,-1.1176254749298096,0.05314789339900017,,,,,,,,,
1739303521.899354,-0.06961289058279788,1.0434467713330735,-0.3972646013608163,-1.4663645290270217,1.5435071379992564,1.1765400045872059,1.3476745387329385,0.00018021070396581656,0.00015595481879162758,0.0008698045307685338,0.0004900112861060041,-0.00110008629269294,0.0008434741512856768,-0.00038767744967307363,0.11815241724252701,-50.42050552368164,-7.356766700744629,17.33161163330078,1.6432596445083618,-1.1313583850860596,0.026597600430250168,,,,,,,,,
1739303521.9103413,-0.06961288206569825,1.0434481337139756,-0.39726638446582274,-1.466362422653198,1.5435089727340234,1.176538944955058,1.3476712188273154,0.0008978944201120412,0.0012577150169049848,-0.00019163255626425928,0.0015384549690280183,0.00035988991400446837,-5.169818598374365e-05,-0.0007727975646408959,0.11815241724252701,-50.42050552368164,-7.332962989807129,17.33161163330078,1.6368509531021118,-1.1313583850860596,0.06596527993679047,,,,,,,,,
1739303521.9203742,-0.06961588403770691,1.04344519195815,-0.3972650830411232,-1.4663596274588795,1.5435052618263745,1.1765392440291527,1.3476757494824703,-0.001122037422755776,-0.0008060112940350676,0.001032548820411493,0.0008107033826506587,-0.0005137540874840761,-3.8091094281794494e-06,0.0010768370919796125,0.1697271168231964,-50.39670181274414,-7.356766700744629,17.30384063720703,1.6368509531021118,-1.1313583850860596,0.026597600430250168,,,,,,,,,
1739303521.931334,-0.06961280249659826,1.043445949682805,-0.397266409996518,-1.4663637011867237,1.5435078574318815,1.1765389449507648,1.3476784504787767,-0.00011284387184714716,-0.0012765278255035244,-0.00033343554053456446,0.00053745496238131,0.001418989638467893,0.0003912405315606254,0.0011178073982677816,0.11815241724252701,-50.42050552368164,-7.332962989807129,17.35541534423828,1.6432596445083618,-1.1313583850860596,0.0064559997990727425,,,,,,,,,
1739303521.9413595,-0.06961288210030332,1.0434488107003645,-0.397267385792194,-1.4663617474672006,1.5435080915222468,1.1765381872889984,1.347675639015975,0.0001994276736332538,0.0008703542374156195,1.719691015512778e-05,0.001733112755934265,-0.0027170535209685674,-6.441063415216851e-05,-0.0005870534821530762,0.11815241724252701,-50.42050552368164,-7.356766700744629,17.33161163330078,1.6432596445083618,-1.1249496936798096,0.026597600430250168,,,,,,,,,
1739303521.9513986,-0.06961288220965828,1.043444238513331,-0.3972645248159598,-1.4663617474643038,1.5435035797062473,1.1765389449490766,1.347678489722697,-0.000524375569445408,6.7785096614149544e-06,0.0005267323423206492,0.0009142065054974798,-0.002046095897315344,-0.00020164218482450187,0.0006509024225265108,0.11815241724252701,-50.39670181274414,-7.356766700744629,17.33161163330078,1.6432596445083618,-1.1313583850860596,0.0064559997990727425,,,,,,,,,
1739303521.962417,-0.06960704574107202,1.0434453055161224,-0.39726250947981456,-1.466362661056075,1.5435081712320105,1.1765389449490766,1.34767345240949,0.0020654569557849206,0.0007198627683577,0.0014785899285276799,-0.00016891247409958962,0.00032673020503529366,0.00033236389635346293,0.000181205441095975,0.06657771021127701,-50.39670181274414,-7.384537696838379,17.33161163330078,1.6432596445083618,-1.1313583850860596,0.04673920199275017,,,,,,,,,
1739303521.9742837,-0.06961427973385208,1.0434479489324944,-0.39726604635381674,-1.466360307749559,1.5435059093886874,1.1765389449490766,1.3476721454673724,0.0002777999380745642,0.0009737472735471089,0.0007476260747483106,0.001277559320061117,-0.00030802806417934425,-4.1844159012478574e-05,-0.0009811123635385863,0.1419561207294464,-50.44827651977539,-7.332962989807129,17.30384063720703,1.6496683359146118,-1.1313583850860596,0.05314789339900017,,,,,,,,,
1739303521.984312,-0.06961483637172085,1.0434501964058611,-0.39726816425200445,-1.466364166908063,1.5435069934430576,1.1765373213917658,1.347671857300923,-0.0005909758490360354,0.0016329633015008996,-0.0013363166777464693,0.00022507024558514094,-0.0009831355647532548,0.0003019469570909626,-0.0008368351453272733,0.1419561207294464,-50.44827651977539,-7.309159278869629,17.35541534423828,1.6432596445083618,-1.1176254749298096,0.05955658480525017,,,,,,,,,
1739303521.9952972,-0.06961283887478632,1.0434461851652495,-0.39726793313940767,-1.4663636920331786,1.5435082104971376,1.1765389449490766,1.347677680830031,-0.00038545189346879383,0.00014540174109604312,-1.0651172392245746e-05,0.0006773420134295867,0.00032071037165737115,-0.00028084839520845916,0.002471875321760757,0.11815241724252701,-50.42050552368164,-7.309159278869629,17.35541534423828,1.6432596445083618,-1.1313583850860596,0.019273381680250168,729,762,766,40.740,0,0
1739303522.0053062,-0.06961655670369057,1.0434459522977937,-0.3972625219949877,-1.4663645656466013,1.5435113447516462,1.1765381872889984,1.3476766207253381,-0.0013770560122216024,-0.0005980369173372508,0.0016165817826225273,0.00040876895417076947,0.0025916335629740405,0.00018623815361803035,0.0023061976964488407,0.1697271168231964,-50.42050552368164,-7.384537696838379,17.33161163330078,1.6167093515396118,-1.1249496936798096,0.019273381680250168,727,760,765,40.740,0,0
1739303522.015334,-0.06961659299487688,1.043445947061069,-0.39726957238071386,-1.4663640552774169,1.5435081954510155,1.1765373257524163,1.3476791433377522,-0.0021202192476356386,-0.0004800884819391384,-0.00020104483109143476,-0.00012814218700723243,-0.0012253000112573181,-4.373543033716769e-05,0.002504258615428796,0.1697271168231964,-50.42050552368164,-7.309159278869629,17.33161163330078,1.6304422616958618,-1.1176254749298096,0.0064559997990727425,727,761,765,40.522,0,0
1739303522.0263717,-0.06961119588791219,1.0434462001967852,-0.3972663846191128,-1.4663671220347834,1.5435081520841831,1.176538944949101,1.34767778185138,0.0003130973411987958,0.0007391490422651504,-0.0005386083323914153,-0.001050095252537628,4.660768499488411e-05,-9.240813334135968e-05,0.00106651335700097,0.09434870630502701,-50.42050552368164,-7.332962989807129,17.40302276611328,1.6432596445083618,-1.1313583850860596,0.0064559997990727425,727,765,765,40.740,0,0
1739303522.036391,-0.06961459473029898,1.0434516581931115,-0.3972673849196341,-1.4663680953500273,1.5435096081394382,1.1765381872889984,1.3476781365059503,-0.0002192163909952454,0.0001548373659069443,-0.00031376900420738193,-0.0010760957452169916,0.0003758360506817279,-1.5234180452501313e-05,0.0014833707605752403,0.1419561207294464,-50.49985122680664,-7.356766700744629,17.37921905517578,1.6304422616958618,-1.1249496936798096,0.0064559997990727425,727,761,765,40.631,1,0
1739303522.047363,-0.06961284721543795,1.0434443166295444,-0.3972615598579372,-1.4663617478061628,1.5435056659126036,1.1765373213917658,1.3476757552946774,0.0009403760737508769,-0.0014292901296018216,0.0016168718693678674,0.0006891522673181835,-0.00041947283152594424,-0.00027228223321167186,8.62031300624877e-05,0.11815241724252701,-50.39670181274414,-7.384537696838379,17.33161163330078,1.6368509531021118,-1.1176254749298096,0.026597600430250168,727,764,765,40.740,0,0
1739303522.0584185,-0.06960885669187192,1.0434504112773675,-0.3972663932907116,-1.4663656348085061,1.5435060761561963,1.1765401735594347,1.3476786094003033,0.0015428898814842569,0.0013530776062099324,0.0006017908046421197,-0.0010727711354656796,0.00017859006928613971,0.0015699770066387635,0.0021565819242981444,0.06657771021127701,-50.44827651977539,-7.332962989807129,17.35541534423828,1.6304422616958618,-1.1377670764923096,0.0064559997990727425,728,760,766,40.631,0,0
1739303522.0693107,-0.06961046495148304,1.0434521503025107,-0.3972646032060674,-1.4663638171491442,1.54350563246101,1.1765387840437227,1.3476672533618443,0.00026209650526733765,0.0019920229460390466,-5.98401185747065e-05,0.000976910138760653,-0.0005405644544953253,-0.00025611670245797853,-0.002596929500776427,0.09434870630502701,-50.47208023071289,-7.356766700744629,17.33161163330078,1.6368509531021118,-1.1313583850860596,0.09983979165554047,728,762,766,40.631,1,0
1739303522.0793693,-0.06961288219772534,1.0434449524545923,-0.39726461061914786,-1.4663626974896313,1.5435046770822076,1.1765381872862732,1.347672472518395,-0.00034488104720441513,-0.0013651471405156934,0.0011596516906730839,0.00035259489192574856,-0.00032370588165125594,9.238557454001218e-05,-0.0012709654686120623,0.11815241724252701,-50.39670181274414,-7.356766700744629,17.30384063720703,1.6432596445083618,-1.1249496936798096,0.05314789339900017,728,762,765,40.631,1,0
1739303522.0903692,-0.06961223261985844,1.0434460556533418,-0.3972660695145397,-1.466365951595969,1.5435079086814563,1.1765381872889982,1.347667922179788,0.00041558787418339996,-0.0006916528233467836,2.226000037446258e-05,0.00034834562336922377,0.0001380150130577325,-0.0005489179739920908,-0.0018370010900410996,0.1419561207294464,-50.42050552368164,-7.309159278869629,17.37921905517578,1.6368509531021118,-1.1249496936798096,0.06596527993679047,725,760,765,40.522,0,0
1739303522.100376,-0.06961288219632594,1.0434422392164293,-0.3972622627239091,-1.4663617827882836,1.543508035049129,1.1765381872889982,1.347676314835153,-0.00011999755931307612,-0.0020766084086322406,0.0011052455666660877,0.0013938081149661198,-0.0011784572613336168,-0.0002580132661332794,0.00018838984466711377,0.11815241724252701,-50.36893081665039,-7.356766700744629,17.33161163330078,1.6432596445083618,-1.1249496936798096,0.012864691205322742,729,759,762,40.522,0,0
1739303522.1113217,-0.06961651393370838,1.0434430896356124,-0.3972679330905541,-1.466363701950264,1.5435082107183584,1.1765381872889982,1.3476757383305848,-0.0012213001082056272,-0.0018462570985545877,-0.00038924864547917686,-4.14494192029183e-05,0.0009804955786806356,-0.00030202914189022737,-0.0007916749081777047,0.1697271168231964,-50.42050552368164,-7.309159278869629,17.35541534423828,1.6432596445083618,-1.1249496936798096,0.026597600430250168,728,761,765,40.522,1,0
1739303522.1213977,-0.06961276458885773,1.0434459762289496,-0.3972682466117402,-1.4663616679943539,1.5435043586870811,1.1765397026091549,1.3476726164169228,0.00019213543557527793,-0.0005455341229949554,-0.000979760233310465,0.0002982746868471851,-0.0017448743978216753,-2.0694371485968156e-05,-0.0011920946692814667,0.11815241724252701,-50.42050552368164,-7.309159278869629,17.33161163330078,1.6368509531021118,-1.1377670764923096,0.05314789339900017,728,761,765,40.740,1,0
1739303522.1322885,-0.06961288220899615,1.0434459457529794,-0.39726638457529,-1.4663645142298323,1.5435064099270217,1.1765389449490764,1.347675755133172,0.00022398825810124683,-0.0008283144483736221,-9.979396450436986e-05,0.0012542199613034175,-0.001264600616931981,0.0007404907491215007,0.0006808593566228125,0.11815241724252701,-50.42050552368164,-7.332962989807129,17.35541534423828,1.6304422616958618,-1.1313583850860596,0.026597600430250168,728,760,767,40.740,0,0
1739303522.1423552,-0.06961459472985528,1.0434459537109506,-0.397266384465827,-1.4663616808720294,1.5435082048489903,1.1765373213917656,1.3476781365119537,9.107248331249244e-05,0.0003411795061292451,-0.0005741934069375886,0.0015306225679485802,0.0006804929661651676,-0.00018120030409736379,0.0009435779854545748,0.1419561207294464,-50.42050552368164,-7.332962989807129,17.33161163330078,1.6432596445083618,-1.1176254749298096,0.0064559997990727425,727,761,765,40.740,1,0
1739303522.152411,-0.06961459472985529,1.0434489935204159,-0.3972662717975117,-1.466367383036152,1.5435097260394073,1.1765389449490764,1.3476781371579787,-0.0008990928429597479,0.0022806846337107226,0.0008999337139809119,-0.0008139956065799949,0.002220480548777698,0.0005958686098950951,0.00015828956977891094,0.1419561207294464,-50.44827651977539,-7.332962989807129,17.37921905517578,1.6304422616958618,-1.1313583850860596,0.0064559997990727425,729,763,765,40.631,1,0
1739303522.1624148,-0.0696119023714393,1.0434489052348828,-0.39726816714093616,-1.4663652374141434,1.5435080798998277,1.1765381872889982,1.3476771681455275,0.0011033205609859023,-0.00016133338481701042,-0.001013502658151072,0.00011947218476856454,-2.380598076349175e-05,-2.7153200998897162e-05,0.0026256625489990727,0.11815241724252701,-50.44827651977539,-7.309159278869629,17.37921905517578,1.6432596445083618,-1.1249496936798096,0.026597600430250168,728,762,765,40.631,1,0
1739303522.1733282,-0.06961288090804661,1.043445949828176,-0.3972663932961429,-1.4663655541790372,1.5435082106647764,1.176539689200154,1.347672576388265,-9.970835238100188e-06,-0.0007950716046838437,0.0006749678170556932,-0.0008555352435740532,0.0008155534500735232,0.0006198466054829233,-0.00012949290566630138,0.11815241724252701,-50.42050552368164,-7.332962989807129,17.37921905517578,1.6432596445083618,-1.1377670764923096,0.026597600430250168,727,761,764,40.522,0,0
1739303522.184407,-0.06961319368122997,1.0434445550481253,-0.3972663844659747,-1.4663648469099198,1.5435086269940141,1.1765373213915384,1.3476673451272563,-0.0007983853955513035,-0.0008643406295293975,0.001336490074875489,-0.00028973165783515304,0.0012166400278877955,2.9111059110501934e-06,-0.002534757497007811,0.11815241724252701,-50.39670181274414,-7.332962989807129,17.33161163330078,1.6304422616958618,-1.1176254749298096,0.07969819009304047,729,761,764,40.631,1,0
1739303522.1953373,-0.06961288221024622,1.0434459501504172,-0.39726793300887364,-1.466367653002535,1.5435085467236724,1.1765381872889982,1.3476740555146867,-0.0009722192118774422,-0.00035897367455234026,0.00015570260992206697,-0.00044402901947330185,0.0003896520684366631,-4.291446863655604e-05,-0.0001934680074126729,0.11815241724252701,-50.42050552368164,-7.309159278869629,17.37921905517578,1.6304422616958618,-1.1249496936798096,0.03300629183650017,727,762,765,40.522,1,0
1739303522.20629,-0.06961659169864662,1.043451670180661,-0.3972646017874844,-1.4663664305677968,1.5435089682112655,1.1765329768754356,1.3476774166388663,-0.0006862821235800031,0.0010823522119338472,0.00046243105970100485,-0.001091107658059081,0.0004942659162296579,-0.0015685754895545323,0.0008232278660074756,0.1697271168231964,-50.49985122680664,-7.356766700744629,17.35541534423828,1.6368509531021118,-1.1176254749298096,0.012864691205322742,729,761,765,40.522,1,0
1739303522.2163618,-0.06961277593089485,1.0434479604823927,-0.3972678551382839,-1.4663634626003552,1.5435081931152386,1.1765412178557368,1.3476732563403584,0.0012810270042955434,0.0009101707495809208,0.00028171715488482465,0.0006551111587400535,0.00014347882727629553,0.00046902369961936797,-0.0010570091794021804,0.11815241724252701,-50.44827651977539,-7.309159278869629,17.35541534423828,1.6432596445083618,-1.1505844593048096,0.04673920199275017,729,761,765,40.522,1,0
1739303522.2273977,-0.06961116093977344,1.0434423451797166,-0.39727031280129743,-1.466363569385901,1.5435075553669841,1.176538187288998,1.3476710880139962,-4.70937546219062e-05,-0.0003636826643433675,-0.0007880343427379109,-0.0007947200977235331,-0.0010663375927271628,-0.0005122142216783353,-0.000798307560628139,0.09434870630502701,-50.36893081665039,-7.309159278869629,17.35541534423828,1.6368509531021118,-1.1249496936798096,0.06596527993679047,727,761,763,40.740,1,0
1739303522.238334,-0.06960897371377313,1.0434489101246969,-0.397264601825143,-1.466366292984276,1.543508053711994,1.1765389449490764,1.3476718716773568,0.0009665512320380088,0.0018083607322560901,-6.310369172921493e-05,-0.0010065318187871665,0.00018701874868949268,0.0002958385527858767,-0.0005757331826090577,0.09434870630502701,-50.44827651977539,-7.356766700744629,17.37921905517578,1.6432596445083618,-1.1313583850860596,0.05955658480525017,728,763,765,40.522,2,0
1739303522.249319,-0.06961288220552801,1.0434500943684375,-0.39726638403783543,-1.466363556645037,1.5435081409695854,1.1765389315400756,1.347675768376654,0.0002587051642089595,-0.00016560908002383643,0.00033445610807878964,-0.00054301542974089,-0.0019496636704041963,0.00029080773325830685,0.0005474068228362705,0.11815241724252701,-50.44827651977539,-7.332962989807129,17.35541534423828,1.6304422616958618,-1.1313583850860596,0.026597600430250168,728,762,765,40.522,0,0
1739303522.2593386,-0.06961287346110451,1.0434449528848417,-0.3972653591017943,-1.466364408267814,1.5435089668990347,1.176538187288771,1.3476738998439848,-0.00011359207524653491,-0.00171544690503577,-0.0009869986434596146,-6.955578921202956e-05,-0.0005228338871669955,0.0002968174971849538,-0.0007777811737302951,0.11815241724252701,-50.39670181274414,-7.309159278869629,17.35541534423828,1.6368509531021118,-1.1249496936798096,0.03941498324275017,728,763,764,40.740,0,0
1739303522.2702825,-0.06961075339442857,1.0434488107044047,-0.39726816712699276,-1.4663623832512414,1.5435080913128807,1.1765389449490764,1.3476749976326792,0.0007353580428694679,-0.001189691044257062,-0.00035444232084262857,-0.0003084699053660235,0.00038143057256964034,-0.00019965805610547307,0.0007809068913366202,0.11815241724252701,-50.42050552368164,-7.309159278869629,17.33161163330078,1.6432596445083618,-1.1313583850860596,0.03300629183650017,729,759,764,40.631,1,0
1739303522.280432,-0.06961116986964803,1.0434466211728943,-0.3972644891204924,-1.4663626216765278,1.5435070998445395,1.1765412179293115,1.347673747038557,0.0005955984811984111,-0.00041893582847237783,0.0012048503540795239,0.000297226441903571,0.00012189512206619581,0.0012015199361804347,0.0010012227499662835,0.09434870630502701,-50.39670181274414,-7.356766700744629,17.33161163330078,1.6496683359146118,-1.1505844593048096,0.019273381680250168,726,762,765,40.522,2,0
1739303522.2913978,-0.06961433227319001,1.043445962809164,-0.3972692339324139,-1.466365245559342,1.5435089683774343,1.176539662382152,1.3476772610442485,0.00010761193709446286,-0.0007580722602724965,-0.0006840487956302321,-0.0004935346590991881,0.0004496977424489325,0.00021227904420105976,0.00015488580806600008,0.1419561207294464,-50.42050552368164,-7.332962989807129,17.37921905517578,1.6368509531021118,-1.1377670764923096,0.012864691205322742,728,760,765,40.522,0,0
1739303522.3014045,-0.0696127907234062,1.0434442646290059,-0.39726638451408114,-1.4663648862595662,1.543503580031277,1.176538187288317,1.3476738984419607,-0.00030267419892131617,-0.0005492055502946951,0.00023531995988484086,-0.001024150526202784,-0.0019834913902740084,-0.0003187879577296969,-0.000519501422141165,0.11815241724252701,-50.39670181274414,-7.332962989807129,17.33161163330078,1.6432596445083618,-1.1249496936798096,0.0064559997990727425,729,759,765,40.631,0,0
1739303522.3132894,-0.0696128073694754,1.043445927220219,-0.39726638479287424,-1.4663617740084172,1.5435057370572556,1.1765381872889982,1.3476733740533644,-0.00023827282662027536,0.000628641912035032,0.00015623088241657697,0.0012152428931757205,4.415802755392246e-05,-0.0008874679032831199,-0.0012371934897993726,0.11815241724252701,-50.42050552368164,-7.332962989807129,17.33161163330078,1.6368509531021118,-1.1249496936798096,0.04673920199275017,729,760,765,40.631,1,0
1739303522.3233156,-0.06960916004691038,1.0434459863067547,-0.39726638318185764,-1.4663663470482746,1.5435092548556453,1.1765381872889982,1.3476757552946774,0.0014491145155478672,0.0005105215701138083,0.00011782816233267928,-0.00025416538687418003,0.0003284442240671856,-9.211671141541986e-05,0.0003908070479147922,0.06657771021127701,-50.42050552368164,-7.332962989807129,17.35541534423828,1.6304422616958618,-1.1249496936798096,0.026597600430250168,730,759,765,40.522,1,0
1739303522.3334057,-0.06961319778531447,1.0434471246712067,-0.39726426976822804,-1.466364854736689,1.543508964010798,1.1765373213917656,1.347671503660208,-0.0004704132941760193,-0.0002852004937944139,0.0009614886716595904,0.0005264817650088018,0.00036433741226618566,-0.00028120045471121546,-0.00021038195211953262,0.11815241724252701,-50.39670181274414,-7.332962989807129,17.35541534423828,1.6368509531021118,-1.1176254749298096,0.026597600430250168,729,761,765,40.522,0,0
1739303522.3435075,-0.06961116969427324,1.0434516611812084,-0.3972663873734518,-1.4663638385277813,1.5435050037029163,1.1765373213917656,1.3476762281110224,-0.000563797718530281,0.0003246362054643931,-0.000532133357220904,0.0010463503914738314,0.00019207682720501348,-0.0002514872028763205,0.0017886002586875573,0.09434870630502701,-50.49985122680664,-7.332962989807129,17.33161163330078,1.6432596445083618,-1.1176254749298096,0.026597600430250168,729,760,765,40.631,1,0
1739303522.3553615,-0.0696119373656615,1.0434480447517809,-0.3972625210359899,-1.4663664298759542,1.5435086663832736,1.1765389449490764,1.3476702352020498,-0.00025444344197192914,-7.97779994078482e-05,0.0016015160869840294,-0.0009412078411145971,-0.0003398042153741432,0.00022467435881002307,-0.0009475450735007253,0.11815241724252701,-50.44827651977539,-7.384537696838379,17.35541534423828,1.6304422616958618,-1.1313583850860596,0.07328949868679047,728,761,764,40.631,1,0
1739303522.3653634,-0.06961264599332678,1.043448222339813,-0.3972646017888007,-1.46636606668131,1.5435089678889296,1.1765373213917656,1.3476723303115838,0.0012416562298746153,0.00121324072614092,0.0001817108407673491,-0.0012433703509444386,0.001424461930438888,1.9999168626638514e-05,-0.0007461362964943601,0.11815241724252701,-50.44827651977539,-7.356766700744629,17.37921905517578,1.6368509531021118,-1.1176254749298096,0.019273381680250168,729,762,765,40.522,1,0
1739303522.3753948,-0.0696138263410527,1.043445987946778,-0.39726853023303704,-1.4663659839352572,1.5435081583915329,1.176537858819994,1.3476673638430725,-0.0005780946198548215,0.000790371106137875,-0.00019814027150250318,-0.0005210296395616507,-0.00025432325642280387,-0.00018248531132100394,-0.0009527187766652211,0.11815241724252701,-50.42050552368164,-7.332962989807129,17.37921905517578,1.6432596445083618,-1.1313583850860596,0.07969819009304047,729,759,764,40.740,1,0
1739303522.3863513,-0.06961289488131747,1.0434479476184841,-0.39726460183725776,-1.4663634771623075,1.5435096083016413,1.1765389449429453,1.3476718586913647,-2.8174808825827744e-05,-0.0009621907986685483,-0.0003715771044934945,-0.0010745772970278016,0.0012894354654622087,0.00014393630914381225,-0.0012983692333237342,0.11815241724252701,-50.44827651977539,-7.356766700744629,17.35541534423828,1.6304422616958618,-1.1313583850860596,0.05955658480525017,730,760,766,40.522,1,0
1739303522.3973176,-0.06960980271818047,1.0434479603731717,-0.39726638446582546,-1.4663634547008688,1.54350821066485,1.1765381872889982,1.3476734553594738,0.0008024309691967102,0.000411988147480907,-0.00036108244295276066,0.00033739319502897643,-7.640325952582152e-05,0.00020711742124096785,0.001246458527555643,0.11815241724252701,-50.44827651977539,-7.332962989807129,17.35541534423828,1.6432596445083618,-1.1249496936798096,0.019273381680250168,728,762,765,40.631,1,0
1739303522.408283,-0.06961111331851896,1.0434442371569,-0.3972636657751252,-1.4663644877389472,1.5435088564560584,1.1765381872889982,1.347677358448561,0.0009102689814441641,-0.0014479917895295232,0.0009115173291621788,-0.00045938254817448995,4.653595179448096e-07,0.00033166612085675374,0.0005989274446657886,0.09434870630502701,-50.39670181274414,-7.356766700744629,17.35541534423828,1.6368509531021118,-1.1249496936798096,0.012864691205322742,729,761,765,40.631,1,0
1739303522.418312,-0.0696145670797813,1.0434496513086817,-0.3972643020317814,-1.4663638167066038,1.543506928935652,1.1765373213917656,1.3476742407650293,-0.0011052740326756964,0.0008666953190851542,-0.0005358319525066257,0.0009123944534139695,-0.0013496002161287573,-0.0002923813832896766,-0.001183395970310261,0.1419561207294464,-50.47208023071289,-7.332962989807129,17.33161163330078,1.6231180429458618,-1.1176254749298096,0.06596527993679047,731,759,766,40.631,0,0
1739303522.4284053,-0.06961459181320186,1.043444565186486,-0.39726816582360863,-1.466363768703961,1.54350773776897,1.1765389449490764,1.3476702352525511,-0.00041916009188216455,-2.1564166419462275e-05,-0.0010185654510846396,0.0006508452491153198,-0.000774117510744755,1.7938205753240458e-05,-0.0017937689620767248,0.1419561207294464,-50.39670181274414,-7.309159278869629,17.35541534423828,1.6432596445083618,-1.1313583850860596,0.07328949868679047,728,762,767,40.522,1,0
1739303522.438425,-0.06961285726305463,1.0434459556788651,-0.3972663584654228,-1.4663674144380052,1.5435084450933303,1.1765412179293115,1.3476742798494963,-7.325469571550943e-06,-0.0002592334365651304,-0.00031846158058905874,0.0002349346222137863,0.0008729368542243769,0.0006258362330189044,-0.0007705178924005156,0.11815241724252701,-50.42050552368164,-7.332962989807129,17.37921905517578,1.6368509531021118,-1.1505844593048096,0.06596527993679047,728,762,766,40.631,2,0
1739303522.4492872,-0.06961288174148958,1.0434479475819634,-0.3972663728742881,-1.4663634511518333,1.543509375312229,1.1765389315400756,1.3476687192511458,0.00026587927531860776,-0.0005094589528527149,-0.0005231766652508431,0.0005066798889578416,-0.000567928643735178,-0.00010427183169248283,-0.0018329825395212527,0.11815241724252701,-50.44827651977539,-7.332962989807129,17.35541534423828,1.6231180429458618,-1.1313583850860596,0.08610688149929047,729,760,757,40.414,1,0
1739303522.459342,-0.06961217217256405,1.0434459526208537,-0.3972646017886098,-1.4663634609146547,1.5435065427438641,1.1765389449488493,1.3476757546486446,0.00020997728503420492,-0.0002890021632375704,6.460228797846104e-05,-0.00016374830859636918,0.0003915719426038926,0.00037832535595946546,0.00126169207883711,0.11815241724252701,-50.42050552368164,-7.356766700744629,17.35541534423828,1.6304422616958618,-1.1313583850860596,0.026597600430250168,729,758,765,40.631,0,0
1739303522.470299,-0.06961288220565195,1.0434459849987028,-0.3972656834367109,-1.466364087969622,1.5435096693330774,1.1765389449490764,1.34767898217622,-0.00018627823962042518,0.0005941403177496615,-0.00021690341567536767,-9.021647270750436e-05,0.0007714598786703597,0.0005003539037302129,0.0020000739392289028,0.11815241724252701,-50.42050552368164,-7.332962989807129,17.33161163330078,1.6304422616958618,-1.1313583850860596,0.026597600430250168,729,760,765,40.631,2,0
1739303522.480351,-0.06961188290061113,1.0434519789153287,-0.39726808912983214,-1.4663616694482924,1.5435079072867883,1.1765381872889982,1.347672616633363,-0.0003400872704328857,0.001953584822441832,-8.463369214517792e-05,0.000646997708653153,0.0001905843243448432,-0.0002809077738823953,-0.00019001872466751693,0.09434870630502701,-50.49985122680664,-7.309159278869629,17.33161163330078,1.6368509531021118,-1.1249496936798096,0.05314789339900017,729,761,766,40.522,1,0
1739303522.4903667,-0.06961075632274144,1.0434496601444327,-0.39726888207626804,-1.4663670160211801,1.5435078032227947,1.176538582906049,1.3476711010966167,0.0008047301888475036,0.0006642879277662397,-0.0006386232024898202,-0.0010190244108742195,-0.001002219013041399,-0.00033188624538476973,-0.001522714497288215,0.11815241724252701,-50.47208023071289,-7.309159278869629,17.40302276611328,1.6432596445083618,-1.1313583850860596,0.06596527993679047,730,761,765,40.522,1,0
1739303522.5013685,-0.06961004762966116,1.0434430896356124,-0.39726816714688007,-1.4663636890856964,1.543508968377128,1.1765373606355785,1.347671118539216,0.0006837484841050899,-0.002222605109104805,-0.0004873093382114031,0.00017752389139339704,0.0005634185824832961,0.0007640086294454238,-0.0009640218910459031,0.11815241724252701,-50.42050552368164,-7.309159278869629,17.35541534423828,1.6368509531021118,-1.1176254749298096,0.06596527993679047,729,761,765,40.631,1,0
1739303522.5123553,-0.06961290846464484,1.043445980076809,-0.3972663844658252,-1.466365635790548,1.5435112972690086,1.1765373213919872,1.3476670567696079,-7.728861310132539e-05,-0.0002850277309127666,3.296034002555923e-05,0.0007447613800049927,0.0015119239443648603,-8.329821035968875e-05,-0.0008486276489366318,0.11815241724252701,-50.42050552368164,-7.332962989807129,17.35541534423828,1.6167093515396118,-1.1176254749298096,0.07328949868679047,730,760,765,40.631,1,0
