IITGN-Robotics/Franka_IITGN_ROBOTICS/franka_ros/franka_iitgn/data01/s_b_017.csv
time,fr3_joint1_pos,fr3_joint2_pos,fr3_joint3_pos,fr3_joint4_pos,fr3_joint5_pos,fr3_joint6_pos,fr3_joint7_pos,fr3_joint1_vel,fr3_joint2_vel,fr3_joint3_vel,fr3_joint4_vel,fr3_joint5_vel,fr3_joint6_vel,fr3_joint7_vel,fr3_joint1_eff,fr3_joint2_eff,fr3_joint3_eff,fr3_joint4_eff,fr3_joint5_eff,fr3_joint6_eff,fr3_joint7_eff,flexpin1,flexpin2,flexpin3,Force,ContactMic,ContactMic_gt
1739303842.7969918,-0.06418944613860213,1.049740884746257,-0.40737945707543843,-1.4599685320735099,1.5511098612900807,1.1653648150364544,1.3420352091143537,0.0002928754350737178,0.0006816918938876492,-0.0013483150146081408,-0.00044795604765900647,0.00044228566979968625,-0.00018750683129253816,-0.00034059784410889996,0.1935308277606964,-51.03543472290039,-7.563065528869629,17.60138702392578,1.7476297616958618,-1.3346054553985596,0.05314789339900017,,,,,,,,,
1739303842.80701,-0.06419013360674203,1.0497475634043698,-0.4073762895782053,-1.4599692772718418,1.55111100441034,1.1653632952446125,1.3420392531349101,0.00023458133218167484,0.0003339637928266449,-0.0005464144145533148,5.266574968619871e-05,-0.001685604502951912,-0.00045808222555352254,0.0005164888060047005,0.1697271168231964,-51.03543472290039,-7.610672950744629,17.57758331298828,1.7284036874771118,-1.3217880725860596,0.019273381680250168,,,,,,,,,
1739303842.8170292,-0.0641895849077712,1.0497547810442556,-0.40737912746467775,-1.459969878711243,1.5511097874451343,1.1653681941026677,1.3420413887625056,0.0007311625271131286,0.0003346651553764394,0.0005188810226083718,0.0005684760665754238,-0.0007260574741982008,-0.00015249285044592901,0.0006489899458166076,0.11815241724252701,-51.00766372680664,-7.610672950744629,17.55377960205078,1.7348123788833618,-1.3346054553985596,0.012864691205322742,,,,,,,,,
1739303842.827066,-0.06419501486980583,1.0497614875071062,-0.4073794787550238,-1.4599741339271528,1.5511154884797616,1.1653630789851273,1.3420410726857321,-0.0004110256578689363,0.00048791844390127484,-8.888113481303649e-05,-0.0005704377750260014,0.000123488472678572,-0.0016858168254837468,0.0011665602284543562,0.1935308277606964,-51.00766372680664,-7.610672950744629,17.60138702392578,1.7219949960708618,-1.3153793811798096,0.03941498324275017,,,,,,,,,
1739303842.8380592,-0.06419409509958832,1.04976351666009,-0.4073843589267202,-1.4599763683284854,1.551109445125984,1.1653667205576403,1.3420399721113088,-0.0006032978702114235,0.0002197054153853128,-0.00034995045695588206,-0.0006228197923449503,0.0001511265665427798,0.0017505039846272307,0.00041004981596024827,0.1935308277606964,-50.96005630493164,-7.586869239807129,17.60138702392578,1.7219949960708618,-1.3217880725860596,0.012864691205322742,,,,,,,,,
1739303842.84998,-0.06419029434462993,1.0497708251095357,-0.4073866053428545,-1.4599730960657875,1.55110893327618,1.1653617844134334,1.342039405261205,0.001633679066066132,-0.0005660519591647859,0.0005023900758937275,-4.6153334261113746e-05,-0.002444755794969367,-0.0030909466841257203,0.0005508496207287663,0.1419561207294464,-50.98386001586914,-7.586869239807129,17.57758331298828,1.7412210702896118,-1.3089706897735596,0.026597600430250168,,,,,,,,,
1739303842.8609502,-0.06419325070767365,1.0497767582321114,-0.40738934285307743,-1.4599724380933927,1.5511120601480366,1.1653645080142434,1.3420415792539524,0.00035494583148776087,0.0009158977420866909,-0.00020892169404290004,-0.0005892039164136783,0.0011553166704472817,-0.000990160357581483,0.0008776464412490993,0.1697271168231964,-51.00766372680664,-7.563065528869629,17.57758331298828,1.7155863046646118,-1.3217880725860596,0.026597600430250168,,,,,,,,,
1739303842.871018,-0.06419546546235344,1.0497779425360685,-0.40738839275813293,-1.4599738696395401,1.551112008072431,1.1653669201650678,1.342038010263591,0.0005310683160874851,0.0009439771657096264,-0.0009853439354882154,0.0008144932998724358,0.0004968636705917714,-0.000849053483375394,0.00042349316595960537,0.1697271168231964,-50.98386001586914,-7.586869239807129,17.55377960205078,1.7155863046646118,-1.3217880725860596,0.03941498324275017,,,,,,,,,
1739303842.8820472,-0.06419652902707804,1.0497836344128186,-0.40738944841125024,-1.459970899655171,1.551111654374317,1.1653625798736742,1.342041071715346,-0.0009075877173080186,-0.00010528471943790688,-0.0012453700705081006,0.0007005340842140167,-0.000315184815823357,-0.003354111340544318,-0.0001510287961171333,0.2173345386981964,-51.00766372680664,-7.563065528869629,17.55377960205078,1.7155863046646118,-1.3153793811798096,0.03941498324275017,,,,,,,,,
1739303842.8930135,-0.06419771282788359,1.049782288007331,-0.4073880151206089,-1.4599738287265367,1.5511120075850302,1.1653672978352903,1.3420383538837868,-0.0005727004463816836,0.0009210603382055087,-0.0004960248561115061,2.7105491926402288e-05,0.0004320415829264203,-0.000540864857850436,-0.00018360819851894492,0.2173345386981964,-50.98386001586914,-7.610672950744629,17.55377960205078,1.7155863046646118,-1.3153793811798096,0.026597600430250168,,,,,,,,,
1739303842.903991,-0.0641977169680625,1.0497832748462892,-0.4073907519080765,-1.4599774350473185,1.5511134204378634,1.165366653597515,1.342034569191945,-0.0021783957199687626,0.0006247167891598889,-0.0006310398396407309,-0.000312920790941213,0.00208246440925989,9.985844013427303e-05,-0.0007000553643310686,0.2173345386981964,-50.98386001586914,-7.586869239807129,17.60138702392578,1.7155863046646118,-1.3089706897735596,0.05955658480525017,,,,,,,,,
1739303842.9140797,-0.06419516076999518,1.049778920426147,-0.4073869255192307,-1.4599706922008353,1.5511120076109508,1.1653689345257454,1.3420413845633603,-0.000507826464732763,-0.0018492115521576773,0.0005944127043456678,-0.0002669918886019087,0.0006195728733392302,0.0013762393451756888,0.0013309113269053393,0.1935308277606964,-50.88071060180664,-7.610672950744629,17.55377960205078,1.7155863046646118,-1.3281967639923096,0.012864691205322742,,,,,,,,,
1739303842.9250035,-0.06419415815428564,1.049783436878112,-0.4073926405507033,-1.4599694900430418,1.5511128604023043,1.1653652193331807,1.3420410867851194,0.0005792195161215913,-0.001139388682984588,-0.0012386992636268606,0.0004237696592847792,0.0006667506252570911,-0.0006788001246755191,0.0022323626015157546,0.1697271168231964,-50.96005630493164,-7.563065528869629,17.52600860595703,1.7082620859146118,-1.3089706897735596,0.0064559997990727425,,,,,,,,,
1739303842.935005,-0.06419405113724536,1.0497858126639517,-0.4073831329560927,-1.459973658131164,1.5511120125934756,1.165363800240913,1.3420336894391613,-0.0006395982514647065,-2.7338442718854647e-06,0.0018981671484141144,-0.0011332887053303725,0.0002008028910841764,-0.0005574994691425323,-0.0021049009993930412,0.1697271168231964,-50.96005630493164,-7.690018653869629,17.55377960205078,1.7155863046646118,-1.3153793811798096,0.06596527993679047,,,,,,,,,
1739303842.945975,-0.06419333093604385,1.0497838146300857,-0.40738799928342023,-1.4599694823600224,1.5511108952607142,1.1653677666293345,1.3420384005349462,0.00046452519754499526,-0.0005807164010011975,-0.00021804952718534787,9.727674134189858e-05,-0.0006983291885897531,-0.0003517754734964413,0.0015697287562275717,0.1697271168231964,-50.93228530883789,-7.586869239807129,17.52600860595703,1.7219949960708618,-1.3217880725860596,0.026597600430250168,,,,,,,,,
1739303842.9560661,-0.0641961806626701,1.0497845300190685,-0.4073890397341251,-1.459973538633053,1.55111322559781,1.165364562388135,1.3420384008050366,-0.00027889474543517714,-0.000689863259154059,0.0007014603245262064,-0.0003709422510773116,0.0004103205977162331,-0.002211837075293712,0.0002948225182886465,0.1697271168231964,-50.93228530883789,-7.610672950744629,17.55377960205078,1.7018533945083618,-1.3217880725860596,0.026597600430250168,,,,,,,,,
1739303842.9660704,-0.06419741578078227,1.0497861345323238,-0.40738883385020397,-1.4599713505081353,1.551112007580156,1.1653680614209643,1.3420368331570756,-0.00018890933958480604,-0.0004873313739159076,0.000455545860704182,-7.626221070641012e-05,0.0006756186777981919,-0.0010910998751262235,-0.00029550716135333757,0.1935308277606964,-50.96005630493164,-7.610672950744629,17.55377960205078,1.7155863046646118,-1.3217880725860596,0.03941498324275017,,,,,,,,,
1739303842.9769533,-0.06419650624691192,1.0497820258202923,-0.40738907423031423,-1.4599737950269043,1.5511120080715408,1.165368061978221,1.3420430749372239,0.000142225446288544,-0.0006585114949156071,0.00023576149298650562,-0.0004719097870673142,0.0006066899706891288,0.000955979792053297,0.0014930610423738396,0.1697271168231964,-50.93228530883789,-7.610672950744629,17.55377960205078,1.7155863046646118,-1.3217880725860596,0.026597600430250168,,,,,,,,,
1739303842.987004,-0.06419629595572472,1.049787436330533,-0.4073929786787824,-1.4599700164962557,1.5511104922668757,1.16536818116798,1.3420353837819399,0.00046510790695188017,-0.00016458158918994771,-0.0006435342109623321,-9.917213953953977e-05,-0.0003107311995734039,0.0011890371893131595,0.0011912844047648617,0.1697271168231964,-51.00766372680664,-7.563065528869629,17.50220489501953,1.7284036874771118,-1.3217880725860596,0.05314789339900017,,,,,,,,,
1739303842.9980328,-0.06419444392587696,1.0497923170208072,-0.4073908314007976,-1.4599734597662837,1.5511127688286388,1.1653688997067138,1.3420406267408787,0.0013982932843626856,0.001550270306270941,0.0010141819838260673,-0.0003481071032930916,0.0009632938654291764,0.0003674952882219504,0.000794651518241321,0.1419561207294464,-51.03543472290039,-7.586869239807129,17.57758331298828,1.7082620859146118,-1.3281967639923096,0.019273381680250168,,,,,,,,,
1739303843.0089633,-0.06419619080796626,1.0497889185073788,-0.40738907660364043,-1.4599718266346762,1.5511131621315315,1.165367353587976,1.3420352092838348,0.0017734411645168122,-0.0004120606177303632,5.839146476353373e-05,0.0007063466847386625,0.0013571203660715674,-0.00018478460800778438,-0.0006298750031042289,0.1697271168231964,-50.98386001586914,-7.610672950744629,17.52600860595703,1.7018533945083618,-1.3281967639923096,0.05314789339900017,,,,,,,,,
1739303843.0199587,-0.06419952367675946,1.0497906198170253,-0.4073897810749998,-1.4599736591882198,1.5511120075843765,1.1653685784335512,1.3420431562776116,-0.001602984869913067,-0.0004786339381969807,0.0003233534910227839,-3.19364538234038e-05,-0.0003266082394108499,0.0005758160687629082,0.0017703310837234591,0.2411382496356964,-50.98386001586914,-7.610672950744629,17.55377960205078,1.7155863046646118,-1.3281967639923096,0.012864691205322742,,,,,,,,,
1739303843.0309756,-0.06419629623343069,1.0497861154880694,-0.40739686202163394,-1.459971790016399,1.551111193453827,1.1653649239395376,1.3420371490132768,-0.0004707480704410858,-0.0023000280968592576,-0.0025414719599380084,0.0005456488609431649,-0.0007939474135680123,-0.0009221125110826571,0.00033826871292198286,0.1697271168231964,-50.90848159790039,-7.535294532775879,17.52600860595703,1.7219949960708618,-1.3217880725860596,0.04673920199275017,,,,,,,,,
1739303843.0410008,-0.06419649854325718,1.0497878785214219,-0.407391529342575,-1.4599700439696217,1.5511112499259896,1.1653681781350589,1.3420340513871385,0.0007304458577629786,-0.00038960953941734994,-0.0012005445727482533,0.0005487761120076757,0.0005120879111819675,0.0001588611892583755,-0.0016611662598900296,0.1697271168231964,-50.96005630493164,-7.610672950744629,17.50220489501953,1.7219949960708618,-1.3217880725860596,0.06596527993679047,,,,,,,,,
1739303843.0519829,-0.06419538672883661,1.0497881056674288,-0.4073900649082969,-1.4599687761136606,1.5511104523749886,1.1653689404855103,1.3420375903337616,0.0005678572347740842,-0.0007333313708872602,-0.0014776334121219096,0.0019219817790010738,-0.0012598997645473118,0.0011293927168907914,4.4958386679923364e-05,0.1935308277606964,-50.93228530883789,-7.638443946838379,17.52600860595703,1.7284036874771118,-1.3281967639923096,0.03300629183650017,,,,,,,,,
1739303843.0620942,-0.06419707185642647,1.0497878684969264,-0.40738930926822536,-1.4599715790075412,1.5511120075863485,1.1653680619789062,1.342039958347524,0.00022603040952783406,-9.65862769940402e-05,0.00017819302502516423,0.00021478141931471282,0.002895343971154483,0.0005089499892852031,0.0014273804793013508,0.2173345386981964,-50.93228530883789,-7.610672950744629,17.52600860595703,1.7155863046646118,-1.3217880725860596,0.05314789339900017,,,,,,,,,
1739303843.0729592,-0.06419641515793093,1.0497881146179846,-0.4073891137332259,-1.459970047554268,1.551111197060785,1.165367384882514,1.3420398786070398,0.00016333999331466964,-0.0007884002719204972,-0.0004352829840336833,-4.952981357787768e-05,0.00015501353756606898,0.0006657022063219459,0.0016107381082451021,0.1697271168231964,-50.93228530883789,-7.610672950744629,17.50220489501953,1.7219949960708618,-1.3153793811798096,0.026597600430250168,,,,,,,,,
1739303843.0829875,-0.06419890401208289,1.0497902780836594,-0.40738800975943323,-1.459970034812936,1.5511120075861287,1.165367419205142,1.3420438056802018,-0.0008961296196196842,-2.487280125149056e-05,-2.2303366148188476e-05,0.00024612476153607543,0.001322909665340998,0.0010754733501470808,0.0027968101573547285,0.2173345386981964,-50.93228530883789,-7.638443946838379,17.50220489501953,1.7155863046646118,-1.3153793811798096,0.019273381680250168,,,,,,,,,
1739303843.0939682,-0.06419792976391286,1.0497925315549292,-0.4073915221432026,-1.4599723924621262,1.5511109087030381,1.1653688823798323,1.3420400116658084,-0.0002100620975363036,0.000208652172655586,0.00020652044300475644,-0.001583154313511705,-0.0007234336264077059,0.001577530821421464,0.00010968302964518018,0.1935308277606964,-50.98386001586914,-7.610672950744629,17.57758331298828,1.7155863046646118,-1.3281967639923096,0.03941498324275017,,,,,,,,,
1739303843.104991,-0.06419609867161682,1.049790209734049,-0.40739015303848813,-1.4599756900766725,1.5511128734780533,1.165364911028882,1.3420338639309162,-0.00034238885161447913,0.0002440863138179559,0.00031174073125830046,-0.0007834368422472412,0.0010393366907155872,0.0003415322027243242,-0.0009394505438212732,0.1935308277606964,-50.96005630493164,-7.638443946838379,17.57758331298828,1.7082620859146118,-1.3217880725860596,0.06596527993679047,,,,,,,,,
1739303843.1150181,-0.06419653073884413,1.0497888215189424,-0.40739015404112666,-1.4599710849005867,1.5511116522747417,1.1653678536388732,1.3420355125488361,-0.00024180835208742753,-0.00037432864469196106,0.001811415140207657,-0.0001525060477858952,-0.001062853626862181,-0.00010270360656404885,-0.0006056034146888807,0.1697271168231964,-50.93228530883789,-7.638443946838379,17.52600860595703,1.7155863046646118,-1.3281967639923096,0.05955658480525017,,,,,,,,,
1739303843.1260245,-0.06419435866305923,1.0497946012047337,-0.4073921565849026,-1.4599718256255885,1.5511104922648618,1.16536781481674,1.3420442115610793,0.0013138628253750138,0.0017216909095115064,0.0007911142687146637,-0.00027873090672330666,-0.0005454528296379028,-0.000394966357274793,0.0008295060043172345,0.1697271168231964,-51.00766372680664,-7.610672950744629,17.52600860595703,1.7284036874771118,-1.3217880725860596,0.012864691205322742,,,,,,,,,
1739303843.136986,-0.06419442135614985,1.0497926066888668,-0.40739223425768084,-1.4599700439702248,1.5511151464644914,1.165365456219311,1.3420384679007686,0.0005727822034735149,0.0005682313997164575,0.000886669116128456,0.0007879933420592883,0.0012736302206101055,-0.0002180228333286971,0.0005890009318850022,0.1419561207294464,-50.96005630493164,-7.610672950744629,17.50220489501953,1.6890360116958618,-1.3089706897735596,0.026597600430250168,,,,,,,,,
1739303843.14707,-0.06419539844763812,1.049793322412976,-0.40739711637754367,-1.4599738942272946,1.5511104927513841,1.165367022888512,1.3420392532970926,-0.0006479870310539201,0.00011913610328596793,-0.0023680066352249943,-0.0002508656592991146,0.00022736567455869058,-0.0007376694054669834,0.00048738141641987607,0.1935308277606964,-50.96005630493164,-7.586869239807129,17.55377960205078,1.7284036874771118,-1.3153793811798096,0.019273381680250168,,,,,,,,,
1739303843.1580212,-0.06419239955328686,1.0497913205515776,-0.4073900762008435,-1.459971826647192,1.5511114607949257,1.1653672996937732,1.3420350909338992,0.0006466036775561671,-0.0006471658313922606,0.0016845252232487022,0.0001969144661434927,-0.0005247575671468769,-0.0015259397174325093,-0.00183860739343373,0.1419561207294464,-50.93228530883789,-7.638443946838379,17.52600860595703,1.7082620859146118,-1.3419296741485596,0.09343110024929047,,,,,,,,,
1739303843.1680274,-0.06419060826976598,1.0497882250345685,-0.40739438013389895,-1.4599739064371167,1.5511096814639922,1.165368773066057,1.342039760921311,0.000962342279340337,-0.0019757810540408996,0.00020081813432604919,-0.00029407378152604787,-0.0005622394306684822,-7.24590695032246e-05,0.0010739132091543355,0.11815241724252701,-50.93228530883789,-7.610672950744629,17.55377960205078,1.7082620859146118,-1.3281967639923096,0.026597600430250168,,,,,,,,,
1739303843.1790016,-0.06419924371512171,1.0497911766323078,-0.4073922342711098,-1.4599763952125064,1.5511096945518494,1.16536535362834,1.3420380590289205,-0.000987344877625544,-6.98786736316095e-05,0.000529456120490518,-0.002277484197762603,-2.6214230439095367e-05,-0.0005694273023991608,0.0005021493451696897,0.2173345386981964,-50.96005630493164,-7.610672950744629,17.57758331298828,1.7082620859146118,-1.3346054553985596,0.03300629183650017,,,,,,,,,
1739303843.1900382,-0.06419539504421859,1.0497910864653857,-0.4073939129344953,-1.4599718276323934,1.551113067153373,1.1653663054377497,1.3420401291811164,0.0003834244328435807,-0.0004888006294164874,-0.0002608040329606819,1.5998077612434442e-05,0.001118855727876577,-0.00055337117988742,0.0010853810610155926,0.1935308277606964,-50.93228530883789,-7.586869239807129,17.52600860595703,1.7155863046646118,-1.3089706897735596,0.012864691205322742,,,,,,,,,
1739303843.2010517,-0.06419932552302449,1.0497971777601767,-0.4073940140464971,-1.459975652484675,1.551112571512187,1.1653688853575999,1.3420380638296125,-0.001162064310638289,0.0022263594044218053,-0.00026558794927995045,-0.0014191221695978682,0.0007499011224958019,-0.00018371705460337463,0.0009658394760683009,0.2173345386981964,-50.98386001586914,-7.586869239807129,17.57758331298828,1.7018533945083618,-1.3281967639923096,0.03941498324275017,,,,,,,,,
1739303843.2119575,-0.06420159205020304,1.0497950222299333,-0.4073901554502708,-1.4599718265340003,1.5511101385636592,1.1653669419444026,1.3420401287009038,-0.0024410791896749243,-0.0001579584771389677,8.726448120429276e-05,0.000174364590389332,0.0005270250353387103,-0.0006829881102526037,0.0005448977400493735,0.2411382496356964,-50.98386001586914,-7.638443946838379,17.52600860595703,1.7284036874771118,-1.3153793811798096,0.012864691205322742,,,,,,,,,
1739303843.222016,-0.06419824611590345,1.0497933096618977,-0.4073955659366796,-1.4599718276284055,1.5511112101905826,1.165364829180173,1.342042625954362,-0.0005240971166642409,-0.00014750630836818875,0.0008726467547856649,0.000714195995504874,-0.000527246269909759,-0.0011628192356325604,-0.0005724489907240813,0.1935308277606964,-50.96005630493164,-7.563065528869629,17.52600860595703,1.7219949960708618,-1.3346054553985596,0.026597600430250168,,,,,,,,,
1739303843.2320235,-0.0641981397759109,1.0497913500907328,-0.40739223425503895,-1.459973906437133,1.5511112105189107,1.165368044183325,1.3420426258626428,-0.0008723822275687105,-0.000519959692806481,-0.0003053749214529058,-0.0005897586367885226,-0.00048280591790578144,-0.0006552505695458523,0.00244492502358122,0.1935308277606964,-50.93228530883789,-7.610672950744629,17.55377960205078,1.7219949960708618,-1.3217880725860596,0.026597600430250168,,,,,,,,,
1739303843.2420397,-0.06419987963975522,1.0497995028329847,-0.4073939909356352,-1.4599739167411727,1.5511073983785268,1.1653681425961078,1.3420407307350963,1.5492426134396684e-05,0.0013723158546061942,0.000993899267331721,-0.0013859710045961591,-0.0012773073544694276,0.0002281149990486816,0.0010966514226789736,0.2173345386981964,-51.00766372680664,-7.586869239807129,17.55377960205078,1.7155863046646118,-1.3217880725860596,0.0064559997990727425,,,,,,,,,
1739303843.2529604,-0.06419557174956834,1.0497950387325323,-0.40739438918342796,-1.4599739019903877,1.5511128734582373,1.165363395708826,1.3420366351009887,0.0022530577754717902,8.752605168491534e-05,-0.0006364001993371215,-0.0008523884673185617,-0.0004023676163469588,6.178894192808638e-05,-0.002163116096281543,0.1697271168231964,-50.98386001586914,-7.610672950744629,17.55377960205078,1.7082620859146118,-1.3089706897735596,0.05314789339900017,,,,,,,,,
1739303843.263977,-0.06419824325434356,1.0497933253564393,-0.40738945247104463,-1.4599717978184892,1.5511080710125578,1.1653689384805488,1.3420355130923567,-0.0005773548288716818,-0.00015683121030286547,0.0017701425732694397,7.719920999517686e-05,-0.0013165979952638432,0.0018180378927599135,-0.0008438696216217118,0.1935308277606964,-50.96005630493164,-7.638443946838379,17.52600860595703,1.7219949960708618,-1.3281967639923096,0.05955658480525017,,,,,,,,,
1739303843.2741175,-0.06419355134711724,1.049796747458628,-0.40739015411248314,-1.4599700439687775,1.5511104921053618,1.165364911029108,1.342035966828369,0.0007745017541152741,0.0011302726115053042,0.0008857800423852527,0.001907981230938455,0.00048235522971953513,-0.0011919696865678195,-0.00011110936344422672,0.1419561207294464,-51.00766372680664,-7.638443946838379,17.50220489501953,1.7284036874771118,-1.3217880725860596,0.04673920199275017,,,,,,,,,
1739303843.2849648,-0.06419429551771837,1.0497916782497843,-0.4073961627032266,-1.4599718256297758,1.5511112499448907,1.1653674236141536,1.3420382461685259,0.0003357385305692548,-0.001108879103743448,-0.0010491179487303439,-0.00022115883369967608,0.0006669236428009374,-0.0007019410446202419,0.0005812108426079157,0.1419561207294464,-50.90848159790039,-7.586869239807129,17.52600860595703,1.7219949960708618,-1.3153793811798096,0.03941498324275017,,,,,,,,,
1739303843.2950153,-0.06419538629092025,1.0497930953711219,-0.4073940165443643,-1.459971716758845,1.5511118094854768,1.1653670966963499,1.3420407736307194,0.0005120149373723643,0.000413915117099903,0.00011713425519795112,0.0007462583081097816,0.00019906631712138167,-0.00016032145283373367,0.00037920363157526913,0.1935308277606964,-50.96005630493164,-7.586869239807129,17.52600860595703,1.7082620859146118,-1.3217880725860596,0.03300629183650017,,,,,,,,,
1739303843.3060741,-0.06419649838645229,1.0497913276242403,-0.4073923148583552,-1.4599696003890839,1.5511120030050263,1.1653649244320796,1.3420341696071736,-0.0007690559716036625,-0.0007917985198009473,0.0006415781776377284,0.0009438808390534439,-0.0016150546767367193,0.0005272523932242691,4.046319642769022e-06,0.1697271168231964,-50.93228530883789,-7.610672950744629,17.52600860595703,1.7155863046646118,-1.3217880725860596,0.06596527993679047,,,,,,,,,
1739303843.3170102,-0.0641999319439322,1.0497903828660329,-0.4073939389353302,-1.4599706096218528,1.5511115540793214,1.165364578016964,1.342030799894531,-0.001399846543481523,-0.0016287512480533876,-0.00027416662479109387,0.0005195809967101187,-0.0007418511581103647,0.0006829306186617018,-0.0034453456914285705,0.2173345386981964,-50.96005630493164,-7.586869239807129,17.55377960205078,1.7155863046646118,-1.3281967639923096,0.09343110024929047,,,,,,,,,
1739303843.3270333,-0.0641981670118613,1.0497933236269783,-0.4073942553532735,-1.4599717987801677,1.5511119902982464,1.1653681827515798,1.3420313125823493,0.00011755337165053248,0.0003003476170645042,6.617915038032541e-05,-9.782214251251276e-05,-0.0006019467788665253,-0.0010285466498430088,-0.0031591323823685017,0.1935308277606964,-50.96005630493164,-7.586869239807129,17.52600860595703,1.7155863046646118,-1.3217880725860596,0.08610688149929047,,,,,,,,,
1739303843.3379507,-0.06419653366840768,1.0497896119554389,-0.4073901547975354,-1.4599746997792293,1.5511120075869265,1.1653673847728336,1.3420383542905387,0.0004558397256619368,-0.00026837574243795124,0.001432138793516907,-0.0003141412690742341,-0.001209405260697121,-2.521009259553016e-05,-5.250650009900964e-05,0.1697271168231964,-50.90848159790039,-7.638443946838379,17.57758331298828,1.7155863046646118,-1.3153793811798096,0.026597600430250168,,,,,,,,,
1739303843.3480878,-0.064198219857446,1.0497940897667,-0.4073940169360209,-1.459972916972559,1.5511089643492753,1.1653649244375268,1.34203424074747,0.000350825486463724,0.0003104429918055615,-0.0010187726944443402,0.0002486962706891029,-0.0021755587101355855,0.0002511503227044239,-0.002128089475033661,0.1935308277606964,-50.98386001586914,-7.586869239807129,17.55377960205078,1.7412210702896118,-1.3217880725860596,0.07328949868679047,,,,,,,,,
1739303843.3580902,-0.06419824622441692,1.0497951114191484,-0.4073940050592985,-1.459971825240344,1.5511128720300662,1.1653678206168878,1.3420383500016684,-0.0008531970557770411,-6.678466760855304e-05,0.00023537677504583998,0.0001603607388429814,0.0007749764805629117,-0.0007574221602311912,-0.0008621043962573898,0.1935308277606964,-50.98386001586914,-7.586869239807129,17.52600860595703,1.7082620859146118,-1.3217880725860596,0.026597600430250168,,,,,,,,,
1739303843.3690526,-0.06419547893645758,1.0497913245113002,-0.40739015454246885,-1.459971823481749,1.5511080710125553,1.165368442365299,1.342034455832875,0.0008587541608817131,-0.000591840912387248,0.001789842938517363,0.00022908038182911457,-0.0015761371241809347,-0.0006401104006183747,-0.0021098211449374323,0.1697271168231964,-50.93228530883789,-7.638443946838379,17.52600860595703,1.7219949960708618,-1.3281967639923096,0.05955658480525017,,,,,,,,,
1739303843.379127,-0.0641972422116502,1.0497940367965863,-0.4073922342589975,-1.4599716720396247,1.5511119639266815,1.1653664377634132,1.3420370315639099,-0.00045772974912773145,0.000813256210082119,0.0003549849751087347,0.00028236268843230176,0.0010807506876823144,0.0005437686182875863,-0.00015497927475029887,0.1697271168231964,-50.96005630493164,-7.610672950744629,17.55377960205078,1.7155863046646118,-1.3346054553985596,0.07328949868679047,,,,,,,,,
1739303843.3900375,-0.06419642823578518,1.0497957322098332,-0.4073940173720804,-1.4599700348002622,1.551112003226127,1.1653695372191981,1.3420380499629725,0.00026986676999189436,0.0005796439459360149,-7.110566393979043e-05,0.0009354978166921895,0.0009731137727665326,0.001136125675278635,-0.00048655965997963487,0.1697271168231964,-50.98386001586914,-7.586869239807129,17.50220489501953,1.7155863046646118,-1.3346054553985596,0.03941498324275017,,,,,,,,,
1739303843.4000542,-0.06419653033938078,1.0497903092352934,-0.40739223524015006,-1.4599718235946502,1.5511136711811817,1.1653655211875518,1.3420359711556977,0.0008573481308824705,-0.0022163086411901246,0.0008258249550229962,-0.0007668810662663058,0.00043110201228587733,0.00023863440856874887,-0.0014606312144407679,0.1697271168231964,-50.90848159790039,-7.610672950744629,17.52600860595703,1.7284036874771118,-1.3281967639923096,0.04673920199275017,,,,,,,,,
1739303843.4109602,-0.06419436271415534,1.0497940111857365,-0.40739627493548114,-1.4599718264965051,1.551110491584955,1.1653681828061566,1.3420391673754704,0.000986325556772924,0.0003016613326302271,-0.0005461538837733215,0.00027022561672225,-0.0017865963699360316,0.0008969437532341039,-5.943565499294361e-05,0.1697271168231964,-50.96005630493164,-7.586869239807129,17.52600860595703,1.7284036874771118,-1.3217880725860596,0.019273381680250168,,,,,,,,,
1739303843.4210384,-0.06419473276573164,1.04979511242364,-0.4073922373496912,-1.4599706768096778,1.5511088286726247,1.1653678207824307,1.3420327936734573,0.0013364575059385975,0.0002650710801172288,0.0003533107016602334,0.00035689182280632874,-0.0016969803308423675,0.0009736264322888201,-0.0028240440706336833,0.1419561207294464,-50.98386001586914,-7.610672950744629,17.50220489501953,1.7155863046646118,-1.3217880725860596,0.04673920199275017,,,,,,,,,
1739303843.4320176,-0.06419453576750855,1.0497923670158806,-0.407390154469193,-1.4599736225694708,1.5511115364214036,1.1653670094802173,1.3420352088991112,0.0009778670915524094,-0.00045243925091384093,0.0015860306056426636,-0.0005875036764093112,-0.0009744174396579113,-0.0007118477688026741,-0.004001217093430446,0.1419561207294464,-50.90848159790039,-7.638443946838379,17.55377960205078,1.7155863046646118,-1.3153793811798096,0.05314789339900017,,,,,,,,,
1739303843.442061,-0.06419824622575658,1.0497913245267085,-0.40739015457815697,-1.4599669941133628,1.5511120070998476,1.165368062142103,1.342035680549149,-0.001081217071087958,-0.0005867141187438498,0.0002388588085597273,0.001517072708774184,0.00014892504412755708,0.0008606852084105795,-0.001368476574839007,0.1935308277606964,-50.93228530883789,-7.638443946838379,17.50220489501953,1.7155863046646118,-1.3217880725860596,0.05314789339900017,,,,,,,,,
1739303843.4530177,-0.06419653370502537,1.0497963073793501,-0.4073883717921223,-1.4599696013899728,1.5511112557411442,1.1653689404848557,1.342041532884577,0.0007786436789655315,0.0010882888958962768,0.002078704732213489,0.0006446673196052051,0.0009481894762733276,0.0007410318968145818,5.871408297688466e-05,0.1697271168231964,-50.96005630493164,-7.662247657775879,17.52600860595703,1.7219949960708618,-1.3281967639923096,0.026597600430250168,,,,,,,,,
1739303843.4639852,-0.06419382088999195,1.0497936805873012,-0.40739401693601535,-1.4599739032590455,1.5511100343985729,1.1653689270213548,1.3420423508463226,0.0006731911274408954,0.0005151055372620133,7.82996067994406e-05,0.0008073692378307575,-0.001142054049658673,0.0009267868824068321,0.0012875478036987228,0.1419561207294464,-50.96005630493164,-7.586869239807129,17.55377960205078,1.7284036874771118,-1.3281967639923096,-0.0072769103571772575,,,,,,,,,
1739303843.4740262,-0.06419408144009528,1.049791332985498,-0.40739404767860304,-1.4599731601682158,1.5511128715384355,1.165365641705515,1.3420416362902237,0.0008064786863126025,-0.00116767101392141,0.000413822569133844,0.0002437298076434837,0.0003756495363929861,-0.0005982816474048076,0.00370902035039771,0.1697271168231964,-50.93228530883789,-7.586869239807129,17.55377960205078,1.7082620859146118,-1.3281967639923096,-0.0008682189509272575,,,,,,,,,
1739303843.4849696,-0.06419582174681411,1.049791664606969,-0.40739603803178703,-1.4599739059806882,1.5511112499269348,1.1653681783371699,1.3420458337129175,0.0004858951757616129,-0.0007461507186266856,-0.0013332885922941972,-0.00037466936631199576,0.0005019232972310573,0.00041701449511670876,0.0024840478862150736,0.1697271168231964,-50.93228530883789,-7.563065528869629,17.55377960205078,1.7219949960708618,-1.3217880725860596,-0.0008682189509272575,,,,,,,,,
1739303843.495024,-0.06419824621369949,1.049794022945167,-0.4073981266558244,-1.4599696014071817,1.5511116668102443,1.1653663256272206,1.3420431119518208,-0.0009237880229665294,0.0007052676021952688,-0.001868727642325383,0.0014255408367258486,0.00021763327621802318,0.00026624299657819635,0.001803095139365302,0.1935308277606964,-50.96005630493164,-7.535294532775879,17.52600860595703,1.7155863046646118,-1.3153793811798096,-0.013685601763427258,,,,,,,,,
1739303843.5050247,-0.06419610995860565,1.0497923679712395,-0.4073979483278728,-1.4599716859197374,1.5511120090348032,1.1653689398047433,1.3420393860540307,-0.0005359564573651797,-0.0003426183385455069,-0.0004939451927897363,0.0005478635531491983,-7.905171996279821e-06,0.0006956619938700713,0.0008088917500048354,0.1935308277606964,-50.90848159790039,-7.563065528869629,17.55377960205078,1.7155863046646118,-1.3281967639923096,0.019273381680250168,,,,,,,,,
1739303843.5160346,-0.06419824621369727,1.049794091820945,-0.40739223819571146,-1.459973909368021,1.5511136296907928,1.1653650450161748,1.3420418303387822,-0.0012491490323514147,-9.733014841179562e-05,1.6585858116238282e-05,-0.0005603739315878887,0.0007925860980660804,-0.0017460874717076709,0.0015741283570093394,0.1935308277606964,-50.96005630493164,-7.610672950744629,17.55377960205078,1.7018533945083618,-1.3089706897735596,0.03300629183650017,,,,,,,,,
1739303843.52703,-0.0641982462257565,1.049798032186924,-0.40739690444994,-1.459971745212125,1.551110490813309,1.165366166727895,1.342036834202985,-0.00010351310923078683,0.0007945920580483775,-0.0006790175088880517,-0.0007709423591501406,0.0002052345484075158,-0.0005176450451511314,-0.00011537873872994656,0.1935308277606964,-50.98386001586914,-7.586869239807129,17.52600860595703,1.7284036874771118,-1.3089706897735596,0.03941498324275017,,,,,,,,,
1739303843.5379434,-0.06419653366885485,1.0497926820023675,-0.40739412716776285,-1.4599729079445414,1.5511103745292893,1.1653681828226317,1.3420320702364543,0.0005762676458979116,-0.000885597763388574,0.0004089431178736224,0.0004032249781941511,0.0008404137201427641,0.00043050738441146577,-0.0029105547918085303,0.1697271168231964,-50.90848159790039,-7.586869239807129,17.55377960205078,1.7284036874771118,-1.3217880725860596,0.07969819009304047,,,,,,,,,
1739303843.5480175,-0.06419611428089841,1.0497964177638803,-0.4073932233654667,-1.459973906420207,1.551111249924952,1.165365548008279,1.3420392662168623,0.00011847502335241711,0.0021486238655898117,-0.0010998557891463683,0.0001566195956379393,-0.0005239931534168701,-3.389598436963039e-05,-0.0009491884899855575,0.1935308277606964,-50.96005630493164,-7.610672950744629,17.55377960205078,1.7219949960708618,-1.3281967639923096,0.019273381680250168,,,,,,,,,
1739303843.5589762,-0.06419453575213742,1.0497934206059572,-0.4073922342645798,-1.4599718266472608,1.551108071012558,1.1653670966772254,1.3420388189423962,0.0006502280017211771,-0.0001946828018346749,0.0007111730840196725,0.0007297051898147286,-0.0009508019412089554,3.395951267351854e-06,0.000336614546282983,0.1419561207294464,-50.93228530883789,-7.610672950744629,17.52600860595703,1.7219949960708618,-1.3217880725860596,0.026597600430250168,,,,,,,,,
1739303843.5699806,-0.0641966357578796,1.0497934030998406,-0.40739521004041035,-1.459971826647261,1.5511116543563692,1.165366573739205,1.3420322280838939,-0.0010503830169845516,-0.0004310762986640548,-8.551504600097927e-05,-0.00034558315703406674,0.00013179082374043782,-0.0011814360061436046,-0.002799089273915291,0.1697271168231964,-50.93228530883789,-7.610672950744629,17.52600860595703,1.7155863046646118,-1.3217880725860596,0.07969819009304047,,,,,,,,,
1739303843.5800486,-0.06419452861140913,1.0497898514468862,-0.40739794837408067,-1.4599714700388964,1.5511112499209638,1.1653664397311176,1.3420358664073602,0.0009252802264507641,-0.001784694439999618,-0.0018728236697623164,0.00036481387077342723,-2.0053775890994295e-05,0.0008396509440775253,-0.0015597918771901491,0.1697271168231964,-50.90848159790039,-7.563065528869629,17.52600860595703,1.7219949960708618,-1.3346054553985596,0.05955658480525017,,,,,,,,,
1739303843.5909913,-0.06419653367106892,1.0497957288461819,-0.40739990151602395,-1.4599731646843868,1.551112007587024,1.1653647634750173,1.3420342040138553,0.0009729452461959692,0.0009811553253887145,-0.0030902541780781275,0.0004906303531038764,2.4440687112386767e-05,-0.001912000389497082,-0.0005683217980167548,0.1697271168231964,-50.96005630493164,-7.511490821838379,17.55377960205078,1.7155863046646118,-1.3217880725860596,0.06596527993679047,,,,,,,,,
1739303843.6020358,-0.06419792991404417,1.0497916433474443,-0.4073932805110891,-1.459973906435721,1.5511113500604072,1.1653680616413857,1.3420380997213113,-9.22147061494755e-05,-8.57092531240102e-05,-0.0006509126812431034,0.0005126976519306733,-0.0013075237437854819,-0.0005107704820365003,0.0007488443834610347,0.1935308277606964,-50.93228530883789,-7.638443946838379,17.55377960205078,1.7219949960708618,-1.3217880725860596,0.03300629183650017,,,,,,,,,
1739303843.6129503,-0.06419719149157371,1.049794420017786,-0.4073901634624601,-1.4599756891141358,1.5511113619047152,1.165366667504618,1.3420384657322666,0.0014513392610131088,0.0003085307561287993,0.0009212423474670571,-0.001276936613577851,7.59107895534518e-05,-0.0010131088297147728,0.0008690213226560278,0.1935308277606964,-50.93228530883789,-7.638443946838379,17.57758331298828,1.7219949960708618,-1.3089706897735596,0.026597600430250168,,,,,,,,,
1739303843.6230218,-0.0641945357463103,1.049796387954419,-0.40739719988415757,-1.459970833581733,1.5511120075889204,1.165368934525981,1.342036918254713,0.0005748538182668472,-0.00022436345204826264,-0.001181528371270364,0.001646937123153419,0.0003142944852519664,0.0003652680614113146,4.536356055562371e-05,0.1419561207294464,-50.96005630493164,-7.586869239807129,17.52600860595703,1.7155863046646118,-1.3281967639923096,0.06596527993679047,,,,,,,,,
1739303843.6341069,-0.06419445633370753,1.049801992351709,-0.4073953341904932,-1.459975606681019,1.551111249926946,1.1653680426102482,1.3420385064669405,0.0011287244829883331,0.001290383718409715,-0.0002623592091056373,-0.0006374783037808266,0.0002660824004303045,-0.00029937728009585957,0.001335671861098912,0.1419561207294464,-51.00766372680664,-7.610672950744629,17.57758331298828,1.7219949960708618,-1.3217880725860596,0.05314789339900017,,,,,,,,,
1739303843.6441314,-0.0641965337036802,1.0497928592596526,-0.40739446870893203,-1.459976042932512,1.5511128734842565,1.1653696981432409,1.342034614307744,7.950593250474991e-05,-0.0015266838850344156,0.0010137016066231364,-0.0004288018556347486,0.0005800310405019805,0.00042749671297973447,-0.00044500417408464593,0.1697271168231964,-50.88071060180664,-7.610672950744629,17.55377960205078,1.7082620859146118,-1.3346054553985596,0.05955658480525017,,,,,,,,,
1739303843.6560478,-0.06419995484007146,1.049790713460145,-0.40739039332798943,-1.4599737975338845,1.5511096945698686,1.1653674245032073,1.3420433124717608,-0.0008691572590978148,-0.0017381552916575583,0.0010286073800893178,6.681747441490753e-05,0.0004309786128512591,-0.0011351257805664334,0.001520806893213936,0.2173345386981964,-50.88071060180664,-7.638443946838379,17.55377960205078,1.7082620859146118,-1.3153793811798096,0.012864691205322742,,,,,,,,,
1739303843.6670253,-0.06419628462275241,1.049794423766056,-0.40739133926385,-1.4599756769041088,1.5511136311383533,1.1653681813355683,1.3420426258682618,7.812454358893699e-05,4.3115562283541386e-05,0.0005968627299804384,-0.0007946021914064464,0.0009616560826715744,-0.00047146052228648743,0.003125890401848279,0.1697271168231964,-50.93228530883789,-7.662247657775879,17.57758331298828,1.7018533945083618,-1.3217880725860596,0.026597600430250168,,,,,,,,,
1739303843.677029,-0.06419824622153833,1.049796421858542,-0.4073954529055604,-1.4599738789648102,1.5511086363852895,1.1653678207824059,1.3420393704604094,-0.0005550574170961167,0.0005175913290013922,-0.00012201502730271844,-0.000204112230411671,-0.0018600213851526918,0.0003988000953788212,0.001356554322152842,0.1935308277606964,-50.96005630493164,-7.610672950744629,17.55377960205078,1.7082620859146118,-1.3217880725860596,0.019273381680250168,,,,,,,,,
1739303843.6879647,-0.0641955844818701,1.0497945036126215,-0.4073944106052715,-1.4599717951050655,1.5511103999320548,1.1653681823267852,1.3420408921691171,0.0009047776452663684,-0.000646960539565727,0.0009237775872091496,-0.0001854838267196288,-0.0007173299014878077,0.00034440621461875897,0.002330814085143615,0.1697271168231964,-50.93228530883789,-7.610672950744629,17.52600860595703,1.7018533945083618,-1.3217880725860596,0.0064559997990727425,,,,,,,,,
1739303843.6980903,-0.06419987962548279,1.0497982139625015,-0.40739122733509514,-1.4599752465505487,1.5511144018316445,1.1653681828254503,1.342034470837705,-0.0018490138522229106,0.00014286039029422383,0.0011159401167638422,-0.0013523036295337702,0.0005511101649630275,0.0006029811455709337,-0.0007398791007617189,0.2173345386981964,-50.98386001586914,-7.638443946838379,17.60138702392578,1.6954447031021118,-1.3217880725860596,0.05955658480525017,,,,,,,,,
1739303843.7089481,-0.06419994995660447,1.0497981343797251,-0.4073905572836504,-1.4599718266346995,1.551109445710764,1.1653689404303558,1.3420457979827995,-0.0012984079476854055,0.0007605463893318755,0.002667921749193917,0.0001864710666117517,-0.00023314053788357216,0.001318964458296289,0.004163891429138503,0.2173345386981964,-50.98386001586914,-7.662247657775879,17.52600860595703,1.7284036874771118,-1.3281967639923096,-0.027418512850999832,,,,,,,,,
1739303843.7189565,-0.06419895475009514,1.0497934266526978,-0.4073954528923175,-1.4599718266472608,1.5511135875201039,1.165364884211207,1.3420421054819935,-0.0008640682350741297,-0.001196893658781018,-0.00043855279692518484,0.0005966509040991486,0.0010399981623640643,-0.0006426075161409325,0.002026368088563077,0.1935308277606964,-50.90848159790039,-7.610672950744629,17.52600860595703,1.7018533945083618,-1.3217880725860596,-0.0008682189509272575,,,,,,,,,
1739303843.7290692,-0.06419653371702429,1.049798134391389,-0.4073976050544774,-1.459970043970242,1.5511117208764869,1.1653674251095179,1.3420378950471277,3.6081381314099527e-06,0.0008692386759956061,-0.0007461855384970165,0.001758087409212495,-0.0003069368733810828,0.0007332986732519048,-0.0010951888717348926,0.1697271168231964,-50.98386001586914,-7.610672950744629,17.50220489501953,1.7219949960708618,-1.3153793811798096,0.06596527993679047,,,,,,,,,
1739303843.74001,-0.06419995874648782,1.0497965696849036,-0.4073933731321075,-1.459971826647261,1.55111200549011,1.1653670966963758,1.3420338919190207,-0.0013128649575177215,-0.0005352961621343661,0.00031222350640014896,0.00043214602323768294,0.0009205150166838647,-0.00021178648640900324,-0.000884553627903596,0.2173345386981964,-50.93228530883789,-7.638443946838379,17.52600860595703,1.7155863046646118,-1.3217880725860596,0.07328949868679047,,,,,,,,,
1739303843.7509334,-0.06419653077521315,1.0497943555763052,-0.40739545258276544,-1.459973164690426,1.5511104922668557,1.1653666674991707,1.34203933308618,4.211252254889182e-05,-3.646378513165953e-05,0.0004617711807284094,0.0003494183689426866,-0.00019378320187340352,-0.0006656931878492365,0.00018910854452353955,0.1697271168231964,-50.96005630493164,-7.610672950744629,17.55377960205078,1.7284036874771118,-1.3089706897735596,0.019273381680250168,,,,,,,,,
1739303843.76099,-0.06419721786161961,1.0497944234627845,-0.40739337409201476,-1.4599739077327503,1.5511112499269457,1.1653673044843709,1.3420334459599237,0.0011425089138365732,-0.0006155023127073027,0.0014173105075297428,-5.2902042965265314e-05,-4.125776998526755e-05,-0.00045985152693526,-0.000602789685861005,0.1935308277606964,-50.93228530883789,-7.638443946838379,17.55377960205078,1.7219949960708618,-1.3153793811798096,0.05314789339900017,,,,,,,,,
1739303843.771088,-0.06419645458268014,1.0497964228396834,-0.40740114416286566,-1.4599718225773421,1.551113630659818,1.1653674251633366,1.3420370320353976,0.0005621463321343564,-0.0012717971737726118,-0.0006363171538949921,0.00029431298693121256,0.001536849659870933,0.00010783644694362072,-0.0007708325454219192,0.1697271168231964,-50.96005630493164,-7.563065528869629,17.52600860595703,1.7018533945083618,-1.3153793811798096,0.04673920199275017,,,,,,,,,
1739303843.7820222,-0.06419824622530991,1.0497946623362762,-0.40739553071367063,-1.4599739859099534,1.5511128720307035,1.1653674251653803,1.3420353283114872,-0.0006431873894915232,-0.0008589474916751159,0.0003859058431805578,0.0002503300339900608,0.0013132737231146918,-0.000471400546056043,-0.0011225555068388208,0.1935308277606964,-50.93228530883789,-7.610672950744629,17.55377960205078,1.7082620859146118,-1.3153793811798096,0.05314789339900017,,,,,,,,,
1739303843.7929769,-0.0641965336325161,1.0497958108398346,-0.40739159044337875,-1.4599677363143202,1.5511128734842483,1.1653689403199936,1.3420392533509238,-0.00011571136006420654,0.00021796801863839337,0.002294543887372851,0.0023672019283259346,0.00137898056394416,0.0003982889143523637,0.0003720937126532257,0.1697271168231964,-50.90848159790039,-7.662247657775879,17.50220489501953,1.7082620859146118,-1.3281967639923096,0.019273381680250168,,,,,,,,,
1739303843.8030095,-0.06419611006711619,1.049795386474815,-0.4073933731199586,-1.459973827906323,1.5511112499269457,1.1653674251653774,1.342038353968196,0.00012805209315913522,-0.00011451917743379681,0.0005198991193873955,0.00040609171251844965,-0.00033862626596045187,-0.0003026467603869888,-0.0012871756272156039,0.1935308277606964,-50.93228530883789,-7.638443946838379,17.55377960205078,1.7219949960708618,-1.3153793811798096,0.026597600430250168,,,,,,,,,
1739303843.813979,-0.06419452685416542,1.0497965696903373,-0.4073936793816495,-1.4599721444252025,1.5511104922668673,1.1653681828254587,1.3420420503996722,0.0014806505428891883,4.316019543946473e-05,0.001037065934847958,-0.0012022681125532044,0.0007931674343700291,0.00045815685900523623,0.00187828806195693,0.1419561207294464,-50.93228530883789,-7.638443946838379,17.52600860595703,1.7284036874771118,-1.3217880725860596,0.026597600430250168,,,,,,,,,
1739303843.824937,-0.06419443610962562,1.0497992838747532,-0.40739361808124264,-1.4599739064752493,1.5511112499269457,1.1653681828254587,1.3420388470111195,0.0015642092737308219,0.0005829718587563254,0.000808944305953336,-0.0005309511424728564,-0.0005583086974322959,-0.000495913441492269,0.0008486885425495888,0.1419561207294464,-50.96005630493164,-7.638443946838379,17.55377960205078,1.7219949960708618,-1.3217880725860596,0.05955658480525017,,,,,,,,,
1739303843.835996,-0.06419645459953302,1.049798369979588,-0.4073934082595727,-1.4599738698076505,1.5511101385696409,1.1653681783557917,1.3420352219145717,2.779996080176997e-05,-4.731892918340022e-05,-4.536849099281363e-05,-0.0001459190118591462,-0.0001465336392906661,-0.00018485779725005587,-0.00014222294822441696,0.1697271168231964,-50.98386001586914,-7.638443946838379,17.55377960205078,1.7284036874771118,-1.3217880725860596,0.026597600430250168,,,,,,,,,
1739303843.8460348,-0.06419581850397066,1.049792873290109,-0.40739723655949,-1.459974052213761,1.551109392101311,1.1653674251653046,1.3420359823127552,-0.0007335315827375912,-0.0013558240130018553,-0.0005085616652865704,-0.0004029613205634519,-0.0004184401859581399,1.4813684478109522e-06,-0.0016910930214368487,0.1697271168231964,-50.90848159790039,-7.586869239807129,17.52600860595703,1.7018533945083618,-1.3153793811798096,0.05955658480525017,,,,,,,,,
1739303843.856983,-0.06419792979392538,1.0497965696876452,-0.40739643274805143,-1.4599746215003986,1.5511116541410201,1.1653681291894546,1.342036273139059,0.0005092112416523357,-0.00118787352043164,-0.0003184736502773484,-0.0005472414283796091,0.0008222657713890675,0.0002266281723160674,-0.0013894936782583851,0.1935308277606964,-50.93228530883789,-7.610672950744629,17.55377960205078,1.7155863046646118,-1.3217880725860596,0.05314789339900017,,,,,,,,,
1739303843.8670192,-0.06419816603392486,1.0497992830389618,-0.4073972355923644,-1.459974504808429,1.551112402047465,1.1653673849380743,1.3420387026640876,-0.0003763274325009703,0.001873712411469932,0.0002577596350840982,-0.0005802789687446623,-0.0008082198501572163,-0.00043974027040401866,-0.0010212228846436845,0.1935308277606964,-50.96005630493164,-7.586869239807129,17.60138702392578,1.7082620859146118,-1.3153793811798096,0.026597600430250168,,,,,,,,,
1739303843.8780348,-0.0641953295855677,1.049794423933843,-0.4073975788088111,-1.4599726348546127,1.5511098369119398,1.1653674251651531,1.342041521578527,0.00014508925034532853,-0.0017399205447266686,-0.0007401732344028714,-0.0003679987200645189,-0.0018505596457769685,-4.672397478590768e-05,0.0006488202292232403,0.1697271168231964,-50.93228530883789,-7.610672950744629,17.55377960205078,1.7219949960708618,-1.3153793811798096,0.026597600430250168,,,,,,,,,
1739303843.888062,-0.06419655993030013,1.0497966491577635,-0.4073955777919577,-1.4599739818185014,1.551110609495991,1.1653674251653803,1.342036832886915,-0.00032039218338130164,-0.0006893764748607283,0.0005572085465844264,-0.0001154402096193861,-0.0007445043788410204,0.0006945837247079895,0.0007531146146963674,0.1697271168231964,-50.93228530883789,-7.638443946838379,17.55377960205078,1.7284036874771118,-1.3153793811798096,0.03941498324275017,,,,,,,,,
1739303843.8990128,-0.06419652361359801,1.0497964261227406,-0.40739723559927865,-1.4599738985883708,1.5511120075876859,1.1653674117563793,1.3420407694076377,0.0004269604597351592,0.0004740099429405431,-0.0011056121917002461,-0.0002933435609547632,0.0007234413583814994,0.00023282929289931628,-0.0004163483605440527,0.1697271168231964,-50.96005630493164,-7.586869239807129,17.55377960205078,1.7155863046646118,-1.3153793811798096,0.03300629183650017,,,,,,,,,
1739303843.9099512,-0.06419429239862423,1.0497990968839341,-0.40739616294690234,-1.459974511804411,1.5511168086051728,1.1653674206956375,1.3420383501093398,0.0011697588934926114,0.0006072888369468362,-0.0007500307025749017,0.0002369725975368723,0.0024487459948351717,-0.00024624001371643245,-0.0008224993141311542,0.1697271168231964,-50.98386001586914,-7.610672950744629,17.55377960205078,1.7018533945083618,-1.3153793811798096,0.026597600430250168,,,,,,,,,
1739303843.9199622,-0.06419539540460159,1.0497964513418374,-0.40739724437146235,-1.4599739094113118,1.551111536798176,1.1653674251651531,1.342042586544446,-0.00033789447088149405,0.0008831007962577185,-5.726843869623409e-05,-0.0008366081005532696,0.0005037648628435185,0.0002639494435341549,0.0009150704995674613,0.1935308277606964,-50.96005630493164,-7.586869239807129,17.55377960205078,1.7155863046646118,-1.3153793811798096,0.026597600430250168,,,,,,,,,
1739303843.9300466,-0.06419439785582795,1.049800518601572,-0.40739159919154466,-1.4599718276284241,1.5511103346347608,1.1653681828254587,1.342041962124779,0.0003403114563543821,0.001613409988120993,0.0015507916175766206,0.00015105656445127237,-0.0006868057613486652,-4.648673760223091e-05,0.0007703318844289449,0.1697271168231964,-50.98386001586914,-7.662247657775879,17.52600860595703,1.7284036874771118,-1.3217880725860596,-0.0008682189509272575,,,,,,,,,
1739303843.9409742,-0.06419745483886699,1.0497973784897594,-0.4073975003080625,-1.4599660360531568,1.5511124009554202,1.1653674251653803,1.3420391739498903,0.0011774699988093779,0.00035489130591828384,-0.0002702884952831062,0.0014623449875879096,-0.0011854298985088541,-0.00017621101397994113,0.0013774348563690023,0.1935308277606964,-50.96005630493164,-7.610672950744629,17.47840118408203,1.7018533945083618,-1.3153793811798096,0.03300629183650017,,,,,,,,,
1739303843.9510474,-0.06419995775648148,1.0497966504821592,-0.4073905122396891,-1.4599718264965225,1.551109380280096,1.1653681828254587,1.3420336027897406,-0.0011065696924199829,0.00018612457213500725,0.0020227438478167452,0.00010576584823583009,-0.000658879796818982,0.00036260587378101825,-0.0011846041648623704,0.2173345386981964,-50.93228530883789,-7.638443946838379,17.52600860595703,1.7284036874771118,-1.3217880725860596,0.07969819009304047,,,,,,,,,
1739303843.9620683,-0.06419824492361222,1.0497972841537573,-0.4074000713624229,-1.4599739064371158,1.551111092937242,1.1653674246687504,1.342033181602402,-0.00030720760802268297,-0.0004961305980094141,-0.002436804862794811,-0.0007398669849481603,-0.00041755923607254337,6.159817125335091e-05,-0.0023509230696091296,0.1935308277606964,-50.93228530883789,-7.586869239807129,17.55377960205078,1.7219949960708618,-1.3153793811798096,0.07328949868679047,,,,,,,,,
1739303843.9730282,-0.06419824622574921,1.0497945300066671,-0.40739432672852083,-1.4599738899981738,1.5511088286179147,1.165368940485534,1.3420374594479565,-0.0007626061139917224,0.00023044120025599696,0.0004014347949417318,0.0002119421407795663,-0.0007538852278639045,0.000863843529235999,-0.0007583414343633217,0.1935308277606964,-50.93228530883789,-7.638443946838379,17.52600860595703,1.7155863046646118,-1.3281967639923096,0.07328949868679047,,,,,,,,,
1739303843.9830563,-0.06419516113349458,1.049799596632111,-0.4073963977699622,-1.459973897314693,1.5511135845768909,1.165368940485537,1.3420415274691617,-4.592742214918743e-06,0.00018585915391761663,7.926543852856145e-05,-0.0008748069315316398,0.0012703375964794573,0.0005588478410429112,-0.0017571836291330912,0.1935308277606964,-50.96005630493164,-7.610672950744629,17.55377960205078,1.7018533945083618,-1.3281967639923096,0.026597600430250168,,,,,,,,,
1739303843.9939423,-0.06419453574675688,1.0497948602345495,-0.40739547908780055,-1.459972835134195,1.5511128734839936,1.16536818083894,1.3420304529958011,0.00046003313023709687,-0.0014115193338922467,0.0007721000073179096,0.0003104550729809111,0.0019468559201834487,-0.0006335104889240114,-0.00322849795130025,0.1419561207294464,-50.90848159790039,-7.610672950744629,17.55377960205078,1.7082620859146118,-1.3217880725860596,0.09343110024929047,,,,,,,,,
1739303844.0040452,-0.06419824622575626,1.049801313439071,-0.40739337322840874,-1.4599718248848579,1.5511104791849153,1.1653689404855032,1.342034753431993,-0.0006625179071083212,0.001976961781285936,0.0009588874488705389,-6.395069089397724e-05,-0.0004207945218553065,0.0004040177042165898,-0.003355259995207514,0.1935308277606964,-50.98386001586914,-7.638443946838379,17.52600860595703,1.7284036874771118,-1.3281967639923096,0.06596527993679047,,,,,,,,,
1739303844.0160058,-0.06419813196308019,1.0497995345453262,-0.4073933731199592,-1.4599700439702321,1.5511104908132434,1.1653674251653803,1.3420359536984616,0.00011871411557307489,0.0011759991829921504,0.0010236364530884032,0.0011446820971940984,-0.0008478989670433026,8.486051609773106e-05,-0.001728734591654216,0.1935308277606964,-50.96005630493164,-7.638443946838379,17.50220489501953,1.7284036874771118,-1.3153793811798096,0.04673920199275017,,,,,,,,,
1739303844.0260427,-0.0641944566585975,1.0497951758204664,-0.40739936440201535,-1.4599715424297361,1.5511104932358926,1.1653681828254587,1.3420396848392595,0.0006302394923283481,0.000291878717466425,-0.00013593979115400582,0.0005499029412355679,0.00038009399559811775,0.000471908229993481,0.0005989327625913227,0.1419561207294464,-50.93228530883789,-7.586869239807129,17.52600860595703,1.7284036874771118,-1.3217880725860596,0.019273381680250168,,,,,,,,,
1739303844.0360525,-0.06419368560067841,1.0497927114096939,-0.40739545337789324,-1.4599719061153074,1.5511144768085086,1.1653648037572018,1.3420345037900598,0.0009546937252472125,-0.0020109616731844764,0.001297999862697854,9.400732993508515e-05,0.0008802513436564436,-0.0006010280309737514,-0.000792092938961407,0.1697271168231964,-50.90848159790039,-7.610672950744629,17.52600860595703,1.7219949960708618,-1.3217880725860596,0.05955658480525017,,,,,,,,,
1739303844.0470035,-0.064197110916767,1.049790978474656,-0.4073943745638866,-1.459972076500884,1.551112006205525,1.1653666674310459,1.3420383481536222,-0.0006467487789173002,-0.0020017203760811365,0.0009919711600549252,-0.0009558824607038284,0.0004206431330613556,-0.0001693718800833259,0.00024559043861785,0.2173345386981964,-50.88071060180664,-7.586869239807129,17.52600860595703,1.7155863046646118,-1.3089706897735596,0.026597600430250168,,,,,,,,,
1739303844.0580335,-0.06419824620968048,1.049794967199422,-0.4073954528936636,-1.4599718266486714,1.551110594682342,1.1653674251653798,1.3420368516216536,-0.0013701936978506133,-0.0018858063238610199,9.886537451757224e-05,0.0008531454237571746,-9.327537083256141e-05,-0.00029598108693614997,-0.000611169952639106,0.1935308277606964,-50.90848159790039,-7.610672950744629,17.52600860595703,1.7155863046646118,-1.3153793811798096,0.03941498324275017,,,,,,,,,
1739303844.0680382,-0.06419366480796813,1.049801243016373,-0.4073972618324995,-1.459971826647261,1.5511120075630964,1.1653674251653803,1.3420338115316475,0.0008807945744329227,0.0007934804551696507,-0.00010341198577250689,0.0005366887881920519,0.001011965090545428,4.1752293638539796e-05,0.0001005706550154133,0.1419561207294464,-50.98386001586914,-7.586869239807129,17.52600860595703,1.7155863046646118,-1.3153793811798096,0.06596527993679047,,,,,,,,,
1739303844.0780485,-0.06419987962680825,1.0497986829085972,-0.4073932315584339,-1.4599739023671758,1.551110492266867,1.1653681828254587,1.342037556781985,-0.0006869118628838793,-0.0005776033808927086,0.0009122938860409972,0.000267985809781862,0.00042631988367726296,0.00044327706840993934,-0.0010783623050968291,0.2173345386981964,-50.96005630493164,-7.610672950744629,17.55377960205078,1.7284036874771118,-1.3217880725860596,0.07328949868679047,,,,,,,,,
1739303844.088942,-0.06419779524248798,1.0497996403949406,-0.4073954528972745,-1.459971826534184,1.551112007587024,1.1653681828254587,1.3420364821485373,0.00014238007803377627,0.0012511516540584964,0.0008109727455053544,-0.00014690178818898425,0.0009437074277681511,0.00031243102673270985,-0.0017763021248708472,0.2173345386981964,-50.96005630493164,-7.610672950744629,17.52600860595703,1.7155863046646118,-1.3217880725860596,0.07328949868679047,,,,,,,,,
1739303844.099022,-0.06419653366838624,1.0497976396250683,-0.40739545290981394,-1.4599739358715071,1.5511104530210107,1.1653681828254587,1.3420409963638305,-0.0009354833507051644,0.0015858897842746665,7.128558315466486e-05,-0.00041485411051967635,0.00022914411105206265,0.0005909337342574507,3.351757034052421e-05,0.1697271168231964,-50.93228530883789,-7.610672950744629,17.55377960205078,1.7284036874771118,-1.3217880725860596,0.012864691205322742,,,,,,,,,
1739303844.110024,-0.06419629639023577,1.0497969268403518,-0.40739545290981416,-1.4599693541584586,1.5511109429420002,1.1653681813355696,1.3420353661574005,-2.1235534694705134e-05,0.00013724447881279387,0.00033934944826908946,0.0011742848530486008,-0.00023344335971137053,-0.0010760728814007026,-0.0005449402579490803,0.1697271168231964,-50.93228530883789,-7.610672950744629,17.52600860595703,1.7155863046646118,-1.3217880725860596,0.05314789339900017,,,,,,,,,
1739303844.1209593,-0.06419823699825472,1.0498005274377717,-0.40739545290981416,-1.4599697966794734,1.5511127415535546,1.165367425165355,1.3420408876487364,-0.00023006342216408987,5.539752488914842e-05,0.00027189950172793175,0.0015078084090929598,0.0015052672020225836,-2.504646093217609e-05,0.0016469781149577726,0.1935308277606964,-50.98386001586914,-7.610672950744629,17.50220489501953,1.7018533945083618,-1.3153793811798096,0.0064559997990727425,,,,,,,,,
1739303844.1319366,-0.06419653370497327,1.0498013530254333,-0.40739909700085214,-1.4599757684348609,1.551114387345841,1.1653681813355696,1.342037242789069,0.00010811507048071514,0.0005288200183813504,-0.0009432599588320702,-0.0013319401699692828,0.0021578657797426686,-7.490218610922212e-05,2.1014333702958033e-05,0.1697271168231964,-50.98386001586914,-7.563065528869629,17.57758331298828,1.6954447031021118,-1.3217880725860596,0.03941498324275017,,,,,,,,,
1739303844.1420233,-0.06419653370502537,1.0497996140184092,-0.4073990185883173,-1.4599718276288551,1.5511112499269377,1.1653681828254503,1.3420421825838018,0.0005539447404885629,0.0007365742990701031,0.00038383823046455776,-0.00039965373743251417,-0.00027720644604693344,0.00041286978115949175,0.0003652948792010437,0.1697271168231964,-50.96005630493164,-7.563065528869629,17.52600860595703,1.7219949960708618,-1.3217880725860596,0.03300629183650017,,,,,,,,,
1739303844.1520371,-0.0641982201814672,1.0497992951453754,-0.4073954529098196,-1.4599718266472774,1.5511128733227508,1.165366667505302,1.3420436101487898,-8.301152191502983e-05,-0.0006550602396652043,-0.00032102010176530667,0.0006700200312125432,0.0009806007627146565,0.00029064013827252786,0.003384232771923839,0.1935308277606964,-50.96005630493164,-7.610672950744629,17.52600860595703,1.7082620859146118,-1.3089706897735596,0.019273381680250168,,,,,,,,,
1739303844.1630247,-0.06419653370487835,1.0497996365828273,-0.4073973143238331,-1.459971830341701,1.551110594736184,1.1653681828254587,1.3420400306685283,-0.000653266982670885,-0.0003534701714126323,-0.0008123223135884872,4.654946508783706e-05,-0.0006559559508578377,0.0001272305605031628,0.00021274086639287693,0.1697271168231964,-50.96005630493164,-7.586869239807129,17.52600860595703,1.7155863046646118,-1.3217880725860596,0.03941498324275017,,,,,,,,,
1739303844.1730928,-0.06419653370502537,1.0497975630955834,-0.4073954530191544,-1.4599672681147036,1.551110439124068,1.1653674251653803,1.3420415274448843,-0.0009700606416833652,-0.0003572088424145697,6.673036638266621e-05,0.0008740349471087063,-0.002056382214975095,-3.428814158293027e-05,0.0010386183036187203,0.1697271168231964,-50.93228530883789,-7.610672950744629,17.47840118408203,1.7018533945083618,-1.3153793811798096,0.026597600430250168,,,,,,,,,
1739303844.1840055,-0.06419652480707716,1.0497949762630998,-0.40739902744443707,-1.4599735433301042,1.5511120395110722,1.1653673849383772,1.34204072942445,-0.00033087537064063164,-0.0005850177857543103,-0.0019484573542833923,-0.0008009100266521593,0.0010883645463986525,-7.323215612206584e-05,0.00016859543020675792,0.1697271168231964,-50.90848159790039,-7.563065528869629,17.57758331298828,1.7155863046646118,-1.3153793811798096,0.0064559997990727425,,,,,,,,,
1739303844.194009,-0.06419239978633555,1.0497973245626704,-0.4073972356228873,-1.459973905177373,1.551111249927126,1.1653674251651531,1.3420399910911986,0.0005875102390369301,-0.00031482179265744745,0.00015102707163490014,0.0002096967945002849,-8.306496956387677e-05,7.272497515993054e-05,0.0003511212222544203,0.1419561207294464,-50.93228530883789,-7.586869239807129,17.55377960205078,1.7219949960708618,-1.3153793811798096,0.012864691205322742,,,,,,,,,
1739303844.2049408,-0.06419228272652162,1.049795205959928,-0.4073993526555126,-1.459973897279743,1.551111092889684,1.1653681828254587,1.3420368327256098,0.001767803086270813,-0.0015320652135445189,-0.00032747487253031234,-0.000997466279619561,-0.0018082077103927958,-0.000317189047463123,-0.0016078215813561023,0.1419561207294464,-50.90848159790039,-7.586869239807129,17.55377960205078,1.7219949960708618,-1.3217880725860596,0.03941498324275017,,,,,,,,,
1739303844.214997,-0.06419067858328066,1.0497996404971,-0.40739794522774664,-1.4599739064369615,1.5511120032237138,1.1653678207824312,1.3420449490927733,0.0019046485886174294,0.0005754156564617268,-0.0007129544638666445,-0.00033662546409996084,-0.00042168582572944997,-0.00030919842487945985,0.0021078725401242906,0.11815241724252701,-50.96005630493164,-7.586869239807129,17.55377960205078,1.7155863046646118,-1.3217880725860596,-0.0008682189509272575,,,,,,,,,
1739303844.22598,-0.06419570748587416,1.0497996403276686,-0.40739545402989097,-1.459975690095282,1.5511120075869995,1.1653674201970399,1.3420416976903788,0.0012612377674021172,0.0005242954537112442,0.00016432445540879735,-0.001443569545993595,-0.0006748115093652671,-0.0006266927175414456,0.0008365294240162242,0.1697271168231964,-50.96005630493164,-7.610672950744629,17.57758331298828,1.7155863046646118,-1.3153793811798096,0.026597600430250168,,,,,,,,,
1739303844.2360055,-0.06419645458610349,1.0497969233881834,-0.40739747179785185,-1.4599700439702585,1.5511130672251534,1.165366667505218,1.3420368857022231,1.6342635885119598e-05,-0.0011016955576173344,6.889338498969273e-05,0.0008735985498591571,0.0015044790140511994,-0.0003378873823491115,-0.0005070650192403483,0.1697271168231964,-50.93228530883789,-7.586869239807129,17.50220489501953,1.7155863046646118,-1.3089706897735596,0.03941498324275017,,,,,,,,,
1739303844.2460232,-0.06419645459875568,1.0497993226057443,-0.407395532622876,-1.4599717442309619,1.5511128730176846,1.1653674251653803,1.3420369508946492,0.0010395331102207987,-0.0001134127427011995,0.0008656745282895527,0.0004426004604049169,0.0008562839020058842,0.00034358655339171765,-0.0006809857284924633,0.1697271168231964,-50.96005630493164,-7.610672950744629,17.52600860595703,1.7082620859146118,-1.3153793811798096,0.03941498324275017,,,,,,,,,
1739303844.256038,-0.06419461449983253,1.049803062602002,-0.40739545582734926,-1.4599718263067034,1.5511120114631503,1.165366667505302,1.342037186370893,0.00042908347535185925,0.0019869106111044684,0.001697292966882917,-0.0003189914695930651,0.0002921874918082641,-2.5951457634699636e-06,-0.0005820638255049386,0.1419561207294464,-51.00766372680664,-7.610672950744629,17.52600860595703,1.7155863046646118,-1.3089706897735596,0.03941498324275017,,,,,,,,,
1739303844.2669752,-0.06419453543908209,1.049799640509346,-0.4073946895119,-1.459972065065838,1.551112755585203,1.1653681828254587,1.3420356802281355,9.912308778345846e-05,-0.00025886113617043874,-0.0002997387381513321,-0.0009473859302453349,0.0014182441818343895,-0.0007452943461691717,-0.0018378083253167612,0.1419561207294464,-50.96005630493164,-7.586869239807129,17.52600860595703,1.7082620859146118,-1.3217880725860596,0.05314789339900017,,,,,,,,,
1739303844.277037,-0.06419365858263326,1.0498010880115451,-0.40739829895441654,-1.4599699337467194,1.551112008554061,1.1653685784425094,1.3420360239553868,0.0012060970718392784,-0.00043538764623357194,-0.0003529323742775261,-9.289166016663761e-05,0.001176326318539677,-6.3888101079808e-05,-0.0023439384621000226,0.1697271168231964,-50.98386001586914,-7.610672950744629,17.50220489501953,1.7155863046646118,-1.3281967639923096,0.04673920199275017,,,,,,,,,
1739303844.2880275,-0.06419653368879522,1.0498013265013058,-0.4073985499145424,-1.459973906763543,1.5511112106810947,1.165367492311383,1.342036040888913,0.00018170126588082472,0.0013488088072155147,-0.0008349850069081245,-0.0001800491644617123,-0.0010244869296509441,-0.0012323285753393619,-0.0008403724109008116,0.1697271168231964,-50.98386001586914,-7.610672950744629,17.55377960205078,1.7219949960708618,-1.3281967639923096,0.07328949868679047,,,,,,,,,
1739303844.2989595,-0.06419350740008489,1.0497976661158737,-0.407397581742479,-1.4599718266472628,1.5511104772466267,1.165368180830765,1.3420367964093598,-2.7936348719240765e-05,-5.777964160383841e-05,-0.00022032162287488285,8.780325622023368e-05,-0.00027019875218948087,0.0002473422015294919,-8.325068267664757e-05,0.1419561207294464,-50.93228530883789,-7.610672950744629,17.52600860595703,1.7284036874771118,-1.3217880725860596,0.05314789339900017,,,,,,,,,
1739303844.309004,-0.06419856990489622,1.0498010350300373,-0.407397245667523,-1.459973903384661,1.5511130672248992,1.1653674251653465,1.342040501152709,-0.0009170937816458625,5.775495838363355e-05,-0.0006601436453622966,-3.821539224939574e-05,0.0011900249773438014,-0.0003904271943163953,0.0021810242848589213,0.1935308277606964,-50.98386001586914,-7.586869239807129,17.55377960205078,1.7155863046646118,-1.3153793811798096,0.012864691205322742,,,,,,,,,
1739303844.3199427,-0.0641965424554081,1.0498006381722875,-0.4073926578642782,-1.4599738942272773,1.5511112455722769,1.1653681828254587,1.342041202762905,-0.000664873473006457,0.0006548286503987131,0.000868288602864395,-0.0009074683653490119,0.0007416842773094636,-0.0003976955577075921,0.0012522912130935576,0.1697271168231964,-50.98386001586914,-7.638443946838379,17.55377960205078,1.7219949960708618,-1.3217880725860596,0.012864691205322742,,,,,,,,,
1739303844.3300307,-0.06419653272856948,1.0497974858997265,-0.4073982903458824,-1.459971826647054,1.5511109097961147,1.165366667505302,1.3420410976241852,0.0008140588143712144,-0.0011540091390577734,-0.00031517422084650584,3.535601675385238e-05,-0.00019791047359468358,-0.0006352605197650106,0.0029282892080738643,0.1697271168231964,-50.96005630493164,-7.610672950744629,17.52600860595703,1.7219949960708618,-1.3089706897735596,0.0064559997990727425,,,,,,,,,
1739303844.3409517,-0.06419653370500883,1.0497959270678505,-0.4073914942477961,-1.4599739064371167,1.5511120075812639,1.1653681828254587,1.3420385070810594,-0.00023374513072667684,-0.0006608675353983051,0.0023723102179830104,0.0009842386363550894,-0.0001822503001058098,0.00010159471687438607,-0.00018561188543374403,0.1697271168231964,-50.90848159790039,-7.662247657775879,17.55377960205078,1.7155863046646118,-1.3217880725860596,0.026597600430250168,,,,,,,,,
1739303844.3520122,-0.064196419442349,1.0497976427138478,-0.4073997280123791,-1.4599716810463064,1.5511138158693325,1.165368940485537,1.342041201253428,0.000513910669993925,-0.00019724225503390744,-0.0009721516063849974,-0.00020180919927295806,0.0007449561151925696,0.00047318878483518397,0.0014616172649860996,0.1697271168231964,-50.93228530883789,-7.563065528869629,17.55377960205078,1.7082620859146118,-1.3281967639923096,0.012864691205322742,,,,,,,,,
1739303844.3620236,-0.0641943627122393,1.049797642568512,-0.40739419841238445,-1.459971681046304,1.5511117615342775,1.1653696981456154,1.3420401416352257,0.0008188680662279142,-0.0007955224926692068,0.00023242522992146172,0.0004987442504982374,0.0004341116831293193,0.0004398421357454863,0.0011540562884534904,0.1697271168231964,-50.93228530883789,-7.638443946838379,17.55377960205078,1.7082620859146118,-1.3346054553985596,0.012864691205322742,,,,,,,,,
1739303844.373003,-0.06419824620961462,1.0497976425685096,-0.40739631204798327,-1.4599739064203676,1.5511104920494343,1.1653681694164577,1.3420398146617105,-0.0002628564355813506,7.901426992841163e-05,-0.0002816498706215627,-0.0005197948286879922,0.00022939122264430242,0.00040225893721737674,0.001361288470229723,0.1935308277606964,-50.93228530883789,-7.586869239807129,17.55377960205078,1.7284036874771118,-1.3217880725860596,0.05314789339900017,,,,,,,,,
1739303844.383027,-0.06419722185792273,1.0497976386439238,-0.4073955320632012,-1.4599719061201204,1.5511128676700519,1.1653680621442224,1.3420400641533623,-7.291376021330287e-05,-0.00011947811941388869,0.0001075193003899251,-0.0005258031422248564,-0.00016946811718900423,-0.00014223022500913215,0.0021659110420476943,0.1935308277606964,-50.93228530883789,-7.610672950744629,17.52600860595703,1.7082620859146118,-1.3217880725860596,0.03941498324275017,,,,,,,,,
1739303844.3940425,-0.06419653369924277,1.0498013530300716,-0.40739899310543043,-1.459975670435118,1.5511118157841612,1.1653666675046208,1.3420412134210793,1.7784730817197413e-05,0.0012094860530945132,-0.0014489027075965102,-0.0005694029503927044,0.0008935874424431646,-0.00030709790094959807,0.0026265079600145337,0.1697271168231964,-50.98386001586914,-7.563065528869629,17.57758331298828,1.7082620859146118,-1.3089706897735596,0.0064559997990727425,,,,,,,,,
1739303844.4050229,-0.06419994995705108,1.0497976425685096,-0.4073932773086483,-1.4599756920574696,1.5511112484674248,1.165366667505302,1.3420346091402928,-0.001524512480428848,-0.00025615595681038525,0.001370250569705223,-0.0015346395614500947,4.3825074215636046e-05,-0.00040115776947197444,-0.0018682829494973095,0.2173345386981964,-50.93228530883789,-7.638443946838379,17.57758331298828,1.7219949960708618,-1.3089706897735596,0.05955658480525017,,,,,,,,,
1739303844.4159482,-0.06419995860175606,1.0497981194056678,-0.40739727072452364,-1.4599700439702585,1.5511111321893678,1.1653674251653803,1.3420377399615628,-0.0009338770206689232,-0.0002798140125932244,-0.00013062444284919994,0.0007460076490955771,7.34818276342895e-05,-0.00011217067196804615,-0.00048506256654560684,0.2173345386981964,-50.93228530883789,-7.586869239807129,17.50220489501953,1.7219949960708618,-1.3153793811798096,0.05314789339900017,,,,,,,,,
1739303844.4269946,-0.0641945357641715,1.0497976546720071,-0.4073954529100125,-1.4599739065461328,1.551109392591153,1.1653674251653803,1.342035226786584,0.0007149535516361928,-0.0007847755438622025,0.0006210397833365342,-8.289408660842275e-05,-0.0008509115872785474,-0.0005848727281986634,-0.0014040555498631114,0.1419561207294464,-50.93228530883789,-7.610672950744629,17.55377960205078,1.7018533945083618,-1.3153793811798096,0.05314789339900017,,,,,,,,,
1739303844.4380105,-0.06419995874648776,1.0497949763735304,-0.4073964100635664,-1.459971826609577,1.5511143887804864,1.165368940485537,1.3420358702809208,-0.001519050832227376,-0.0011767355984739652,-0.0014361507299146276,0.0004540001241832843,0.0011405490179738072,2.0582856074514066e-05,-0.0008211158014964438,0.2173345386981964,-50.90848159790039,-7.610672950744629,17.52600860595703,1.6954447031021118,-1.3281967639923096,0.05955658480525017,,,,,,,,,
1739303844.4490154,-0.06419816712082677,1.049795496785147,-0.4073972356030427,-1.4599718266472603,1.5511097847482975,1.16536597699327,1.342038298664964,0.0002849101752814646,-0.001210044870139108,0.0005756130238062812,-0.00023393231008616883,-0.001612409253733779,-0.0009545164586204176,-0.0021639016939253852,0.1935308277606964,-50.93228530883789,-7.586869239807129,17.52600860595703,1.7219949960708618,-1.3153793811798096,0.06596527993679047,,,,,,,,,
1739303844.4590461,-0.06419821985700008,1.049799614042635,-0.40739618778847986,-1.4599718308988954,1.5511107397225385,1.1653674251572053,1.3420396230176475,-0.0003426498765645392,8.77257136395996e-06,-0.0004864268464110928,0.0009126064087175783,-0.0009162184390808809,-0.0011081534289393475,2.821414182613414e-05,0.1935308277606964,-50.96005630493164,-7.610672950744629,17.52600860595703,1.7219949960708618,-1.3153793811798096,0.04673920199275017,731,731,754,39.762,0,0
1739303844.4700117,-0.06419381459617242,1.049797536604547,-0.4073981804349803,-1.4599739064371406,1.5511107513024962,1.1653681828254587,1.3420451297723566,0.0018161590378977853,-0.0011159023745831512,-0.00043080504915557916,-0.0005035238871923049,-0.0008218897350692313,0.0002608466877796821,0.0022665354973833603,0.1419561207294464,-50.93228530883789,-7.586869239807129,17.55377960205078,1.7219949960708618,-1.3217880725860596,0.0064559997990727425,731,730,754,39.762,0,0
1739303844.480926,-0.06419621728123517,1.0497978811318454,-0.4073954530938134,-1.4599682246637569,1.5511112497087904,1.1653674206957132,1.3420448924829893,0.00018082904037577133,-0.0009721266436998154,0.00110027455106608,0.0010764503009557309,0.0007453126680319318,-0.0003996479110756126,0.0015672016006153583,0.1697271168231964,-50.93228530883789,-7.610672950744629,17.47840118408203,1.7219949960708618,-1.3153793811798096,-0.0008682189509272575,730,730,751,39.871,0,0
1739303844.491003,-0.0641965336996667,1.049803100549087,-0.4073954996639716,-1.4599718225766998,1.5511120599148291,1.165368182825383,1.3420352621440261,0.0005500138289200185,0.001617695265237888,0.0006070249441532108,0.00118797666601107,0.001462158973031476,0.00035002903302317124,-0.0005577468880167086,0.1697271168231964,-51.00766372680664,-7.638443946838379,17.52600860595703,1.7155863046646118,-1.3217880725860596,0.05314789339900017,730,731,754,39.871,1,0
1739303844.502006,-0.064194547428913,1.0497978809872863,-0.4073934522289857,-1.459971838420995,1.5511051428418576,1.1653681828254587,1.3420297302032798,0.001375123653397405,-0.0007168530628189674,0.0014123625455909334,0.0007053409421878379,-0.0021093048648975605,2.346278971884958e-05,-0.0026019759433435507,0.1419561207294464,-50.93228530883789,-7.638443946838379,17.52600860595703,1.7348123788833618,-1.3217880725860596,0.09983979165554047,731,730,755,39.979,0,0
1739303844.5129972,-0.06419611428096486,1.0497996405107084,-0.4073972394755267,-1.4599757689141106,1.5511112499010251,1.1653681827702775,1.34203919074911,5.638582688994383e-05,0.0003010823639120083,-0.0007962637191585405,-0.0016385710920666595,0.0008360119233337634,0.0005021435097640424,0.0009907865533966796,0.1935308277606964,-50.96005630493164,-7.586869239807129,17.57758331298828,1.7219949960708618,-1.3217880725860596,0.04673920199275017,731,731,755,39.762,1,0
1739303844.5239544,-0.06419653369299047,1.049797670367658,-0.40739330583442895,-1.459975689114586,1.5511136179008769,1.1653649110292097,1.3420388733876818,-0.00022969235312715288,2.2130731547698158e-05,0.000618042563289163,-0.0005277175827303944,0.001158371673549367,-0.0004826942690192841,0.00027656368326589494,0.1697271168231964,-50.93228530883789,-7.610672950744629,17.57758331298828,1.7018533945083618,-1.3217880725860596,0.026597600430250168,731,730,753,39.871,1,0
1739303844.5340471,-0.06419824752183867,1.0497996140188801,-0.40739933317549093,-1.459970043970242,1.551112873484032,1.1653681425430475,1.3420447159459223,-0.0007030400801235686,0.0004180584451242544,-0.0027653240256691578,0.0006797078132467148,-0.00019475720915427213,-1.4115984027576961e-05,0.003294330930500286,0.1935308277606964,-50.96005630493164,-7.563065528869629,17.50220489501953,1.7082620859146118,-1.3217880725860596,0.012864691205322742,731,731,754,39.654,0,0
1739303844.5450022,-0.0641962963902433,1.0497996493395307,-0.4073972360206383,-1.4599699345179085,1.5511140625466722,1.1653681828252314,1.3420397255655223,-0.0001610827171265514,-0.0006988363209933998,-0.0008451893655543192,0.0014443184276873183,-0.00041866386773982823,0.0002724777858542622,0.0002166096478200598,0.1697271168231964,-50.96005630493164,-7.586869239807129,17.50220489501953,1.7219949960708618,-1.3217880725860596,0.019273381680250168,730,732,756,39.871,0,0
1739303844.5559604,-0.06419995776854404,1.0498013569547293,-0.4073953764971512,-1.4599775040593521,1.5511128168116741,1.1653674251653803,1.3420412527054177,-0.0008804837145380183,0.0007640589195645477,0.000559982249103998,-0.0014650012456598716,0.00042105621202299156,-0.00014201014469222476,0.0009638364617692121,0.2173345386981964,-50.98386001586914,-7.610672950744629,17.60138702392578,1.7082620859146118,-1.3153793811798096,0.0064559997990727425,730,731,754,39.871,0,0
1739303844.5670562,-0.06419820716158818,1.0497976425685318,-0.40740033289908467,-1.4599756890012638,1.5511069721282522,1.1653681828254587,1.3420373430322614,-4.044111640867101e-06,0.00016009020457382776,-0.0009541178179822136,-0.0007094064759650617,-0.0008332916964247211,0.00021091387540208434,-0.00018051167220984368,0.1935308277606964,-50.93228530883789,-7.586869239807129,17.57758331298828,1.7219949960708618,-1.3217880725860596,0.03941498324275017,731,731,754,39.762,1,0
1739303844.578018,-0.06419566274860095,1.049803489966988,-0.4073990969453226,-1.4599682609540605,1.5511112439270909,1.165367304484371,1.3420399780121262,0.0010754604050004074,0.0008980217010856296,-0.00136503704564769,0.0005188763740710071,7.432970850416792e-05,-0.0001306047879153332,0.0013970899625896996,0.1697271168231964,-50.98386001586914,-7.563065528869629,17.47840118408203,1.7219949960708618,-1.3153793811798096,0.012864691205322742,731,724,754,39.762,0,0
1739303844.5890386,-0.0641945004929976,1.0498003558135016,-0.40739616898361763,-1.4599753607571333,1.5511120075869902,1.1653721193992437,1.3420352222501775,0.0006426557337469779,7.1729686870823e-05,-8.440579836416144e-05,-0.0013629635392285507,0.00013749468258384513,0.0008174902327613713,9.970599503329996e-06,0.1419561207294464,-50.96005630493164,-7.610672950744629,17.57758331298828,1.7155863046646118,-1.3281967639923096,0.05314789339900017,732,727,754,39.762,1,0
1739303844.600014,-0.06419453579997549,1.0497997469132785,-0.40739549902299776,-1.4599739152655808,1.5511120069410018,1.1653696981635604,1.342035370458505,0.0003972678033179574,0.0007161951084504885,0.001440006821707021,-0.0005161587463339178,0.0002170173426352159,0.0007168308624960981,-0.0015839394020922075,0.1419561207294464,-50.96005630493164,-7.638443946838379,17.55377960205078,1.7155863046646118,-1.3346054553985596,0.05314789339900017,731,730,751,39.762,1,0
1739303844.6100357,-0.0641957162874181,1.049797643551458,-0.4073940245601591,-1.4599715793985135,1.5511101888352554,1.1653689404855372,1.3420400253167595,0.0011853118128946068,-0.0010404960672069194,0.0008042814267108043,0.0011098559657772226,-0.00011472934647416942,0.000797956649608774,0.0016271753757368245,0.1697271168231964,-50.93228530883789,-7.610672950744629,17.52600860595703,1.7219949960708618,-1.3281967639923096,0.03941498324275017,731,729,754,39.762,0,0
1739303844.6209664,-0.06419745502716219,1.0498013530300991,-0.4073986376999893,-1.4599714341230627,1.5511103344863872,1.1653674251653803,1.3420429969480472,0.0002066866958083865,4.980499811231239e-05,-0.0009508884255495555,0.0003767746860691273,0.0006171507871132756,0.00021293492324354045,0.0016663350443380377,0.1935308277606964,-50.98386001586914,-7.610672950744629,17.55377960205078,1.7018533945083618,-1.3153793811798096,0.026597600430250168,730,729,753,39.762,0,0
1739303844.6319394,-0.06419274413458101,1.0497998789279417,-0.4073972474135613,-1.4599767663909398,1.5511120079990959,1.1653681826599154,1.3420383655145027,0.001492632293866127,-0.0012462958133615748,-0.0006412144692242304,-0.0013965329529491983,0.0010775899409033425,0.00039964723063475006,-0.0003464292879328876,0.11815241724252701,-50.96005630493164,-7.586869239807129,17.55377960205078,1.7155863046646118,-1.3217880725860596,0.026597600430250168,734,730,754,39.762,1,0
1739303844.6420157,-0.06419652198443679,1.0497976690635005,-0.4073957007857548,-1.4599739064855501,1.5511128560416605,1.1653681425984528,1.3420373036222408,0.0011213677617486712,-9.163976367248835e-05,-0.00036440584471810817,-3.632947003260412e-05,-0.0005088021819017549,-1.258249439173184e-05,0.0009453018041371537,0.1697271168231964,-50.93228530883789,-7.610672950744629,17.55377960205078,1.7082620859146118,-1.3217880725860596,0.03941498324275017,730,730,754,39.871,1,0
1739303844.6530464,-0.06419824231927411,1.0497976513989768,-0.40739766143545714,-1.4599717574946083,1.5511097129858855,1.1653681828252316,1.3420447803220967,-0.0005301199893402619,-0.00033263524654239654,-0.0008664846429119128,0.0004911963360267173,-0.002563565423027928,0.0004936068865236457,0.0026504040005584295,0.1935308277606964,-50.93228530883789,-7.610672950744629,17.52600860595703,1.7219949960708618,-1.3217880725860596,-0.0008682189509272575,730,729,752,39.762,1,0
1739303844.663091,-0.0641965337049592,1.049799720091388,-0.40739723594825533,-1.4599756891129647,1.551114388778385,1.1653666139723393,1.3420447871566146,0.00032060309619333404,0.00013547792892989763,-6.591852387941098e-05,-0.0003355794735522042,-7.553798497168676e-05,-0.0012914920665554849,0.0008899449071591299,0.1697271168231964,-50.96005630493164,-7.586869239807129,17.57758331298828,1.6954447031021118,-1.3217880725860596,-0.0008682189509272575,730,728,753,39.871,1,0
1739303844.6740444,-0.06419440665647874,1.0497996405098118,-0.40739545290981616,-1.4599757125526334,1.551111243628228,1.165367425156524,1.3420369270458747,0.0005337607900682163,0.00022051061861007423,-3.572492755565953e-05,-0.0007672013439109648,-0.0011940522793165522,-0.0002854664812128176,-0.0004310580647589969,0.1697271168231964,-50.96005630493164,-7.610672950744629,17.57758331298828,1.7219949960708618,-1.3153793811798096,0.06596527993679047,729,729,753,39.762,0,0
1739303844.6840715,-0.06419665869733533,1.0497997884447376,-0.4073983136874767,-1.459972216228804,1.5511111975990304,1.1653649244382107,1.342039697976041,-0.00026535318606174237,0.0003175815930098301,0.000326876584939161,0.0006881690192861789,0.00021444186936923735,-0.00038486488799275155,0.0010237833696649318,0.1419561207294464,-50.93228530883789,-7.610672950744629,17.50220489501953,1.7219949960708618,-1.3217880725860596,0.019273381680250168,730,730,753,39.871,1,0
1739303844.6949968,-0.06419653375301168,1.0497996434649153,-0.4073943565853538,-1.4599700483431552,1.551111850549467,1.1653674236570974,1.3420394213606577,0.0005823605895668763,1.3933013829044697e-05,0.0002863771947168042,0.0008931431760700607,0.0002848940416590502,-0.0002935711008192456,0.0009782672127157037,0.1697271168231964,-50.96005630493164,-7.610672950744629,17.50220489501953,1.7155863046646118,-1.3153793811798096,0.026597600430250168,730,733,752,39.871,0,0
1739303844.7059948,-0.06419453576417258,1.0498027864850243,-0.4073961644528095,-1.4599738238701039,1.5511127513851493,1.1653696976489771,1.3420313127977674,0.0019550124368772357,0.001041326610308372,-0.0008031059084640369,0.00043077498753433895,0.0004934951164781001,0.0007743038876817643,-0.00038812653156057564,0.1419561207294464,-50.98386001586914,-7.610672950744629,17.55377960205078,1.7082620859146118,-1.3346054553985596,0.08610688149929047,730,729,753,39.762,0,0
1739303844.7159944,-0.06419824622575657,1.0497996759639254,-0.40739616155486313,-1.4599717932868845,1.5511079532729204,1.1653681828254503,1.342037760881642,-0.0004119328636376894,-0.0004120992895728691,0.00019540887400148473,0.0007924314683643589,-0.00014015677903263444,0.0006488370950345881,-0.0003278074341546,0.1935308277606964,-50.96005630493164,-7.610672950744629,17.52600860595703,1.7219949960708618,-1.3217880725860596,0.03300629183650017,731,729,754,39.762,1,0
1739303844.7269523,-0.06419453576417232,1.049795931029125,-0.4073953735489616,-1.4599700439700538,1.5511120075145792,1.1653674251653803,1.3420426259526634,0.0014134388886006075,3.8676422339554083e-05,-0.0002453239130375069,0.0006290406090461691,0.0014662893930253178,0.0001284748656198192,0.0034569668110190563,0.1419561207294464,-50.90848159790039,-7.610672950744629,17.50220489501953,1.7155863046646118,-1.3153793811798096,0.026597600430250168,733,731,753,39.871,1,0
1739303844.7370071,-0.0641945103679241,1.0498043211070351,-0.40739901923457,-1.459975579552786,1.5511128734842552,1.1653674251653803,1.342040089520545,0.0007052153281302557,0.0005260277700731366,-0.0012107167166603035,-0.0003956616167266295,-0.0002877587507358128,0.00015706327338162442,2.6968258824833788e-05,0.1419561207294464,-50.98386001586914,-7.563065528869629,17.57758331298828,1.7082620859146118,-1.3153793811798096,0.012864691205322742,731,730,751,39.654,1,0
1739303844.74703,-0.064196545369336,1.0497996418678224,-0.4073954529098306,-1.4599688596586433,1.5511136296907846,1.1653674236754912,1.342043964093255,-0.0002477143810523841,-0.00014381153573664128,0.0001601939689308093,0.0007263609577872367,0.0005709760436793613,0.00014431452034715882,0.0019596526302225878,0.1697271168231964,-50.96005630493164,-7.610672950744629,17.52600860595703,1.7018533945083618,-1.3153793811798096,0.019273381680250168,731,730,752,39.762,1,0
1739303844.7590463,-0.06419832507082915,1.04979971998223,-0.40739553153779773,-1.4599729174247804,1.551114271066835,1.1653674251653718,1.3420415666633976,-0.00177599005953958,0.0014431264378085128,0.0014730160080169484,0.0003948262789828686,0.0011105289274954233,-0.0012846388061105735,2.6956627049708995e-05,0.1935308277606964,-50.96005630493164,-7.610672950744629,17.55377960205078,1.6954447031021118,-1.3153793811798096,0.026597600430250168,731,730,752,39.871,1,0
1739303844.7700324,-0.06419653370547045,1.0497983578246954,-0.40739337312040247,-1.459973879104789,1.551110818221858,1.1653689360158699,1.3420404826083367,-0.0006824409427311855,0.0008176808217213016,0.00101067879106182,-0.00035032477464693514,-0.0016036867463865322,-6.814414731634007e-05,-0.0008773886471519421,0.1697271168231964,-50.93228530883789,-7.638443946838379,17.55377960205078,1.7219949960708618,-1.3281967639923096,0.03941498324275017,732,730,754,39.762,1,0
1739303844.780058,-0.06419653370502537,1.0497999863130036,-0.40739616251487487,-1.4599718266471067,1.55111269905579,1.1653681828254334,1.342040286629739,0.0005218795034300629,0.0008497853885450748,0.00043574576192228863,-0.00033204279235765443,6.785221348895674e-05,0.0001400901168445202,0.0003383988950027519,0.1697271168231964,-50.96005630493164,-7.610672950744629,17.52600860595703,1.7082620859146118,-1.3217880725860596,0.019273381680250168,731,730,755,39.762,0,0
1739303844.7909296,-0.06419824608107448,1.0498013569566316,-0.40739794422383796,-1.4599746187857534,1.5511110798605825,1.1653696936759483,1.3420370032276157,-0.0010593428727023145,0.00013103744601546596,-9.091090297080136e-05,-0.0009481891640006083,-0.0009064351181252992,0.0006733310323545887,-0.0003908564887101641,0.1935308277606964,-50.98386001586914,-7.586869239807129,17.55377960205078,1.7219949960708618,-1.3346054553985596,0.03941498324275017,731,726,755,39.871,1,0
1739303844.800961,-0.06419060732933637,1.0498014325030198,-0.4073972709170768,-1.4599756881087143,1.5511120061305939,1.165368819804452,1.3420392143764586,0.0014451832427659732,0.00022885005941345783,-0.0006565522861413436,-0.0009570054470163178,0.000447435690857229,0.00020637663402684885,0.0008582951961644402,0.11815241724252701,-50.98386001586914,-7.586869239807129,17.57758331298828,1.7155863046646118,-1.3281967639923096,0.019273381680250168,730,729,755,39.871,2,0
1739303844.8110363,-0.0641943974338061,1.0497976523840113,-0.4073950888402698,-1.4599756891140847,1.5511120075869502,1.1653666674991707,1.3420336996079822,0.0010637627321513545,-7.700179802744533e-05,-0.0003555349651936068,-0.0008091564582882432,0.0008617303286455216,-0.0007059630559365701,-0.003013769454091003,0.1697271168231964,-50.93228530883789,-7.586869239807129,17.57758331298828,1.7155863046646118,-1.3089706897735596,0.06596527993679047,731,731,754,39.762,1,0
1739303844.8219824,-0.06419652165622206,1.0498025015323302,-0.4073943755319062,-1.4599757008878926,1.551112007587024,1.165368940485537,1.3420415820663514,0.0003649942897037505,0.0007941044550361949,-1.2056204855995148e-05,-0.0009032771603748326,-0.00010955931806129505,0.00015586646863937698,0.0017448509363843978,0.1697271168231964,-50.96005630493164,-7.586869239807129,17.57758331298828,1.7155863046646118,-1.3281967639923096,0.03941498324275017,732,730,754,39.762,0,0
1739303844.832962,-0.06419987964135392,1.0498015919331896,-0.4073982883654365,-1.4599709119784543,1.5511128734842563,1.1653681649467906,1.342034452988257,-8.518616506768338e-05,0.0012512080564512722,-0.0010765397204302522,0.0012196747783017263,0.0006026128768230986,-8.950165001665225e-05,-0.001743860425400592,0.2173345386981964,-50.98386001586914,-7.610672950744629,17.55377960205078,1.7082620859146118,-1.3217880725860596,0.05955658480525017,731,730,755,39.871,2,0
1739303844.8440151,-0.06419653370487652,1.0497996447614466,-0.40739899177823446,-1.4599756891085012,1.5511115366367443,1.1653666655187498,1.3420436347109854,0.000832581230536073,-0.00016928041454649872,-0.0014675529435955433,-0.00036781359098175424,-0.0007645175154015251,-0.000898778504698116,0.0028706397954343485,0.1697271168231964,-50.96005630493164,-7.563065528869629,17.57758331298828,1.7155863046646118,-1.3089706897735596,0.012864691205322742,732,730,756,39.762,1,0
1739303844.8549235,-0.0641989636073111,1.049800367974946,-0.407393609366811,-1.4599739064371167,1.551111249278265,1.165367425165369,1.3420392002236077,-0.0008092519455712018,0.0007785983094744708,0.00040955293323848225,-0.0013079552188500364,-0.0003821011817076776,-0.0007521253026833735,0.00012205339543026157,0.1935308277606964,-50.96005630493164,-7.638443946838379,17.55377960205078,1.7219949960708618,-1.3153793811798096,0.05955658480525017,731,731,755,39.654,1,0
1739303844.8649464,-0.06419439788406983,1.0498035002268369,-0.40739901826785313,-1.4599736500308533,1.5511128734842454,1.1653681828254587,1.3420385050556685,0.0003977739330605928,-3.9542848212924264e-05,-0.0006566675411214178,-9.101840816606573e-05,0.001065883610651914,0.00027505613903458845,-0.00021689507244589985,0.1697271168231964,-50.98386001586914,-7.563065528869629,17.55377960205078,1.7082620859146118,-1.3217880725860596,0.026597600430250168,731,729,752,39.762,0,0
1739303844.8770244,-0.06419782290132653,1.0498020696061472,-0.4073933742360295,-1.4599752473800434,1.5511116543743142,1.1653681828254587,1.3420392184659315,-0.0008218558241756278,0.0007731519698957706,0.0014568072647263874,-0.001041609758117857,-0.00010860883227311272,0.0002634086747605669,-0.000640008235535562,0.2173345386981964,-50.98386001586914,-7.638443946838379,17.60138702392578,1.7155863046646118,-1.3217880725860596,0.019273381680250168,730,730,755,39.762,1,0
1739303844.8880315,-0.06419821980921919,1.0497999852228483,-0.4074001489638422,-1.4599739328778283,1.5511141533272794,1.1653689389956479,1.3420392532964416,-0.0005491462155797532,0.0009464275899848419,-0.00011799293360930903,0.0003150145440776822,0.002365007324391977,7.443551916722177e-05,0.00024737876415301466,0.1935308277606964,-50.96005630493164,-7.586869239807129,17.55377960205078,1.6954447031021118,-1.3281967639923096,0.019273381680250168,732,730,754,39.762,1,0
1739303844.8989713,-0.06419824622570686,1.0498013543510505,-0.4073972355923152,-1.459974618640448,1.5511112499265027,1.1653666675052992,1.3420355110924789,-0.0008810254115441004,0.0007679651103841105,-0.00013846175083925415,-0.001117535492108149,-0.0006520431750318179,-0.0005213217775277301,-0.0003949060602262693,0.1935308277606964,-50.98386001586914,-7.586869239807129,17.55377960205078,1.7219949960708618,-1.3089706897735596,0.05955658480525017,732,732,759,39.871,1,0
1739303844.9090006,-0.06419684126767744,1.0497999584008237,-0.40740009636449587,-1.4599700426256563,1.551113578816526,1.1653678543564543,1.342036270708495,-0.00042928582799780027,0.0005413218830457828,-0.0022185953046688915,0.000870830914856965,0.0007384509265659269,8.621839511015666e-05,-7.133928430184892e-05,0.1697271168231964,-50.96005630493164,-7.586869239807129,17.50220489501953,1.7018533945083618,-1.3281967639923096,0.05314789339900017,732,734,755,39.871,1,0
1739303844.9200606,-0.06419824329768055,1.0497983147077676,-0.4073973518143245,-1.4599739033846535,1.551110492320407,1.165367425159249,1.3420412428029387,-0.0007411669109098332,-0.0012348047544557146,-0.0009234934447966546,-0.00027425356571227766,-0.00042341219604318577,0.0002058702337207503,0.0016666596803863048,0.1935308277606964,-50.90848159790039,-7.586869239807129,17.55377960205078,1.7284036874771118,-1.3153793811798096,0.03941498324275017,733,730,754,39.871,1,0
1739303844.9309711,-0.0641942984493664,1.0498035027353527,-0.40739755442373576,-1.4599700439702248,1.5511109959160532,1.1653674206957132,1.3420369962848109,0.001908078228347378,0.0008784696139556378,-0.0009519359442914978,0.0009736489757266587,0.0012124999891888972,5.1642091842277515e-05,-0.0018171288277475123,0.1419561207294464,-50.98386001586914,-7.586869239807129,17.50220489501953,1.7155863046646118,-1.3153793811798096,0.06596527993679047,732,730,754,39.871,1,0
1739303844.9419527,-0.06419824524781284,1.049802539845496,-0.407395452911614,-1.4599688596604987,1.551111289005586,1.165367425165355,1.3420446990514163,-0.00018617311501147786,0.0002055243382180537,0.00014423753887450152,0.00036047018597721724,-8.329662170540104e-05,-1.2804020102305218e-05,0.001990254275512272,0.1935308277606964,-50.96005630493164,-7.610672950744629,17.52600860595703,1.7219949960708618,-1.3153793811798096,0.012864691205322742,731,731,756,39.762,1,0
1739303844.9519591,-0.06419500708233224,1.0498020601637261,-0.407397471797833,-1.4599731645396874,1.5511136311463203,1.1653641667781325,1.342040326455464,0.0005259039869246149,0.0002593977755143787,-0.0007544635772519286,-0.0003741559890762141,0.001324624090954116,-0.0010226578547870137,0.0007255984100753418,0.1419561207294464,-50.96005630493164,-7.586869239807129,17.55377960205078,1.7018533945083618,-1.3153793811798096,0.012864691205322742,733,729,754,39.871,1,0
1739303844.962039,-0.06419824622841716,1.0498005311135563,-0.40739545291114754,-1.4599718266430728,1.551113611763665,1.1653674250918054,1.3420435895618141,-0.0007769712348329336,0.001168258995825026,0.0006168018305091986,0.0001633533397533108,0.0007457445494439944,-0.00012775056384964172,0.0015204035079424507,0.1935308277606964,-50.93228530883789,-7.610672950744629,17.52600860595703,1.7018533945083618,-1.3153793811798096,0.019273381680250168,731,731,755,39.762,1,0
1739303844.9729989,-0.06419817590538461,1.0497976733274033,-0.40739760505447775,-1.459973878965017,1.5511087894266702,1.1653689404855365,1.3420334963554434,0.0003180704204578899,-0.0005593532244993337,-0.0006525754847304744,0.0006846914022597091,-0.00037990155502117635,0.0005824069256835989,-0.0032023763006276355,0.1935308277606964,-50.93228530883789,-7.610672950744629,17.55377960205078,1.7155863046646118,-1.3281967639923096,0.07969819009304047,733,731,757,39.762,1,0
1739303844.9830046,-0.06419732321107477,1.0497996405098835,-0.40739734060594646,-1.4599718080050137,1.5511128737527677,1.1653673715293762,1.3420384846496958,-0.0006884057782164233,-0.00039544090765862165,-0.0005044961948573389,-0.0011012893975151903,-0.00022075205517087888,-0.000835183084824591,-0.0008122411985377648,0.1935308277606964,-50.96005630493164,-7.586869239807129,17.52600860595703,1.7082620859146118,-1.3153793811798096,0.026597600430250168,733,730,756,39.762,1,0
1739303844.9940126,-0.06419824588459054,1.0497960487664946,-0.4073981716022926,-1.459973906436801,1.5511119945050764,1.1653689404846286,1.3420383932156987,-0.00017881495860797925,-0.0008920456998083092,-0.0014511428820300606,0.0009237221662886766,0.0010216448819895512,0.0006148991300711385,0.0009069008876587706,0.1935308277606964,-50.90848159790039,-7.586869239807129,17.55377960205078,1.7155863046646118,-1.3281967639923096,0.026597600430250168,733,731,756,39.871,1,0
1739303845.004943,-0.06420037114814883,1.0497977528931965,-0.40739569205076104,-1.459973906399432,1.551109694569844,1.1653674251653803,1.3420400130396877,-0.0003675284173287624,-0.0001881047152424417,0.00023460945143084528,0.00032401465751464485,-0.0008856491654218757,-0.00021245530249755927,0.00034483748338245013,0.1935308277606964,-50.93228530883789,-7.610672950744629,17.55377960205078,1.7082620859146118,-1.3153793811798096,0.03941498324275017,731,732,756,39.762,1,0
1739303845.0159955,-0.06419800894695293,1.049797654344135,-0.4073934868552305,-1.4599715793983634,1.551108828618801,1.165366654096301,1.3420383625811834,0.00044417267989839556,-0.0020379670538088184,0.0005480772544366173,0.000747440857556107,-0.0004898257282489845,-0.0003518697917157796,0.0009428021067611243,0.1935308277606964,-50.93228530883789,-7.638443946838379,17.52600860595703,1.7155863046646118,-1.3089706897735596,0.026597600430250168,732,732,756,39.762,1,0
1739303845.0260196,-0.0641944248843714,1.0497976468202104,-0.40739568912145585,-1.4599700442958952,1.5511120068692212,1.165368182825383,1.34204084764661,0.00042949256874804395,0.0007296792896646938,-0.00011319887421214871,0.0008866004973691462,0.000690955084092978,0.00011221294074490021,0.0014717886939775895,0.1419561207294464,-50.93228530883789,-7.610672950744629,17.50220489501953,1.7155863046646118,-1.3217880725860596,0.0064559997990727425,732,731,756,39.762,1,0
1739303845.0370483,-0.06419798286605191,1.0497999861999738,-0.40739553262020917,-1.4599739064371184,1.551110490813313,1.165368940485537,1.3420407161697767,-0.0007448565974804869,0.0001444380246685544,0.000716942095044789,-0.00024167647930584493,-0.00022047558095029094,0.00048186698607448054,0.002064164944525573,0.1935308277606964,-50.96005630493164,-7.610672950744629,17.55377960205078,1.7284036874771118,-1.3281967639923096,0.04673920199275017,732,732,756,39.762,1,0
1739303845.0480218,-0.06419453576268565,1.0498013924232568,-0.4073934868516306,-1.459971826647261,1.5511097987947964,1.165368940485537,1.3420368725903538,0.0006684147979253128,-0.00016553554852142248,0.0013011414667088812,-0.001245335282930004,0.0006468176174451497,0.00024117388779291272,-0.001016254089170369,0.1419561207294464,-50.98386001586914,-7.638443946838379,17.52600860595703,1.7082620859146118,-1.3281967639923096,0.03941498324275017,731,731,755,39.762,2,0
1739303845.0589612,-0.06419964232676857,1.04980555573699,-0.4073933731206006,-1.4599695983547338,1.5511104791137234,1.165367424999837,1.3420410311873765,-0.0006681961063666666,0.0027733862237009715,-0.00014483041969161076,0.0010783085401996568,-0.0006828548339881462,-1.805423313688904e-05,0.002104801670371694,0.2173345386981964,-51.00766372680664,-7.638443946838379,17.52600860595703,1.7284036874771118,-1.3153793811798096,0.012864691205322742,732,733,754,39.762,1,0
1739303845.0699344,-0.06419453576238611,1.04980046174297,-0.4073941867356241,-1.4599739064245378,1.5511118505496881,1.1653681828254578,1.3420360118774022,0.0005454979639559846,-8.753307647427905e-05,0.0008981552946995662,-0.0009141246321372541,-0.00010106119833943689,0.00022117237912939124,-0.0024572021077971734,0.1419561207294464,-50.96005630493164,-7.638443946838379,17.55377960205078,1.7155863046646118,-1.3217880725860596,0.07328949868679047,733,731,755,39.762,1,0
1739303845.080004,-0.06419582176065719,1.0498006213429363,-0.4073955579062593,-1.4599737022926431,1.5511136311416756,1.165368940485537,1.3420402111950713,0.00011305640610059949,0.0004363048144126897,0.00041158354360221194,-0.0006228837397269328,0.0005777364143833602,0.0007134989031328732,0.0017931657842596275,0.1697271168231964,-50.93228530883789,-7.610672950744629,17.57758331298828,1.7018533945083618,-1.3281967639923096,0.04673920199275017,733,731,754,39.762,1,0
