IITGN-Robotics/Franka_IITGN_ROBOTICS/franka_ros/franka_iitgn/data01/s_f_012.csv
time,fr3_joint1_pos,fr3_joint2_pos,fr3_joint3_pos,fr3_joint4_pos,fr3_joint5_pos,fr3_joint6_pos,fr3_joint7_pos,fr3_joint1_vel,fr3_joint2_vel,fr3_joint3_vel,fr3_joint4_vel,fr3_joint5_vel,fr3_joint6_vel,fr3_joint7_vel,fr3_joint1_eff,fr3_joint2_eff,fr3_joint3_eff,fr3_joint4_eff,fr3_joint5_eff,fr3_joint6_eff,fr3_joint7_eff,flexpin1,flexpin2,flexpin3,Force,ContactMic,ContactMic_gt
1739304952.916811,-0.05091560321932023,1.1042896705002507,-0.48303737037985245,-1.417287671976932,1.6243546800362616,1.0699159542694745,1.3575284890040957,0.00010720586800903246,-0.00011467142741272533,0.00013949709764341517,-0.0017449613140401224,0.0006275442998448028,-0.00035894692408312834,-0.001095923057687965,-0.3539545238018036,-51.08700942993164,-9.594315528869629,17.15705108642578,1.9316507577896118,-1.1972763538360596,0.09343110024929047,,,,,,,,,
1739304952.9277275,-0.05090913536194733,1.1042939448766482,-0.4830372446095977,-1.4173157632878193,1.6243566294672398,1.069911808129936,1.3575269851598304,0.0006414933466971197,0.0005148728321643491,-0.0009088216178238424,-0.002667886767776263,-0.0017120579684699521,-0.0009379320158953033,-0.00045044404883937583,-0.3539545238018036,-51.08700942993164,-9.566544532775879,17.18085479736328,1.8986917734146118,-1.2036850452423096,0.06596527993679047,,,,,,,,,
1739304952.9397516,-0.050906839311020836,1.1042980492747552,-0.4830373397892107,-1.4173332123730658,1.6243517669702754,1.06990483296623,1.3575185014480977,0.0006224788133402011,-1.896814914796347e-05,-0.0002818573243236845,-0.0007556909751826247,-0.0023434649910150478,-0.0014740662524230454,-0.0015918887075888459,-0.3063471019268036,-51.05923843383789,-9.566544532775879,17.15705108642578,1.9051004648208618,-1.1835434436798096,0.10624848306179047,,,,,,,,,
1739304952.9507146,-0.05090288045271577,1.10430820920915,-0.4830387800462765,-1.4173526254232323,1.6243508624956868,1.0699084322167316,1.3575181295793761,-0.0009378969535872119,0.00146941003472067,0.0015581285576737635,-0.001606450448197625,0.00046594558328962255,-0.0005331517359994526,-0.0014198242825037867,-0.3063471019268036,-51.11081314086914,-9.542740821838379,17.23242950439453,1.9115091562271118,-1.2165024280548096,0.05955658480525017,,,,,,,,,
1739304952.9607518,-0.05090007908103012,1.104316506599079,-0.4830410982504778,-1.417359251591469,1.624351578738903,1.0699077937453974,1.3575156880200605,0.001476190452916912,0.002246722661109256,0.0003179572135985049,0.00025451196638014205,0.001033903020014314,0.0009021196217864145,-0.0008573109595085568,-0.3063471019268036,-51.13858413696289,-9.514969825744629,17.23242950439453,1.9051004648208618,-1.2100937366485596,0.07969819009304047,,,,,,,,,
1739304952.9708045,-0.05090347283698064,1.104321612955418,-0.4830428809315344,-1.4173588155777503,1.6243508036355203,1.069902152065645,1.3575153348063287,-0.0009992361150325813,0.0006874444964925987,-0.00028985637817591377,0.0007297136846725618,-0.0018245726123162819,0.0005532028942839783,-0.00014583379833435657,-0.2547723948955536,-51.16238784790039,-9.491166114807129,17.18085479736328,1.9115091562271118,-1.2036850452423096,0.07969819009304047,,,,,,,,,
1739304952.9808154,-0.0509034315848578,1.1043231690744495,-0.4830411762556555,-1.4173642063990985,1.6243507425861143,1.0698997687790262,1.357515287856516,-0.0009597107176255685,3.4462874365183416e-05,0.00037424167860207805,-0.00038959619606333514,0.00036400964498253943,0.0002158803048104903,0.0004439839363270792,-0.2547723948955536,-51.13858413696289,-9.514969825744629,17.20862579345703,1.9115091562271118,-1.1835434436798096,0.04673920199275017,,,,,,,,,
1739304952.9918153,-0.050907921697018174,1.1043274748369576,-0.4830428897057656,-1.4173663762049327,1.6243514610001886,1.0698918220582907,1.3575115811934328,-0.0013072528283454379,-0.0005438393770972248,0.0003986492671175024,0.0007191601212754204,0.0003785148935844962,-0.0005389054856468013,0.0003297801541472407,-0.1793939769268036,-51.11081314086914,-9.491166114807129,17.20862579345703,1.9051004648208618,-1.1835434436798096,0.08610688149929047,,,,,,,,,
1739304953.0027525,-0.05090515871478279,1.104330707986858,-0.48303904446508944,-1.4173652539535504,1.624350518937902,1.0698902451267551,1.3575124771659532,0.00039830357451817975,-0.0002866373293092939,5.907676157126409e-05,0.0012066578963934333,-5.367870267781831e-05,-0.0004447211953740528,-0.0017927193125698044,-0.2309686839580536,-51.11081314086914,-9.542740821838379,17.18085479736328,1.9051004648208618,-1.1835434436798096,0.09343110024929047,,,,,,,,,
1739304953.0137506,-0.050906630544550004,1.1043315614207974,-0.48304287502596044,-1.4173738937272544,1.6243465269781487,1.06989261325329,1.3575085428086755,-0.0006344646278212628,-0.0008182701897638809,0.00031077314231515795,-0.0004690280787655655,-0.0014214346311148434,0.0011125173282104898,-0.0012050506144697924,-0.2071649730205536,-51.11081314086914,-9.491166114807129,17.25623321533203,1.9179178476333618,-1.2036850452423096,0.09983979165554047,,,,,,,,,
1739304953.0247931,-0.050900964569429503,1.1043362057460044,-0.4830453656187142,-1.4173704332975794,1.6243496000360265,1.0698901919989063,1.3575128964175514,0.0018722279080508936,5.570583105105181e-05,-0.0011288963715083784,-0.00017849937298128977,-0.0017165419534348235,-0.0003865040483774949,0.0010781730563425482,-0.2547723948955536,-51.11081314086914,-9.467362403869629,17.20862579345703,1.9115091562271118,-1.2100937366485596,0.06596527993679047,,,,,,,,,
1739304953.0348012,-0.050901997501073985,1.1043324808745316,-0.483042915745334,-1.4173683535095007,1.6243501615198188,1.0698894343208831,1.3575148562239168,0.0005756420249035345,0.000941902122676558,-0.0008464487417669831,0.00036174984481463033,0.0002883340379216913,5.9634512082082445e-05,0.0016649038044426905,-0.2309686839580536,-51.08700942993164,-9.491166114807129,17.18085479736328,1.9051004648208618,-1.2036850452423096,0.07328949868679047,,,,,,,,,
1739304953.0448034,-0.05090048666381271,1.1043293625443165,-0.48304466457212014,-1.4173640993906784,1.6243478716765567,1.0698926115843248,1.357515682298016,0.0010727149115139735,-0.00047597964211491025,0.0002703127925921749,0.0010725944863898542,-0.0013621612590893214,0.0004661279617676589,0.002214863782324096,-0.2547723948955536,-51.03543472290039,-9.467362403869629,17.13324737548828,1.9051004648208618,-1.2036850452423096,0.03941498324275017,,,,,,,,,
1739304953.0548058,-0.05090409459022615,1.1043345058167446,-0.48304361760898484,-1.4173702033844946,1.62434484100644,1.0698926132531879,1.3575060585492351,-0.000403389224298987,0.002391257096410164,0.00016417234506033282,-0.0011192592329742816,-0.0014632708218664603,-8.102718284306901e-05,-0.0018444526218651014,-0.2309686839580536,-51.08700942993164,-9.491166114807129,17.20862579345703,1.9252420663833618,-1.2036850452423096,0.09343110024929047,,,,,,,,,
1739304953.0648153,-0.05090025004469178,1.1043309992398471,-0.4830413332333884,-1.4173704332954626,1.6243496434671403,1.0698933185854855,1.3575095051267336,0.0005988577757651665,-0.00040593249280765223,0.00034799028007447333,-0.0008308360671535893,-0.00048469433736804456,-0.0010027241403208886,0.000956113272723995,-0.2547723948955536,-51.03543472290039,-9.514969825744629,17.20862579345703,1.9115091562271118,-1.2100937366485596,0.07969819009304047,,,,,,,,,
1739304953.075717,-0.05090219918395226,1.1043334626680883,-0.4830432431293507,-1.4173703567699358,1.624349406269274,1.0698917320404806,1.3575073303234275,-2.4581064349294177e-05,-0.0007748710335627499,-5.332046057037674e-05,0.00019995180323918342,-0.0010465253157801167,-7.511192440958899e-05,-1.5911446536157135e-05,-0.2309686839580536,-51.05923843383789,-9.514969825744629,17.20862579345703,1.9115091562271118,-1.1972763538360596,0.07969819009304047,,,,,,,,,
1739304953.0857303,-0.050902820037246985,1.1043371839349998,-0.4830442444552696,-1.417370433625973,1.6243515596725562,1.069889472921501,1.3575101430171281,0.0013356097378187726,0.0005937128913050382,-0.0007251987541040947,0.0005929074999264945,-0.0001870570773009022,1.3256154699000229e-05,0.0015810646404763786,-0.1793939769268036,-51.11081314086914,-9.514969825744629,17.20862579345703,1.9051004648208618,-1.1771347522735596,0.08610688149929047,,,,,,,,,
1739304953.0957615,-0.050907360022402155,1.1043371996335254,-0.48304126439408157,-1.4173722424673343,1.6243479799463638,1.0698894729221737,1.3575136491083903,-0.00011160988019662211,0.0002365225694674933,0.0003399616173377381,0.00019230922962853552,0.0012698764303842457,1.3902854854014416e-05,0.0007111916253940535,-0.1555902659893036,-51.11081314086914,-9.514969825744629,17.23242950439453,1.8986917734146118,-1.1771347522735596,0.05314789339900017,,,,,,,,,
1739304953.106747,-0.05090367494135665,1.1043400727575463,-0.4830411772214461,-1.417368276980529,1.6243471829669751,1.0698905783411612,1.3575053941741324,-0.0006004334394552714,0.0017656805952518022,-0.00018100084009129146,0.0014589193758407202,-0.00012479808036434172,0.0008650620628286865,-0.001858325737468548,-0.2071649730205536,-51.11081314086914,-9.514969825744629,17.18085479736328,1.9051004648208618,-1.1899521350860596,0.08610688149929047,,,,,,,,,
1739304953.1167867,-0.05090196242105528,1.1043393581718264,-0.48304206444192266,-1.4173725791751526,1.6243483860171894,1.0698862605947754,1.3575102180407483,0.0007611988606654538,-0.000627824354677576,0.00013486722589962566,-0.00034751059655786917,0.0003124322798889151,0.0006744572825690467,0.0007688976271064537,-0.2309686839580536,-51.11081314086914,-9.514969825744629,17.20862579345703,1.9051004648208618,-1.1899521350860596,0.04673920199275017,,,,,,,,,
1739304953.127792,-0.05090367483352727,1.1043340944829143,-0.483042880947897,-1.417371390934599,1.6243491385336695,1.069887844882299,1.3575076093511595,-0.000478907198166366,-0.0014351344530620187,0.0006506669289478833,-0.0008842648609972722,-5.724810813945483e-05,0.0005032121703406184,-5.868162442034268e-05,-0.2071649730205536,-51.03543472290039,-9.491166114807129,17.20862579345703,1.8986917734146118,-1.2036850452423096,0.07969819009304047,,,,,,,,,
1739304953.1388195,-0.050902961766190406,1.1043328220245494,-0.4830438265749858,-1.4173683535113026,1.6243465635516547,1.0698895171852174,1.3575150072717297,-0.0008166831009326412,-0.0010907995494896807,-0.0001374016072877952,-0.0001798415098225145,-0.0016009250294493143,0.0015397594705822276,0.0034707262076322,-0.2071649730205536,-51.03543472290039,-9.491166114807129,17.18085479736328,1.9115091562271118,-1.2165024280548096,0.03300629183650017,,,,,,,,,
1739304953.1497207,-0.050901857181024475,1.1043295487356595,-0.48304288383648014,-1.4173665708324819,1.6243501658152608,1.0698902667846246,1.3575080599021554,0.000333717530727032,-0.002585498304825343,0.0005183922507662322,0.0006426642413098448,-5.703621625539951e-05,-7.447054293736546e-05,-0.0008326259689694785,-0.2309686839580536,-50.96005630493164,-9.491166114807129,17.15705108642578,1.9051004648208618,-1.1972763538360596,0.09343110024929047,,,,,,,,,
1739304953.1597326,-0.0508994606900816,1.1043407455668446,-0.4830449882463023,-1.4173698105119286,1.6243461072066991,1.0698890222752822,1.357507897651203,0.0014637927715389315,0.0007954700731711062,0.0007720849736788203,0.00040336593439058713,-0.002726400495335994,0.0003370089216105698,0.0011307221872339807,-0.2547723948955536,-51.08700942993164,-9.491166114807129,17.18085479736328,1.9115091562271118,-1.2036850452423096,0.06596527993679047,,,,,,,,,
1739304953.1697333,-0.050898039775165556,1.1043367609484918,-0.4830476824437061,-1.4173665709661725,1.6243464626086332,1.0698854636841844,1.3575061517624711,0.0012183590029481665,0.00011783491981627267,-0.00024879295236360406,0.0012902409960954416,-0.0012939320600837676,-0.0007172817541020108,-0.0007082341773828016,-0.2547723948955536,-51.05923843383789,-9.439591407775879,17.15705108642578,1.9115091562271118,-1.1835434436798096,0.07969819009304047,,,,,,,,,
1739304953.1797674,-0.05090204119633225,1.1043404738838056,-0.48304355097293394,-1.4173704332993586,1.6243495088836182,1.0698862213243236,1.3575077066329602,0.00014515513779650283,0.0009258476277379938,0.001671601322037875,2.1526882896253134e-05,-0.0004738267110135957,-0.00034349389367808086,-0.0005709611419983258,-0.2309686839580536,-51.11081314086914,-9.514969825744629,17.20862579345703,1.8922830820083618,-1.1899521350860596,0.09343110024929047,,,,,,,,,
1739304953.1907744,-0.050900250009027995,1.1043404043305416,-0.483042881193022,-1.4173704460542598,1.6243487360791413,1.0698854636642452,1.3575085340190347,0.0008604142967379264,0.0008093177050962699,0.0003684877601728429,7.382862212015173e-05,0.000451199172607215,0.0004085662494055076,-0.00046129859029142133,-0.2547723948955536,-51.11081314086914,-9.491166114807129,17.20862579345703,1.8922830820083618,-1.1835434436798096,0.05955658480525017,,,,,,,,,
1739304953.2007983,-0.050902831727907084,1.104339542463801,-0.483042984933059,-1.4173722163036402,1.6243494370510307,1.069885445785577,1.35750853249373,-0.00016848438677864264,-1.0211334280032875e-05,0.0003372718842345897,-0.0005000778036320657,-0.0005903391378245192,5.959738614544948e-06,0.00073721961290914,-0.1793939769268036,-51.05923843383789,-9.491166114807129,17.23242950439453,1.8858743906021118,-1.1835434436798096,0.05955658480525017,,,,,,,,,
1739304953.2117403,-0.050901513530599844,1.1043414517745367,-0.4830446637161381,-1.4173693114354535,1.6243492142222082,1.0698839483439875,1.3575092901537824,-0.0007265383038969214,0.0009120277508311066,-0.0009705506229049702,-0.0004877558069043171,0.0012116474006965657,-0.0007865502859717968,0.0020986041709178454,-0.2071649730205536,-51.11081314086914,-9.467362403869629,17.18085479736328,1.8858743906021118,-1.1707260608673096,0.05314789339900017,,,,,,,,,
1739304953.221773,-0.050901953615455506,1.104339785151753,-0.48304111077321876,-1.4173683535257233,1.6243515109020983,1.0698862213243232,1.3575022547383289,9.781739284669543e-05,0.0005977954268464403,0.0012055875837268357,-0.0013680033069962535,-0.0009512955339245661,0.00019816813938796675,-0.0025522275580121493,-0.2309686839580536,-51.05923843383789,-9.514969825744629,17.18085479736328,1.8922830820083618,-1.1899521350860596,0.11265717446804047,,,,,,,,,
1739304953.2327147,-0.050897541670737755,1.1043349701366083,-0.48304497572018196,-1.4173704992767129,1.6243500023809405,1.0698871264674124,1.3575085324937042,0.0012880547466951778,-0.001385346942782567,-0.0018983036103548253,0.0010377938049004334,7.016057099842453e-05,-0.00020052055110932756,0.0003595895273328626,-0.2825433909893036,-51.03543472290039,-9.467362403869629,17.18085479736328,1.9051004648208618,-1.1972763538360596,0.05955658480525017,,,,,,,,,
1739304953.2428074,-0.050902955872078014,1.1043391464075076,-0.483047474410264,-1.417366572286032,1.6243490834009113,1.0698862232630548,1.3575022679817865,-0.0007817989815753646,0.0015657674918520415,-0.000861584274288944,0.001567513287136069,-0.0010443072226990202,-9.33354658197823e-05,-0.0025894881444163556,-0.2071649730205536,-51.05923843383789,-9.439591407775879,17.15705108642578,1.8858743906021118,-1.1899521350860596,0.11265717446804047,,,,,,,,,
1739304953.2537265,-0.050899432936172086,1.104333687120838,-0.4830476885109997,-1.4173722159763835,1.624348627018805,1.069886221324334,1.3575061506299269,0.00024251961669806633,-0.0017257218374054548,-0.0005055618482208205,-0.0004077746357911611,0.0002532054810067909,0.0001264985774284318,-0.00020639571799956923,-0.2547723948955536,-51.00766372680664,-9.439591407775879,17.23242950439453,1.8986917734146118,-1.1899521350860596,0.07969819009304047,,,,,,,,,
1739304953.263787,-0.05090024988648874,1.1043366823248992,-0.48304500302046627,-1.417372821409733,1.6243475680446318,1.0698862079153224,1.3575074230740147,0.0002251108379568036,-0.00011839593063064371,-0.0015319310591635968,-0.001577858887623229,-0.0010546883645562158,-0.0004425307247592066,0.0003853947644567565,-0.2547723948955536,-51.05923843383789,-9.467362403869629,17.20862579345703,1.8986917734146118,-1.1899521350860596,0.06596527993679047,,,,,,,,,
1739304953.2758188,-0.05090359504648866,1.1043408600339157,-0.48304497896761656,-1.4173733298024125,1.6243478693961153,1.0698854636641693,1.3575077748311997,-0.0005708462823881839,7.975074727776052e-05,6.584382557548357e-05,-0.000868466023966844,-0.0015031193416698075,-2.0540667751888502e-05,0.0008063436951228397,-0.2071649730205536,-51.08700942993164,-9.467362403869629,17.20862579345703,1.8986917734146118,-1.1835434436798096,0.06596527993679047,,,,,,,,,
1739304953.2867482,-0.05090101536932685,1.1043455994435911,-0.48304112842838937,-1.4173726586660074,1.6243491232393004,1.069885463609064,1.3575030065842062,0.0005665626315307471,0.0012669176465994433,0.0012318138095887665,-0.0001746533652265699,0.0001592210535266592,-6.357989896446746e-05,-0.0012918877758052992,-0.2309686839580536,-51.13858413696289,-9.514969825744629,17.20862579345703,1.8858743906021118,-1.1835434436798096,0.10624848306179047,,,,,,,,,
1739304953.296787,-0.050900162194324756,1.1043408294546955,-0.48304206422799295,-1.4173687169644291,1.6243507461506972,1.069885450255243,1.3575069090973602,0.0009196485064256642,-0.00041127412553529114,0.00044603769242245757,0.0017703241012230829,-0.0005995876884163353,0.00019054072487135551,0.0007221546406171472,-0.2547723948955536,-51.08700942993164,-9.514969825744629,17.15705108642578,1.8721414804458618,-1.1835434436798096,0.07328949868679047,,,,,,,,,
1739304953.307793,-0.0509002411308329,1.10433901040336,-0.4830411271492795,-1.4173711794551513,1.6243475681884247,1.0698854656022363,1.3575045320792156,0.0006479916385821639,0.0010614021749846673,0.00012063023407764097,-0.0009795058904422086,-9.36929745254543e-05,0.0007917660629403202,7.082084331293411e-05,-0.2547723948955536,-51.08700942993164,-9.514969825744629,17.20862579345703,1.8986917734146118,-1.1835434436798096,0.09343110024929047,,,,,,,,,
1739304953.3188396,-0.05090167268762896,1.1043389364803602,-0.4830391253552742,-1.4173694161316202,1.624349436559565,1.0698857656423069,1.3575039212277356,-0.0004944423213422095,-0.0016445479423872027,0.0006390683092910744,-0.000197005829883742,-0.00028374583840102603,0.0006391690755288089,-0.0007325578959004805,-0.2071649730205536,-51.05923843383789,-9.542740821838379,17.18085479736328,1.8858743906021118,-1.1771347522735596,0.09983979165554047,,,,,,,,,
1739304953.32973,-0.05090001312612679,1.104339899831647,-0.4830467780661859,-1.4173732954548055,1.6243486791168205,1.0698854100342226,1.3575067151959093,0.00017072988176063857,-0.00036015501658085103,-0.0006268399287975763,-0.00039883277279639047,-8.280844330211845e-05,0.00039129634890915576,0.0001422065707850086,-0.2547723948955536,-51.05923843383789,-9.439591407775879,17.20862579345703,1.8922830820083618,-1.1835434436798096,0.06596527993679047,,,,,,,,,
1739304953.3397639,-0.05090013589936509,1.104336515588214,-0.4830429968103585,-1.4173707546187702,1.6243475709397834,1.0698846523672543,1.357508532475759,-0.0002800823116813632,-0.0011766672247973627,-0.0001821164422702784,-0.0008289619300883409,-0.00048666713541370844,-0.0009704447150751,0.00029884483507776837,-0.2547723948955536,-51.03543472290039,-9.491166114807129,17.20862579345703,1.8986917734146118,-1.1771347522735596,0.05955658480525017,,,,,,,,,
1739304953.3507826,-0.05090367396681004,1.104338417658292,-0.48304112436254704,-1.4173712532350393,1.6243521612454916,1.0698870469942499,1.3575022387492761,0.00018738396718812105,0.00029344216513297044,0.001290753061761671,-0.00040178981826508796,0.0018083435970314388,1.0714213472490654e-05,-0.0017150133302400743,-0.2071649730205536,-51.03543472290039,-9.514969825744629,17.18085479736328,1.8986917734146118,-1.1972763538360596,0.11265717446804047,,,,,,,,,
1739304953.3607924,-0.05090332017633542,1.1043398731683371,-0.48304112521831466,-1.4173686845319988,1.6243491008672437,1.069886221323642,1.3575072644752726,0.0009341111928114676,0.00034916947697035815,0.001462798868041345,-0.00023980028131577469,-0.0001775240831562751,-0.0008484815532915257,0.0006257812412792774,-0.2071649730205536,-51.05923843383789,-9.514969825744629,17.18085479736328,1.8858743906021118,-1.1899521350860596,0.06596527993679047,,,,,,,,,
1739304953.3717911,-0.05090367490369741,1.1043381079886985,-0.48304414029913056,-1.4173657457562334,1.6243476704961142,1.0698870872215556,1.357504527715683,-0.0010187052892198073,-0.00010003797355331764,0.0006347800011121823,0.001394238862004908,-0.0005137694295753098,0.00036448444528774997,-0.0006566231004112811,-0.2071649730205536,-51.03543472290039,-9.514969825744629,17.13324737548828,1.8858743906021118,-1.1972763538360596,0.09343110024929047,,,,,,,,,
1739304953.3827536,-0.050901646628936495,1.1043411826307692,-0.4830439326266298,-1.4173711851899655,1.6243475681802275,1.0698862079153224,1.3575045214198462,-0.0012531460098415853,0.00023532887224736064,-0.0006472620110231411,-0.0007091981204830936,-4.441853349482173e-05,0.0001868989026029472,0.000459266687343576,-0.2309686839580536,-51.08700942993164,-9.491166114807129,17.20862579345703,1.8986917734146118,-1.1899521350860596,0.09343110024929047,,,,,,,,,
1739304953.3937318,-0.050901224164419195,1.104343248840779,-0.4830453278739985,-1.4173704729940113,1.6243483386072253,1.0698843773693922,1.3575092901536756,-0.0005225879213248111,0.0005397525968546476,-0.0010711288357556276,0.0007242946072593899,0.0005221106172020358,0.00013564297674227433,0.0015476682631529318,-0.2071649730205536,-51.08700942993164,-9.491166114807129,17.20862579345703,1.8922830820083618,-1.1835434436798096,0.05314789339900017,,,,,,,,,
1739304953.4037812,-0.050903432444432545,1.1043438481071162,-0.48304358338359804,-1.4173733045700587,1.6243525650468944,1.0698839438682892,1.3575013881950742,-0.00035680105127096676,0.0006299313505692698,-0.0005172245439649583,3.1516699618461906e-05,0.0014424222282480277,-0.00011948105763961466,-0.0027843741830300504,-0.1793939769268036,-51.11081314086914,-9.491166114807129,17.20862579345703,1.8922830820083618,-1.1707260608673096,0.11998139321804047,,,,,,,,,
1739304953.413816,-0.05089740773331489,1.104346527686756,-0.48304354230213387,-1.4173714647734115,1.6243479739994104,1.0698811169957771,1.3575006564955336,0.00020656425459575085,0.0010628098779858076,0.00026413741546446796,0.0014336211636222372,-0.00047776749678999795,-0.0004848024301407264,-0.0020842963364978923,-0.2547723948955536,-51.13858413696289,-9.514969825744629,17.18085479736328,1.8922830820083618,-1.1835434436798096,0.08610688149929047,,,,,,,,,
1739304953.4247193,-0.050899005954217126,1.1043388760863282,-0.48304366224070133,-1.4173729363667817,1.6243483218086567,1.069881447095752,1.357508533920513,0.0003482008140676204,0.0004566194116064797,-0.00021085021878580726,0.00017528374052910557,-0.00012679722851088984,-0.0012250418151511797,0.0015650224107341829,-0.2309686839580536,-51.03543472290039,-9.491166114807129,17.20862579345703,1.8922830820083618,-1.1771347522735596,0.05955658480525017,,,,,,,,,
1739304953.4347498,-0.050907110483165895,1.1043399371565374,-0.48304288094476605,-1.417373651611007,1.6243490833467886,1.0698814473961857,1.357504409981018,-0.0021937851677638603,0.0011506289713299252,0.001205316647366602,0.0003921374559865125,-9.283645285394239e-05,-0.00028136322233893087,-0.00019725266583314733,-0.1555902659893036,-51.05923843383789,-9.491166114807129,17.20862579345703,1.8858743906021118,-1.1771347522735596,0.09343110024929047,,,,,,,,,
1739304953.4447727,-0.050902846754166294,1.1043384173655364,-0.4830428822155041,-1.417371568889825,1.6243507469410856,1.0698874826178786,1.3575030123964134,-0.0012376011140339262,-0.00023237632332479734,0.0011796295282822248,-0.0004138676795090261,8.145155594230583e-05,-7.58039390816468e-05,8.998265382031728e-05,-0.2071649730205536,-51.03543472290039,-9.491166114807129,17.18085479736328,1.8986917734146118,-1.2036850452423096,0.10624848306179047,,,,,,,,,
1739304953.4557102,-0.050897908556578504,1.104338263992428,-0.4830431269186762,-1.4173705514184647,1.624349437115861,1.0698818763093183,1.357502254253812,0.0004453755908255956,0.00022144176878057117,0.0007779425535843932,-0.0002188119690528593,0.0002874788310847505,-0.00013735543659706167,-0.0003827338799026266,-0.2825433909893036,-51.03543472290039,-9.491166114807129,17.20862579345703,1.8858743906021118,-1.1899521350860596,0.11265717446804047,,,,,,,,,
1739304953.4657328,-0.05090075475201258,1.1043364447251995,-0.4830428934544018,-1.4173713336892317,1.6243490833528453,1.0698862195953078,1.357503534181087,-0.0014036325444996734,-0.00045628439481100783,0.0003907869233363689,0.000902694218661759,0.0002495039929997393,-0.0020899453078243777,-0.0003492693315625714,-0.2071649730205536,-51.00766372680664,-9.491166114807129,17.18085479736328,1.8858743906021118,-1.1899521350860596,0.06596527993679047,,,,,,,,,
1739304953.4757805,-0.05089908181051451,1.1043438778289147,-0.4830474729337777,-1.4173715456653269,1.624349949244087,1.0698870857316374,1.3575084132307682,0.0002311223823907105,0.0008016847131658645,0.00027525206845431657,0.0001615783735196077,0.0006672854492405275,0.0008057386083575129,0.0012985063993662576,-0.2309686839580536,-51.11081314086914,-9.467362403869629,17.18085479736328,1.8785501718521118,-1.1972763538360596,0.05955658480525017,,,,,,,,,
1739304953.486767,-0.050901848299585724,1.1043439726860858,-0.4830411336060838,-1.4173714926873093,1.6243499494055924,1.0698854094764219,1.357506138193249,-0.0006444776442503029,0.0010960409235851582,0.001443958062116962,-0.00010399828991294039,0.0017595191495420924,0.0002479260126634937,0.00031752062003369204,-0.2309686839580536,-51.08700942993164,-9.542740821838379,17.18085479736328,1.8785501718521118,-1.1835434436798096,0.07969819009304047,,,,,,,,,
1739304953.4968405,-0.0509034363536662,1.1043436107940972,-0.48304382083294367,-1.4173705918846868,1.624348442939832,1.0698814471193716,1.3575044650990535,-0.0014025745808789471,0.00039041238250204027,0.0009169893992673749,0.001509712342970676,-0.0006980214001917502,-0.0011939336005187548,-0.001347261437596251,-0.1793939769268036,-51.11081314086914,-9.491166114807129,17.18085479736328,1.8922830820083618,-1.1771347522735596,0.06596527993679047,,,,,,,,,
1739304953.5078056,-0.050898779118502456,1.104344655816855,-0.4830428809725061,-1.417374692874969,1.6243468102057756,1.0698843352480631,1.3575073038103869,0.0004126702231773057,-0.000903439258471725,-0.00021955935827322796,-0.00042044609451331747,-0.0003410989184493852,0.00032094186213127397,-0.0005763298546408613,-0.2309686839580536,-51.08700942993164,-9.491166114807129,17.23242950439453,1.9051004648208618,-1.1835434436798096,0.06596527993679047,,,,,,,,,
1739304953.518762,-0.05090072417467439,1.104342893603583,-0.48304120229170155,-1.417373651909648,1.6243507199861165,1.0698854570361462,1.3575092857904727,-0.00020323366592094703,0.0007845107273540836,0.00046035639384631123,3.750260380611266e-05,-0.00025250563911675386,0.0021921238243925324,0.001916523274541487,-0.2071649730205536,-51.05923843383789,-9.514969825744629,17.20862579345703,1.8721414804458618,-1.1835434436798096,0.05314789339900017,,,,,,,,,
1739304953.5287929,-0.050899476414820885,1.104339108211321,-0.4830456899373161,-1.417367643280022,1.6243501105883857,1.0698854502551318,1.3575085324936302,3.365068849979494e-05,0.000406235688290816,-0.00020035944672844907,0.0013670842187568856,0.0007869614658903409,7.702137652858867e-05,0.0014046728698216032,-0.2309686839580536,-51.03543472290039,-9.491166114807129,17.15705108642578,1.8785501718521118,-1.1835434436798096,0.05955658480525017,,,,,,,,,
1739304953.5407095,-0.05090055756768486,1.1043401635889758,-0.4830392526266003,-1.4173715721482032,1.624346206626769,1.0698847060040908,1.3575045275032231,0.00017342358691904334,0.0006192691232562204,0.00251835216943977,-0.00024344896117553587,-0.00012317837238884718,-5.423263254308039e-05,-0.0002532104209152407,-0.2071649730205536,-51.05923843383789,-9.542740821838379,17.18085479736328,1.8922830820083618,-1.1771347522735596,0.09343110024929047,,,,,,,,,
1739304953.551818,-0.050900464028162444,1.1043429867755323,-0.48304568897389905,-1.4173715721603186,1.6243487300683472,1.0698860599196813,1.3575076570956142,-0.0004182760378784802,0.0010527043909764808,0.00019654125095743677,-0.0012195831309325857,-0.00014734653986326956,0.0007646477079358671,0.0014330769393610095,-0.2071649730205536,-51.05923843383789,-9.491166114807129,17.18085479736328,1.8858743906021118,-1.1899521350860596,0.06596527993679047,,,,,,,,,
1739304953.5627413,-0.05090011914992947,1.104338625393794,-0.48304498572371224,-1.417373651950174,1.6243480237618955,1.0698838088032743,1.3575069069976644,-0.0002341409006880457,-0.0012384658300950045,-0.000878153233192287,-0.0006606193637947365,-0.001483492375952649,0.00027032247175340796,0.0014795378174590394,-0.2071649730205536,-51.00766372680664,-9.467362403869629,17.20862579345703,1.8858743906021118,-1.1972763538360596,0.07328949868679047,,,,,,,,,
1739304953.5737128,-0.050901513378161393,1.1043429965783087,-0.48304290982630066,-1.417373651950174,1.624348338750784,1.069883292418747,1.357510403514924,-0.0007920311260959084,0.00048531993967290194,0.00036645650493196584,-0.0012619654729372916,0.0005860423230372151,-0.0007692445474164712,0.0015537192311425726,-0.2071649730205536,-51.05923843383789,-9.491166114807129,17.20862579345703,1.8922830820083618,-1.1972763538360596,0.03941498324275017,,,,,,,,,
1739304953.5837548,-0.05089953206609666,1.104348705553199,-0.4830429863241845,-1.417373651950174,1.6243485694361632,1.0698854620977531,1.357503963319474,0.000144843779225524,0.002518205337100914,8.847302948760137e-05,-0.0011289994928412627,-0.0012733060923400753,0.00010914394259867302,-0.000439009369853471,-0.2071649730205536,-51.13858413696289,-9.491166114807129,17.20862579345703,1.8858743906021118,-1.1835434436798096,0.08610688149929047,,,,,,,,,
1739304953.5947587,-0.050900513713351324,1.1043464773228848,-0.4830429619648639,-1.4173708569045813,1.6243479212365064,1.0698836198750752,1.357507418850801,0.00033431802271039775,0.0008945134455054235,0.0004587460689939597,-4.2741182488384e-05,-0.0003514029816639125,0.00034594530202727684,0.0004006328676166254,-0.2071649730205536,-51.11081314086914,-9.491166114807129,17.18085479736328,1.8986917734146118,-1.1771347522735596,0.05955658480525017,,,,,,,,,
1739304953.604765,-0.05090089698862385,1.104344963347808,-0.483044744499997,-1.4173736519380613,1.6243498329660488,1.0698836148903936,1.3575076551386889,0.0002678422402032787,0.0012755759258648927,-0.0008720527189253508,-0.0008083028331814115,-0.00034360364786594643,0.00032034549256865485,0.00038535637502342226,-0.2309686839580536,-51.08700942993164,-9.467362403869629,17.20862579345703,1.8785501718521118,-1.1771347522735596,0.06596527993679047,,,,,,,,,
1739304953.6147828,-0.05090047976138892,1.1043457094706246,-0.48304180058713836,-1.4173753993059222,1.6243490828603684,1.0698843434460312,1.3575057980611376,-0.0002754156800610334,0.0007636487710083497,0.00037877192701265573,-0.0018357651866115542,0.0005209205608120524,0.0007352065494696394,0.0002797080643338215,-0.2071649730205536,-51.08700942993164,-9.514969825744629,17.23242950439453,1.8858743906021118,-1.1771347522735596,0.07969819009304047,,,,,,,,,
1739304953.6267648,-0.05090049033471151,1.1043392889664048,-0.4830429082198486,-1.4173736391950713,1.624349949244084,1.0698813925920208,1.357501388677597,-0.00030220155152098084,-0.0009515698107757007,-0.00015490989960641508,-0.0005108751793291669,-0.0002400569887168515,-0.0018469561080426886,-0.001403990676251353,-0.2071649730205536,-51.00766372680664,-9.491166114807129,17.20862579345703,1.8785501718521118,-1.1899521350860596,0.11998139321804047,,,,,,,,,
1739304953.6367788,-0.05090048264836721,1.104343949319055,-0.4830412022561896,-1.41737578877798,1.6243475680266974,1.0698813876005124,1.3575053720488253,-0.0001916417037646144,0.0010644627435449751,0.0014039129836160825,-0.0015050589053686148,-0.00020506656644907417,-0.0009517075060636654,-0.0007131907063649223,-0.2071649730205536,-51.05923843383789,-9.514969825744629,17.20862579345703,1.8986917734146118,-1.1899521350860596,0.07328949868679047,,,,,,,,,
1739304953.646798,-0.050902476691890505,1.1043450767487897,-0.4830420430437484,-1.417371545705553,1.624345152586589,1.069883003653777,1.3575022411458324,-0.0013232885700067488,0.0007087798261683558,0.0003744626125472593,5.493353963824038e-05,0.0010923244477728197,-0.0010222472458798915,-0.0016230403671108674,-0.1793939769268036,-51.08700942993164,-9.514969825744629,17.18085479736328,1.8922830820083618,-1.2036850452423096,0.11265717446804047,,,,,,,,,
1739304953.6577308,-0.05089947641066339,1.104337249159434,-0.4830432161053664,-1.4173733340949246,1.6243493872450603,1.069886564188006,1.3575077593499558,-0.00010251777749001464,-0.0011553753200660207,8.653114437562952e-05,-0.00043306135176137046,0.0003504654299102902,2.0980271571547726e-05,0.00040372286497163535,-0.2309686839580536,-51.00766372680664,-9.491166114807129,17.20862579345703,1.8922830820083618,-1.1972763538360596,0.05314789339900017,,,,,,,,,
1739304953.6677907,-0.0509024769444275,1.1043487077227736,-0.483043842962624,-1.417369426376958,1.624349083400787,1.0698845718875836,1.3575006248045276,-0.000855671984370689,0.002118055480878343,0.0005862548790821924,-6.815321964560151e-05,0.00018000246659361324,-0.0008105175084081178,-0.0007907431969117937,-0.1793939769268036,-51.13858413696289,-9.491166114807129,17.18085479736328,1.8858743906021118,-1.1771347522735596,0.12639008462429047,,,,,,,,,
1739304953.6788058,-0.05089876612197988,1.1043429984791613,-0.4830411016089124,-1.4173757888830307,1.6243483256867761,1.0698818380283028,1.3575062511555533,0.0012379375950533318,6.17912024603226e-05,-0.0003346688448906497,-0.0017636970434402048,-0.0004814601397936904,0.00011821502457192729,0.0008125721978112789,-0.2309686839580536,-51.05923843383789,-9.514969825744629,17.20862579345703,1.8922830820083618,-1.1835434436798096,0.05955658480525017,,,,,,,,,
1739304953.6897259,-0.050900481565709095,1.1043412864833073,-0.4830467783061857,-1.417371572196508,1.6243475673806753,1.069885085998754,1.3575030123597724,0.00032609841790446226,-0.00034945417034555246,-0.000535034574408956,1.4226974758118618e-06,-0.0005370933733201699,0.0010224183937863809,-0.0012182551668438255,-0.2071649730205536,-51.03543472290039,-9.467362403869629,17.18085479736328,1.8986917734146118,-1.1835434436798096,0.10624848306179047,,,,,,,,,
1739304953.699766,-0.050899850198006864,1.1043429994239666,-0.4830435829537327,-1.4173736872714453,1.62435418903481,1.0698841644549728,1.3575059869877657,-4.757622739182089e-05,3.9874056020858164e-05,2.9974962168521406e-05,-0.0007256782381340282,0.0015577934808868492,-9.147889114764253e-05,0.0006373501348046753,-0.2071649730205536,-51.05923843383789,-9.491166114807129,17.20862579345703,1.8785501718521118,-1.1771347522735596,0.05314789339900017,,,,,,,,,
1739304953.7107844,-0.05089876611843162,1.1043413124493835,-0.48304111024219265,-1.417369789483499,1.624348325764545,1.0698806342687592,1.3575025133275274,0.0009229871058342241,-0.000324912487604441,-0.00013802009602717868,0.0003011852878213805,0.0005616652378308513,-0.00037434985291427686,-0.0016463837622113322,-0.2309686839580536,-51.03543472290039,-9.514969825744629,17.15705108642578,1.8922830820083618,-1.1835434436798096,0.07328949868679047,,,,,,,,,
1739304953.7207885,-0.05089529242328942,1.1043422423061184,-0.4830400317855051,-1.4173738913498997,1.6243490848004059,1.0698821998072128,1.3574956172898738,0.0014680846758914068,6.35220854581733e-05,0.0006462057669454743,-0.00016655414887963672,0.0007465410454942476,0.0009915391187130084,-0.0012861148332256678,-0.2825433909893036,-51.08700942993164,-9.491166114807129,17.20862579345703,1.8858743906021118,-1.1972763538360596,0.13279877603054047,,,,,,,,,
1739304953.732774,-0.05089876615940214,1.1043440024668039,-0.48304203810402097,-1.417369789484651,1.6243490964288148,1.0698822001924957,1.3575029329300976,0.0003100638437251814,0.00014038382874833222,0.0009218497866434999,0.0001629328636441562,-0.0004965722659254961,-0.00019549417427565288,-0.001050116137819658,-0.2309686839580536,-51.08700942993164,-9.514969825744629,17.15705108642578,1.8858743906021118,-1.1972763538360596,0.07969819009304047,,,,,,,,,
1739304953.742789,-0.05090047864271061,1.1043447743485584,-0.4830410982598209,-1.4173750794818707,1.624349908060237,1.069882682364724,1.3575022110598185,5.2284774076480584e-05,0.00031091562358619813,0.0009335270981354941,-0.0008415606937518498,0.0002784647521514592,0.0004078337842451609,-0.0006092812350357565,-0.2071649730205536,-51.05923843383789,-9.514969825744629,17.20862579345703,1.8785501718521118,-1.1972763538360596,0.11265717446804047,,,,,,,,,
1739304953.7537081,-0.05089805583329563,1.1043412957435752,-0.48304180026477617,-1.4173736523942977,1.624345905885784,1.0698834802545274,1.3574990743701438,0.000737794874354896,-5.458118583684851e-06,0.0012574260886853586,-0.0006297622980945303,-0.0005662108926785469,0.0002247176060589622,-0.001364690206169221,-0.2309686839580536,-51.03543472290039,-9.514969825744629,17.20862579345703,1.8858743906021118,-1.2036850452423096,0.11265717446804047,,,,,,,,,
1739304953.7637863,-0.05090237177661838,1.1043430037847695,-0.483041913372968,-1.4173715707431147,1.6243515089080043,1.0698856189448003,1.3575076156963264,-0.00018177772665024057,0.0007120632397052866,0.0011418000036083715,-0.00042013574569811673,6.0470955846755935e-05,0.0004956051523243458,0.0009239836740602531,-0.1793939769268036,-51.05923843383789,-9.514969825744629,17.18085479736328,1.8922830820083618,-1.1972763538360596,0.06596527993679047,,,,,,,,,
1739304953.774754,-0.050898766121387565,1.1043453807753618,-0.4830449014684833,-1.4173771348879054,1.6243483254894047,1.069881508079767,1.3574986502932205,0.00021554453613505982,0.0004571991034415676,3.681131354709268e-05,-0.0011218724627332262,-0.0005464087834051729,-3.613539642709256e-05,-0.0015663521605906146,-0.2309686839580536,-51.05923843383789,-9.467362403869629,17.25623321533203,1.8922830820083618,-1.1899521350860596,0.10624848306179047,,,,,,,,,
1739304953.784822,-0.05089947543632987,1.1043392201404716,-0.4830452556369383,-1.4173708569031858,1.6243459058860132,1.0698813337464042,1.3575002884461516,0.00042615787945829474,-0.0008421689373851241,-0.001599180146549976,0.0009803564267623637,-2.6354223436435504e-05,-0.0005556595321061022,-0.0010848599401708707,-0.2309686839580536,-51.03543472290039,-9.491166114807129,17.18085479736328,1.8858743906021118,-1.1899521350860596,0.09343110024929047,,,,,,,,,
1739304953.7957413,-0.05090024220859761,1.104345859564467,-0.4830429069809856,-1.4173734135275575,1.624347685854001,1.0698821996406842,1.3575018950414826,-1.3804190406899793e-05,0.00041385125713104163,0.0001038599846768738,0.00044799481872090185,0.0010960047544313351,-0.0005439840462672942,-0.0015991840932687356,-0.2071649730205536,-51.05923843383789,-9.491166114807129,17.20862579345703,1.8986917734146118,-1.1972763538360596,0.07969819009304047,,,,,,,,,
1739304953.805759,-0.05090047863870637,1.104345023904212,-0.48304466371599214,-1.41737181057486,1.6243489656112797,1.0698805760833736,1.357503417017468,0.00013491305554501435,0.000973299217129525,-0.0008324323614838354,-0.0007516884513791358,-0.0001191345863884152,-9.699798362713324e-05,-0.001103828406447684,-0.2071649730205536,-51.08700942993164,-9.467362403869629,17.18085479736328,1.8858743906021118,-1.1835434436798096,0.06596527993679047,,,,,,,,,
1739304953.8167598,-0.05089789809962514,1.1043439622558018,-0.48304120229170194,-1.4173719352518572,1.6243483262244633,1.069881333908995,1.357503025898426,0.0012627326418966239,0.0019114261028644758,0.0011796475639398027,-0.00010310749116125388,-0.0001676928837108737,0.00010631403096028512,-0.0015173942348481824,-0.2309686839580536,-51.05923843383789,-9.514969825744629,17.15705108642578,1.8922830820083618,-1.1899521350860596,0.06596527993679047,,,,,,,,,
1739304953.826809,-0.050899210759586984,1.1043422710093989,-0.48304562936726825,-1.417370618522341,1.6243491224312143,1.0698813279292536,1.3575021689149047,0.0004789296403545833,0.00012326334045965393,0.0006520324610732588,0.0007662173929350065,0.0003501459988852326,3.391578663881397e-05,-0.0009258258162351892,-0.2547723948955536,-51.03543472290039,-9.467362403869629,17.18085479736328,1.8858743906021118,-1.1899521350860596,0.08610688149929047,,,,,,,,,
1739304953.8388119,-0.05089947642284,1.1043437412852313,-0.4830390184701116,-1.4173697907861114,1.6243510487578519,1.0698821996406513,1.3575045751246875,3.647842469879799e-05,0.0003436403778642388,0.001993030055317026,0.0001647906389910178,0.0010090900804911847,-6.608111471353382e-05,0.0003328163582446053,-0.2309686839580536,-51.05923843383789,-9.542740821838379,17.15705108642578,1.9051004648208618,-1.1972763538360596,0.07969819009304047,,,,,,,,,
1739304953.8497121,-0.05089705457691747,1.104343715807604,-0.4830452556447987,-1.417369789483302,1.6243479201542328,1.0698805760833736,1.3575009130426834,0.00045285017096146577,0.0016513556003146658,-0.00035527571348837824,0.0008312791311401164,-0.0013487258508259883,-0.00038696536240604947,-0.0009031408048505575,-0.2547723948955536,-51.05923843383789,-9.491166114807129,17.15705108642578,1.8922830820083618,-1.1835434436798096,0.11998139321804047,,,,,,,,,
1739304953.8597527,-0.05089876709632863,1.1043395277201449,-0.483041102253637,-1.4173754699484642,1.6243500674593059,1.0698813337434518,1.3574999344917287,-0.00028402392213599257,-2.8329407607739017e-05,0.0005515243479256083,-0.0015585920364859737,0.0008030259182914608,0.0006141928854658625,-0.0015212343604061355,-0.2309686839580536,-51.00766372680664,-9.514969825744629,17.23242950439453,1.8785501718521118,-1.1899521350860596,0.09343110024929047,,,,,,,,,
1739304953.870739,-0.0509004757197282,1.1043436381543295,-0.4830457672947774,-1.4173680764022554,1.624348443426348,1.0698829573007627,1.3575039800411481,-0.0003515960912590227,0.0009280921788274519,0.000571230594554287,0.0009389123587538197,7.207209965498153e-05,0.0004948351208687091,0.0010315620226492306,-0.2071649730205536,-51.05923843383789,-9.491166114807129,17.15705108642578,1.8922830820083618,-1.2036850452423096,0.08610688149929047,,,,,,,,,
1739304953.8807793,-0.05090039972172906,1.10434128788799,-0.48304311498691416,-1.4173715721143094,1.6243499318021486,1.0698801630237198,1.357504882765658,-0.0002887770100402625,-0.00027073398022792574,0.0002722905346083839,0.0004881642687970738,0.00012190059867887748,-0.0007577966750614356,0.0001503171121515986,-0.2071649730205536,-51.03543472290039,-9.491166114807129,17.18085479736328,1.8785501718521118,-1.1771347522735596,0.08610688149929047,,,,,,,,,
1739304953.8908103,-0.05089873981365439,1.104342150421416,-0.4830410982584792,-1.4173736519501734,1.6243490833465588,1.0698805586466065,1.3575085303854804,0.0005111384164637122,-0.0005521095737735214,0.0007178633406080947,0.00037068682781051107,0.0004701976970296712,-0.0008853007294561966,0.001210846768773919,-0.2309686839580536,-51.00766372680664,-9.514969825744629,17.20862579345703,1.8858743906021118,-1.1835434436798096,0.05955658480525017,,,,,,,,,
1739304953.9017496,-0.050898347848683974,1.104343025967414,-0.4830441662993584,-1.4173735724773144,1.624346918650138,1.069880576083275,1.3575062383767282,0.0005459732838948187,-0.001240431486897349,-0.0005432274726357993,-0.001304870649805649,-0.00036628999357354186,-4.4483182438324e-05,-0.00046330197327754173,-0.2071649730205536,-51.05923843383789,-9.514969825744629,17.20862579345703,1.8922830820083618,-1.1835434436798096,0.06596527993679047,,,,,,,,,
1739304953.9127479,-0.05089873980296253,1.1043471432412002,-0.48304394237101755,-1.41737157215987,1.624347569956822,1.0698821994791785,1.357501142709882,0.0003690347207933085,-5.8009458570521975e-05,0.000511840015120118,0.00017168284731874592,-0.000491017054988615,0.0007077826157814164,-0.0005425887610946243,-0.2309686839580536,-51.08700942993164,-9.514969825744629,17.18085479736328,1.8986917734146118,-1.1972763538360596,0.11265717446804047,,,,,,,,,
1739304953.924743,-0.05090258181136801,1.104344495264132,-0.48304120273574624,-1.4173716781241317,1.6243490839928876,1.0698798184232943,1.3575013872855834,-0.00044181162891367235,0.0005100497363564118,0.0012284836633169281,-0.0010607392408531764,-0.0006010467934627297,-0.0001710153378036424,-0.0003495561090778747,-0.1793939769268036,-51.03543472290039,-9.514969825744629,17.18085479736328,1.8858743906021118,-1.1771347522735596,0.07969819009304047,,,,,,,,,
1739304953.934755,-0.05089876612257322,1.1043434370855507,-0.4830448987182039,-1.4173697541626267,1.6243487286805978,1.0698813337434518,1.3575001582657786,0.00012601727850615647,0.0005486883731482375,-0.0008469496385661799,0.000458328090392328,-0.000459701898223208,0.00035965758651945214,-0.00018277415331305943,-0.2309686839580536,-51.03543472290039,-9.467362403869629,17.15705108642578,1.8858743906021118,-1.1899521350860596,0.12639008462429047,,,,,,,,,
1739304953.9447794,-0.05089876579720158,1.1043437982225817,-0.4830432046102714,-1.4173715724867693,1.624348325196253,1.0698813337434518,1.3574981759078744,0.00032272407531103213,0.0007426855086499219,0.0006597006177184556,-0.0003870437219547994,0.00046131381478218295,8.992306542813443e-05,-0.0010455122392401626,-0.2309686839580536,-51.05923843383789,-9.514969825744629,17.18085479736328,1.8922830820083618,-1.1899521350860596,0.10624848306179047,,,,,,,,,
1739304953.9547825,-0.05089876612197371,1.104341140071852,-0.4830431959676947,-1.4173715734685195,1.62434686269442,1.0698813337434518,1.357498903577083,0.00028597519276624887,-0.00017211296542517872,-0.00012013598919075337,0.0002959367656958138,0.0005908272901554157,0.00011973618981863285,-0.001040278185236694,-0.2309686839580536,-51.03543472290039,-9.491166114807129,17.18085479736328,1.9051004648208618,-1.1899521350860596,0.11265717446804047,,,,,,,,,
1739304953.9657216,-0.05090250299881095,1.1043469868950626,-0.4830442299646187,-1.417371572487375,1.624347450289423,1.0698813337434518,1.3575069206116983,-0.00028668027945695566,0.0021784569182002203,-0.0008028638457307003,0.00011368319294568347,-0.00022945990350493217,0.00037616592492022307,0.0024626257242054504,-0.1793939769268036,-51.11081314086914,-9.514969825744629,17.18085479736328,1.8986917734146118,-1.1899521350860596,0.03300629183650017,,,,,,,,,
1739304953.9767861,-0.050896975005508154,1.1043430115294661,-0.48304577890346984,-1.4173715986512776,1.6243475694782539,1.0698798184232952,1.3575033596746113,0.0014248920347614317,-0.0012503061682534746,-0.0018925629280455718,0.00016495691704094889,0.0006280894915354116,-3.505671504152962e-05,0.00025198439731523303,-0.2547723948955536,-51.05923843383789,-9.491166114807129,17.18085479736328,1.8986917734146118,-1.1771347522735596,0.06596527993679047,,,,,,,,,
1739304953.9877744,-0.05089873992280646,1.1043423466504518,-0.48304687786578115,-1.4173736519503237,1.6243460527065492,1.0698805760833736,1.357501422096962,0.0006223347363382679,-0.0006240563994655334,-0.0006702913827262017,-0.0011838331895755012,-0.0010754123994384187,-0.00022204743833926756,0.000398317676955631,-0.2309686839580536,-51.03543472290039,-9.467362403869629,17.20862579345703,1.9115091562271118,-1.1835434436798096,0.07969819009304047,,,,,,,,,
1739304953.998735,-0.05090237135556104,1.1043416342431762,-0.4830447705150599,-1.4173697924267388,1.6243490833468543,1.0698813337434518,1.357503006461677,-0.00046782912223508914,-0.00013615446282077968,-0.0007310195417350337,0.00017854604553374628,-0.00012412763680102825,0.0005824775443395275,0.0002817605465335905,-0.1793939769268036,-51.03543472290039,-9.467362403869629,17.15705108642578,1.8858743906021118,-1.1899521350860596,0.06596527993679047,,,,,,,,,
1739304954.00883,-0.05089976835224478,1.1043434331123971,-0.48304522235851405,-1.4173737179275805,1.6243483111512735,1.0698798184232952,1.357504066745755,0.00020848908202402073,-0.0007752650603068404,-0.0005979795112477893,-0.0006774817211475742,-0.0010555528569454213,0.00023425379669180863,0.0013994349845900934,-0.2071649730205536,-51.03543472290039,-9.491166114807129,17.18085479736328,1.8922830820083618,-1.1771347522735596,0.06596527993679047,,,,,,,,,
1739304954.019751,-0.050898766442747226,1.1043416435439062,-0.48304540447210553,-1.4173715724994804,1.6243472660485647,1.0698805746298232,1.3575045217881856,0.0008395011929377368,-0.0016323335560148211,-0.0008110540060612718,0.00022736058319774253,-0.0010968944485432943,7.73064473610374e-06,0.0008170953273076018,-0.2309686839580536,-51.03543472290039,-9.467362403869629,17.18085479736328,1.8922830820083618,-1.1835434436798096,0.05314789339900017,,,,,,,,,
1739304954.03079,-0.05090247658356527,1.104343238825708,-0.4830468224737059,-1.4173715721603206,1.6243448447883553,1.0698805759218597,1.357502140564371,-0.0011292983138278846,-0.0004263673313624146,0.00019294536380649397,3.074602643012914e-05,0.00022920588718540653,0.0001760821870470553,0.0018036483503710992,-0.1793939769268036,-51.05923843383789,-9.439591407775879,17.18085479736328,1.8858743906021118,-1.1835434436798096,0.07328949868679047,,,,,,,,,
1739304954.0408034,-0.050898740139768556,1.1043413000982607,-0.4830459239403136,-1.4173696305375802,1.6243458283573593,1.069884920599701,1.3574982440268253,-0.0006641086561851514,-0.0013724647177491317,-0.0006958180571958153,0.0003443655871293248,-0.001230535995131067,0.0013231848753847701,-0.0013550480260593376,-0.2309686839580536,-51.03543472290039,-9.491166114807129,17.15705108642578,1.8785501718521118,-1.1835434436798096,0.10624848306179047,,,,,,,,,
1739304954.0517902,-0.050898762188414534,1.1043439659986185,-0.4830450650163003,-1.4173689152809457,1.624349936677224,1.0698790667472977,1.3574983111748717,0.00018572055034140808,0.0011649860488085009,-0.00037958521555513943,0.002147939851508462,0.0007810144231724766,0.00032287933918655247,-0.0017030055492134356,-0.2309686839580536,-51.05923843383789,-9.491166114807129,17.15705108642578,1.8785501718521118,-1.1707260608673096,0.09343110024929047,,,,,,,,,
1739304954.0627067,-0.05090047864268819,1.1043434722851504,-0.4830457018602661,-1.4173697983086824,1.6243475699108585,1.0698813337434856,1.3574964875425581,-6.346482258942041e-05,0.0011779725430982376,-0.0009099765481318559,0.0005777564476872183,-0.0006135244693431253,0.0003950193824275659,-0.0010103557000969814,-0.2071649730205536,-51.03543472290039,-9.491166114807129,17.15705108642578,1.8986917734146118,-1.1899521350860596,0.09343110024929047,,,,,,,,,
1739304954.0727856,-0.0508987661219792,1.1043451540585085,-0.48304532512202697,-1.4173733428892026,1.6243489315809772,1.0698770951909344,1.3574997592915734,-0.00024385330124250678,-0.0009104861072773865,-0.0003229266274099902,-0.0006218562594257555,0.00048202685397142014,-0.0012737857423768544,-0.0008309774982794133,-0.2309686839580536,-51.05923843383789,-9.491166114807129,17.20862579345703,1.9051004648208618,-1.1899521350860596,0.09343110024929047,,,,,,,,,
1739304954.0837429,-0.05090271291342114,1.1043414440444814,-0.4830433083006151,-1.4173669284586057,1.6243499892929818,1.069881333719525,1.3574966219230642,-0.0005931650111899372,-0.001522878282054103,0.0015988689501951615,0.0013972149757866127,0.0008198182800213669,-7.867217458990884e-05,-0.0016867624113285776,-0.1793939769268036,-51.00766372680664,-9.514969825744629,17.15705108642578,1.9051004648208618,-1.1899521350860596,0.11998139321804047,,,,,,,,,
1739304954.0937588,-0.05090047572371397,1.1043478584242679,-0.4830434387541348,-1.4173757976689343,1.6243486277186623,1.0698813337434514,1.3575037641221466,0.0003332325089767147,0.0009368207820037456,0.0005182476169143271,-0.0006372157653875317,-4.406935549166962e-05,0.0001590464109109542,0.00036601303644686646,-0.2071649730205536,-51.08700942993164,-9.514969825744629,17.20862579345703,1.8986917734146118,-1.1899521350860596,0.05955658480525017,,,,,,,,,
1739304954.1047583,-0.05090247658354698,1.104348211761987,-0.4830414491123618,-1.4173739260291858,1.6243486837506353,1.069881329382801,1.3575053252929599,-0.0009767776638003448,0.000888580094522178,0.0008559612670802674,-0.0009991749893385883,-0.0001895382341045561,9.127823559703627e-05,0.0008503689285571812,-0.1793939769268036,-51.08700942993164,-9.514969825744629,17.20862579345703,1.8922830820083618,-1.1899521350860596,0.07328949868679047,,,,,,,,,
1739304954.1147616,-0.0508987661219792,1.10434535466557,-0.48304191711193184,-1.4173715721649602,1.624348325208323,1.069881333743378,1.3574966206849537,0.0006203895571101846,0.0009669321190902151,0.0002919122192876807,0.0009590710362517321,-0.00023109381325527349,0.0008582560284413341,-0.0014358241312639164,-0.2309686839580536,-51.08700942993164,-9.514969825744629,17.18085479736328,1.8922830820083618,-1.1899521350860596,0.11998139321804047,,,,,,,,,
1739304954.1247659,-0.050900345717512736,1.1043450768437328,-0.48304596086696167,-1.4173736548936136,1.6243499492440787,1.0698805760833736,1.3574981233458197,-0.0009400414685355398,0.0007170139047262174,-0.00029103260380170036,-0.0006498301997667612,0.0005283229172117147,0.00037632420004366586,-0.00107204122800263,-0.1793939769268036,-51.08700942993164,-9.491166114807129,17.20862579345703,1.8785501718521118,-1.1835434436798096,0.10624848306179047,,,,,,,,,
1739304954.13573,-0.0509004785945952,1.1043441479266358,-0.4830431410953843,-1.4173715457783984,1.6243490848004045,1.0698787189137884,1.3575006252435329,0.0005370548627070441,0.0003399375449266947,0.0010950177888069805,0.0004114950225955207,-0.0008925600253170613,-0.0005980351068941993,-4.99407561565133e-05,-0.2071649730205536,-51.03543472290039,-9.491166114807129,17.18085479736328,1.8858743906021118,-1.2036850452423096,0.08610688149929047,,,,,,,,,
1739304954.1468034,-0.05090047875096879,1.1043444143013825,-0.48304603982161726,-1.4173734135311482,1.6243499382078788,1.0698805745580457,1.3575013426772893,-0.00012595450234058203,0.0004083758645832943,-0.0007427831910578916,-0.00039263517830934153,0.0001362399814000732,0.00014530842206071672,0.0002493644676813536,-0.2071649730205536,-51.03543472290039,-9.491166114807129,17.20862579345703,1.9115091562271118,-1.1835434436798096,0.07969819009304047,,,,,,,,,
1739304954.1577005,-0.05089705360124863,1.104346793446008,-0.4830451039640257,-1.4173737402883444,1.6243490833687881,1.0698821996406755,1.3575004638393453,0.0014582327396890167,0.0013752874077989923,0.000800881133664716,-0.0005743914162494776,2.8036766716710222e-05,0.0001382315892744829,-0.0010558781582926098,-0.2547723948955536,-51.11081314086914,-9.491166114807129,17.20862579345703,1.8858743906021118,-1.1972763538360596,0.08610688149929047,,,,,,,,,
1739304954.1677942,-0.05089592496724491,1.1043414348390848,-0.48304422259256546,-1.4173718928866792,1.6243462216787699,1.0698813337434518,1.3574966204686032,0.0004713081649644262,-0.0011811207946420847,0.0006032764356549158,-0.0002039643223989578,-0.0006618833617137435,0.0005580026204495464,-0.001335316629468371,-0.2309686839580536,-51.00766372680664,-9.514969825744629,17.18085479736328,1.9051004648208618,-1.1899521350860596,0.11998139321804047,,,,,,,,,
1739304954.1787975,-0.050900478626672,1.1043443863932185,-0.4830475857265135,-1.4173715637678765,1.624350903130125,1.0698773971689854,1.3575017785213435,-0.00011108971852718223,-0.0003224764139995637,-0.0005141129992704271,0.0007198137569001098,0.0015045078405304289,-0.0004098399976981488,0.0007646247064611008,-0.2071649730205536,-51.03543472290039,-9.467362403869629,17.18085479736328,1.8721414804458618,-1.1835434436798096,0.07328949868679047,,,,,,,,,
1739304954.1897283,-0.05089876612197911,1.1043480971508959,-0.4830411794820744,-1.4173715721602713,1.624349135191254,1.0698795164272992,1.3575045217801565,-0.0007326107114798769,0.0009100552796983776,0.002061789698954586,0.0009731684649993418,0.0010504007133960733,-0.0008428420827563102,0.0020243213783417047,-0.2309686839580536,-51.08700942993164,-9.514969825744629,17.18085479736328,1.8858743906021118,-1.1835434436798096,0.05314789339900017,,,,,,,,,
1739304954.2007105,-0.05090046662593797,1.1043432771422421,-0.4830439332593737,-1.4173697894832995,1.6243508231884773,1.069880222864682,1.3575032411710823,9.353467940110886e-05,-0.0006621109348244535,-0.00019401558741129172,0.0005842323331464038,-0.0005688987011226936,0.0002700825883997165,0.000758465510834913,-0.2071649730205536,-51.05923843383789,-9.514969825744629,17.15705108642578,1.8721414804458618,-1.1835434436798096,0.05955658480525017,,,,,,,,,
1739304954.2107198,-0.050900478642506894,1.1043424807453959,-0.48304134428966095,-1.4173746702936518,1.6243484448798655,1.0698805760773917,1.357503006452747,-0.0010068501682739064,-0.00010821801473074699,0.0009757790248553907,-0.0007793715229895538,0.0012759217545999717,0.00010294447661665959,4.222653906786573e-05,-0.2071649730205536,-51.00766372680664,-9.514969825744629,17.18085479736328,1.8922830820083618,-1.1835434436798096,0.06596527993679047,,,,,,,,,
1739304954.2207866,-0.05089877781397399,1.1043442671350217,-0.48304113709875596,-1.4173698279094933,1.624349083348873,1.069880862793172,1.3575013829042921,6.023557432942382e-05,8.433680131465752e-05,0.0009757751256365332,-0.00011892439862099349,0.00034686727834896513,-0.0008123885789948124,0.0007094970494875983,-0.2309686839580536,-51.03543472290039,-9.514969825744629,17.15705108642578,1.8858743906021118,-1.1899521350860596,0.07969819009304047,,,,,,,,,
1739304954.232735,-0.05090055752765484,1.1043423509551802,-0.4830447455688185,-1.4173715760851213,1.6243443891661449,1.0698813206588411,1.3574989956721664,-0.00023282351070500116,-0.0015856883810223114,8.528259175329426e-05,-0.00011490623593537317,-0.002887619288912463,-0.00031956204403693655,-0.0019270647637764928,-0.2071649730205536,-51.03543472290039,-9.467362403869629,17.18085479736328,1.8986917734146118,-1.1899521350860596,0.09983979165554047,,,,,,,,,
1739304954.242776,-0.05090047572015701,1.1043482411862353,-0.48304751059713025,-1.417370902212374,1.6243507088242872,1.0698793474729416,1.357503764122088,-0.0006673824740566236,0.0012706535253087625,-0.0008819855009205668,0.000615403427060538,0.0006734032550935753,-0.0007778865827916988,0.0024419367138938538,-0.2071649730205536,-51.08700942993164,-9.467362403869629,17.15705108642578,1.8721414804458618,-1.1771347522735596,0.05955658480525017,,,,,,,,,
1739304954.252808,-0.050902475284403434,1.1043434710991107,-0.4830393306244316,-1.4173747206984955,1.6243499492441194,1.0698781155752315,1.3574997593469817,-0.0009525048410991273,-5.1865245337276786e-05,0.0015205182088871038,-0.0009929223145434707,-5.1917662699880714e-05,-0.0007651198915583347,0.0001656445593279962,-0.1793939769268036,-51.03543472290039,-9.542740821838379,17.23242950439453,1.8785501718521118,-1.1899521350860596,0.09343110024929047,,,,,,,,,
1739304954.2637784,-0.05089687158577883,1.1043451584308182,-0.4830453346344552,-1.4173738815344055,1.624348078222834,1.0698829572825959,1.3575068895905886,0.00038479104040222843,-0.0006244119723873415,0.00014639416791926274,-0.0015038051629079228,-0.0001311249058050113,0.0011473067233084392,0.002385373597314106,-0.2309686839580536,-51.05923843383789,-9.491166114807129,17.20862579345703,1.8986917734146118,-1.2036850452423096,0.03300629183650017,,,,,,,,,
1739304954.2747195,-0.05089845042742513,1.1043395671114122,-0.4830440200833631,-1.4173715723069698,1.6243473844889542,1.0698805760833734,1.3575030064615274,-0.00012430404070925475,-0.00203116341316448,-0.00028341740210823576,-3.7923532410921864e-06,-0.0008433823642092149,-4.7233948018703104e-05,0.0012522530286549084,-0.2309686839580536,-51.00766372680664,-9.514969825744629,17.18085479736328,1.8922830820083618,-1.1835434436798096,0.06596527993679047,,,,,,,,,
1739304954.28473,-0.05090247657821714,1.1043481324593807,-0.4830438527318447,-1.4173715751037603,1.6243490310031061,1.0698805755988567,1.357500625244214,-0.0008922036787501312,0.0006047228687959561,6.907279404349626e-06,-0.000425593913253094,0.0006304997754881117,0.00023424933488371653,-0.000582868802695217,-0.1793939769268036,-51.08700942993164,-9.491166114807129,17.18085479736328,1.8858743906021118,-1.1835434436798096,0.08610688149929047,,,,,,,,,
1739304954.2967875,-0.050898766121979175,1.1043424280308551,-0.4830459618215571,-1.4173736519501907,1.624344805548185,1.069880576083371,1.3574970370595787,0.0002316578018782652,-0.0004917281922146694,-0.00018065100426939434,0.00032182629788320345,-0.00048564683716611053,-8.17609878852407e-05,-0.0024576387979405186,-0.2309686839580536,-51.00766372680664,-9.491166114807129,17.20862579345703,1.8858743906021118,-1.1835434436798096,0.07969819009304047,,,,,,,,,
1739304954.3077672,-0.05089918443121233,1.1043499549181583,-0.48304680860409277,-1.4173754346635319,1.6243487574369848,1.0698810587894652,1.3575040390679312,0.000687481687871101,0.0021233368434054054,-7.903288532837979e-05,-0.001853899262788544,-5.14096335871811e-05,-3.5381551202578073e-06,0.001518531232933194,-0.2547723948955536,-51.11081314086914,-9.467362403869629,17.23242950439453,1.8922830820083618,-1.1835434436798096,0.05314789339900017,,,,,,,,,
1739304954.3187897,-0.05090048006210874,1.1043484534168828,-0.4830413418998146,-1.4173736519501743,1.624346912838374,1.0698805760860985,1.3575005094306272,-0.00042039668010170745,0.0006079398519546688,0.001479142086832278,-0.0007037631925185854,-0.0020607604904212345,0.00026209222984736435,0.0011982663082336828,-0.2071649730205536,-51.08700942993164,-9.514969825744629,17.20862579345703,1.8922830820083618,-1.1835434436798096,0.05955658480525017,,,,,,,,,
1739304954.3297312,-0.050902444430585794,1.1043445026119567,-0.4830454034972864,-1.4173708569045815,1.624347566080655,1.0698773971689854,1.357505274954239,-0.0004527975587139548,-0.00011285264230189945,-0.0005393455601256218,-8.637480959577888e-05,-0.00034421415441002016,-0.0007196074319714917,0.0006986583285737088,-0.1793939769268036,-51.03543472290039,-9.467362403869629,17.18085479736328,1.8986917734146118,-1.1835434436798096,0.04673920199275017,,,,,,,,,
1739304954.3408053,-0.05090024090530147,1.1043445065351856,-0.48304592394315116,-1.4173716516291408,1.6243490833468432,1.0698805760115933,1.3575065394666477,-0.0008077652621463296,0.0009841625640420858,-0.0015062189309074023,0.00032741326298077055,0.0003256029952477739,0.0004115510856725869,0.0016894367592443036,-0.2071649730205536,-51.03543472290039,-9.491166114807129,17.18085479736328,1.8858743906021118,-1.1835434436798096,0.03300629183650017,,,,,,,,,
1739304954.3508198,-0.05090331968515938,1.1043462180748036,-0.4830459493489035,-1.4173744331846136,1.6243449610783567,1.0698813337434505,1.3575037462372974,-3.305203764455126e-05,0.00040113241216989046,-0.0004082595178901664,-0.0007342900814960927,0.00025744254630378073,0.0006008371701827129,0.001229489664272303,-0.2071649730205536,-51.05923843383789,-9.491166114807129,17.18085479736328,1.8858743906021118,-1.1899521350860596,0.05955658480525017,,,,,,,,,
1739304954.3626974,-0.050898766246276185,1.1043424984558363,-0.4830438468504907,-1.4173697898628377,1.6243483125815534,1.0698805760833736,1.357503764122021,-0.0003071733979750047,-0.001464405421518742,-0.0007696122925294358,0.0010923222677035609,-0.0007111322549030574,1.822621094837543e-05,0.0020760020673131086,-0.2309686839580536,-51.00766372680664,-9.491166114807129,17.15705108642578,1.8922830820083618,-1.1835434436798096,0.05955658480525017,,,,,,,,,
1739304954.3727975,-0.05089875735298381,1.1043462181837516,-0.4830432190489249,-1.4173697908278358,1.624347581162411,1.0698838344706212,1.3575019069235197,0.000980810394591754,0.0005617643776512281,-4.7772890233786444e-05,0.0008543523403667285,0.0001046428971376296,0.0008471174976026146,0.00037667824462590284,-0.2309686839580536,-51.05923843383789,-9.491166114807129,17.15705108642578,1.8986917734146118,-1.1835434436798096,0.06596527993679047,,,,,,,,,
1739304954.3828022,-0.05090048741155799,1.1043482438147902,-0.48304677831185494,-1.4173680185800603,1.6243490833470766,1.0698805761385546,1.3574971534094549,-0.00025112061594092833,0.0007256149954577738,0.0007063439852405208,0.0013211013609811591,0.0007448151766459574,3.823568736384312e-05,-0.0005696429545207838,-0.2071649730205536,-51.08700942993164,-9.467362403869629,17.13324737548828,1.8858743906021118,-1.1835434436798096,0.10624848306179047,,,,,,,,,
1739304954.3937116,-0.05090089698817842,1.104346658843861,-0.48304602990226136,-1.417371572160518,1.6243490944907395,1.0698773971689863,1.3575030064431335,0.00010126022800815006,-0.00017556022028531598,-0.0002691214190282625,0.00014847147639479485,9.470629780862665e-05,8.340742275235768e-05,0.0008897804995914358,-0.2309686839580536,-51.03543472290039,-9.491166114807129,17.18085479736328,1.8858743906021118,-1.1835434436798096,0.06596527993679047,,,,,,,,,
1739304954.4037888,-0.05090024481484338,1.104344505566211,-0.48304320861863725,-1.417371563766066,1.624347405229133,1.0698798140446992,1.3575045217822002,0.0003067071411717967,0.0006366267384699326,0.0012432801143504291,0.0005551913722994696,-0.0008075219535927348,-4.5605465405700545e-05,0.0018123068826756794,-0.2071649730205536,-51.03543472290039,-9.514969825744629,17.18085479736328,1.8986917734146118,-1.1771347522735596,0.05314789339900017,,,,,,,,,
1739304954.4147844,-0.05089876319766054,1.1043455018379034,-0.48304311637350045,-1.41737189005171,1.6243466926281305,1.069881333743427,1.3575016221703347,0.0005526015367903778,0.0001408115620963043,0.0002886677255575583,0.00016751688657053258,-0.001809745561427893,0.0006787875188098339,-0.0011638159048255005,-0.2309686839580536,-51.05923843383789,-9.491166114807129,17.18085479736328,1.9051004648208618,-1.1899521350860596,0.06596527993679047,,,,,,,,,
1739304954.4257169,-0.05090047864269389,1.1043425192739003,-0.4830413708853437,-1.4173715731432597,1.6243490833461898,1.0698821994791785,1.357497673869328,-0.00010756226195335331,-6.38118171520017e-05,0.00022506055844611088,0.00040251134698983827,-0.0007213588436151533,0.0004797007443720678,-0.00022279638417021185,-0.2071649730205536,-51.00766372680664,-9.514969825744629,17.18085479736328,1.8858743906021118,-1.1972763538360596,0.07328949868679047,,,,,,,,,
1739304954.4367495,-0.05089868716492796,1.1043423596415547,-0.4830447715705183,-1.4173726806152278,1.6243514645642434,1.0698798184232943,1.3574997587699564,0.0014269028943892667,3.638682480143322e-05,-0.0004849037550553265,0.000468217457369754,0.0009561745342586974,3.880803714422193e-05,-0.00034304887898646227,-0.2309686839580536,-51.03543472290039,-9.467362403869629,17.20862579345703,1.8657327890396118,-1.1771347522735596,0.09343110024929047,,,,,,,,,
1739304954.4467747,-0.05089835167265413,1.1043425115014474,-0.4830420690441955,-1.417375806531254,1.6243490833468541,1.0698821996406842,1.3575030064615934,0.0012837668053739266,-0.0012450539869866227,-0.00015644285333896017,-0.0006604493120087973,0.0014332175338671116,0.00039213583139995046,0.001698750561553575,-0.2071649730205536,-51.00766372680664,-9.514969825744629,17.20862579345703,1.8858743906021118,-1.1972763538360596,0.06596527993679047,,,,,,,,,
1739304954.4568198,-0.05090246478350739,1.1043445055542533,-0.4830460010264587,-1.4173715722697828,1.6243490833468541,1.0698813337434518,1.3575045377349142,-0.001041028192233829,-0.0002384202296571681,-0.00017729270474249956,0.00034412507550423094,-0.00027055571992953484,-0.00014080472211312395,0.0012636439723245712,-0.1793939769268036,-51.03543472290039,-9.491166114807129,17.18085479736328,1.8858743906021118,-1.1899521350860596,0.05314789339900017,,,,,,,,,
1739304954.468766,-0.050900477343577666,1.1043455028553884,-0.483041813229227,-1.4173736254955598,1.6243480648926487,1.0698829573007627,1.3574954939479154,-0.0002768282320306986,-1.9568574396754362e-05,0.0005639075972407996,-0.0004235337382860081,-0.00012678446127188116,0.00039981559289433755,-0.0024328932494625142,-0.2071649730205536,-51.05923843383789,-9.514969825744629,17.20862579345703,1.8858743906021118,-1.2036850452423096,0.11998139321804047,,,,,,,,,
1739304954.4787824,-0.05090047763228376,1.1043452212418208,-0.48304124148335514,-1.417373890368604,1.6243510601111257,1.0698802228706639,1.3574995962805485,-7.214104449066063e-05,0.0001183022603787454,0.0011446492998994457,0.00022540455811450395,0.0012190632494604229,-0.0005251278743780973,-0.00030504270758834214,-0.2071649730205536,-51.03543472290039,-9.542740821838379,17.20862579345703,1.8721414804458618,-1.1835434436798096,0.09343110024929047,,,,,,,,,
1739304954.4887826,-0.050901188498340015,1.1043437903104387,-0.4830442572848368,-1.4173715721643563,1.6243483256927578,1.069879303214504,1.3574996986170709,-0.0009981071971006457,-0.00035638705766595616,-0.0004644515957860021,0.0004588413349141295,-0.00023117370537376075,-0.001498450103485872,-0.000184273479353541,-0.2071649730205536,-51.03543472290039,-9.514969825744629,17.18085479736328,1.8922830820083618,-1.1771347522735596,0.09983979165554047,,,,,,,,,
1739304954.4988244,-0.05089876485893308,1.1043445025742784,-0.48304351933928424,-1.417369471591861,1.6243470970764182,1.0698813337172763,1.3575001425555853,0.001157182659647219,-0.0006135676814280376,0.0016799926734316923,0.0020440845951126387,-0.0010334998190960907,0.0004885002127560323,-0.0008113783356367306,-0.2309686839580536,-51.03543472290039,-9.514969825744629,17.15705108642578,1.8986917734146118,-1.1899521350860596,0.08610688149929047,,,,,,,,,
1739304954.50973,-0.05089876612197683,1.1043445055540502,-0.483047787011299,-1.4173715721597206,1.6243452654781054,1.069881333528111,1.3575034020597925,0.00010694772355087327,0.00026240082990141027,-0.0013675186919979495,-0.0005160682320848816,-0.0003090698351251359,0.0005034545616870381,0.0016440552956321296,-0.2309686839580536,-51.03543472290039,-9.467362403869629,17.18085479736328,1.8922830820083618,-1.1899521350860596,0.05955658480525017,,,,,,,,,
1739304954.520762,-0.05090247658356346,1.104344269751867,-0.48304755302055236,-1.4173705047390368,1.624348330318613,1.069878156318949,1.3575033469470699,-0.00032327708804321943,-0.0007064113176953439,-0.0008256068981698971,0.0004933262669571044,-2.9060752881396518e-05,-0.00015456491437626144,-0.0006318912959851258,-0.1793939769268036,-51.03543472290039,-9.467362403869629,17.15705108642578,1.8922830820083618,-1.1899521350860596,0.05955658480525017,,,,,,,,,
1739304954.531744,-0.05090247658356346,1.1043471756732455,-0.4830441789423829,-1.4173736480269343,1.6243491284069205,1.0698821996167602,1.3575013833880243,-0.0005885126202677777,0.0006439439713979602,0.0009969606584444167,-0.00018810820713093717,0.0008000571370867901,0.0002874026798451131,5.046746737631571e-05,-0.1793939769268036,-51.05923843383789,-9.514969825744629,17.20862579345703,1.8858743906021118,-1.1972763538360596,0.07969819009304047,,,,,,,,,
1739304954.54273,-0.05089873851588039,1.1043445055594614,-0.4830411273038804,-1.4173697894832775,1.6243468103668737,1.0698813318053846,1.3574997593469846,0.0005559419395991576,-0.0014305733497693306,0.0021134416262870905,0.0009303566642467928,0.0009739483533415012,0.0008227812081395405,-0.0003240213164806897,-0.2309686839580536,-51.03543472290039,-9.514969825744629,17.15705108642578,1.9051004648208618,-1.1899521350860596,0.09343110024929047,,,,,,,,,
1739304954.5527556,-0.050896635255460974,1.1043441906060563,-0.4830439352923587,-1.417371573468514,1.624348760960786,1.0698808627931393,1.3575030064616034,0.0012878779419364067,-0.0007428553215169833,0.001136858002260363,-0.0002633499263349403,0.002175769416474444,-0.0009987297345079645,0.0019651184616559037,-0.2309686839580536,-51.03543472290039,-9.514969825744629,17.18085479736328,1.8657327890396118,-1.1899521350860596,0.06596527993679047,,,,,,,,,
1739304954.5627685,-0.05089908176975216,1.1043483638366651,-0.4830485304033716,-1.417373660780514,1.624348614288856,1.0698813337354762,1.357498983642692,-0.0003528834968144295,0.000309199115182295,-0.0006696309190177374,-0.0007594575973927637,6.802628859933315e-05,-0.000600595463897319,-0.00043027656391450987,-0.2309686839580536,-51.05923843383789,-9.415787696838379,17.20862579345703,1.8858743906021118,-1.1899521350860596,0.09983979165554047,,,,,,,,,
1739304954.5737047,-0.05090047864805592,1.1043425341404947,-0.4830436090492459,-1.4173690729195165,1.6243475767400555,1.0698817286904043,1.357495401421345,-0.0005319869956566751,-0.00045988055037980284,-0.00032212537743116633,0.0009646513116233204,-0.0006077809135754285,9.286068384373441e-05,-0.0009859423917165694,-0.2071649730205536,-51.00766372680664,-9.491166114807129,17.15705108642578,1.8986917734146118,-1.1972763538360596,0.09343110024929047,,,,,,,,,
1739304954.5837066,-0.050900486437373625,1.1043445055542056,-0.4830452252854108,-1.4173697924226938,1.6243459037864934,1.0698813337407933,1.3574997547975332,-0.00042394624157314346,-0.0012113872908858573,-0.0003914354989909152,0.0014798173295107481,-0.0012815061424990347,0.00023114537076708108,0.0004243346603433506,-0.2071649730205536,-51.03543472290039,-9.491166114807129,17.15705108642578,1.8858743906021118,-1.1899521350860596,0.09343110024929047,,,,,,,,,
1739304954.594778,-0.05089947626636116,1.104344505554056,-0.4830436959443349,-1.417371571179189,1.6243490833289056,1.0698802741053224,1.3575012095381986,0.0008749350006671124,-0.0003712126438038672,4.733729512808603e-05,-0.0003477105622999081,0.00016470906517831744,-0.00045283748019089994,0.0008407297377772232,-0.2309686839580536,-51.03543472290039,-9.491166114807129,17.18085479736328,1.8858743906021118,-1.1899521350860596,0.05314789339900017,,,,,,,,,
1739304954.6057563,-0.050900478646719184,1.1043484809251722,-0.4830495774444326,-1.4173737314230284,1.624348308244173,1.069879060757235,1.3574982439529464,-0.00019103279869971495,0.0008569024037297071,-0.0009891033623114333,-8.978712923173683e-05,-0.001230726886193891,-0.0006272072921153485,-0.00020772649042267554,-0.2071649730205536,-51.08700942993164,-9.439591407775879,17.20862579345703,1.8922830820083618,-1.1707260608673096,0.10624848306179047,,,,,,,,,
1739304954.6177008,-0.05089873981499095,1.1043482291717652,-0.4830456866271585,-1.4173736696112582,1.6243483256866775,1.0698805702691725,1.3575030671539041,-0.00010543615645007066,0.0015705182605291607,-0.0008857001370229862,-0.0007489849210182473,0.00023378659998971708,0.0005040419037391847,0.0016536994971849742,-0.2309686839580536,-51.08700942993164,-9.467362403869629,17.20862579345703,1.8922830820083618,-1.1835434436798096,0.05314789339900017,,,,,,,,,
1739304954.6287208,-0.05089662645069749,1.1043469245366195,-0.4830449786148174,-1.4173726052712556,1.6243475549447455,1.069881333743419,1.3575037641139105,0.0009564529580889683,-0.00041153708280928576,0.00039754585063988423,-0.0008767064032634881,-0.0013500420500621017,0.0003248009167509652,0.001484881412468132,-0.2309686839580536,-51.05923843383789,-9.467362403869629,17.18085479736328,1.8986917734146118,-1.1899521350860596,0.05955658480525017,,,,,,,,,
1739304954.6388264,-0.0509021433496334,1.1043462170976286,-0.48304710807404394,-1.4173715726385545,1.6243507069040912,1.0698805760833736,1.3574957432996557,-0.0010882593335962616,-5.1319753549974075e-05,-0.0007158182739375634,0.0011315995181290096,-3.019576638129144e-05,-0.00018652753583076864,-0.0013610683493202474,-0.1793939769268036,-51.05923843383789,-9.467362403869629,17.18085479736328,1.8721414804458618,-1.1835434436798096,0.09983979165554047,,,,,,,,,
1739304954.65077,-0.050902397660717504,1.104344267135471,-0.4830436639883287,-1.4173760371171142,1.6243487810084032,1.0698805760833736,1.357498877468338,-0.0008123417963864473,-0.0008990391791757878,0.00017389364579935507,-0.0014292876219217706,0.0005597299428076628,0.000205547916365132,-0.00015489023873219263,-0.1793939769268036,-51.03543472290039,-9.491166114807129,17.20862579345703,1.8858743906021118,-1.1835434436798096,0.07328949868679047,,,,,,,,,
1739304954.6617446,-0.050905901624877334,1.1043424281398946,-0.48304593207225405,-1.4173697894999007,1.6243515046005952,1.0698791632325344,1.3574974205714783,-0.002548154797404584,-0.0012503059296152515,-0.0009965657704522738,-0.000292202987269744,-3.28940660750748e-05,-0.0011880013761657155,-0.0023636826425184696,-0.1317865550518036,-51.00766372680664,-9.491166114807129,17.15705108642578,1.8922830820083618,-1.1835434436798096,0.07328949868679047,,,,,,,,,
1739304954.672694,-0.050900152890744406,1.10434821605153,-0.4830432317933924,-1.4173736519501743,1.6243509696543048,1.069880574137331,1.3574966159732027,0.0007080771886109139,0.0010576998892043948,0.00026766626382548496,-0.0001286295985401326,0.00018092312326804176,0.00012540680832795863,-0.0009344174181285966,-0.2071649730205536,-51.08700942993164,-9.491166114807129,17.20862579345703,1.8785501718521118,-1.1835434436798096,0.11998139321804047,,,,,,,,,
1739304954.6828418,-0.05089876611646257,1.1043462180747876,-0.4830435946104589,-1.417370156825127,1.6243475636833276,1.0698805760833405,1.357503227762005,0.00048357069771148224,0.0014842688593897616,-0.0001805977936473395,0.0002193034365083412,0.0006352821149116102,-0.00014609735929988626,-0.0004226373864813736,-0.2309686839580536,-51.05923843383789,-9.491166114807129,17.13324737548828,1.8986917734146118,-1.1835434436798096,0.05955658480525017,,,,,,,,,
1739304954.6937153,-0.05089705360124799,1.1043499285727099,-0.48304215082811247,-1.417373651962311,1.6243483271403016,1.0698805760295385,1.357497486363719,0.0004638823626302148,0.0013824462154991208,-0.0007030169374069744,-0.0006375400769363078,0.0004516826190352737,6.526240859054927e-05,-0.001505271780987604,-0.2547723948955536,-51.11081314086914,-9.514969825744629,17.20862579345703,1.8922830820083618,-1.1835434436798096,0.11265717446804047,703,744,706,44.215,0,0
1739304954.703725,-0.050902371355610335,1.1043443735353553,-0.48304701521630566,-1.4173759119004168,1.6243511513884792,1.0698805630014203,1.3575037634599492,-0.00010024369147993307,-0.0006118314618430885,-0.0006253639833742176,-0.0014509626110422108,-0.0002983038788874822,0.00018021333094922227,0.000348413315681404,-0.1793939769268036,-51.03543472290039,-9.467362403869629,17.23242950439453,1.8922830820083618,-1.1835434436798096,0.05955658480525017,704,743,705,44.215,0,0
1739304954.715805,-0.05089876612138519,1.1043425074671025,-0.48304315007905857,-1.4173680066636196,1.624347569496199,1.069881216005808,1.3574970383879583,0.00016823353958310834,-0.0018409327516258852,0.00014483641464634815,0.0013289622032328788,-0.0002715788794782285,-1.3812988622888072e-05,0.00027180462781309573,-0.2309686839580536,-51.00766372680664,-9.491166114807129,17.13324737548828,1.8986917734146118,-1.1899521350860596,0.07969819009304047,705,743,704,43.998,0,0
1739304954.7267425,-0.05090416279730636,1.1043482954884989,-0.4830459503688636,-1.4173715829529285,1.6243475673806835,1.0698813322892369,1.35750286782222,-0.0008605822840645537,0.0008624996153742434,7.97282900556923e-05,0.0006224767085616049,0.00019185485922457944,0.0006789552338395752,0.0004878173522401408,-0.1555902659893036,-51.08700942993164,-9.491166114807129,17.18085479736328,1.8986917734146118,-1.1899521350860596,0.06596527993679047,704,742,707,44.106,0,0
1739304954.7367487,-0.05089942636303068,1.1043462449295764,-0.48304499964100833,-1.4173753551543944,1.6243467315683555,1.0698780370914855,1.3574965801865475,0.00030246440572248936,0.00016347275446612977,0.001061003151546542,-0.0015627918357277901,0.00016672973028450714,-0.0013661822808098815,-0.0011585991464534498,-0.2071649730205536,-51.05923843383789,-9.491166114807129,17.23242950439453,1.8785501718521118,-1.1899521350860596,0.11998139321804047,705,743,706,44.106,0,0
1739304954.746767,-0.05089704925305913,1.104348216016095,-0.48304299406371826,-1.417371598649926,1.6243499491895952,1.0698804582899746,1.3574965009590518,0.0009870954462677974,0.0011667045903085349,0.00021849875593051596,-0.0005560596002043283,0.0009486367856210778,-0.0001950647456279693,-0.0016137319248313402,-0.2547723948955536,-51.08700942993164,-9.491166114807129,17.18085479736328,1.8785501718521118,-1.1835434436798096,0.09343110024929047,706,743,704,43.998,0,0
1739304954.7576923,-0.05089873981496638,1.1043469333305245,-0.48304750760137766,-1.4173736520593399,1.6243459044863011,1.0698812814149778,1.3574990016133286,-0.00016607325004491368,-0.0006589873414373817,-0.0005937702213122555,-0.0006767680256272304,-9.198172447564689e-05,1.630612440096375e-05,-0.0009946347234107687,-0.2309686839580536,-51.05923843383789,-9.467362403869629,17.20862579345703,1.8858743906021118,-1.1899521350860596,0.09983979165554047,702,742,704,43.998,0,0
1739304954.767825,-0.05089776388948608,1.1043462445778531,-0.4830453291883206,-1.4173715721603206,1.6243475548909112,1.0698813337425654,1.3574997593469806,0.0009592991574979574,-0.000624504617855791,-7.916149296168456e-06,0.00022415773804821562,-0.001287193825758444,0.0006627207092121186,-0.0011976006848275977,-0.2547723948955536,-51.05923843383789,-9.491166114807129,17.18085479736328,1.8986917734146118,-1.1899521350860596,0.09343110024929047,706,743,705,43.998,0,0
1739304954.7787673,-0.05090247655148665,1.1043429408961718,-0.48304332128299515,-1.4173736431198565,1.6243507483945618,1.0698821996406842,1.3575013829042923,-0.0005719928149208473,-0.0014660141469360435,0.0011420582509313495,0.00031668544473991523,0.0006030242718595513,0.0012509744724893848,-0.000515638649856359,-0.1793939769268036,-50.98386001586914,-9.514969825744629,17.20862579345703,1.8986917734146118,-1.1972763538360596,0.07969819009304047,706,743,703,43.998,0,0
1739304954.7887812,-0.0508963433125639,1.1043510775109937,-0.4830440107627152,-1.4173687279487468,1.624348325740636,1.0698805746298232,1.357503764122122,0.0013349701695928853,0.002184639680104127,0.0003113460447585403,0.0011308088828846249,0.00036938832573497974,0.0005918076650880787,0.0017189446972454188,-0.2547723948955536,-51.08700942993164,-9.514969825744629,17.13324737548828,1.8922830820083618,-1.1835434436798096,0.05955658480525017,706,742,704,43.998,0,0
1739304954.7997444,-0.0508980545301755,1.1043467308102806,-0.4830432432844758,-1.4173743672099823,1.6243483242332262,1.0698805760833654,1.3575006209898879,5.501566258275056e-05,-0.00012565547055217558,0.0009472287051281642,-0.0013390294671673578,-0.00042291381960085053,-0.00035574259517223743,0.00046868656811255717,-0.2309686839580536,-51.03543472290039,-9.514969825744629,17.20862579345703,1.8922830820083618,-1.1835434436798096,0.08610688149929047,705,744,704,44.106,0,0
1739304954.8107345,-0.05090071540158796,1.1043445056029562,-0.4830498234747409,-1.4173697894873374,1.6243490833468461,1.0698813337434518,1.3575034019135273,0.00014586760076527316,-0.0009426535569919558,-0.0017166079636937726,0.0011147028051670437,0.0005887776908464276,0.00032583633421164585,-0.00010337935134418727,-0.2071649730205536,-51.03543472290039,-9.439591407775879,17.15705108642578,1.8858743906021118,-1.1899521350860596,0.05955658480525017,707,744,703,44.106,0,0
1739304954.8207731,-0.050899635432838694,1.1043442672444939,-0.4830459491355363,-1.4173736519501743,1.6243499492440867,1.0698798184232952,1.3574989612882231,0.0006116289592551117,-0.00027070159692954554,0.0003020105736004391,-0.00010716133500040907,0.00046025153912102723,0.00028321609820203286,-0.00012627770494274691,-0.1793939769268036,-51.03543472290039,-9.491166114807129,17.20862579345703,1.8785501718521118,-1.1771347522735596,0.09983979165554047,705,733,706,43.998,0,0
1739304954.8317034,-0.05089876224469563,1.1043484433135133,-0.4830433174345866,-1.4173715721603188,1.6243486541308176,1.069880575921868,1.357497479855152,3.42135161671076e-05,0.000879814791960963,0.0010924156234609211,0.00031487770053758316,-0.0006595744376335905,-0.000160779412161022,-0.0006416678214292018,-0.2309686839580536,-51.05923843383789,-9.514969825744629,17.18085479736328,1.8785501718521118,-1.1835434436798096,0.11265717446804047,706,745,705,43.998,0,0
1739304954.841756,-0.05089497284203286,1.1043470922049121,-0.4830449959876842,-1.4173698071439351,1.6243476704740825,1.0698773971689828,1.3574982033030822,0.0012905285952847514,7.368123674675613e-05,0.001130068933131199,-0.00031144453743293363,-0.0014323041940320978,-0.00014526097989346945,-0.000537579291060073,-0.2825433909893036,-51.05923843383789,-9.491166114807129,17.15705108642578,1.8858743906021118,-1.1835434436798096,0.10624848306179047,706,745,704,43.998,0,0
1739304954.8527658,-0.05090045233525461,1.1043462445706749,-0.48304534086932693,-1.4173736519502738,1.6243475680187218,1.069879818517058,1.3575000888839435,-0.0009789522049601868,0.00017914910575574834,-0.00027188404280412446,-0.000648717265315454,-0.0009435073400532264,-0.0009518472325093952,-0.0012375723577883594,-0.2071649730205536,-51.05923843383789,-9.491166114807129,17.20862579345703,1.8986917734146118,-1.1771347522735596,0.08610688149929047,707,747,704,44.106,0,0
1739304954.863769,-0.05089705313197626,1.1043462210547146,-0.4830450132187706,-1.4173697894832997,1.6243519090485325,1.0698790607632174,1.3575020031733351,0.0006238300286702736,0.001483399578864808,0.0006894056642391126,-1.754641281579599e-05,0.0010511260280189312,-0.000452832548655293,0.0007947871995559971,-0.2547723948955536,-51.05923843383789,-9.467362403869629,17.15705108642578,1.8858743906021118,-1.1707260608673096,0.04673920199275017,706,744,706,44.106,1,0
1739304954.874718,-0.05089823377970781,1.1043479808675658,-0.4830435195017548,-1.4173736519501743,1.624346882269019,1.0698794641174354,1.3574982385332912,0.0005574289201884527,0.00032112115371896123,0.0013882208535436291,-0.0001985734921634969,-0.0006006060903877891,-0.001215962834533749,0.0005286357455315579,-0.2071649730205536,-51.08700942993164,-9.514969825744629,17.20862579345703,1.8785501718521118,-1.1835434436798096,0.10624848306179047,707,744,705,44.215,0,0
1739304954.88479,-0.05090418863324085,1.1043452237492501,-0.48304778508612745,-1.417373731423034,1.6243467706007706,1.0698804568734221,1.357504859293487,-0.002037711452908184,-0.0012689023297695376,-0.0004315536307673571,-0.0012662473282329468,-0.0013424623487931072,-0.0007189543353129766,0.0011221540169325647,-0.1555902659893036,-51.03543472290039,-9.467362403869629,17.20862579345703,1.8785501718521118,-1.1835434436798096,0.04673920199275017,708,743,705,44.106,0,0
1739304954.8967774,-0.05089761118098517,1.104344596477678,-0.48304121525601346,-1.4173765247473291,1.624349947718758,1.0698805760827006,1.3574981844288934,0.00037659315428176194,-0.0008492794730919793,0.002170239343779684,-0.0010246850571078842,-0.00024597604564304253,0.0002333481971374211,-0.0003238257718471365,-0.2071649730205536,-51.03543472290039,-9.514969825744629,17.20862579345703,1.8785501718521118,-1.1835434436798096,0.10624848306179047,706,745,704,43.889,0,0
1739304954.906791,-0.05090048346210159,1.1043454944774789,-0.48304601392448926,-1.417373731439251,1.624347450289119,1.0698805702691725,1.3575052734823863,0.0002522708535547524,0.00037120947772661017,-0.00017215321814659582,-0.0013544049530770925,0.000425426507230544,0.00030593318065443264,0.002063691879133361,-0.2071649730205536,-51.03543472290039,-9.491166114807129,17.20862579345703,1.8986917734146118,-1.1835434436798096,0.04673920199275017,705,744,702,44.106,0,0
1739304954.9177027,-0.050902468139426615,1.1043417311229,-0.4830413121957797,-1.4173736519515203,1.624349037800286,1.069880576083275,1.3575006118351123,-0.001600999349734852,-0.0015022779186232562,0.001520098273895232,-0.0003058065114171147,-0.0008076136400848924,-0.0006565655328086015,0.0007855339656679551,-0.1793939769268036,-50.98386001586914,-9.542740821838379,17.20862579345703,1.8858743906021118,-1.1835434436798096,0.08610688149929047,706,743,704,44.106,0,0
1739304954.9277272,-0.05090045233567445,1.1043425064556465,-0.4830460399728228,-1.4173736431198565,1.624343912078396,1.0698805760833736,1.3575031086610594,-0.0003173264187845297,-0.001704771432802578,1.4006805982340277e-06,-0.00034625326291178634,-0.001736208803000177,0.00039241094905400036,0.0010647460291095326,-0.2071649730205536,-51.00766372680664,-9.491166114807129,17.20862579345703,1.8986917734146118,-1.1835434436798096,0.05955658480525017,707,744,705,43.998,1,0
1739304954.9387255,-0.05089852935893618,1.104347183522854,-0.4830457137350134,-1.4173715819353943,1.624349949223449,1.0698790607093818,1.3574995850262686,-0.0004882062466613912,0.00027415546013745943,-0.0006810618858935914,0.00039668557077925603,0.0007520745665499425,-4.0934674328608914e-05,-0.0008458417699018394,-0.2309686839580536,-51.05923843383789,-9.467362403869629,17.18085479736328,1.8785501718521118,-1.1707260608673096,0.09343110024929047,706,746,704,44.106,1,0
1739304954.9487605,-0.050896631895883344,1.1043513184169576,-0.4830432133978646,-1.4173697899195303,1.62434979226066,1.0698773971689846,1.3574949677579573,0.0005669980427041841,0.0018552666401276726,0.00032252274698309213,0.0007882750398547873,4.374659069730658e-05,-0.0007514355871686667,-0.0015479427781491955,-0.2309686839580536,-51.08700942993164,-9.514969825744629,17.15705108642578,1.8785501718521118,-1.1835434436798096,0.10624848306179047,704,744,705,43.998,1,0
1739304954.9587715,-0.050898765111503,1.1043445056065953,-0.4830459272917155,-1.4173680156366055,1.6243486745361766,1.069880562947586,1.3574988821216394,-0.00028399530003652036,-0.000338752743440766,-0.000824331854288583,0.0008169124140287451,0.0005123490420457626,3.442016783341143e-05,0.0007682196522751057,-0.2309686839580536,-51.03543472290039,-9.491166114807129,17.13324737548828,1.8922830820083618,-1.1835434436798096,0.07328949868679047,702,744,705,44.106,1,0
1739304954.9697278,-0.050900478642704694,1.1043452208097935,-0.483045927308758,-1.4173736522772729,1.624347568028667,1.069879818423221,1.3574980696914178,-0.0005660043532890553,-7.22307771986061e-05,0.00022855189803008748,-0.00042654233543683697,-0.00029160403298099163,0.0003603978613939548,-0.0021037151707359344,-0.2071649730205536,-51.03543472290039,-9.491166114807129,17.20862579345703,1.8986917734146118,-1.1771347522735596,0.10624848306179047,705,743,705,43.998,1,0
1739304954.9807808,-0.05089761009839571,1.1043476049996217,-0.4830460273513726,-1.4173716506520337,1.6243468103666194,1.069881333258935,1.3574993973029703,0.0009817876630956084,0.0015705420461143698,-0.0010621140533887182,0.00015977425598038563,-5.9262229486228986e-05,0.0007550334899905789,-0.0019363470039094185,-0.2071649730205536,-51.03543472290039,-9.491166114807129,17.18085479736328,1.9051004648208618,-1.1899521350860596,0.09343110024929047,705,742,702,44.106,0,0
1739304954.9917128,-0.050898762208454594,1.104349166109916,-0.4830412114042461,-1.4173715760853476,1.6243499095137135,1.0698806688907667,1.3574980831167691,-0.0005182103010940486,0.00028823007965587987,0.00132695196197077,0.0013980868535669092,-0.00048453778498460797,-0.00033807606576360504,0.0006432305070867671,-0.2309686839580536,-51.08700942993164,-9.514969825744629,17.18085479736328,1.8785501718521118,-1.1972763538360596,0.10624848306179047,705,742,704,44.215,0,0
1739304955.0027256,-0.0508987660136979,1.1043445055594192,-0.48304500304076525,-1.4173697894833217,1.6243483237484848,1.0698805760208971,1.3575005850163027,-0.00016726623013595522,-0.0009984277604948603,0.0003179161747564113,0.0010737952198716385,-0.0001745316986043674,-3.1839199220643405e-05,0.001373236471172793,-0.2309686839580536,-51.03543472290039,-9.467362403869629,17.15705108642578,1.8922830820083618,-1.1835434436798096,0.08610688149929047,707,743,708,44.106,0,0
1739304955.0127575,-0.05089873689199039,1.1043448247536898,-0.48304217746308253,-1.4173715720513025,1.624348910013942,1.0698813337434507,1.3575005716075288,0.0006000481381262671,-0.0004620707026836338,0.0016194870005513597,-0.0005934271594330133,-0.00023093686498596003,8.026110953662362e-06,-0.0006059780947856147,-0.2309686839580536,-51.03543472290039,-9.542740821838379,17.18085479736328,1.8922830820083618,-1.1899521350860596,0.08610688149929047,707,743,705,43.998,0,0
1739304955.022793,-0.0508970447234977,1.1043490791031418,-0.4830439326629553,-1.4173684041705772,1.6243483082540686,1.0698808627931722,1.3575045217812918,4.8785083370086145e-05,0.0003515591020652396,0.00036028944692306374,0.0025725106765436137,4.238357349930255e-05,-0.00043625583991779165,0.001675555983510821,-0.2547723948955536,-51.05923843383789,-9.491166114807129,17.13324737548828,1.8922830820083618,-1.1899521350860596,0.05314789339900017,706,742,706,43.998,0,0
1739304955.0337152,-0.05089876319893039,1.1043465624733297,-0.4830467551858832,-1.417371572162562,1.6243451461262672,1.069880576080715,1.3575017785213435,0.00020608730542284216,0.0012089021152004598,-0.0006325625182526916,0.0009382784506996508,-0.000758204891394477,-0.00012253320055161644,0.0013546693938155559,-0.2309686839580536,-51.05923843383789,-9.491166114807129,17.18085479736328,1.8922830820083618,-1.1835434436798096,0.07328949868679047,703,744,705,44.215,1,0
1739304955.0447297,-0.0509004786426939,1.1043464564953103,-0.48304781976983285,-1.4173715721603188,1.6243460526885922,1.0698805760833736,1.35750038036143,-0.00045492485089965173,0.0005858263483068188,-0.001541006893655765,-1.130665829363569e-05,-0.0011469118377078172,0.0003457434610050579,0.0005617704792842402,-0.2071649730205536,-51.05923843383789,-9.467362403869629,17.18085479736328,1.9115091562271118,-1.1835434436798096,0.05955658480525017,704,744,703,43.998,0,0
1739304955.055782,-0.050897053601248014,1.1043445055554018,-0.483043142379784,-1.4173736519501743,1.624348678414969,1.0698805755988567,1.3575006235144995,0.00016087649863646687,-0.0005017354230094546,0.00041054471285492645,-0.0008976129966107927,0.0005518933205322994,0.00011541650818941429,-0.0003254891638876477,-0.2547723948955536,-51.03543472290039,-9.491166114807129,17.20862579345703,1.8922830820083618,-1.1835434436798096,0.08610688149929047,705,743,704,44.106,1,0
1739304955.066721,-0.05089568809609118,1.1043445449089286,-0.4830442187325359,-1.4173719166517271,1.6243499098426981,1.069879818423287,1.3575067639432534,0.0018348471660527732,-0.00032230846691377494,0.0023189908839851116,-0.0001565219608090415,-0.0009740581509117275,0.00023866923795910397,0.000620455381379974,-0.2309686839580536,-51.03543472290039,-9.514969825744629,17.18085479736328,1.8785501718521118,-1.1771347522735596,0.03300629183650017,704,745,704,43.998,1,0
1739304955.0767999,-0.05089705358387247,1.1043445143845958,-0.4830451038568115,-1.4173755409199995,1.6243490833466319,1.0698773971689854,1.3575006118344282,-0.0002810504926865297,-0.000528356318859517,-0.00010991755073439907,-0.001322964536347771,-0.0001212155784714754,0.0002542426076818691,1.818565682318982e-05,-0.2547723948955536,-51.03543472290039,-9.491166114807129,17.23242950439453,1.8858743906021118,-1.1835434436798096,0.08610688149929047,705,745,703,43.998,1,0
1739304955.0877287,-0.050902476475304145,1.1043462433666111,-0.4830429199268201,-1.4173757978270023,1.6243451468262233,1.0698813337255066,1.3574982439715684,-0.0014065102840715971,0.0002524882354741731,-0.00035981110392526523,-0.0015172216026178463,-0.0010103355567546257,0.0002433338103097733,-0.00023983916449770337,-0.1793939769268036,-51.05923843383789,-9.491166114807129,17.20862579345703,1.8922830820083618,-1.1899521350860596,0.10624848306179047,704,744,703,44.106,0,0
1739304955.0987706,-0.05089876612197859,1.1043425075770068,-0.48304781874953984,-1.4173697894954131,1.624349080421809,1.0698787587851657,1.3574963987477748,-0.00023691442793916844,-0.0009979717952478774,-0.0015133489557452838,0.0009232669303050734,-0.0002773302221417754,-0.001815043979065718,-0.0017620084597939015,-0.2309686839580536,-51.00766372680664,-9.467362403869629,17.15705108642578,1.8858743906021118,-1.1771347522735596,0.11265717446804047,704,744,704,43.998,0,0
1739304955.1096911,-0.05089805583329563,1.1043469323493773,-0.4830441523361252,-1.4173697894832997,1.6243483256867266,1.06987981840535,1.3574995969306616,0.00013857940083056454,-6.983962968239773e-06,0.0007006445113624509,0.0012670826221763192,-0.0004743571303780082,-0.0012634771188784904,-0.0015807553186388084,-0.2309686839580536,-51.05923843383789,-9.514969825744629,17.15705108642578,1.8922830820083618,-1.1771347522735596,0.09343110024929047,704,744,704,43.998,1,0
1739304955.1196938,-0.05089781614339281,1.10434406698564,-0.48304544795275844,-1.417369790464446,1.6243464571539095,1.069879020726296,1.3575034013608238,0.0007183984703561792,-1.5110785831470248e-05,-0.000697283202462688,0.0006733572806900095,-0.00022123438478295024,-0.0008958176160309455,0.0010387826241802683,-0.2309686839580536,-51.03543472290039,-9.467362403869629,17.15705108642578,1.9051004648208618,-1.1972763538360596,0.05955658480525017,705,746,704,43.998,0,0
1739304955.1297016,-0.05090089697194195,1.104349928528944,-0.4830439337997123,-1.4173754346272098,1.624346770323717,1.0698821470975344,1.3575019203263772,-0.0001931631067425665,0.0006050614902629333,-0.0006382394942250985,-0.00040796988188595315,0.0007444197169543751,0.000503965526102206,0.0008330664232177158,-0.2309686839580536,-51.11081314086914,-9.491166114807129,17.23242950439453,1.8785501718521118,-1.1972763538360596,0.06596527993679047,706,745,704,43.998,0,0
1739304955.1397762,-0.05089873119034017,1.1043452221179881,-0.48304417626795154,-1.417371334722886,1.6243479717742086,1.069878758784276,1.3574981244986508,0.00019793425402077426,-0.00019450839225033272,0.0009243577634031437,0.0005868631298845402,-0.00013476805285679208,-0.00018832578356328672,0.0001502788722542468,-0.2309686839580536,-51.03543472290039,-9.514969825744629,17.18085479736328,1.8922830820083618,-1.1771347522735596,0.07969819009304047,704,745,701,44.215,1,0
1739304955.150765,-0.050900465867926306,1.1043499550313696,-0.4830460399772501,-1.417371519177072,1.6243490828603397,1.0698821996347023,1.3574950333454923,-0.0002277461721075638,0.0013373513491203091,-0.0002114562911635626,0.001370025471804296,-0.00011043800817794514,0.00024058003722186188,-0.002713337173669801,-0.2071649730205536,-51.11081314086914,-9.491166114807129,17.18085479736328,1.8858743906021118,-1.1972763538360596,0.09343110024929047,705,744,699,44.215,1,0
1739304955.1616993,-0.0509004698736422,1.1043445094787911,-0.4830456296350188,-1.417373678767877,1.6243467709592543,1.0698797006857252,1.3574966703587001,-0.0007996291695711808,-0.000344361549860068,-0.0005769132739225273,-0.0012678579598839816,-0.0006717055815283923,-0.0011769635798366657,3.7427943898598096e-05,-0.2071649730205536,-51.03543472290039,-9.467362403869629,17.20862579345703,1.9051004648208618,-1.1771347522735596,0.07969819009304047,706,744,704,43.998,0,0
1739304955.1726892,-0.0508987700191623,1.1043471981311068,-0.4830439079094065,-1.4173715724878218,1.6243475680260302,1.0698798184213012,1.3574974326509353,-0.0006507090031063718,0.0002932119198962956,0.0005117948018325763,0.0003631336812176434,-0.0008503241278670572,-0.0008065263005901985,-0.0014766277501342992,-0.2309686839580536,-51.05923843383789,-9.491166114807129,17.18085479736328,1.8986917734146118,-1.1771347522735596,0.11265717446804047,706,746,703,43.998,1,0
1739304955.1827974,-0.0508970534930108,1.104350366040019,-0.4830397246536184,-1.417375752518634,1.6243473590175486,1.06987981836946,1.3575001214775009,0.0009874469449912488,0.0013307449102400424,0.0008071033074471354,-0.0018294714199865222,-0.00012624354799086075,-8.746364090083547e-05,0.0013255180328107955,-0.2547723948955536,-51.08700942993164,-9.542740821838379,17.23242950439453,1.8785501718521118,-1.1771347522735596,0.05314789339900017,706,746,705,43.998,0,0
1739304955.1937037,-0.050898774890974684,1.1043499295659933,-0.4830474759691465,-1.4173705047408314,1.624347568065911,1.069880222170806,1.3575041545824929,0.0002528531663357864,0.0017074607082476344,-0.0007962156653026869,0.0008412992836454785,-0.0012380483845108496,-0.00031728630780263766,0.0016412222700861578,-0.2309686839580536,-51.11081314086914,-9.467362403869629,17.15705108642578,1.8986917734146118,-1.1835434436798096,0.05314789339900017,705,745,703,44.106,1,0
1739304955.2037868,-0.050900477668526005,1.1043462180748045,-0.48304194350154156,-1.4173713219800956,1.6243482729985677,1.0698800615205928,1.3575010544290698,0.00010430429504101039,0.00012219919603610063,0.0006422075780046773,0.0014468830407333275,0.0002049065210069582,-0.00010152048638248101,0.001421586194998755,-0.2071649730205536,-51.05923843383789,-9.542740821838379,17.18085479736328,1.8986917734146118,-1.1835434436798096,0.07328949868679047,706,747,703,43.998,0,0
