IITGN-Robotics/Franka_IITGN_ROBOTICS/franka_ros/franka_iitgn/data01/s_f_002.csv
time,fr3_joint1_pos,fr3_joint2_pos,fr3_joint3_pos,fr3_joint4_pos,fr3_joint5_pos,fr3_joint6_pos,fr3_joint7_pos,fr3_joint1_vel,fr3_joint2_vel,fr3_joint3_vel,fr3_joint4_vel,fr3_joint5_vel,fr3_joint6_vel,fr3_joint7_vel,fr3_joint1_eff,fr3_joint2_eff,fr3_joint3_eff,fr3_joint4_eff,fr3_joint5_eff,fr3_joint6_eff,fr3_joint7_eff,flexpin1,flexpin2,flexpin3,Force,ContactMic,ContactMic_gt
1739302758.4116125,-0.12513921008690934,1.0745939603389638,-0.3740037357862794,-1.4140203606230584,1.5283177440733497,1.1429822601948518,1.3579318685783888,0.0004315453078988844,5.5281999340555256e-05,-0.0006708533511086683,-1.2667169240509322e-05,0.0014006931608774112,1.8367939893615125e-05,0.0013372365313413066,-0.5562860369682312,-51.65036392211914,-7.079056739807129,18.22028350830078,2.0424294471740723,-0.8814194202423096,0.12639008462429047,,,,,,,,,
1739302758.42163,-0.12513118983896226,1.0745955059703531,-0.37400265784165126,-1.414021438855488,1.5283163899703323,1.1429795356711083,1.3579335605346807,0.001160732123862279,0.0010548346495882137,-0.00013505979154597258,0.00021954732490688555,-0.0008588736389920013,-0.0004900208410286977,-9.564249387675162e-05,-0.6316644549369812,-51.62259292602539,-7.055253028869629,18.19647979736328,2.0167946815490723,-0.8942368030548096,0.07328949868679047,,,,,,,,,
1739302758.4326627,-0.12513423177713603,1.0745897069029355,-0.3740022487449749,-1.414043115917686,1.5283140984682229,1.1429606688496083,1.3579262962421357,0.0014212662285179383,0.0012448456200512502,-0.0006158416698552494,-0.0019211396573914558,-0.0013032495528732709,-0.002657867573944598,-0.0012220193570336236,-0.4055292308330536,-51.49563980102539,-6.975907325744629,18.04572296142578,1.8721414804458618,-0.9802963733673096,0.09343110024929047,,,,,,,,,
1739302758.443557,-0.125129583363877,1.0745907842726918,-0.3739947629293624,-1.4140710481458363,1.5283137929935775,1.1429375849505432,1.3579275542852054,-0.0009887112323090266,-0.0018834919430548611,0.001182780653525558,-0.00247412626120239,-0.000918893872280438,-0.001575680260325217,0.0030214042579271034,-0.3539545238018036,-51.47183609008789,-7.003678321838379,18.02191925048828,1.8465067148208618,-1.0260727405548096,0.04673920199275017,,,,,,,,,
1739302758.4535599,-0.12512485965604822,1.0745935667985802,-0.37399835653607105,-1.4140945231258029,1.5283153686040811,1.1429267275970594,1.3579176346100177,-0.0005975740301592583,0.00020263578243198043,-0.00040064522354570824,-0.0026051592614187245,0.0009431133592391754,-6.53511779246003e-05,-0.0011530416218378217,-0.2825433909893036,-51.47183609008789,-6.928299903869629,18.09729766845703,1.8199564218521118,-1.0196640491485596,0.08610688149929047,,,,,,,,,
1739302758.4646244,-0.12512533817748453,1.0745943217833616,-0.37399651790057487,-1.4141013091343912,1.5283156225884997,1.1429178786250118,1.357916254810216,-0.0008511634248169458,-0.0007477638974133253,0.00031979285494698745,-0.0003915838622761598,-0.000455276747456899,0.0001935000787504359,-0.0016782215736999024,-0.2309686839580536,-51.47183609008789,-6.928299903869629,18.02191925048828,1.8263651132583618,-1.0260727405548096,0.06596527993679047,,,,,,,,,
1739302758.474644,-0.1251205672312517,1.0745944706036528,-0.3739948665372543,-1.4141113384569994,1.5283177368093699,1.1429102751782614,1.3579124297865859,7.141861374041321e-05,-0.0009434798743252279,-4.1147819316938246e-05,0.00010027140817994159,0.00045288596619162073,-0.00041180364215663757,0.0005682106417010315,-0.2825433909893036,-51.44406509399414,-6.975907325744629,18.06952667236328,1.8263651132583618,-0.9995224475860596,0.07969819009304047,,,,,,,,,
1739302758.4855509,-0.12511771555954573,1.07459351096139,-0.3739983512307607,-1.414111521299108,1.5283136526726213,1.1429052015628425,1.357910306137249,0.0002348845994007997,-0.00012057932860656318,-0.0002647220747308765,0.00019571498858707303,-0.00019602775382946238,-0.00023620269942325784,-0.0002824821328927192,-0.2825433909893036,-51.42026138305664,-6.900528907775879,18.02191925048828,1.8071390390396118,-0.9995224475860596,0.07969819009304047,,,,,,,,,
1739302758.4966135,-0.12511935753422115,1.074592873035174,-0.37399717109074415,-1.4141073244610016,1.528315721449973,1.142903627263777,1.3579118999879192,0.0002757608153734012,-1.7550933736928102e-05,0.0012654867817929254,0.0006401264931607562,0.0008065496533176544,-0.0009544700298533892,0.0006900893267907715,-0.2547723948955536,-51.42026138305664,-6.928299903869629,17.97431182861328,1.8135477304458618,-0.9867050647735596,0.07969819009304047,,,,,,,,,
1739302758.5066311,-0.12512395591395536,1.0745952923083744,-0.3739947624101461,-1.4141129864481734,1.5283152765165484,1.1429047269039538,1.3579070975611574,-0.0012703539032892543,0.0007821328536753625,-0.00021218907248000317,5.601243556104148e-06,0.000836016170141509,0.000527097940530669,-0.00038296260121433394,-0.2309686839580536,-51.44406509399414,-6.952103614807129,18.04572296142578,1.8199564218521118,-0.9995224475860596,0.09343110024929047,,,,,,,,,
1739302758.517619,-0.12511935754448353,1.074599226329976,-0.3740010248457049,-1.4141167160485029,1.528314558104092,1.1429020171443456,1.3579118599245956,-0.0010466642043989148,0.0008951590227966909,-0.001601193075754336,0.00103420103285443,0.0014927328884743753,-0.0009382876578006251,0.000537388781754837,-0.2547723948955536,-51.49563980102539,-6.876725196838379,18.06952667236328,1.8263651132583618,-1.0132553577423096,0.05314789339900017,,,,,,,,,
1739302758.5286195,-0.12511891779625353,1.0745971071639955,-0.3739990258246456,-1.4141166742566067,1.5283145235421187,1.1429026451596194,1.3578989493173617,-0.0011040532671110945,0.0014280918136598153,0.0012242478643385956,0.001542443957780317,0.0003825457670859567,-0.0006275475151894926,-0.003533268515524844,-0.2309686839580536,-51.49563980102539,-6.928299903869629,18.02191925048828,1.8263651132583618,-1.0196640491485596,0.12639008462429047,,,,,,,,,
1739302758.5395474,-0.12511735914316272,1.0745918290889758,-0.3739990856447494,-1.4141188674361058,1.5283168315688704,1.1429026541534024,1.357912262475699,-0.000332484885669421,-0.0004409563833810055,0.000958866289302127,-0.0005226590873949119,0.0019346261292356181,-0.0002185072854737295,0.0018639252074482131,-0.2825433909893036,-51.39249038696289,-6.900528907775879,18.04572296142578,1.8071390390396118,-1.0196640491485596,0.03941498324275017,,,,,,,,,
1739302758.5496242,-0.12511564371838835,1.0745938211550132,-0.3739989888683982,-1.4141173231772914,1.5283125930165506,1.1429042755193601,1.3579005844823964,-0.0008805769714592686,-0.0005385918483250568,0.0007853654539250396,-0.00028492609664228187,-6.465324928832373e-05,0.0002462023346742936,-0.001253790278822884,-0.3063471019268036,-51.42026138305664,-6.900528907775879,18.02191925048828,1.8071390390396118,-1.0059311389923096,0.11265717446804047,,,,,,,,,
1739302758.560553,-0.1251124961465026,1.0745955062036452,-0.374001223196538,-1.414118832118498,1.528314960858867,1.142901017150278,1.3578988381237502,0.00040609776979502423,0.00012801661833152682,0.00025951964280677227,0.00016606040274322212,-0.0003668859455481283,-9.794036857891167e-05,0.0009221980356948869,-0.3063471019268036,-51.44406509399414,-6.900528907775879,18.04572296142578,1.8199564218521118,-1.0059311389923096,0.12639008462429047,,,,,,,,,
1739302758.5706143,-0.1251161686803396,1.0745933967382857,-0.3739972548446966,-1.41411910737994,1.5283157675642696,1.1429037263337614,1.357907095920532,-7.55416686990223e-05,-0.0005281816072384656,0.0006230496878641854,0.00044558082588303237,0.0003097633697499312,0.0011425225196755485,-2.2730672437969016e-05,-0.2547723948955536,-51.44406509399414,-6.928299903869629,18.04572296142578,1.8071390390396118,-1.0196640491485596,0.05314789339900017,,,,,,,,,
1739302758.5806649,-0.12511616867969727,1.0746007239810544,-0.3739994586926625,-1.4141194272680133,1.5283164783383394,1.1429013836629645,1.3579015714577904,-0.0006189762458159171,0.0011300202863817007,0.00031449731148386833,-0.0010724661039069098,0.0006099398096463962,-1.777226855685528e-05,-0.00030195877222869203,-0.2547723948955536,-51.51944351196289,-6.928299903869629,18.02191925048828,1.8071390390396118,-1.0059311389923096,0.09983979165554047,,,,,,,,,
1739302758.59158,-0.1251141707388442,1.0745974609727422,-0.3739993801001045,-1.4141233117571883,1.5283167918367009,1.1428995018137968,1.3579069388101417,-0.0007721916903146284,0.001379467207792882,-0.00045958624732561496,0.0005722931216502234,0.00010541639165090024,-0.0003952598659531799,0.000715423302958621,-0.2825433909893036,-51.47183609008789,-6.928299903869629,18.09729766845703,1.8071390390396118,-0.9931137561798096,0.09343110024929047,,,,,,,,,
1739302758.601585,-0.1251141707388442,1.0745909699058938,-0.37400300538347403,-1.4141176675170477,1.528316056465714,1.1428987267090465,1.3579030771940173,0.0005378321185116116,-0.0008320507862036625,-0.00036488572859524643,0.00031635542108253043,-0.00012544492000193168,-0.001110401643583664,0.0005926065417525277,-0.2825433909893036,-51.42026138305664,-6.876725196838379,18.02191925048828,1.8135477304458618,-0.9867050647735596,0.08610688149929047,,,,,,,,,
1739302758.6126084,-0.12511417063033262,1.0745975403985297,-0.3739986253535037,-1.4141222054874016,1.5283153146335602,1.1429002589869939,1.357900813795643,0.000321923454961526,2.852483744431977e-05,-0.0002160686125147299,-0.00031987020131129894,0.0003087595718259018,0.00020139696802952097,-0.0007748855967391983,-0.2825433909893036,-51.47183609008789,-6.900528907775879,18.04572296142578,1.8199564218521118,-0.9995224475860596,0.10624848306179047,,,,,,,,,
1739302758.6236389,-0.1251124289079338,1.0745955425061122,-0.3740032396450165,-1.414120422517879,1.5283160737474812,1.1429010171318834,1.3579042373930021,0.0016631261439791793,-0.0005963033540744377,-0.0013839507827160666,0.00033160426664660664,0.0004748132640345349,0.0006229313520691364,0.0005442685647027545,-0.3063471019268036,-51.44406509399414,-6.876725196838379,18.02191925048828,1.8135477304458618,-1.0059311389923096,0.07328949868679047,,,,,,,,,
1739302758.634613,-0.1251132214795212,1.0745938211550634,-0.3740029946907785,-1.4141229470115735,1.528314255964759,1.1429010171318843,1.3578984325775794,0.0005425198119260455,8.300602037148969e-05,-0.0016987742794891685,-0.0012522114966692583,2.5764684722754163e-05,4.850729237130702e-05,-0.0012972895779781294,-0.2825433909893036,-51.42026138305664,-6.876725196838379,18.04572296142578,1.8199564218521118,-1.0059311389923096,0.12639008462429047,,,,,,,,,
1739302758.6455662,-0.12511371706804209,1.0745918317174294,-0.37400107763966095,-1.4141204226270443,1.52831031857678,1.1429002594718058,1.3579063739294153,-0.00019428597417988692,-0.00036711421052329615,-0.0006196696937366441,0.0007841753757631242,-0.00011900996630288195,-0.00042218493953131146,0.0011150571029234005,-0.2547723948955536,-51.39249038696289,-6.876725196838379,18.02191925048828,1.8263651132583618,-0.9995224475860596,0.08610688149929047,,,,,,,,,
1739302758.65558,-0.12511166669325052,1.0745899573075839,-0.37399684943848305,-1.4141204197884345,1.5283117272000433,1.1429002594718058,1.3579000563529005,-0.00034291646469177065,-0.0006847702777166655,0.002042888282342494,0.0006776609400511872,-0.0011869323008122628,0.000394631319466492,-0.0014038979519284418,-0.3063471019268036,-51.36868667602539,-6.952103614807129,18.02191925048828,1.8199564218521118,-0.9995224475860596,0.11265717446804047,,,,,,,,,
1739302758.6666086,-0.1251122087455603,1.0745926814822475,-0.37400008141757674,-1.4141251726257842,1.5283164390364063,1.1428967378799602,1.3578979728277087,0.00019009742882040016,0.00014117608932083623,-0.00012265292465374236,-0.0018709819794232847,0.0012642799886687106,-0.0005705528135210533,-0.002180241802496,-0.3063471019268036,-51.44406509399414,-6.876725196838379,18.04572296142578,1.8071390390396118,-1.0059311389923096,0.09343110024929047,,,,,,,,,
1739302758.6776295,-0.12511097970171745,1.0745938071484917,-0.37400145587541783,-1.4141205142132736,1.5283152763548167,1.1429002071198406,1.357905575669473,0.0009426560102481089,-0.0002850551015524679,0.0010283369225154684,0.00024070857024456314,0.0013462601965043034,-0.000686909309580141,-0.0003573584291438388,-0.2825433909893036,-51.42026138305664,-6.900528907775879,18.02191925048828,1.8199564218521118,-0.9995224475860596,0.06596527993679047,,,,,,,,,
1739302758.6885998,-0.12511329024777973,1.074594818524907,-0.37399906374754943,-1.4141222359380023,1.5283153162486864,1.142896605246192,1.357900016100636,0.0003120791291568752,-0.0005945949329833419,-0.0006450637097788077,-0.0019788369167265214,0.001637247347380672,-0.0016318462475284762,0.0006306382063553136,-0.2547723948955536,-51.44406509399414,-6.928299903869629,18.04572296142578,1.8199564218521118,-0.9995224475860596,0.08610688149929047,,,,,,,,,
1739302758.6986191,-0.1251082802659125,1.0745938298641042,-0.37399653389756665,-1.4141262176265883,1.5283128949946017,1.1429002201640646,1.3579023689144287,0.002721897658547679,3.8595840630905264e-05,0.0002841487165866777,-0.0016328898007507812,0.00047586056791374694,0.0009762503233858148,-0.0013874373449157746,-0.3301508128643036,-51.42026138305664,-6.928299903869629,18.06952667236328,1.8135477304458618,-0.9995224475860596,0.05314789339900017,,,,,,,,,
1739302758.7086306,-0.12511328277291356,1.0745938312451226,-0.3740004319400428,-1.4141226889392569,1.5283152859068048,1.1428970282289435,1.357900012451074,-0.00024936276536165707,-0.0002970794332007072,-0.00030030408140856087,-0.0001907652850819243,-0.0012610791761928433,0.00012782629533570738,-0.0013886900409602447,-0.2547723948955536,-51.42026138305664,-6.900528907775879,18.02191925048828,1.8071390390396118,-0.9995224475860596,0.11265717446804047,,,,,,,,,
1739302758.719565,-0.12511096702715227,1.0745938290042418,-0.37400237847964907,-1.414121165437511,1.5283134426468115,1.1428998881522305,1.3579012673798463,0.0011070285124435556,-0.0003043515275586373,-0.000649306444382045,0.00017855308561323105,-4.447967520769861e-06,-0.0007751364442009685,-0.00047570947544269774,-0.2825433909893036,-51.42026138305664,-6.848954200744629,18.02191925048828,1.8327738046646118,-0.9995224475860596,0.09343110024929047,,,,,,,,,
1739302758.7305698,-0.12511096698918817,1.0745913434335963,-0.373997254150809,-1.4141251753516737,1.5283145455008134,1.1428986744497271,1.3579013376619182,0.00021202787814230458,-0.0010937928065992881,0.00029986790200568314,-1.868613881135441e-05,0.0005760072453456684,-0.0012761201097420383,-0.00028606667591804286,-0.2825433909893036,-51.39249038696289,-6.928299903869629,18.04572296142578,1.8263651132583618,-0.9995224475860596,0.06596527993679047,,,,,,,,,
1739302758.74159,-0.1251129299358184,1.0745918323567059,-0.37400063654123256,-1.4141265442555757,1.5283131394392022,1.1428995497908812,1.3579030770381897,0.00039585134425526494,-0.00040970245596072357,0.0006073339658690909,-0.0018316717613053334,-0.00130876598438278,-1.978279753467568e-05,-0.00018172967553451748,-0.2547723948955536,-51.39249038696289,-6.900528907775879,18.06952667236328,1.8263651132583618,-1.0059311389923096,0.08610688149929047,,,,,,,,,
1739302758.7516465,-0.12511096698898996,1.0745955425061142,-0.3740013810398618,-1.4141207801514293,1.5283149449395652,1.1428966432294054,1.3578972150054576,-0.0011732588770829056,0.0007483558774431604,-0.00018824648931305816,-0.0009666306496723495,0.0013531408921448923,-0.0018854051963922047,0.0008715314969606982,-0.2825433909893036,-51.44406509399414,-6.900528907775879,18.02191925048828,1.8199564218521118,-1.0059311389923096,0.09983979165554047,,,,,,,,,
1739302758.762612,-0.12510926325789296,1.0745916842181693,-0.3740011075945172,-1.4141218908506663,1.5283153157622986,1.1428971670414056,1.3579006901674398,0.0005048393783575267,0.00017314980490247414,-3.976970829006114e-05,0.0009006131159727551,0.0015564941579562562,-0.0010961770608351967,0.0003207691197046787,-0.3063471019268036,-51.42026138305664,-6.876725196838379,17.99811553955078,1.8199564218521118,-1.0132553577423096,0.10624848306179047,,,,,,,,,
1739302758.772613,-0.1251107307786344,1.0745937500764564,-0.373999116562465,-1.4141234304741894,1.5283160341785917,1.1428956107785222,1.35789610428856,0.0007695445994424892,-0.00022002525786447266,0.00048105983038265667,9.429998236301027e-05,0.0005938901498276591,-0.0005961424311770406,-0.0020183612910448625,-0.2825433909893036,-51.42026138305664,-6.928299903869629,18.02191925048828,1.8135477304458618,-0.9995224475860596,0.10624848306179047,,,,,,,,,
1739302758.7835367,-0.12511095823929855,1.0745976086909972,-0.3740031638280478,-1.4141191927911152,1.5283107244296246,1.1428993780722092,1.3579014731983656,0.0003641832076154144,0.0010011772202496863,-0.001135604880110115,0.001701617928291017,-0.00021858756276184587,0.0008364388024833937,0.00023871065524860141,-0.2825433909893036,-51.44406509399414,-6.876725196838379,17.97431182861328,1.8199564218521118,-0.9931137561798096,0.07328949868679047,,,,,,,,,
1739302758.79361,-0.12511025835613912,1.0745958485991192,-0.37400324253008865,-1.4141237589699212,1.5283142522242104,1.1428994581506866,1.357904708325008,0.0008450964591048213,0.0018507811068174357,-0.00029429732773665124,-0.0005609225946137522,-0.0006495355203079642,0.0009668889868076716,0.0014378844875234454,-0.2825433909893036,-51.44406509399414,-6.876725196838379,18.02191925048828,1.8199564218521118,-0.9931137561798096,0.07328949868679047,,,,,,,,,
1739302758.804657,-0.1251123931772287,1.0745918311001026,-0.37400145945748875,-1.4141245439895362,1.528315914819984,1.1428950867333618,1.3579052611728422,-0.00017198470729744568,-0.0012665185493106615,-0.00026165472206844404,0.0007024623713745868,-0.0009275983893408927,-0.00037667156169006444,0.0013955405889553322,-0.2825433909893036,-51.39249038696289,-6.900528907775879,18.04572296142578,1.8135477304458618,-0.9931137561798096,0.05955658480525017,,,,,,,,,
1739302758.815958,-0.12511509785501074,1.074593829985376,-0.3740024989393118,-1.414117969732476,1.5283139026973167,1.1428958973425944,1.3579006386656955,-0.0005691038873667094,-0.00016811520718082993,-4.492941033736244e-05,0.0018790377241881422,0.0010556367740452608,-0.00013948496098150536,-0.0010846957566294701,-0.2547723948955536,-51.42026138305664,-6.876725196838379,17.97431182861328,1.8199564218521118,-0.9995224475860596,0.10624848306179047,,,,,,,,,
1739302758.826619,-0.12511301751349413,1.074591832149507,-0.37400323078959,-1.4141219766251596,1.5283159556789236,1.1428954911025173,1.3579039526741168,-0.00047529335592593413,-0.0007347982398728046,-0.0004469654661205504,0.0010607921818651537,-0.0009430766386227041,0.00011292524610289885,0.0023706151993394013,-0.2547723948955536,-51.39249038696289,-6.876725196838379,17.99811553955078,1.8135477304458618,-0.9995224475860596,0.07969819009304047,,,,,,,,,
1739302758.8376956,-0.12511198995242523,1.0745938035994071,-0.3740032422064461,-1.4141237604829582,1.5283160346086304,1.1428986759903186,1.3579015182850085,-0.0007500078225724045,0.0002384924971879361,-0.0006298893730571983,-5.222534579921845e-05,-0.0005692429880017789,-0.00021744430856043264,0.0004544211719067459,-0.2547723948955536,-51.42026138305664,-6.876725196838379,18.02191925048828,1.8135477304458618,-0.9995224475860596,0.07328949868679047,,,,,,,,,
1739302758.8485868,-0.12510994207060058,1.0745904256413297,-0.3739990650436524,-1.41412376044528,1.5283152724806768,1.1428962662747193,1.3578964042629706,0.0007511864550578085,-0.0004456985293483799,0.001031432805113089,-0.00013816075448875722,-0.001484083530194015,-0.0005503016411267889,-0.0011676911174978908,-0.2825433909893036,-51.36868667602539,-6.928299903869629,18.02191925048828,1.8199564218521118,-1.0059311389923096,0.11265717446804047,,,,,,,,,
1739302758.8595629,-0.12511373119689825,1.0745925119807225,-0.37400145988773786,-1.4141237619365148,1.528314801045855,1.1428978723177121,1.3579008230486618,9.726183326963652e-05,-0.0006996787138642913,-0.00010057876229393065,0.0004932185375156813,-0.0011119456854060883,0.00020621085856711353,2.0549782980048116e-05,-0.2309686839580536,-51.39249038696289,-6.900528907775879,18.02191925048828,1.8199564218521118,-1.0196640491485596,0.06596527993679047,,,,,,,,,
1739302758.8706064,-0.12511096697316262,1.0746013192735635,-0.37399922706372934,-1.4141219773537546,1.5283155616045558,1.1428939757800674,1.3579039388666354,0.000580616302766149,0.002053464512308467,0.0006586608892875889,0.0008105260320057734,6.328102045753407e-05,-0.0010051356322700077,0.0013757289483727776,-0.2825433909893036,-51.49563980102539,-6.900528907775879,17.99811553955078,1.8135477304458618,-0.9867050647735596,0.07969819009304047,,,,,,,,,
1739302758.8806143,-0.12510852484610857,1.0745968252028923,-0.37400245518393216,-1.4141280044632714,1.5283117813568803,1.1428954915847407,1.3578995961695994,0.0007940366958894632,0.0008486962291652831,-0.0005745509665838855,-0.0012362179018369484,-0.0004195168518400526,-0.0006620538247467637,-0.0007432538214378209,-0.2825433909893036,-51.47183609008789,-6.876725196838379,18.06952667236328,1.8135477304458618,-0.9995224475860596,0.07969819009304047,,,,,,,,,
1739302758.8917043,-0.1251101292766181,1.0745953946676408,-0.3739993013493265,-1.4141239992400851,1.5283133446282275,1.142896813772642,1.3578948293543058,0.0004541458979625646,0.0010427818372454906,0.0009403370352135798,-0.0005600331054693292,0.0010741674060402266,0.00029023770251088653,-0.0022367472332552023,-0.2547723948955536,-51.47183609008789,-6.928299903869629,18.02191925048828,1.8007303476333618,-1.0132553577423096,0.11998139321804047,,,,,,,,,
1739302758.902587,-0.1251119937150319,1.0745964693462762,-0.37400145988936817,-1.4141237326721525,1.5283160543408822,1.1428962487597363,1.357898624202911,0.0005432926169055873,4.9568958135630606e-05,-0.0007008489556398448,6.84711737891709e-05,0.0007499414493328659,0.0006600568170214767,-0.0008887850334010815,-0.2547723948955536,-51.44406509399414,-6.900528907775879,18.02191925048828,1.8135477304458618,-1.0059311389923096,0.11265717446804047,,,,,,,,,
1739302758.9135787,-0.12510830960801006,1.074593974883997,-0.3740014598895164,-1.4141255431595128,1.5283152765182066,1.1428954915847407,1.3579032388335683,0.0013289851278447443,0.0005399527632697957,0.0005791428444192484,-0.0007998970158269149,0.0017187923955222415,0.00044001135768254653,0.00019101319187204925,-0.3063471019268036,-51.39249038696289,-6.900528907775879,18.04572296142578,1.8199564218521118,-0.9995224475860596,0.07328949868679047,,,,,,,,,
1739302758.9236155,-0.12511328120041684,1.0745955425182088,-0.37400324256653544,-1.414125544468179,1.528310263186126,1.1428962487603052,1.357896529476899,-0.00010651519894833887,0.00019655501520625033,-0.002375381138711736,-0.0007358169756468721,-0.0012940502646959138,0.000605334394697562,-0.0012463859242707372,-0.2547723948955536,-51.44406509399414,-6.876725196838379,18.04572296142578,1.8263651132583618,-1.0059311389923096,0.10624848306179047,,,,,,,,,
1739302758.9345484,-0.12511059407327374,1.0745938299853812,-0.3740011094792649,-1.4141237604829722,1.5283164782782757,1.142895491100224,1.357904341862929,-0.0008780865016941602,-0.000295019763887354,0.0006834952256447,0.00039767887119879436,0.001498848383442693,-0.0002357544384910679,0.0018484147001141009,-0.2547723948955536,-51.42026138305664,-6.900528907775879,18.02191925048828,1.8071390390396118,-0.9995224475860596,0.07328949868679047,,,,,,,,,
1739302758.9456089,-0.12511222128943586,1.0745918320445282,-0.374000748194345,-1.414125546933831,1.5283148958314385,1.1428923688742956,1.3579010541697185,-0.00023324362299935892,-0.0005130863380544952,0.000224232920056,-0.0008908957408301272,0.0003617805793063376,-0.000166725143210863,0.0013924643984387086,-0.2547723948955536,-51.39249038696289,-6.900528907775879,18.04572296142578,1.8135477304458618,-0.9995224475860596,0.07328949868679047,,,,,,,,,
1739302758.956574,-0.12511092767049312,1.0745955425061124,-0.3740014740343973,-1.4141255549337621,1.5283123568887382,1.142896248688842,1.35790031456326,0.0002957422608634694,0.0009516015240127608,-0.00012069020954963747,-0.001078930513382462,0.0005969849201928855,-0.0002529896100177948,-0.0005185376834208243,-0.2825433909893036,-51.44406509399414,-6.900528907775879,18.04572296142578,1.8071390390396118,-1.0059311389923096,0.07328949868679047,,,,,,,,,
1739302758.9666376,-0.12511262265563994,1.0745955426110911,-0.3739965454598975,-1.4141219787872914,1.5283148452228525,1.1428971146575335,1.3578971457534383,-0.00048045659995808835,0.00048220647821679575,0.0008793699970752226,0.0007787177368900733,0.0014003590393918703,0.00046876711146713097,0.0001333885137912408,-0.2547723948955536,-51.44406509399414,-6.928299903869629,17.99811553955078,1.8199564218521118,-1.0132553577423096,0.13279877603054047,,,,,,,,,
1739302758.9766905,-0.12511072398634987,1.0745938299853866,-0.37400110947925946,-1.4141257815786128,1.5283131797424028,1.1428947334401458,1.3579025334986643,-0.00035812219541266445,-0.0005173932613060833,0.0003169235495522278,-0.00013339661279976935,-0.0009266267846849857,-0.00046024006885625826,-0.0008503219914897765,-0.2547723948955536,-51.42026138305664,-6.900528907775879,18.04572296142578,1.8071390390396118,-0.9931137561798096,0.07969819009304047,,,,,,,,,
1739302758.9876175,-0.12511296476981393,1.074592754176804,-0.3740043771877124,-1.4141259331776437,1.528312944626777,1.1428954518543673,1.3579025004142338,-0.0016550621548223714,-0.0005429339702658306,-0.0007145212015883563,0.0010627127288152208,-0.0007382980140840474,-0.0003419504319356593,0.00037931434247016676,-0.2547723948955536,-51.39249038696289,-6.848954200744629,18.02191925048828,1.8007303476333618,-0.9995224475860596,0.07969819009304047,,,,,,,,,
1739302758.9985666,-0.12511296190584764,1.0745938312503303,-0.374001459776174,-1.414127327157463,1.5283133312697401,1.1428954867393517,1.3578944395454087,-0.0010042343816250175,-0.0006608533940880294,-0.0004541471958059501,-0.00041317025137628315,0.00032024254119424566,0.00020637843702890987,-0.0028977946941684913,-0.2547723948955536,-51.42026138305664,-6.900528907775879,18.06952667236328,1.8007303476333618,-0.9995224475860596,0.11998139321804047,,,,,,,,,
1739302759.0095344,-0.1251121474261111,1.0745955425061195,-0.3739982720670854,-1.414123320863359,1.5283129923793746,1.1428947334401212,1.3579025208474602,0.0007088157172840546,0.00011717475170354319,0.0003967705598138978,0.000682675913618543,0.0007156723071385963,-0.0003373473677278943,0.0012184651894766043,-0.2547723948955536,-51.44406509399414,-6.900528907775879,18.04572296142578,1.8007303476333618,-0.9931137561798096,0.07969819009304047,,,,,,,,,
1739302759.019587,-0.12510925445461182,1.074592062052704,-0.37399937129711924,-1.4141237517240286,1.528314640775954,1.1428971190181856,1.3578941406692522,0.0007354504426191259,-0.0011270353030494598,-0.00043170754138337057,0.0015925985019832828,-0.000579631856409106,0.0009405031816810143,-0.001981599080003338,-0.3063471019268036,-51.39249038696289,-6.928299903869629,18.02191925048828,1.8135477304458618,-1.0132553577423096,0.13279877603054047,,,,,,,,,
1739302759.0306222,-0.12510872444278306,1.0745924778604987,-0.37400347205714224,-1.4141273258368545,1.5283156128236695,1.1428962487603762,1.3578979277077972,-0.00025050285387643293,-0.0002064217762931383,-0.0005664311545064066,-0.00076679201293778,-0.00045488545382327034,0.0003101351931912659,0.00013468564720631505,-0.2825433909893036,-51.42026138305664,-6.900528907775879,18.06952667236328,1.8071390390396118,-1.0059311389923096,0.09343110024929047,,,,,,,,,
1739302759.0406678,-0.1251122179059453,1.0745919821522971,-0.3740014599008751,-1.414123381826467,1.5283127712206102,1.1428958955475927,1.3578945965121871,0.00025872539134379094,-0.0006871075470017975,-0.00043364017300705915,0.0006028514699535953,-0.001471935453478322,-0.0006833240499749436,-0.001365762326161259,-0.2547723948955536,-51.39249038696289,-6.900528907775879,17.99811553955078,1.8135477304458618,-1.0059311389923096,0.11998139321804047,,,,,,,,,
1739302759.051611,-0.125110652036971,1.0745975404478127,-0.3739993800996609,-1.4141237605272292,1.528315661835769,1.1428939757780734,1.3579008272424902,0.00025159202456593227,0.00020236811456428007,0.00044382211774856244,1.5595537790696608e-05,0.0009380154690325914,-0.0007770873933093042,-0.0005402200401730435,-0.2825433909893036,-51.47183609008789,-6.928299903869629,18.02191925048828,1.8135477304458618,-0.9867050647735596,0.06596527993679047,,,,,,,,,
1739302759.061656,-0.12510986793604456,1.0745940595736425,-0.3740014598895164,-1.4141225639634003,1.5283129780762705,1.1429004480669631,1.357900100400907,0.0006781218974858141,0.00022119828110240915,-0.0004445965664006882,0.00017077677407602667,0.0011123844603791663,0.000789099372867228,0.0017821399478420703,-0.2547723948955536,-51.42026138305664,-6.900528907775879,18.04572296142578,1.8007303476333618,-1.0059311389923096,0.07328949868679047,,,,,,,,,
1739302759.072603,-0.1251108347652912,1.0745928763123607,-0.3739993800996608,-1.4141237604661472,1.528315379392507,1.1428954848252115,1.3578992237117802,-4.82121552885232e-05,-0.0007130310681264705,0.0004013764219402442,0.00018321328085546648,0.0011824372364620387,0.00013319284522869863,-8.294157209680141e-05,-0.2547723948955536,-51.42026138305664,-6.928299903869629,18.02191925048828,1.8071390390396118,-0.9995224475860596,0.07969819009304047,,,,,,,,,
1739302759.0835311,-0.125110802692712,1.0745938299799975,-0.3740014598895164,-1.4141273346673204,1.5283116467800353,1.1428954911001885,1.3578952897042673,-0.00022871358677958295,0.0001210093870826082,-0.000824758420654087,-0.000522639809355517,-0.000419650600772441,-0.00015336162099637593,-0.00228405305277058,-0.2547723948955536,-51.42026138305664,-6.900528907775879,18.06952667236328,1.8199564218521118,-0.9995224475860596,0.11265717446804047,,,,,,,,,
1739302759.0936792,-0.12510980659163645,1.074597548950234,-0.374003196457394,-1.414124740648683,1.5283104800644758,1.1428938580424974,1.3578968089004337,5.880763098385048e-05,0.0007681200335719742,-0.001470328585654935,0.00012386575801441054,0.00046050039837041204,-0.0007113086921304833,-0.0007447481910321341,-0.2547723948955536,-51.47183609008789,-6.848954200744629,18.02191925048828,1.8199564218521118,-0.9867050647735596,0.09983979165554047,,,,,,,,,
1739302759.1047025,-0.12510993320171307,1.0745938286772339,-0.37399866267010323,-1.4141252136093374,1.5283132918074611,1.1428954910995592,1.3579012919469342,4.389917446318318e-05,-0.00016673511348052944,0.000995367137880311,0.0003502739530192231,0.0012349723085010307,1.5766591452033655e-05,-2.9022511649806583e-05,-0.2825433909893036,-51.42026138305664,-6.928299903869629,18.04572296142578,1.8007303476333618,-0.9995224475860596,0.06596527993679047,,,,,,,,,
1739302759.115543,-0.12511213819559688,1.0745935915667995,-0.3739992970508238,-1.4141238399552043,1.5283143514468593,1.142891994649396,1.357899236632243,-0.00014798986923106607,-0.0008617571895863774,-0.000581869842463021,0.0007267817026462667,0.0002956170032239016,-0.001685120578658719,-0.00048400035288136747,-0.2547723948955536,-51.42026138305664,-6.900528907775879,18.02191925048828,1.8007303476333618,-0.9729721546173096,0.07969819009304047,,,,,,,,,
1739302759.1255944,-0.1251063372972127,1.0745918320404906,-0.37400142086241256,-1.4141255784826008,1.5283127198677176,1.1428971146514793,1.3578961025999188,0.0011976506489671996,-0.0011114334295505134,0.00034791679880691046,-0.00032773564384519884,0.0005242118206825085,0.001451702969283508,-0.0004541834992729711,-0.3063471019268036,-51.39249038696289,-6.900528907775879,18.04572296142578,1.8135477304458618,-1.0132553577423096,0.10624848306179047,,,,,,,,,
1739302759.1376474,-0.12511320209660284,1.0745945871036644,-0.3740052436191708,-1.4141241049745725,1.5283114819094878,1.1428958781049896,1.3579003014214992,-0.0009818708320654746,-0.0004415035332066636,-0.0009738821064840013,-0.00014080848145505857,-0.0006414424864215798,-0.0007581882800788729,0.0012848139911958193,-0.2071649730205536,-51.39249038696289,-6.848954200744629,18.02191925048828,1.8135477304458618,-1.0059311389923096,0.10624848306179047,,,,,,,,,
1739302759.1485682,-0.12510872302069848,1.0745938300009337,-0.37400147252587435,-1.4141237605939256,1.528316654963709,1.142896242944009,1.3578960454500815,0.00018135355844437682,0.0001826293164738835,-0.0004217436523168293,0.0003446455815296549,0.001233208870785654,0.0009010730805503538,-0.0029756803639887854,-0.2825433909893036,-51.42026138305664,-6.900528907775879,18.02191925048828,1.8071390390396118,-1.0059311389923096,0.10624848306179047,,,,,,,,,
1739302759.1585724,-0.12510746302238904,1.0745896862409776,-0.37400145978158084,-1.4141219778059462,1.528312822875387,1.142894431462062,1.3579007398221066,0.0010199992339504646,-0.0010161461397816616,0.0001514935499151709,0.0007258298005817914,0.0011321746604527165,-6.91519807372574e-05,0.0002238225274822418,-0.2825433909893036,-51.39249038696289,-6.900528907775879,17.99811553955078,1.8007303476333618,-0.9995224475860596,0.09343110024929047,,,,,,,,,
1739302759.1686287,-0.12510980232187516,1.074593898302541,-0.3740032425665336,-1.4141223498354725,1.528311620597445,1.1428943921982928,1.3578952878198156,7.261163210960995e-05,-0.0008693723742337588,-0.0006989394715283999,0.0008939043569104782,2.2132967529200215e-05,-0.00043166134041096397,-0.0003373069027099413,-0.2547723948955536,-51.39249038696289,-6.876725196838379,17.97431182861328,1.8199564218521118,-0.9995224475860596,0.11265717446804047,,,,,,,,,
1739302759.1786675,-0.12510706619676826,1.0745938300203735,-0.37400319213711963,-1.4141262685907243,1.5283123782756558,1.1428962487416925,1.3578991452191733,0.0013527335525382973,-0.0005305886399713095,-0.0009624242569992578,-0.0008198280169749674,-0.0006346787112342045,0.0010485847159734107,0.0005329154438016397,-0.2825433909893036,-51.42026138305664,-6.848954200744629,18.04572296142578,1.8135477304458618,-1.0059311389923096,0.07969819009304047,,,,,,,,,
1739302759.1896322,-0.12510808604169915,1.0745921626908705,-0.3739992260436402,-1.414125543164079,1.5283152558459043,1.1428947334401456,1.3578935078710421,0.0010235902661365915,-0.00020989787237738811,0.0004297311455237951,-0.0007778945229123068,0.0005200268161146646,0.0006875785090330106,-0.0015164000513112025,-0.3063471019268036,-51.39249038696289,-6.900528907775879,18.04572296142578,1.8071390390396118,-0.9931137561798096,0.12639008462429047,,,,,,,,,
1739302759.2006383,-0.12510396493649303,1.0745931912609308,-0.37400324158186354,-1.4141247141572812,1.52831130555543,1.1428947319865954,1.3578981246645114,0.001629446522274345,-0.0006973114644147477,-0.0008008077551077894,6.623368807726758e-05,1.5706815894552374e-05,-0.00044610844240504046,-0.0009962665713528728,-0.3063471019268036,-51.42026138305664,-6.876725196838379,18.02191925048828,1.8135477304458618,-0.9931137561798096,0.07969819009304047,,,,,,,,,
1739302759.211583,-0.12510771065247403,1.074592061629184,-0.37399654545965244,-1.4141239989069274,1.5283113055374076,1.1428962095144377,1.3578977966998877,0.001166955188436819,-0.0005658228058319078,0.0013651646270986622,0.0013453513584272619,-0.0013817475423634831,0.0005931406554677604,0.00047186372468992465,-0.2825433909893036,-51.39249038696289,-6.928299903869629,18.02191925048828,1.8135477304458618,-1.0059311389923096,0.09343110024929047,,,,,,,,,
1739302759.2235384,-0.12510785687731094,1.0745938983401764,-0.3740014333038275,-1.4141286822121022,1.5283113055374076,1.142894727571888,1.357895254335654,-0.0001929131693968665,0.0002505629517230163,0.00010020211528011992,-0.0004683994098513008,-0.0005718836890995043,-0.0017247941716652389,-0.0008195042670614042,-0.2825433909893036,-51.39249038696289,-6.900528907775879,18.04572296142578,1.8135477304458618,-0.9931137561798096,0.11265717446804047,,,,,,,,,
1739302759.2345963,-0.12510977608198956,1.0745955425177767,-0.3740032454825705,-1.4141255709768523,1.5283150077298844,1.1428954910463556,1.3579008034999949,0.0009920817548969782,0.0006807108361091929,-0.0008776834055849275,-0.0003884123117120694,0.0015604305093143052,-0.00018142302897101274,0.0011177835114356167,-0.2547723948955536,-51.44406509399414,-6.876725196838379,18.04572296142578,1.8135477304458618,-0.9995224475860596,0.06596527993679047,,,,,,,,,
1739302759.245607,-0.12510977705360682,1.0745950565115876,-0.37400078625074507,-1.414121152873236,1.528312363907955,1.1428954910822788,1.3579015655213449,-0.00011495273838683874,-0.00032576999292726244,0.00023757134826412447,0.0008572897162670343,-0.00011151877217011768,0.0006298420980054008,0.000956621290601763,-0.2547723948955536,-51.44406509399414,-6.900528907775879,17.97431182861328,1.8135477304458618,-0.9995224475860596,0.05955658480525017,,,,,,,,,
1739302759.2566361,-0.12510978807031187,1.0745955425033689,-0.3739993013588582,-1.4141249183071611,1.5283128193736497,1.14289624811428,1.3578991841420178,2.929831761534356e-05,4.25652891536761e-05,0.0008343825256815386,0.0005174197403568482,0.0012983115305346892,0.0009350231146232329,-0.0001446296196611844,-0.2547723948955536,-51.44406509399414,-6.928299903869629,17.99811553955078,1.8007303476333618,-1.0059311389923096,0.07969819009304047,,,,,,,,,
1739302759.2675693,-0.12510778688931526,1.0745901695622642,-0.37400532235594647,-1.4141287348822134,1.5283107049145825,1.1428954909387148,1.3578991838190058,0.0008724108646648962,-0.0010794617528774694,-0.002020949057098393,-0.001047243011674966,0.00022613164548976827,0.0008495624194534917,-3.105489910871866e-05,-0.2825433909893036,-51.36868667602539,-6.848954200744629,18.04572296142578,1.8199564218521118,-0.9995224475860596,0.07969819009304047,,,,,,,,,
1739302759.2776144,-0.12510974938784863,1.074594382791896,-0.37400143353584286,-1.4141259419525485,1.5283104664448361,1.1428970691129576,1.3578930085333811,-0.0004333196032664245,7.8412094540535e-05,-0.00020325631696359938,-0.00021552105351608537,-0.0006239594178183191,0.0009292294096786226,-0.0013056909050269464,-0.2547723948955536,-51.44406509399414,-6.900528907775879,18.02191925048828,1.8199564218521118,-1.0132553577423096,0.11998139321804047,,,,,,,,,
1739302759.2886338,-0.12510777814054133,1.074597608793918,-0.37399905651096377,-1.4141244757873552,1.5283113098975987,1.142895738563909,1.3578991862874472,-0.0002790490493544894,0.0012505486078241417,0.00039598850514032985,0.00031772433359053315,-0.00036395714714590563,0.00010478027157767307,0.0014925007547957534,-0.2825433909893036,-51.44406509399414,-6.928299903869629,18.02191925048828,1.8135477304458618,-1.0059311389923096,0.07969819009304047,,,,,,,,,
1739302759.3005583,-0.12510777814069202,1.0745938385003144,-0.3740013461204653,-1.4141280362934037,1.5283113186193842,1.14289533341406,1.3579016055578446,-0.0003414731863267369,-0.0003563249438510239,0.0003350499434273597,-0.0003820286406396601,0.00017056858752857528,0.0003375761050522466,0.0004415292283725727,-0.2825433909893036,-51.42026138305664,-6.900528907775879,18.04572296142578,1.8135477304458618,-0.9995224475860596,0.08610688149929047,,,,,,,,,
1739302759.311617,-0.1251123723221476,1.0745975286732243,-0.37400144725249984,-1.4141258199569808,1.5283111858133436,1.1428946152177624,1.3578949457569878,-0.0003365771054888837,0.0007324011453442884,0.0008476738183796511,0.0006020507331576094,-0.0013692460657400596,0.00029875852329449973,-0.0018356354879111203,-0.2547723948955536,-51.47183609008789,-6.900528907775879,18.04572296142578,1.8135477304458618,-0.9931137561798096,0.07969819009304047,,,,,,,,,
1739302759.3216462,-0.12510977612551266,1.0745938413228737,-0.3740014336436357,-1.414125582846593,1.5283136867527691,1.1428943787718835,1.3578960455157816,-0.00028887542083085504,0.0001220148895126874,0.0007632736850084793,0.00026275676476759274,-0.00011972578314692285,0.0006529196491209719,0.0002135624427362361,-0.2547723948955536,-51.42026138305664,-6.900528907775879,18.04572296142578,1.7934061288833618,-0.9931137561798096,0.10624848306179047,,,,,,,,,
1739302759.3325665,-0.1251087141952543,1.074591835823823,-0.37400050629681403,-1.4141219905610731,1.5283113060757594,1.1428907685134726,1.3578999289354854,0.0006334629843157911,-0.0010658712775743764,0.00017205834421014368,0.0012654657963782167,-0.0009233102696169514,-0.0017298287770511633,0.002206277599035387,-0.2825433909893036,-51.39249038696289,-6.900528907775879,17.99811553955078,1.8135477304458618,-0.9995224475860596,0.07328949868679047,,,,,,,,,
1739302759.3426623,-0.12510862915311133,1.074593829985573,-0.3739993683864725,-1.4141220955441636,1.5283131915129042,1.1428962470668198,1.3578984266427834,0.0009918808385588678,-0.000277263500985374,4.846748677866258e-06,0.0008409817562086099,0.0003452478815834267,4.89588640690446e-07,0.0013266912800814297,-0.2309686839580536,-51.42026138305664,-6.928299903869629,17.99811553955078,1.8007303476333618,-1.0059311389923096,0.08610688149929047,,,,,,,,,
1739302759.3535893,-0.12511148847632733,1.0745938583296109,-0.37400145987749356,-1.4141258741699352,1.528311305538105,1.1428928218211933,1.3578952877659778,-0.0008009360305123156,0.0010861225444975323,0.0008406757518775129,-0.002050399759380741,-5.846850172116069e-05,-0.0007824155603800349,-0.001063254839059659,-0.2309686839580536,-51.42026138305664,-6.900528907775879,18.04572296142578,1.8135477304458618,-1.0132553577423096,0.11265717446804047,,,,,,,,,
1739302759.365596,-0.12511148860227558,1.0745956158577716,-0.3740034754293224,-1.4141257947714,1.5283122208269349,1.1428910911793961,1.3578944225147678,-0.0011195296899101108,0.0005033625300641823,-0.0009257758925508878,-0.0007178494667316717,0.0004457743861199975,-0.0002597634094798955,-0.0013959118945110988,-0.2309686839580536,-51.47183609008789,-6.876725196838379,18.04572296142578,1.8071390390396118,-0.9995224475860596,0.11998139321804047,,,,,,,,,
1739302759.3756151,-0.12510969712062445,1.0745938328089397,-0.3739993326957516,-1.4141248300793337,1.528314482742072,1.1428954894064953,1.3579039870444019,0.00012081300701724312,-0.00028997766817617185,0.0011248456100334146,-0.0007540969279798029,0.0002761719102718634,0.0006247760920793761,0.0008044311487807018,-0.2547723948955536,-51.42026138305664,-6.900528907775879,18.02191925048828,1.8135477304458618,-0.9995224475860596,0.06596527993679047,,,,,,,,,
1739302759.385617,-0.1251077784633754,1.0745938639985047,-0.3739996161666294,-1.4141277684181692,1.5283124166255075,1.1428950201499155,1.3578944220840907,0.000490666504413754,-0.0007340178619002523,0.0007604386077966534,8.40732607537033e-05,1.9082913942625293e-05,-0.00023594023659959828,-0.0010158910735599408,-0.2825433909893036,-51.42026138305664,-6.928299903869629,18.04572296142578,1.8071390390396118,-0.9995224475860596,0.11998139321804047,,,,,,,,,
1739302759.3965988,-0.12511048471454955,1.0745975404475414,-0.3740030063595336,-1.4141240386211507,1.528312181425558,1.1428911987583719,1.3578960454260598,-0.0012634249224315625,0.00030448840464383114,-0.0001602709860750395,0.0007854439538061877,0.00046134163164688474,-0.0010868870489019562,-0.0002124584518783821,-0.2547723948955536,-51.47183609008789,-6.876725196838379,18.02191925048828,1.8071390390396118,-0.9995224475860596,0.10624848306179047,,,,,,,,,
1739302759.4066052,-0.12510576086898262,1.07459554345092,-0.3740004195899399,-1.4141269663259413,1.5283105463881077,1.1428907640767585,1.357899941963602,0.00043312948800856615,0.0002110406262051741,0.0007773201907484207,-0.0014038436482987334,-0.0008853110512929836,-0.002403351043677819,0.00029294005464693644,-0.3063471019268036,-51.44406509399414,-6.876725196838379,18.02191925048828,1.8199564218521118,-0.9995224475860596,0.07328949868679047,,,,,,,,,
1739302759.4176214,-0.12510605679263334,1.0745938554951933,-0.37400529609478855,-1.4141268956999262,1.5283128208023748,1.1428961963519741,1.3578974582768952,0.0012619800277745342,-0.0016942015825865448,-0.0012468814887582477,-0.0005526194380977639,-0.0006632363656791176,-0.00089252288631387,0.0018638475666650778,-0.3063471019268036,-51.42026138305664,-6.848954200744629,18.02191925048828,1.8007303476333618,-1.0059311389923096,0.10624848306179047,,,,,,,,,
1739302759.4286115,-0.1251090597966646,1.074593830054165,-0.3739975945063083,-1.4141280465545933,1.5283123782574888,1.1428925552888316,1.3578960454878668,-0.0001773586494742623,-0.0004897845055530953,0.0012380263198438109,-0.0012294918819291643,-0.00025964149053631216,-0.0016305681934249568,-0.0006425557644748266,-0.2547723948955536,-51.42026138305664,-6.952103614807129,18.04572296142578,1.8135477304458618,-1.0059311389923096,0.10624848306179047,,,,,,,,,
1739302759.4395657,-0.12510605974266592,1.0745945871036648,-0.37399714921798083,-1.414128523388185,1.5283097917306918,1.1428958954729076,1.3578936656622178,0.0004371068991177112,0.0003813402409856599,0.0010209670884319783,-0.000600905382843737,-0.0009978416244647637,0.00019208911678576787,-0.0002875636514045384,-0.3063471019268036,-51.39249038696289,-6.928299903869629,18.04572296142578,1.8263651132583618,-1.0059311389923096,0.12639008462429047,,,,,,,,,
1739302759.450541,-0.12510953876672254,1.0746010423483365,-0.37400145987692296,-1.4141251138937636,1.528312115740644,1.1428919003446052,1.3579022708536306,-0.00017271151807717793,0.0029166112159572737,0.00016204803456560882,4.356924881674011e-05,0.0006632880934665912,0.00023328334319522518,0.0002477297508910038,-0.2547723948955536,-51.51944351196289,-6.900528907775879,17.99811553955078,1.8071390390396118,-0.9995224475860596,0.05314789339900017,,,,,,,,,
1739302759.4606323,-0.12511521275530915,1.0745901195250986,-0.3740011134273325,-1.4141227327967147,1.5283113060228142,1.1428907275937525,1.3578940686551493,-0.001505499914649834,-0.002396124061312588,-0.0005075001711271868,0.0006678223253933778,0.0008930637586362673,-0.00042504013957435436,-0.001184391019789143,-0.2071649730205536,-51.36868667602539,-6.876725196838379,17.99811553955078,1.8135477304458618,-0.9995224475860596,0.11998139321804047,,,,,,,,,
1739302759.471596,-0.12511148962169602,1.0745945871036644,-0.37400524357136977,-1.4141285233419765,1.5283120631974887,1.1428911952940048,1.357901918732069,-0.0008321334595878092,0.0008504931619056847,0.00047846600768662725,0.00016553192287006006,0.0019082794164939343,-0.00048280683506716446,0.0009473358944573874,-0.2309686839580536,-51.39249038696289,-6.848954200744629,18.04572296142578,1.8071390390396118,-0.9995224475860596,0.05955658480525017,,,,,,,,,
1739302759.481646,-0.12510969567449381,1.0745982976119057,-0.3740004202885628,-1.414125115998719,1.5283155440899252,1.1428958765786896,1.357901157928653,1.6557777173286227e-05,0.0018543766919597413,0.00020410190519919093,0.0008848755572107236,0.0006656625158406972,0.0014212395384710285,0.0018824304580365545,-0.2547723948955536,-51.44406509399414,-6.952103614807129,17.99811553955078,1.8135477304458618,-1.0059311389923096,0.09983979165554047,,,,,,,,,
1739302759.4926357,-0.1251097496033619,1.0745955425527702,-0.37399862540532586,-1.4141268731686072,1.5283163023063004,1.1428925227244993,1.3578944219424949,-0.000704310048325457,0.00028353393391415904,0.0007989257308311339,-0.0008982271643084512,0.001466993507537347,-0.0006614444904369173,0.00026843550276469004,-0.2547723948955536,-51.44406509399414,-6.900528907775879,18.02191925048828,1.8071390390396118,-1.0132553577423096,0.11998139321804047,,,,,,,,,
1739302759.5036237,-0.12510776933914872,1.0745976088004647,-0.3740014686087368,-1.4141248333663714,1.528313124781659,1.1428917976204083,1.3578983733455623,0.000982176915922796,0.0005361832714765935,-0.0004766814994440241,0.00037965462527532066,-0.00018020118824486897,-0.0004831141410912729,2.078229557632037e-05,-0.2825433909893036,-51.44406509399414,-6.900528907775879,18.02191925048828,1.8071390390396118,-0.9995224475860596,0.05955658480525017,,,,,,,,,
1739302759.5136392,-0.12511009092088404,1.0745979797088028,-0.37400150599880544,-1.4141277035535451,1.5283120632154639,1.1428957714487555,1.3578960453719964,-0.0008309067652456603,0.00034523689776924,0.0005546180483710639,0.00030087801773988256,-0.00043152255622258616,0.000592335559983797,-0.0005738312178585373,-0.2547723948955536,-51.44406509399414,-6.928299903869629,18.04572296142578,1.8071390390396118,-1.0059311389923096,0.10624848306179047,,,,,,,,,
1739302759.5246308,-0.12510777521621164,1.0745938313913774,-0.3740032413064554,-1.414128752853546,1.5283120633589917,1.142896628517647,1.3578984266434444,-0.00046556211617082327,0.0006562926827162025,-0.0002246281655092801,-0.00039540421077030916,-0.0004769642280827071,0.0005261477605474585,0.00027828249381191977,-0.2825433909893036,-51.42026138305664,-6.876725196838379,18.04572296142578,1.8071390390396118,-1.0132553577423096,0.08610688149929047,,,,,,,,,
1739302759.5355442,-0.12510764024843513,1.074595896279736,-0.3740014595654934,-1.414126616358509,1.5283105476566052,1.1428915981343482,1.3578991843035235,-0.00012586541643962856,4.0325799971623576e-05,0.0003247074178466902,-5.066721467083675e-05,-0.00021065935186709403,-0.0008524744078087701,0.0010343723701967452,-0.2547723948955536,-51.42026138305664,-6.900528907775879,18.04572296142578,1.8199564218521118,-1.0059311389923096,0.07969819009304047,,,,,,,,,
1739302759.5456407,-0.12510977300705078,1.07459754342136,-0.37400111634351235,-1.4141251963114139,1.5283105483618422,1.142896077001109,1.357890485294279,0.00019712428019008098,0.0009312534707773166,0.0002754525629107908,0.001218133334456747,0.0011691925158368048,0.0001331816339531011,-0.001434869658491664,-0.2547723948955536,-51.47183609008789,-6.876725196838379,17.99811553955078,1.8199564218521118,-1.0059311389923096,0.12639008462429047,,,,,,,,,
1739302759.5565598,-0.12511148762565485,1.074597551784674,-0.3740024877763901,-1.4141286557379718,1.5283113244335635,1.1428953557575758,1.3578999244492187,-4.026035739581539e-05,0.001422031395245025,-0.001304583831766812,-0.0009054503720398255,0.0004238990092942092,0.0014495472768005066,0.0004159932063093424,-0.2309686839580536,-51.47183609008789,-6.848954200744629,18.04572296142578,1.8135477304458618,-0.9995224475860596,0.07328949868679047,,,,,,,,,
1739302759.5666797,-0.12510746128691005,1.0745945871038565,-0.37400040787852873,-1.4141222559591582,1.5283105299989812,1.1428950180480797,1.3578914534990267,0.0007609422234861754,-0.0012787113265080884,0.001324383474186341,0.0011395627216579224,-0.001048545513954451,-0.0007748223557767979,-0.002430075528247643,-0.2825433909893036,-51.39249038696289,-6.876725196838379,17.99811553955078,1.8199564218521118,-0.9995224475860596,0.10624848306179047,,,,,,,,,
1739302759.5776043,-0.12510775177059344,1.0745976212260762,-0.37400592396240984,-1.4141259459700073,1.5283128535354262,1.1428921808252914,1.3578985740930636,-8.690853681907098e-05,0.001410340515213206,-0.0018479651972273018,-4.377468438308447e-05,0.0001560305323644105,-0.0007088006014776401,6.543248134775227e-05,-0.2825433909893036,-51.47183609008789,-6.825150489807129,18.02191925048828,1.8007303476333618,-0.9995224475860596,0.07328949868679047,,,,,,,,,
1739302759.5885239,-0.12510746161231243,1.0745948503781098,-0.3740032425598682,-1.4141284439135307,1.5283072850205992,1.1428950026886546,1.3578991842958017,0.0010809222642579911,0.001146830326946657,-0.0008347464303890703,0.0007792084927549525,-0.001955974874729402,-0.0011466323181562681,0.0009933709464860882,-0.2825433909893036,-51.42026138305664,-6.876725196838379,18.04572296142578,1.8199564218521118,-0.9995224475860596,0.07969819009304047,,,,,,,,,
1739302759.598687,-0.1251057228265713,1.0745918320618086,-0.374001146237599,-1.41412519645138,1.528312351711279,1.1428915545174865,1.3579007396606007,0.0012901455124467933,-0.00030484585963951787,-0.00018409576323957745,0.0010427541259433659,0.0017491444201616242,-0.00034496558179474983,0.0008868305419599111,-0.3063471019268036,-51.39249038696289,-6.900528907775879,17.99811553955078,1.8135477304458618,-0.9931137561798096,0.09343110024929047,,,,,,,,,
1739302759.6096542,-0.12511072152333477,1.0745956449652543,-0.3739992751152237,-1.4141297232682704,1.528309790869179,1.1428919530871449,1.357892749529272,-0.00014952742889013315,0.0009289313162116979,0.0013439081023172653,-0.0005943686711431515,-8.294850966964222e-05,0.0007716466893816366,-0.0021678626588726314,-0.2071649730205536,-51.44406509399414,-6.928299903869629,18.06952667236328,1.8263651132583618,-0.9995224475860596,0.13279877603054047,,,,,,,,,
1739302759.6206315,-0.12510953470165992,1.0745938299859594,-0.37400142489470156,-1.414126580717683,1.528310547877333,1.1428935294827984,1.3579007557474798,0.00039610486641058926,-8.147403301391961e-05,-0.0006186165940541145,0.001103525182111785,-0.0004828448212044022,-0.0003954114638612643,0.00122497832853287,-0.2547723948955536,-51.42026138305664,-6.900528907775879,18.04572296142578,1.8199564218521118,-1.0132553577423096,0.06596527993679047,,,,,,,,,
1739302759.630688,-0.12510906413308914,1.0745984928130865,-0.37399929510745766,-1.4141269789878292,1.5283113055374076,1.1428921879273275,1.3578929065477061,-0.0007142620476041689,0.0010016753699542413,-7.327381612671367e-05,-0.0007387460940617319,0.0002498822503831462,-0.00014414934369456206,-0.0009541444386482768,-0.2547723948955536,-51.47183609008789,-6.900528907775879,18.02191925048828,1.8135477304458618,-0.9995224475860596,0.13279877603054047,,,,,,,,,
1739302759.6416905,-0.12511148848974576,1.074595554793988,-0.3740014205267973,-1.4141241181108326,1.5283097885618186,1.1428908409589997,1.3578980734307355,-0.0010038106141337432,0.00039215969507860394,0.0006888067659857984,0.0009726578493840479,-0.0004485888892556872,-0.0009502969717107904,-0.0004178005912286949,-0.2309686839580536,-51.44406509399414,-6.900528907775879,18.02191925048828,1.8263651132583618,-0.9995224475860596,0.08610688149929047,,,,,,,,,
1739302759.652596,-0.12510606551144737,1.0745992529679047,-0.3740045975960977,-1.4141251699173587,1.5283121024433146,1.1428912503693833,1.357895287759996,-0.0005440573044964036,0.0010191303418109932,-0.0002983395070726772,0.00012834496871728447,0.0008161389525745998,0.0003459929393289019,-0.000846128758845916,-0.3063471019268036,-51.49563980102539,-6.900528907775879,17.99811553955078,1.8071390390396118,-0.9995224475860596,0.11265717446804047,,,,,,,,,
1739302759.6635509,-0.1251114902163225,1.0745938996914897,-0.3740011448394141,-1.4141287340116033,1.5283113055374813,1.1428943902522464,1.3578912429543573,-0.0013431990116718816,-0.0007193644061710257,0.000747545936994066,-0.0007470415767513889,0.00017310114556575663,-0.001278430518938036,-0.0019051939577723366,-0.2309686839580536,-51.39249038696289,-6.900528907775879,18.04572296142578,1.8135477304458618,-0.9995224475860596,0.11998139321804047,,,,,,,,,
1739302759.6735961,-0.12510563807566394,1.074592188687588,-0.37400324256120004,-1.4141251935128536,1.5283105498153962,1.1428950005891256,1.3579008076454935,0.0007341382388211659,-0.0010143113547348337,0.0003549948293174306,0.00040687982805790747,0.00017395192353436697,-0.0012698444625297888,0.0001740464373008061,-0.2825433909893036,-51.36868667602539,-6.876725196838379,17.99811553955078,1.8199564218521118,-0.9995224475860596,0.06596527993679047,,,,,,,,,
1739302759.6845958,-0.1251107766458274,1.0746014213129564,-0.37400075122051507,-1.414125196456747,1.528312063197497,1.1428933024979124,1.3578952834053257,0.0007203352037144217,0.0021023695453561155,0.0011102515243928,0.0001722243201806252,-2.3110302875295713e-05,0.00025631693652229914,-0.0017457912741682298,-0.2309686839580536,-51.49563980102539,-6.900528907775879,17.99811553955078,1.8071390390396118,-0.9931137561798096,0.11265717446804047,,,,,,,,,
1739302759.6946056,-0.1251090641251199,1.0745940596103636,-0.37400122075033015,-1.4141241181108335,1.528314483607929,1.1428917830693133,1.3578999405099779,-0.00041529025228359323,0.00018693612671997586,0.000736221618486893,0.00038194575092088576,0.00019016527845374043,-0.0008526311714999415,0.0009691000022788742,-0.2547723948955536,-51.42026138305664,-6.900528907775879,18.02191925048828,1.8135477304458618,-0.9995224475860596,0.07328949868679047,,,,,,,,,
1739302759.7046144,-0.12510910372307657,1.0745938328236928,-0.3740025251809311,-1.4141283986721571,1.5283113055912283,1.1428930654224678,1.3578975607461883,-0.0005338057707081555,0.00022455606524968618,-0.0008373228548318564,-0.001129758035464092,2.0350518092387385e-05,-0.0005331727774244118,0.0005802757757841289,-0.2309686839580536,-51.42026138305664,-6.876725196838379,18.06952667236328,1.8135477304458618,-1.0059311389923096,0.09343110024929047,,,,,,,,,
1739302759.7146292,-0.1251075407855145,1.074597602804618,-0.37400313757171993,-1.4141269790974431,1.5283105478773302,1.1428928716904565,1.357897560746213,0.0011611464237520153,-0.00037547619653357974,-0.0013387199799953955,-0.0003441818008518698,-0.00019450991916647827,0.0017081361963042553,-0.00044157270491573363,-0.2825433909893036,-51.44406509399414,-6.876725196838379,18.02191925048828,1.8199564218521118,-1.0132553577423096,0.09343110024929047,,,,,,,,,
1739302759.7255707,-0.1251097764042258,1.0745945187617958,-0.37400145891686193,-1.4141282722187398,1.5283119422957525,1.1428945568367568,1.357897575165087,0.0001789688189824531,6.372999574728538e-05,0.0005072369802612175,-0.0007200850307469461,-8.670859104607697e-05,0.0008328457953743466,-0.0005721952687116386,-0.2547723948955536,-51.42026138305664,-6.900528907775879,18.04572296142578,1.8071390390396118,-0.9931137561798096,0.06596527993679047,,,,,,,,,
1739302759.7365537,-0.1251114886022781,1.0745918069221854,-0.3740014598895109,-1.4141249315444675,1.5283105076496437,1.142890762700277,1.3578940168647764,-0.0013475340851467408,-0.0018323063961268688,-0.00035005531710001486,-6.991980921153084e-05,-0.0017243647142678254,2.7057441340064123e-05,-0.00019118202793843686,-0.2309686839580536,-51.39249038696289,-6.900528907775879,17.99811553955078,1.8199564218521118,-0.9995224475860596,0.12639008462429047,,,,,,,,,
1739302759.746683,-0.12510775047024333,1.0745940608329605,-0.37399861369277965,-1.4141269673555394,1.5283127806298797,1.142890724182869,1.357899885119609,-6.589483236066167e-05,0.00013147800817628466,-0.001025478103489541,-0.00040900163187442505,-0.0009237871442125138,-0.0004141502764791534,-0.0003272318562785975,-0.2825433909893036,-51.42026138305664,-6.900528907775879,18.02191925048828,1.8007303476333618,-0.9995224475860596,0.07328949868679047,,,,,,,,,
1739302759.7575538,-0.12510924338935964,1.0745939065510977,-0.37400324251446626,-1.414126952315714,1.5283105473804726,1.1428954453672346,1.3578935459862596,0.0003962262383898719,0.0002201975037810549,-0.0011609749623686008,-0.0008357445549413502,-0.0006885145724880473,0.0009746856714841186,0.000440706947876145,-0.2309686839580536,-51.42026138305664,-6.876725196838379,18.02191925048828,1.8199564218521118,-0.9995224475860596,0.12639008462429047,,,,,,,,,
1739302759.7685947,-0.12510693400162998,1.0745938328552291,-0.37400145553323944,-1.4141287618106504,1.5283128206920182,1.142890762054993,1.3578931540118633,-0.0002234928754932501,0.0007862992599909989,-6.733162000805435e-05,-0.0010588606861988556,0.0011862563973389774,-0.0013867305188060997,-0.0021274790868390167,-0.2547723948955536,-51.42026138305664,-6.900528907775879,18.04572296142578,1.8007303476333618,-0.9995224475860596,0.12639008462429047,,,,,,,,,
1739302759.778635,-0.12510977614142108,1.0745955425061609,-0.37400110994722086,-1.4141287618108018,1.5283113578652134,1.1428917823674374,1.3578944218601052,-0.0006000780487242074,-0.0007107845030475472,0.0002717872982593625,-0.0011975344925758175,0.0007129060024223433,-0.0001745912522770718,-0.0015462543764740485,-0.2547723948955536,-51.44406509399414,-6.900528907775879,18.04572296142578,1.8135477304458618,-0.9995224475860596,0.11998139321804047,,,,,,,,,
1739302759.7895885,-0.12510658551604373,1.0745956445453397,-0.37400313365764426,-1.414123051109466,1.528311305537703,1.1428931454424835,1.3579021661980046,0.001135576740755221,0.00036091425684543397,-0.000853371907056723,0.0002324320501706042,-0.0010866251894950192,-0.001129287091384526,0.0010071254245585478,-0.2547723948955536,-51.44406509399414,-6.876725196838379,17.99811553955078,1.8135477304458618,-0.9931137561798096,0.05314789339900017,,,,,,,,,
1739302759.800527,-0.1251084866109981,1.0745975407624773,-0.37399862229671127,-1.4141262638659347,1.5283105478773293,1.1428935030278158,1.3578998894195662,0.0009683182159974657,0.0009600395907663414,0.00035089476814052485,0.0004836607543461278,-0.0011400612625792985,8.354983005414042e-05,0.0006559155997182261,-0.2825433909893036,-51.47183609008789,-6.900528907775879,18.02191925048828,1.8199564218521118,-0.9931137561798096,0.07328949868679047,,,,,,,,,
1739302759.810581,-0.12510777815269003,1.0745938983388856,-0.37400229724245443,-1.4141285233801095,1.528311424231898,1.1428916506755205,1.357894415569138,0.00030512430359641736,-0.001408611406986089,0.0005000854838991295,0.00022263832445204156,0.0006582708366427836,6.731209298648771e-05,-0.0007536770561257896,-0.2825433909893036,-51.39249038696289,-6.876725196838379,18.04572296142578,1.8135477304458618,-1.0059311389923096,0.11998139321804047,,,,,,,,,
1739302759.821639,-0.1251096966510808,1.0745995302428524,-0.3739990980875312,-1.414128440971886,1.5283120587298291,1.1428916553021504,1.3579010931174162,1.2466176541265966e-06,0.0017778097819007312,0.0008770887836929893,0.00010476043405273898,0.00011674223534444993,0.0005256661960733261,0.0019424542322425623,-0.2547723948955536,-51.47183609008789,-6.900528907775879,18.04572296142578,1.8071390390396118,-1.0059311389923096,0.05955658480525017,,,,,,,,,
1739302759.832581,-0.12510935244348767,1.074596814963123,-0.37400145987307143,-1.4141251964198212,1.52830986317949,1.1428900173967016,1.3578896098957418,-0.0019317666715387327,0.0005608866667591905,0.0014420034429308364,0.0005200194211482233,-0.0002437478311966716,-0.0011034970036005588,-0.0017832534912495962,-0.2309686839580536,-51.42026138305664,-6.900528907775879,17.99811553955078,1.8135477304458618,-0.9931137561798096,0.13279877603054047,,,,,,,,,
1739302759.8426342,-0.1251076096120037,1.0745938121532264,-0.3740031964573937,-1.414128762125737,1.528311305512981,1.1428915196354632,1.3579008015062874,0.0005461180819861962,-0.0013890862786667042,-0.00040983646213300906,-0.001050613593414421,0.0010458698412031046,8.484508930449523e-05,0.0010255030457053688,-0.2547723948955536,-51.42026138305664,-6.848954200744629,18.04572296142578,1.8135477304458618,-1.0059311389923096,0.06596527993679047,,,,,,,,,
1739302759.8535717,-0.12510777812846224,1.0745941361029623,-0.37400323963834947,-1.4141259007878544,1.528312076279438,1.1428914824885146,1.3579012633817604,-0.0003483646408003993,0.0010633137044293293,-0.000794987133792705,-0.0002500400986867465,0.00048101792181020546,-6.824145274930781e-05,0.002048290202627523,-0.2825433909893036,-51.42026138305664,-6.876725196838379,18.04572296142578,1.8071390390396118,-1.0059311389923096,0.05314789339900017,,,,,,,,,
1739302759.863581,-0.12511147981283943,1.0745940883432916,-0.3739986253574708,-1.4141287618673286,1.5283120631977074,1.1428899671681718,1.3578928915106216,-0.0007740292644822836,-0.0009127917003183356,0.001185204275757405,-0.0002721869806036022,0.00043043964916986854,-0.001297978382281569,-0.0012905784397990185,-0.2309686839580536,-51.44406509399414,-6.900528907775879,18.04572296142578,1.8071390390396118,-0.9931137561798096,0.13279877603054047,,,,,,,,,
1739302759.8755212,-0.12510776935120577,1.074599833377931,-0.3740011166515374,-1.4141326216838,1.528312063197486,1.1428933140483424,1.3578991792429302,0.00017119840951718596,0.001335792702673064,0.00024488744596764557,-0.0023825630493354132,0.0010303071896475289,-0.00029151902608408846,0.0011588727796485333,-0.2825433909893036,-51.47183609008789,-6.876725196838379,18.06952667236328,1.8071390390396118,-0.9931137561798096,0.07969819009304047,,,,,,,,,
1739302759.8855915,-0.12510935164783607,1.074593901186247,-0.3740030063435349,-1.4141230507012774,1.5283131228356155,1.1428919520577627,1.3578909805286816,-0.0010985743527732578,-0.0002671176114511708,-9.536281757302088e-05,0.0008742354149796248,0.001471745482028602,0.0004071102746356707,-0.002646287073705859,-0.2309686839580536,-51.39249038696289,-6.876725196838379,17.99811553955078,1.8071390390396118,-1.0059311389923096,0.14012299478054047,,,,,,,,,
1739302759.896579,-0.125109538718522,1.0745977700819,-0.3740014595641623,-1.4141306209687894,1.5283073137431393,1.1428914805528887,1.3578975416825696,9.844960909485508e-05,-0.0004588323954322123,-7.823525738307743e-05,-0.00013581482571460693,-0.0009877798413818308,-0.0014328477978854527,0.0015969203886775805,-0.2547723948955536,-51.47183609008789,-6.900528907775879,18.06952667236328,1.8135477304458618,-1.0059311389923096,0.09343110024929047,,,,,,,,,
1739302759.9067156,-0.12511061234313356,1.0745918575582238,-0.3739993800996553,-1.41413046490724,1.5283120636144012,1.142890723374667,1.3579006708215107,-0.0018630369904228529,-0.0022039482178646272,0.00020798430764628608,-0.0004246878738169239,-0.0004846015749417932,-0.0007913094946238547,0.0012959335321213103,-0.2825433909893036,-51.39249038696289,-6.928299903869629,18.06952667236328,1.8071390390396118,-0.9995224475860596,0.09983979165554047,,,,,,,,,
1739302759.917574,-0.12511140915164043,1.0745938300905038,-0.3740032163208688,-1.4141304650145117,1.528311197537872,1.1428908535481677,1.3579038290230057,-0.0009427960455381555,-4.002273046188632e-05,-0.001456811170388715,-0.0009442982215873666,0.0012117516350197404,0.0011565878064365058,0.002143160345537071,-0.2309686839580536,-51.42026138305664,-6.876725196838379,18.06952667236328,1.8263651132583618,-0.9995224475860596,0.03941498324275017,,,,,,,,,
1739302759.9286005,-0.12510776642099466,1.07459385563516,-0.37399929899614903,-1.4141248797882808,1.5283137267996618,1.1428928303727584,1.3578999027170808,0.0009742466749856464,-0.00016443438760214169,-0.000335119246780736,0.0009933538577486301,0.0005831848765642636,-0.00010930753733363549,0.002278062629422664,-0.2825433909893036,-51.42026138305664,-6.900528907775879,17.99811553955078,1.8199564218521118,-1.0132553577423096,0.07328949868679047,,,,,,,,,
1739302759.9395638,-0.12510977608147894,1.0745997087806896,-0.3740012236663184,-1.4141269795519096,1.5283137134006615,1.1428949633834644,1.3578976289462246,9.739806594903827e-05,0.0012628860728575036,0.00020826526705244647,0.0007463130877263784,2.855524809811574e-05,0.0008833757662729935,0.00031366281543668793,-0.2547723948955536,-51.47183609008789,-6.900528907775879,18.02191925048828,1.8199564218521118,-0.9995224475860596,0.06596527993679047,,,,,,,,,
1739302759.9505293,-0.12510606464335677,1.0745919429142006,-0.3739993339891859,-1.41412697898843,1.5283099064828012,1.1428919557235895,1.3579008034822384,0.0015046633459288384,-0.0002062164925173855,0.000726885957266651,0.00023347540703709063,-0.0011082573423171563,0.00032242513173212574,0.0009660180022133515,-0.3063471019268036,-51.39249038696289,-6.900528907775879,18.02191925048828,1.8263651132583618,-1.0059311389923096,0.06596527993679047,,,,,,,,,
1739302759.9605505,-0.12510969697659877,1.0745919085758262,-0.37400323950634107,-1.414128798658298,1.5283105473826686,1.1428899665301637,1.35789897274804,-0.00040050899621166063,-0.0005760223470383642,-0.0005333299774762448,-0.0012983721507497125,-0.0004015439978243417,-0.0004870513586580132,-0.00026105604756786844,-0.2547723948955536,-51.39249038696289,-6.876725196838379,18.04572296142578,1.8199564218521118,-0.9931137561798096,0.05314789339900017,,,,,,,,,
1739302759.970626,-0.1251066105808749,1.074591909834988,-0.3739993686606692,-1.4141287618114258,1.528312120870071,1.1428899694292391,1.3578948678321114,0.0008687360581715935,-0.0018502859835984465,0.0009580436598284706,-0.0007040000060632818,0.0005410936159958792,-0.00092320143386888,-0.002132408463106045,-0.2547723948955536,-51.39249038696289,-6.900528907775879,18.04572296142578,1.8135477304458618,-0.9931137561798096,0.10624848306179047,,,,,,,,,
1739302759.981597,-0.1251090278407067,1.0745918663738572,-0.37400138068507394,-1.4141287588673626,1.5283106656287069,1.1428917823668452,1.3578985227941023,6.912135031413917e-05,-0.0009569828590443645,-0.0001712155913661338,-7.422307029727841e-05,-0.0011313433035442522,-0.00021500261943081683,0.0004703927564987284,-0.2547723948955536,-51.39249038696289,-6.900528907775879,18.04572296142578,1.8199564218521118,-0.9995224475860596,0.07328949868679047,,,,,,,,,
1739302759.9916008,-0.12510767266322845,1.074596585989519,-0.3739975974221946,-1.4141277099194693,1.5283113050414425,1.14289111519319,1.357892788641502,0.0004155680383852171,-0.0006801394272657508,0.00032094909105596535,-0.0005920413220795468,0.0004295063714046421,-0.001441295861964802,-6.399891506603424e-05,-0.2825433909893036,-51.42026138305664,-6.952103614807129,18.06952667236328,1.8135477304458618,-0.9995224475860596,0.13279877603054047,,,,,,,,,
1739302760.0035217,-0.12510882682179214,1.074592880140846,-0.3740014686020696,-1.4141252464792295,1.5283144903198291,1.1428914803909358,1.357898386552464,0.000514105910676154,-0.0007463847142367853,0.0005201590382363765,0.0010069665343872898,0.00238241609739851,0.0002941261622838218,0.0012521368637317819,-0.2547723948955536,-51.42026138305664,-6.900528907775879,17.99811553955078,1.8135477304458618,-1.0059311389923096,0.05955658480525017,,,,,,,,,
1739302760.013583,-0.12510874771209918,1.0745958527125987,-0.3739993800637077,-1.4141273048086562,1.5283128208755423,1.1428911937327568,1.357901561142757,4.04115277127586e-05,0.0007839904639221139,0.0007430908897497803,-0.00040947874575460495,-0.0008506058990051126,7.405660796954257e-05,0.0014489000662302922,-0.2547723948955536,-51.44406509399414,-6.928299903869629,18.04572296142578,1.8007303476333618,-0.9995224475860596,0.05955658480525017,741,710,724,39.545,0,0
1739302760.0245616,-0.12510753473322522,1.074596231727555,-0.3740014511409606,-1.4141269791255577,1.5283105479311645,1.1428904796818449,1.3579006363418806,0.00027428665429243837,-0.0004389746068659964,-8.93304309773723e-06,-3.1206125670223426e-05,-0.0001907236560153082,-0.00045280516323950874,0.000747946233654198,-0.2547723948955536,-51.44406509399414,-6.900528907775879,18.02191925048828,1.8199564218521118,-0.9931137561798096,0.06596527993679047,741,713,726,39.545,0,0
1739302760.0345747,-0.1251093498014022,1.0745953069336283,-0.3740014598893682,-1.4141287618108016,1.528312063197487,1.1428907227373568,1.3578940642924802,-0.0013575653425003651,-0.0003998479208184123,-0.00020394948691199638,-0.0007157507597396712,0.0006131054803725387,-0.00026266004554299587,-0.0007597098606368122,-0.2309686839580536,-51.44406509399414,-6.900528907775879,18.04572296142578,1.8071390390396118,-0.9995224475860596,0.11998139321804047,740,713,726,39.654,1,0
1739302760.0445993,-0.12510767219718527,1.0745918320405388,-0.3740071040613483,-1.4141268456318512,1.5283109770684036,1.1428946593031086,1.357900505877168,0.00020046074700559024,-0.0027771503449790964,-0.0015165190696206136,0.00018361327624411244,0.0004016350444654799,0.0012011263240577841,0.0023449591675626085,-0.2825433909893036,-51.39249038696289,-6.825150489807129,18.04572296142578,1.8071390390396118,-1.0059311389923096,0.05955658480525017,740,712,727,39.545,1,0
1739302760.0555272,-0.12511147937699924,1.0745955425061124,-0.3740021685224989,-1.414131898328408,1.5283097901988572,1.142891838015916,1.357892708864274,-0.0016719925648680867,0.000144954360377521,-5.6334544030224414e-05,-0.0017166440677709744,-0.0005479916076401883,-4.527390180420984e-05,-0.0024394088353650954,-0.2309686839580536,-51.44406509399414,-6.900528907775879,18.06952667236328,1.8263651132583618,-1.0059311389923096,0.10624848306179047,741,711,726,39.545,0,0
1739302760.0656035,-0.12510887567554962,1.0745977700352267,-0.3740024552005368,-1.4141258849021412,1.528310494241325,1.1428908406835714,1.3578976226288935,0.0008027836320360208,0.0011559786029257395,0.00026928746172273237,0.00010306696698309252,-0.0011377141582722026,0.00019582584155961095,0.0014181766024114384,-0.2825433909893036,-51.47183609008789,-6.876725196838379,17.99811553955078,1.8199564218521118,-0.9995224475860596,0.06596527993679047,741,707,727,39.436,1,0
1739302760.0756178,-0.1251097762081388,1.0745927513462694,-0.3740010029229823,-1.4141269408807313,1.528306531829095,1.1428914847513687,1.357893321493731,-0.0012123998923540364,-0.0004894437203330964,-0.00011976943001972229,-0.0006094339237811359,-0.001039432463509627,9.626628953739732e-05,-0.0009633603646445817,-0.2547723948955536,-51.39249038696289,-6.876725196838379,18.02191925048828,1.8263651132583618,-1.0059311389923096,0.09343110024929047,737,712,727,39.545,1,0
1739302760.0865874,-0.12511148827674232,1.0745938414332412,-0.373999379078954,-1.4141287618105858,1.5283120457297599,1.1428914803887449,1.35789604389474,-0.0016476618625733898,0.0009874403772752627,0.0005581656006118328,0.0008571067691588971,0.0005047826909687393,7.101273310202756e-05,0.0016941216151717458,-0.2309686839580536,-51.42026138305664,-6.928299903869629,18.04572296142578,1.8071390390396118,-1.0059311389923096,0.10624848306179047,741,712,727,39.654,0,0
1739302760.0975213,-0.12510977608154325,1.0745956193855262,-0.3740043775123866,-1.4141260215348805,1.5283128014889085,1.1428938769281969,1.3578927888110102,0.00022842425250049007,0.0008219375883496126,-0.0017949754731452676,0.00046157313442025786,0.0001629641784332875,0.0017914342478307075,0.0001421045354772359,-0.2547723948955536,-51.44406509399414,-6.848954200744629,18.02191925048828,1.8007303476333618,-1.0132553577423096,0.13279877603054047,741,713,727,39.545,0,0
1739302760.107526,-0.1251080857201834,1.07459385549649,-0.3740032422265138,-1.4141269702872479,1.5283106016160468,1.1428914934965941,1.3578970137906121,0.0001621553174785557,-0.0012647313830227893,-0.0005852682886831667,0.00025809370305359194,-0.000938322281445378,-0.0008866117139555295,-0.0004071264745079315,-0.3063471019268036,-51.42026138305664,-6.876725196838379,18.02191925048828,1.8071390390396118,-1.0059311389923096,0.08610688149929047,741,713,727,39.545,1,0
1739302760.1175854,-0.1251114094230455,1.074595568331287,-0.37399932524195806,-1.4141305444876708,1.528312049763733,1.1428914803889425,1.3579008076754018,-0.0016458699808948485,-0.0001630297304705819,-0.00021881258088081126,-0.0003895684406541355,9.682173200626797e-05,2.3344643566465702e-05,0.0019599373256335316,-0.2309686839580536,-51.44406509399414,-6.900528907775879,18.06952667236328,1.8071390390396118,-1.0059311389923096,0.06596527993679047,741,713,728,39.545,1,0
1739302760.1276464,-0.12510968818583773,1.0745939154384223,-0.3739944916492735,-1.4141269526428293,1.5283105419175458,1.1428892466543419,1.3578944217072366,-0.0011244328165845496,-0.0008178268097264469,0.0020639651287828334,3.7363113865590243e-05,-0.0007260280097672756,-0.0014876981830589746,-0.00043516324054577326,-0.2547723948955536,-51.42026138305664,-6.952103614807129,18.02191925048828,1.8199564218521118,-0.9867050647735596,0.11998139321804047,741,712,728,39.545,0,0
1739302760.1385434,-0.1251069193694576,1.0745979149186287,-0.37399938008212863,-1.4141287353546919,1.528310634897554,1.1428899652302908,1.3578975476104245,0.0002962140440036183,0.0006998151913546721,3.932919272674933e-05,-0.00022815599026977583,-0.0003333493412123564,-0.001206041903773852,0.00022904351715696803,-0.2547723948955536,-51.44406509399414,-6.928299903869629,18.04572296142578,1.8135477304458618,-0.9931137561798096,0.09343110024929047,742,713,727,39.545,0,0
1739302760.148636,-0.12510777809231335,1.0745951335132125,-0.37400323965034993,-1.4141287618103537,1.5283113447719068,1.1428931439829546,1.357894421868523,-8.788894798606784e-05,0.0010235876370185614,-0.0001874479265529519,0.0006029413473691732,-0.0003683878305824386,0.00011068471337534591,-0.0021225779713578107,-0.2825433909893036,-51.44406509399414,-6.876725196838379,18.04572296142578,1.8135477304458618,-0.9931137561798096,0.11998139321804047,741,711,727,39.436,2,0
1739302760.159522,-0.12511066782080968,1.074596235082811,-0.3739972450560667,-1.4141251960556913,1.5283131228358369,1.1428923332219456,1.357895992253348,-0.0013815300567938272,0.0009783382135121717,0.002415991875203659,0.00044480468936824427,2.9556955711811773e-05,0.0006079642319826409,-0.00020070527220289187,-0.2309686839580536,-51.44406509399414,-6.928299903869629,17.99811553955078,1.8071390390396118,-1.0132553577423096,0.07969819009304047,742,714,727,39.545,0,0
1739302760.1715221,-0.1251094565826983,1.0745927505414548,-0.3740035846603901,-1.4141287274343362,1.5283120095674636,1.1428907227285683,1.3578983682680754,-0.0006603833459681613,-0.001322628682515058,-0.0004135072644315015,-0.0002501767027648608,-5.104670154095021e-05,-0.00043939324117221924,-0.0008546409050672614,-0.2547723948955536,-51.39249038696289,-6.900528907775879,18.04572296142578,1.8071390390396118,-0.9995224475860596,0.08610688149929047,740,711,728,39.545,0,0
1739302760.1815321,-0.1251086408230001,1.0745955692808478,-0.374005086193388,-1.41412697996938,1.5283105463871376,1.142891480550226,1.3578890331972537,-0.00026096956089804714,0.0005729677430512194,-0.0010815614608541994,0.001180677529807951,-0.000703713973621397,-3.113353811332148e-05,-0.001175187246320993,-0.2309686839580536,-51.44406509399414,-6.848954200744629,18.02191925048828,1.8199564218521118,-1.0059311389923096,0.12639008462429047,741,714,726,39.545,1,0
1739302760.1926346,-0.12510874375879516,1.0745968146329299,-0.3739971754623308,-1.4141269791687803,1.528311305482218,1.1428923332040013,1.3579009098199333,-0.0006935311932925824,-2.9979964169406375e-05,0.0006444439852852158,-0.00020308363852672803,-0.0006781875866921986,-4.74725383737343e-05,0.0006755099337234268,-0.2547723948955536,-51.42026138305664,-6.928299903869629,18.02191925048828,1.8135477304458618,-1.0132553577423096,0.05314789339900017,742,717,728,39.436,1,0
1739302760.2035587,-0.12510871251771316,1.0745965714185024,-0.37400358577606807,-1.4141287529804842,1.5283095624703162,1.1428899650684898,1.3578955723682256,0.0008849237995638344,-1.6064864785446e-05,-0.0005113331310488054,0.00044958498818797144,0.0004538941528257366,-0.0005609973164265701,-0.0013593432477004763,-0.2547723948955536,-51.44406509399414,-6.900528907775879,18.04572296142578,1.8007303476333618,-0.9931137561798096,0.10624848306179047,741,715,727,39.436,0,0
1739302760.214522,-0.12511148717361442,1.0745945201323122,-0.3739993858600264,-1.414126979133633,1.5283113010125593,1.142891480550226,1.35789917121356,-0.002116702332211867,-0.0004145870054313008,0.00011713267450228046,9.817297082171419e-05,0.00022659483951309147,0.0004404792696535969,0.001467829987710915,-0.2309686839580536,-51.42026138305664,-6.928299903869629,18.02191925048828,1.8135477304458618,-1.0059311389923096,0.07969819009304047,742,713,726,39.545,0,0
1739302760.224636,-0.12510752668776315,1.0745918330282245,-0.37399843525569465,-1.4141262657663147,1.5283109770683778,1.1428931039460322,1.3578943803243655,0.0003483645872274199,-0.0008328150133322471,0.0007735408568380493,-0.0006712202251940213,0.0003695060974071926,0.000647190418299121,-0.0005840853393070262,-0.2825433909893036,-51.39249038696289,-6.928299903869629,18.02191925048828,1.8071390390396118,-1.0196640491485596,0.09343110024929047,742,713,727,39.436,1,0
1739302760.236537,-0.12511069755155887,1.0745997172838193,-0.3740031288299797,-1.4141269819641786,1.5283109770622723,1.1428914803887205,1.3579006901053108,-0.0009519478251256952,0.00252987284934807,-0.0015375617833255418,0.0004992680998449914,8.085057634905831e-05,0.00010692619386356455,0.0001118805424760907,-0.2309686839580536,-51.47183609008789,-6.876725196838379,18.02191925048828,1.8071390390396118,-1.0059311389923096,0.06596527993679047,738,712,726,39.545,1,0
1739302760.2465782,-0.12510582732410186,1.0745986037302115,-0.37400048579883555,-1.4141252333042782,1.528310547871198,1.1428900043144203,1.3578985426830281,0.0009879448492156784,0.0005686751017195279,-1.216839544685218e-05,0.0006306427391909441,0.00023424826785092183,0.00021653351343307062,0.00035177761340977876,-0.3063471019268036,-51.44406509399414,-6.876725196838379,17.99811553955078,1.8199564218521118,-0.9931137561798096,0.11998139321804047,741,713,732,39.654,0,0
1739302760.2575943,-0.1251057491962061,1.0745976173431637,-0.3740014587627617,-1.4141315423803689,1.5283113055374073,1.14289072224479,1.3579008079306207,0.0006221259320159551,0.0008330374801559651,0.0005988493519186774,-0.000886491814151547,-5.251644136699797e-05,-0.00010162295193973401,0.0017493825174860374,-0.3063471019268036,-51.47183609008789,-6.900528907775879,18.04572296142578,1.8135477304458618,-0.9995224475860596,0.06596527993679047,741,712,727,39.654,0,0
1739302760.2685935,-0.1251056410048534,1.07459754044711,-0.3740010802332227,-1.4141322930009448,1.5283105478773291,1.142891476081904,1.3578968786124335,4.877006648085745e-05,0.000780675722687871,0.000769410508279242,-0.0006991761160583354,-0.00016429169813456419,-1.842755723016894e-05,0.0006204048912063462,-0.2825433909893036,-51.47183609008789,-6.876725196838379,18.06952667236328,1.8199564218521118,-1.0059311389923096,0.08610688149929047,742,713,727,39.545,1,0
1739302760.2786155,-0.1251074323866581,1.074591840547797,-0.373997249951777,-1.4141248771777244,1.5283128339395164,1.142890722728569,1.3578962877120673,0.0002476888566146703,-0.0017022296988047129,0.0005258763162455247,0.0017819671516144237,0.0011186441506225594,-0.00012780006231425075,0.0008271463553270073,-0.2825433909893036,-51.39249038696289,-6.928299903869629,17.99811553955078,1.8007303476333618,-0.9995224475860596,0.07328949868679047,741,715,726,39.545,1,0
1739302760.2895565,-0.12510753477324912,1.0745896872221719,-0.3739965426394549,-1.4141288638482266,1.5283113049291437,1.1428914803887205,1.3578944087661649,-0.00018230107199045602,-0.0010642120673747936,0.0007015922774746101,-0.0005741505369320391,0.0002895130703474447,0.00043507462323908645,-6.737743396099103e-05,-0.2547723948955536,-51.39249038696289,-6.928299903869629,18.04572296142578,1.8135477304458618,-1.0059311389923096,0.11998139321804047,742,713,726,39.654,0,0
1739302760.3006046,-0.12510702809611282,1.074599252955589,-0.37399736119562454,-1.4141269792743303,1.528311357865213,1.1428914803887205,1.357901210855019,0.0001707937570273033,0.0014134668579258312,0.0006559117506847046,-0.00043262195508940487,1.1615626396578978e-06,-0.0004924669651308532,0.001839913711886786,-0.2825433909893036,-51.49563980102539,-6.952103614807129,18.02191925048828,1.8135477304458618,-1.0059311389923096,0.05955658480525017,742,711,725,39.436,0,0
1739302760.3115346,-0.125104918531225,1.0745920616327895,-0.37400316372019515,-1.4141287618108025,1.5283128208578596,1.1428907225671363,1.3578949345512659,0.0002709359162418973,0.0007366641068258487,-0.000940015567012107,-4.6311869638008765e-05,0.0013047089290366231,-0.00036076461566524146,0.0016456538745354087,-0.2825433909893036,-51.39249038696289,-6.876725196838379,18.04572296142578,1.8007303476333618,-0.9995224475860596,0.11265717446804047,742,713,725,39.545,1,0
1739302760.3215604,-0.12511138264656257,1.0745939065186898,-0.3740053346678376,-1.4141241946402539,1.5283098294631074,1.1428919930732402,1.3578987128627453,-0.0010027250898740983,0.0008156410871345139,-0.0017756332974455983,0.0011107766925023972,0.0001838124788481418,5.333175194084189e-05,-0.00011280106403633021,-0.2309686839580536,-51.42026138305664,-6.848954200744629,18.02191925048828,1.8263651132583618,-1.0132553577423096,0.07969819009304047,742,712,725,39.654,1,0
1739302760.3326008,-0.12510766872426737,1.0745939241640552,-0.37400324224258436,-1.41413261543164,1.5283065843980417,1.1428914939531953,1.3578953771506816,-0.000641054809656545,0.0009723740129049148,-0.0015139520328698057,-0.001183052434322288,-0.002612715511459211,6.610267530566242e-06,0.0010777026065330803,-0.2825433909893036,-51.39249038696289,-6.876725196838379,18.09729766845703,1.8400980234146118,-1.0059311389923096,0.09983979165554047,740,715,726,39.436,0,0
1739302760.343521,-0.1251077780315628,1.07459213817402,-0.37400461368738785,-1.4141273192644903,1.5283112922809803,1.1428914847494478,1.357890565173179,-0.00026745755797019655,4.885293273508172e-07,-0.000961964019327783,-0.0005044333194639448,-0.00028352916122690306,-0.00017548320405648236,-0.0020782885942900505,-0.2825433909893036,-51.39249038696289,-6.848954200744629,18.02191925048828,1.8135477304458618,-1.0059311389923096,0.11265717446804047,742,713,724,39.545,0,0
1739302760.353559,-0.1251090364667264,1.0745938299905655,-0.37399722502681065,-1.4141269791395428,1.5283097902170264,1.1428914411429376,1.357897938170585,-0.0010968112866536937,-0.00044905900526761395,0.001801409285673661,-2.755814771552347e-05,-0.0013565481723706414,0.00013645550323112415,0.0010030011180802564,-0.2547723948955536,-51.42026138305664,-6.928299903869629,18.02191925048828,1.8263651132583618,-1.0059311389923096,0.08610688149929047,742,714,725,39.545,1,0
1739302760.3645525,-0.12510705693249533,1.0745975489502342,-0.3740032338058144,-1.414127211556467,1.5283137268455527,1.1428907227284204,1.3578986741046297,-0.0002761005912540218,0.0015758271894357131,0.00029656522967935403,0.0011933560493031486,0.0009072054662002674,-0.00026272937446691127,-7.691135039206392e-05,-0.2825433909893036,-51.47183609008789,-6.876725196838379,18.02191925048828,1.8199564218521118,-0.9995224475860596,0.07969819009304047,738,713,725,39.436,1,0
1739302760.3745656,-0.12510563252933313,1.0745916842183132,-0.3740014584852788,-1.4141287618147378,1.528309776862086,1.1428913234052938,1.3578976231236048,-7.583597987232088e-05,-0.00021690191946116517,0.0001697474196855627,-0.00034672120236422626,-0.00023631565160749123,-0.0002954042610930498,0.0006165291962615791,-0.2825433909893036,-51.42026138305664,-6.900528907775879,18.04572296142578,1.8263651132583618,-1.0059311389923096,0.06596527993679047,742,712,732,39.545,0,0
1739302760.3865438,-0.12510828500327492,1.0745962654118308,-0.3740032425665275,-1.4141269761903434,1.5283120093406821,1.1428899650676776,1.3578984259256097,5.643376180049166e-05,0.000525015611441858,-8.115371720728251e-05,0.0005229065404938616,0.0001507602249114156,-0.00023617902344530724,0.00032652280835145857,-0.2309686839580536,-51.44406509399414,-6.876725196838379,18.02191925048828,1.8071390390396118,-0.9931137561798096,0.08610688149929047,741,714,726,39.436,1,0
1739302760.3965783,-0.12510952688474036,1.0745938296624131,-0.3739983104095208,-1.414126979448702,1.5283147859329131,1.1428899650685638,1.3578994529246928,-0.00016573112877285416,-0.00040935320874161324,0.00032424137763552134,2.0139208730276815e-05,5.715093058434333e-05,-0.0008875043457853443,0.0006717082930851973,-0.2547723948955536,-51.42026138305664,-6.900528907775879,18.02191925048828,1.8199564218521118,-0.9931137561798096,0.07328949868679047,741,712,727,39.545,2,0
1739302760.4075685,-0.12510952660924043,1.0745901195237915,-0.3739965455143281,-1.414127951830841,1.5283140288415402,1.142890722728642,1.3578905782548987,-8.42099734231942e-05,-0.0021612561556927225,0.00042311001999403234,-0.00023072194399865792,0.0009469742197467852,-0.0002762620561808677,-0.0014369342948023713,-0.2547723948955536,-51.36868667602539,-6.928299903869629,17.99811553955078,1.8263651132583618,-0.9995224475860596,0.11265717446804047,742,712,725,39.436,1,0
1739302760.4185457,-0.12510256320543797,1.0745955681558907,-0.37400229349426795,-1.4141266160591441,1.5283090191169177,1.1428907358105942,1.3578922049956041,0.0010290837800269687,0.0004055065637691547,0.0006686739172188158,0.000861152704635539,-0.0011567996814136417,0.00040116573096329476,-0.001323517195754355,-0.2825433909893036,-51.44406509399414,-6.876725196838379,18.04572296142578,1.8327738046646118,-0.9995224475860596,0.09983979165554047,741,714,724,39.436,0,0
1739302760.4285903,-0.1251090086495655,1.074593839853517,-0.37400255725766035,-1.414129056753714,1.5283087171700447,1.1428907619207374,1.3578955280603464,3.242116645026203e-05,-0.0010630582171554503,0.00035405272311947065,-0.00012437111432936655,-0.0009431400813583145,0.00010508919490851608,-0.0010090501957201372,-0.2309686839580536,-51.42026138305664,-6.876725196838379,18.02191925048828,1.8263651132583618,-0.9995224475860596,0.07969819009304047,741,714,726,39.436,2,0
1739302760.4386249,-0.1251076358659799,1.0745918405479642,-0.3740014598779106,-1.4141251964919483,1.5283124996328878,1.1428914803893842,1.357897655429757,-0.0007357886741309243,-0.0002102254725515197,-0.00010884716375443462,0.0011068346740668899,0.00039822485873727094,-0.0004547698270168817,-0.0006658125227713151,-0.2547723948955536,-51.39249038696289,-6.900528907775879,17.99811553955078,1.8263651132583618,-1.0059311389923096,0.07969819009304047,742,714,725,39.436,2,0
1739302760.4495728,-0.12510828876503957,1.074594933103874,-0.3740014686380718,-1.4141251964567636,1.5283120587431138,1.1428907220826197,1.3578978062171105,-0.0003518143711996937,-1.64728909257588e-05,0.0005900942967406334,0.0007811481981371001,6.198427775346927e-05,-0.0006872594316875397,0.0013369852126775606,-0.2309686839580536,-51.44406509399414,-6.900528907775879,17.99811553955078,1.8071390390396118,-0.9995224475860596,0.06596527993679047,742,713,726,39.654,1,0
1739302760.46154,-0.12510902458473414,1.0745938652547604,-0.3740026126705857,-1.4141233371413076,1.5283123651755117,1.1428899652839009,1.3578952833883826,-4.8343042597906466e-05,-0.0009636445305088602,-0.00046529233909079046,0.001676600592687603,0.0007618673682728332,0.00026380718401667653,-0.000851516426984374,-0.2547723948955536,-51.42026138305664,-6.876725196838379,17.97431182861328,1.8135477304458618,-0.9931137561798096,0.11265717446804047,741,712,725,39.436,1,0
1739302760.472596,-0.12510828501114474,1.0745918320447272,-0.37400145891389885,-1.4141315816251687,1.5283109827462185,1.1428899650685649,1.3578965512196668,0.0009933520905343006,-0.001300736305510482,7.165004663632564e-06,-1.120305563724402e-05,0.0003083150602469679,-0.00017825600198697038,0.0004597679434851345,-0.2309686839580536,-51.39249038696289,-6.900528907775879,18.04572296142578,1.8135477304458618,-0.9931137561798096,0.06596527993679047,739,712,726,39.436,1,0
1739302760.4826014,-0.1251060302994478,1.0745928393144721,-0.3740004361645032,-1.4141309046504924,1.528313462637502,1.142890722728642,1.3578953051142881,0.00015534182022040324,0.0002309915817560466,0.00012639167809567125,-0.0017399479610007182,0.0026398047006469293,-0.0003190551721021762,-0.0018939546891570402,-0.3063471019268036,-51.39249038696289,-6.900528907775879,18.04572296142578,1.8071390390396118,-0.9995224475860596,0.07328949868679047,741,713,725,39.545,1,0
1739302760.4935923,-0.12510493032684952,1.0745945228850107,-0.37400292772076377,-1.4141251964325212,1.5283136867626963,1.1428892073546502,1.3579008034201732,0.0006109801124137805,0.0004013017260898831,-0.0011528098355809459,0.0006812760473361491,0.0009559330625364299,-0.0009982845692794381,0.0014676820422131023,-0.2825433909893036,-51.42026138305664,-6.876725196838379,17.99811553955078,1.7934061288833618,-0.9867050647735596,0.06596527993679047,742,713,726,39.436,1,0
1739302760.5035965,-0.125106573640055,1.0745925293243155,-0.37400254138067773,-1.4141308281051534,1.5283102613290362,1.1428892074084844,1.3578965169804327,3.8211386783724485e-05,-0.0011240479509019407,-0.00022770102413782018,-0.001516489918794796,0.00027104312871442215,-0.0007360970195155113,0.00040450461049086465,-0.2547723948955536,-51.39249038696289,-6.876725196838379,18.04572296142578,1.8263651132583618,-0.9867050647735596,0.06596527993679047,741,713,726,39.436,1,0
1739302760.5136058,-0.1251060554741518,1.074594545531524,-0.37400110863933766,-1.4141287601620989,1.5283113055453859,1.1428875438142538,1.3578967616680389,0.0008917933694371955,0.00018132462416720627,7.556083091342483e-05,-6.295175243198955e-05,0.00021617862295788393,-0.00022422086906199787,-0.00013737452163048783,-0.3063471019268036,-51.42026138305664,-6.900528907775879,18.04572296142578,1.8135477304458618,-0.9995224475860596,0.09983979165554047,741,714,721,39.436,2,0
1739302760.5245576,-0.12510681024545295,1.074595780601682,-0.3740013535007779,-1.4141268698914677,1.5283094288740808,1.1428923462680076,1.357899164761114,-0.00010441876246372307,0.0009702882445275431,0.0006245513903631246,0.0005878980802419469,-0.0005741880236068158,0.0005371365491789537,0.0003110671510987696,-0.2547723948955536,-51.44406509399414,-6.900528907775879,17.99811553955078,1.8263651132583618,-1.0132553577423096,0.07969819009304047,742,713,723,39.654,1,0
1739302760.5345936,-0.1251066895284061,1.07459646086319,-0.37400135447302074,-1.4141272627794554,1.5283105515696878,1.1428910628593991,1.3579010928315698,-0.00010811594284577746,0.00035082385983609046,0.0015781319135370966,0.0005541733172619546,-0.00018231576766571643,0.0004790950326019454,0.00156251624204009,-0.2547723948955536,-51.44406509399414,-6.900528907775879,17.99811553955078,1.8199564218521118,-0.9995224475860596,0.05314789339900017,743,712,726,39.545,1,0
1739302760.545521,-0.1251092354145775,1.0745962314160522,-0.37399941217710275,-1.4141305454442927,1.5283106235620172,1.1428930516201423,1.357893504489164,-0.0005927638188611811,0.0006412833553687599,0.0005537480210635535,-0.0010005274334823314,0.000501854835356006,0.0007607714507285161,0.00038556928718334416,-0.2309686839580536,-51.44406509399414,-6.928299903869629,18.06952667236328,1.8007303476333618,-1.0196640491485596,0.09983979165554047,740,713,725,39.545,0,0
1739302760.5555582,-0.12510832295627625,1.0745940599002453,-0.37399938010020406,-1.4141315178147618,1.5283105476745746,1.1428907227277558,1.3579022657910873,-0.0006560689692465206,-0.000407734554221167,0.0008412953895705021,-0.0003582364399513676,-0.00017883918275618527,0.00010691080534518799,0.0020624546674557764,-0.2309686839580536,-51.42026138305664,-6.928299903869629,18.04572296142578,1.8199564218521118,-0.9995224475860596,0.05314789339900017,742,713,724,39.545,1,0
1739302760.5656104,-0.125110775519182,1.0745956190394264,-0.3739993800996608,-1.4141269792854343,1.5283097902172473,1.1428899650685638,1.3578935464701252,-0.001063003067591156,-0.0007159667604985183,0.0007483646735230842,-3.210433658731263e-05,-0.00044699663602951786,-1.0087995371153217e-05,-0.001050420785995763,-0.2309686839580536,-51.44406509399414,-6.928299903869629,18.02191925048828,1.8263651132583618,-0.9931137561798096,0.12639008462429047,741,713,726,39.436,1,0
1739302760.5765917,-0.12510953735208002,1.0745901199441434,-0.37400122357050986,-1.414129679902818,1.5283116602036675,1.142890722728642,1.3578949452658247,-0.0010825824604591958,-0.001052149287592831,0.0007783413214711425,-0.0002839002202579821,0.0015643978851237082,-0.0004230896340519248,-0.0003195698059412571,-0.2547723948955536,-51.36868667602539,-6.900528907775879,18.02191925048828,1.8135477304458618,-0.9995224475860596,0.07969819009304047,740,713,724,39.545,0,0
1739302760.5866196,-0.12510765996755646,1.074596880648193,-0.3739993800956587,-1.4141269788524717,1.5283105478833354,1.142890722728642,1.357894810014528,0.00042090552231644504,-0.0008627344430026384,0.0011548185501754253,0.00020027493525995614,0.0005184942976283784,0.0005057326802135405,-0.00042350117841627585,-0.2825433909893036,-51.42026138305664,-6.928299903869629,18.02191925048828,1.8199564218521118,-0.9995224475860596,0.07969819009304047,742,714,725,39.436,1,0
1739302760.5976021,-0.1251066026240328,1.074595554805833,-0.37400111274328923,-1.4141287618108,1.5283127806305612,1.142890722728642,1.357896029648594,3.092852081654657e-05,0.0010610333293357929,0.0011107124064682838,-2.6851566513773546e-05,0.0002867161274131713,-0.0001529087683164219,2.0989717886639415e-05,-0.2547723948955536,-51.44406509399414,-6.876725196838379,18.04572296142578,1.8007303476333618,-0.9995224475860596,0.09343110024929047,742,713,724,39.436,2,0
1739302760.6085637,-0.12511284529567648,1.0745955793536806,-0.37400145987749345,-1.414127286511208,1.5283144442245655,1.1428914803887205,1.357894514829004,-0.0018310009726509187,-0.0002703356506549778,-6.99300522132268e-05,0.00017331161512492668,0.00013194565086434594,2.3705853628473115e-06,-0.002541695771901194,-0.2071649730205536,-51.44406509399414,-6.900528907775879,18.02191925048828,1.8135477304458618,-1.0059311389923096,0.10624848306179047,742,713,725,39.436,0,0
1739302760.6185768,-0.1251015814996127,1.0745918320451522,-0.3739993800996606,-1.4141287618160072,1.5283117765408412,1.1428899650685638,1.3578936598220956,0.0026220733084275968,0.00015103663653169628,0.0007898038329225093,-0.00012791004621274643,0.00025786148626189475,-0.0005013383600245233,-0.0008240929536553069,-0.3539545238018036,-51.39249038696289,-6.928299903869629,18.04572296142578,1.8135477304458618,-0.9931137561798096,0.12639008462429047,742,712,726,39.545,0,0
1739302760.6295543,-0.12510528931349296,1.0745940013579083,-0.3740011050027977,-1.4141269819682056,1.528310899602809,1.1428914803887205,1.3578952302325942,0.0010174290980142237,0.0003126782470137802,-8.111970061781061e-05,-8.90879973337428e-05,-7.961491680418524e-05,0.000554953029176442,0.00012601716506607645,-0.2825433909893036,-51.39249038696289,-6.876725196838379,18.02191925048828,1.8199564218521118,-1.0059311389923096,0.08610688149929047,742,712,725,39.654,1,0
1739302760.6405873,-0.1251072852568964,1.074591911560589,-0.37400324223044823,-1.4141305444878367,1.5283152413965058,1.1428914803887205,1.3578956917107858,0.0004285939178718526,-0.00013926626609465556,-0.00014898844550520786,-0.0009738763988249933,0.0012056144162043403,0.00044811112780375625,-6.872306919430136e-05,-0.2547723948955536,-51.39249038696289,-6.876725196838379,18.06952667236328,1.8071390390396118,-1.0059311389923096,0.10624848306179047,741,712,727,39.545,2,0
1739302760.6515257,-0.12510507682041183,1.0745966615752844,-0.3740046108072011,-1.4141272849244155,1.5283097904325795,1.1428914803887205,1.3578995843842512,0.0006855959855943467,-0.0007069728870964262,-0.0012396738923562546,0.0003486780742668346,0.00013155938232485012,-0.0001285732769405274,0.0019500066575115767,-0.3063471019268036,-51.42026138305664,-6.848954200744629,18.02191925048828,1.8263651132583618,-1.0059311389923096,0.07328949868679047,742,716,726,39.436,1,0
1739302760.6626203,-0.1251087433751346,1.0745958964017044,-0.37400153473693043,-1.4141290454287103,1.5283066495675734,1.142890722728642,1.3578991649221808,-0.0013851748536549012,-0.000969048783482908,-0.0001886601750739298,-0.0009409468418798386,-0.0007132123256436234,0.0003150445449077936,0.000769334213184305,-0.2547723948955536,-51.42026138305664,-6.900528907775879,18.02191925048828,1.8263651132583618,-0.9995224475860596,0.07969819009304047,741,714,726,39.436,0,0
1739302760.6735744,-0.12510903772686682,1.0745945528798846,-0.37399866714680996,-1.414130867296656,1.5283144844340666,1.1428914803887205,1.357899431713521,-0.0006755707512777545,-0.0006276977785182439,0.0015776894228121177,-0.0007162086864192854,0.0008034219199857709,0.0007629981703107282,-0.0002841059735369984,-0.2547723948955536,-51.42026138305664,-6.928299903869629,18.06952667236328,1.8135477304458618,-1.0059311389923096,0.07328949868679047,742,713,726,39.545,1,0
1739302760.6845822,-0.12510682453690392,1.074598400973279,-0.37400253392951177,-1.4141252020184156,1.5283113055553526,1.142889978150516,1.3578935072223601,4.801565338334566e-05,0.0021245804234506856,-0.0009341474698231552,0.0013966398915569054,-0.00039293697317647287,-0.00020819849678322907,-0.001618032800767303,-0.2825433909893036,-51.44406509399414,-6.876725196838379,17.99811553955078,1.8135477304458618,-0.9931137561798096,0.12639008462429047,740,711,726,39.654,1,0
1739302760.695508,-0.1251105028778503,1.0745918671585193,-0.3739993480176235,-1.414126979133814,1.5283090327725135,1.1428911271760844,1.3578964482948717,-0.0009526849689126642,0.00010477337441316113,-0.0001796757802212702,0.0003646101663342349,-0.0013738991133190243,-0.0006219139033218453,-0.0010748139155783054,-0.2309686839580536,-51.39249038696289,-6.928299903869629,18.02191925048828,1.8327738046646118,-1.0059311389923096,0.09343110024929047,741,711,726,39.545,0,0
1739302760.7055898,-0.12510828792850584,1.0745983060567004,-0.37400145988897304,-1.414127208722044,1.528311184856402,1.142889965062582,1.3578998227536423,-0.0004428406761546606,-0.0002481112083469314,-0.0002903898293779549,0.0006243638462154243,0.00012201634801244024,6.249582292406643e-05,0.0012724046788426709,-0.2309686839580536,-51.47183609008789,-6.900528907775879,18.02191925048828,1.8135477304458618,-0.9931137561798096,0.07328949868679047,739,712,726,39.545,0,0
