IITGN-Robotics/Franka_IITGN_ROBOTICS/franka_ros/franka_iitgn/data01/s_f_013.csv
time,fr3_joint1_pos,fr3_joint2_pos,fr3_joint3_pos,fr3_joint4_pos,fr3_joint5_pos,fr3_joint6_pos,fr3_joint7_pos,fr3_joint1_vel,fr3_joint2_vel,fr3_joint3_vel,fr3_joint4_vel,fr3_joint5_vel,fr3_joint6_vel,fr3_joint7_vel,fr3_joint1_eff,fr3_joint2_eff,fr3_joint3_eff,fr3_joint4_eff,fr3_joint5_eff,fr3_joint6_eff,fr3_joint7_eff,flexpin1,flexpin2,flexpin3,Force,ContactMic,ContactMic_gt
1739305055.6333375,-0.04951276173092468,1.1029437486043916,-0.48444939232401374,-1.4200765883055393,1.6253318859026542,1.0712763151942706,1.3568437805803488,-0.00018369065498419722,0.00020406005130276108,-0.0011628741598668432,-0.0015427225311487203,-0.002177916223794725,-0.0011343383474238936,0.00045966393940677933,-0.3063471019268036,-51.19015884399414,-9.514969825744629,17.35541534423828,2.0882058143615723,-1.1112167835235596,0.08610688149929047,,,,,,,,,
1739305055.6433797,-0.049509336689462294,1.1029430434996597,-0.48444727800717546,-1.4200730109028452,1.6253334021738748,1.0712734894866107,1.3568428608099945,0.001132437980692116,-0.0001873864537796615,-0.001167069845379655,0.0005754767190960229,-6.335265412999495e-05,-0.0008686202947953807,0.00020981150007429362,-0.3539545238018036,-51.19015884399414,-9.542740821838379,17.28003692626953,2.0753884315490723,-1.1112167835235596,0.06596527993679047,,,,,,,,,
1739305055.6536715,-0.04951104823586058,1.1029450531141198,-0.4844462399288546,-1.420074807215364,1.6253302218059524,1.0712774258517177,1.3568448262112334,0.00014703506539242667,0.0012571405042802208,0.0006282846180351302,-0.00045105829399933394,8.011187969652884e-05,0.0002319146079581449,0.0006202479065978866,-0.3301508128643036,-51.21396255493164,-9.566544532775879,17.33161163330078,2.0753884315490723,-1.1176254749298096,0.07328949868679047,,,,,,,,,
1739305055.6643255,-0.04951317759270084,1.1029410123140477,-0.4844475177944266,-1.4200709442814712,1.625333256301415,1.0712766684069768,1.3568476781042795,-0.0011458486103115935,-0.0006411840541078846,-0.0009203833596603279,0.0006759103658120468,-0.0018383839086347602,-9.5567535559321e-05,0.0013088061035544333,-0.3301508128643036,-51.16238784790039,-9.542740821838379,17.28003692626953,2.0955300331115723,-1.1112167835235596,0.05314789339900017,,,,,,,,,
1739305055.6743975,-0.049511049258252615,1.1029410099342831,-0.484445361978269,-1.4200702556099951,1.625332238679331,1.0712774260670586,1.3568465677239847,-0.0007774324146692718,-0.0003714983884864144,0.0014828335552335113,0.0009083579681929775,-0.000732018783378192,0.00039407965710963036,0.000608898329747364,-0.3301508128643036,-51.16238784790039,-9.542740821838379,17.28003692626953,2.0882058143615723,-1.1176254749298096,0.05955658480525017,,,,,,,,,
1739305055.685366,-0.049516130201662095,1.1029420359910198,-0.4844412892842504,-1.4200770051142482,1.6253376260422434,1.0712719589041835,1.3568419839079617,-0.0010956339657169482,-0.00010678412429906297,-4.7807115845822164e-05,-0.0005627022500564098,0.0026139930373014677,-0.0013410898925906903,-9.138776761573195e-05,-0.2547723948955536,-51.08700942993164,-9.594315528869629,17.20862579345703,1.9966531991958618,-1.1112167835235596,0.09983979165554047,,,,,,,,,
1739305055.6954386,-0.04950818738473593,1.1029409465282038,-0.4844423453455368,-1.4200825181634946,1.625337395790665,1.0712734682878684,1.356840529033296,-0.00017346247992849678,-0.0014995622321215076,0.0006434247045398873,0.0007864654227294389,-6.869692682620154e-05,0.0007631855855641028,-0.0006803865349507159,-0.2825433909893036,-50.98386001586914,-9.566544532775879,17.10944366455078,1.9316507577896118,-1.1643173694610596,0.07328949868679047,,,,,,,,,
1739305055.7064264,-0.049507148986382914,1.102954434083639,-0.48444336895675866,-1.4201035811524696,1.6253382337236932,1.0712689797550727,1.3568386149842167,-0.0001733039531625391,0.003020180797536308,-4.0487641488385706e-05,-0.0011060658651862888,-0.0003831649088496561,0.0006566726820246499,-0.0003716668954151743,-0.2309686839580536,-51.08700942993164,-9.566544532775879,17.18085479736328,1.9115091562271118,-1.1771347522735596,0.05314789339900017,,,,,,,,,
1739305055.7174094,-0.04950777985817094,1.102949471655259,-0.4844412420914783,-1.4201162857915524,1.625337325689331,1.0712625455750422,1.3568339168492918,-6.724138856757096e-05,-0.0020381962765032707,0.0004840919020981313,-0.0017950007372320117,0.0006410869437922503,-0.0010062115806696084,-0.0009617193009691889,-0.2309686839580536,-50.96005630493164,-9.566544532775879,17.20862579345703,1.8922830820083618,-1.1899521350860596,0.07969819009304047,,,,,,,,,
1739305055.7283325,-0.04950711305231118,1.1029575040087063,-0.4844449066439821,-1.4201153040506307,1.62533746540629,1.0712597623059423,1.356827749140711,-0.0009575896677879626,0.0009149031879911367,0.0006465638829521404,0.00018823273025406922,-0.0004503031390567041,-0.0016531134299102386,-0.0015299475946394716,-0.2071649730205536,-51.03543472290039,-9.542740821838379,17.13324737548828,1.9179178476333618,-1.1707260608673096,0.09983979165554047,,,,,,,,,
1739305055.7383966,-0.049498733455117246,1.1029591989934189,-0.4844451483979673,-1.4201250861259518,1.6253373623306868,1.0712605004149824,1.356825066854512,0.0018243647376288029,-0.00011434020695431034,-0.0006368033970969264,-0.0018726299140391259,-1.9476644287402985e-05,-0.000619274754028215,-0.0014674863884644174,-0.2825433909893036,-50.98386001586914,-9.542740821838379,17.20862579345703,1.9179178476333618,-1.1771347522735596,0.08610688149929047,,,,,,,,,
1739305055.7503958,-0.04950395752804718,1.102960549880854,-0.48444504665687127,-1.420128498026075,1.6253364728853588,1.0712534772324334,1.3568297539215737,-0.000689840906111615,-0.000785368845234408,-0.00088887123880405,-0.0014338050540250585,0.000365690792494356,-0.00028065578110734486,0.0005897769256528775,-0.2071649730205536,-50.98386001586914,-9.542740821838379,17.20862579345703,1.9252420663833618,-1.1579086780548096,0.04673920199275017,,,,,,,,,
1739305055.7624135,-0.049503067384831075,1.1029740596234172,-0.48444901414223546,-1.420127089923029,1.6253382253245001,1.0712516757689954,1.3568229985176765,-0.0009826259103729996,0.0027088732920805044,-0.000770121104871983,0.00044278869480427,0.0005969674944915563,0.00041388951341534926,-0.0011986870508644814,-0.1793939769268036,-51.08700942993164,-9.491166114807129,17.15705108642578,1.9115091562271118,-1.1707260608673096,0.11265717446804047,,,,,,,,,
1739305055.7734096,-0.04949935310599958,1.1029793262429881,-0.48444113419262685,-1.4201335696170572,1.6253363997897268,1.0712493162191135,1.3568264593583272,0.000399365755925884,0.0015346421316492418,0.0011095020295596207,-0.0005235104121583763,-1.2061972545818311e-06,-0.0003348582346702539,-0.00044961295619829584,-0.2309686839580536,-51.08700942993164,-9.566544532775879,17.23242950439453,1.9179178476333618,-1.1505844593048096,0.07328949868679047,,,,,,,,,
1739305055.7843711,-0.049500961227454586,1.1029795588596139,-0.48444892365248193,-1.4201378803844387,1.6253381138838812,1.0712480677965526,1.356824589363839,0.00023493921038318362,0.00030460362046766084,-0.0008177632910768301,-0.00017964956610244797,0.0008413829887645244,0.00034983356394476065,-0.0017949080222960968,-0.2071649730205536,-51.03543472290039,-9.491166114807129,17.20862579345703,1.9115091562271118,-1.1505844593048096,0.08610688149929047,,,,,,,,,
1739305055.794412,-0.049504445322415776,1.1029797989639198,-0.484449013996892,-1.4201338773389203,1.6253370025266036,1.071248571653861,1.3568211083092272,-0.0008332688765925402,-0.0002360193755319496,-0.0007373524006143908,0.00017231691109171818,0.001432460170996415,0.00030014724896498514,-0.0016645383228270148,-0.1555902659893036,-51.03543472290039,-9.491166114807129,17.15705108642578,1.9179178476333618,-1.1579086780548096,0.07969819009304047,,,,,,,,,
1739305055.8053324,-0.049504012797609014,1.1029782981584775,-0.48444510131814655,-1.4201349725114123,1.6253350794460506,1.0712477055849523,1.356823710198554,-0.0007111025162981175,-0.0024408192416009626,0.0009170682358694451,0.00022939915471930226,-0.00041895498995028226,5.51517712168795e-05,-0.0012052744177521847,-0.1317865550518036,-50.98386001586914,-9.514969825744629,17.18085479736328,1.9380594491958618,-1.1505844593048096,0.09343110024929047,,,,,,,,,
1739305055.8154037,-0.049504433481875526,1.1029803184679041,-0.48444720514767137,-1.420139778826602,1.6253366022517355,1.071248414498757,1.3568292430764948,-0.0005252123181038372,-0.0002596139747596956,-0.0003971013613450639,-0.0010687301537336434,0.0015578182227854657,-0.0002391197026191521,0.0016203629406565812,-0.1555902659893036,-50.98386001586914,-9.514969825744629,17.23242950439453,1.9252420663833618,-1.1579086780548096,0.04673920199275017,,,,,,,,,
1739305055.8254044,-0.049502712326439366,1.1029825608617816,-0.4844460244523222,-1.4201341336986923,1.625333410255522,1.0712476997680918,1.356825928013117,-0.0005608320927703314,-3.445788236875147e-05,6.405698377642734e-06,0.0018890993623779384,-0.0018929287796918021,-0.000574795186222744,0.0005917787403585843,-0.1793939769268036,-50.98386001586914,-9.514969825744629,17.15705108642578,1.9252420663833618,-1.1505844593048096,0.04673920199275017,,,,,,,,,
1739305055.83544,-0.04950442874435593,1.1029840305760146,-0.48444722719670386,-1.4201341336986928,1.6253357650934441,1.0712476600402785,1.3568244578414783,-0.0006982409553294262,0.0005591570647497921,-0.0006308890686739942,0.0007337028502386113,-0.0003605627045985883,-0.001485318984562744,-0.0005675317945356237,-0.1555902659893036,-50.96005630493164,-9.514969825744629,17.15705108642578,1.9051004648208618,-1.1505844593048096,0.08610688149929047,,,,,,,,,
1739305055.8464093,-0.04950058775605304,1.1029826791044033,-0.484447546341385,-1.4201404940983238,1.625337708327183,1.0712485670674405,1.3568244967827996,0.0005828083170059096,5.322819671770888e-06,-0.0009572051690196197,-0.0015554274676883985,-0.00038031169693576586,0.0016316417956688937,0.000288164966445367,-0.1793939769268036,-50.98386001586914,-9.514969825744629,17.23242950439453,1.9115091562271118,-1.1579086780548096,0.05955658480525017,,,,,,,,,
1739305055.8574562,-0.04950038076332393,1.102984905161624,-0.48444900535965285,-1.4201330751117662,1.625334891362053,1.0712499254582382,1.356827969872579,0.0005977040245769959,6.046559038364078e-05,-0.0007984698590069153,0.0016862373864301996,1.3462609247180484e-05,0.000754346996565718,0.0006293031066880202,-0.2071649730205536,-50.98386001586914,-9.491166114807129,17.13324737548828,1.9115091562271118,-1.1707260608673096,0.05314789339900017,,,,,,,,,
1739305055.8683684,-0.049499525143810966,1.1029874255428564,-0.48444719837926353,-1.4201359163797993,1.6253378111891381,1.0712453882062343,1.356827895272328,0.00039735351415443894,0.0007269382341901238,0.0010708156222167216,-5.011360748141818e-05,0.0004982344339556093,-0.0001656805408747838,0.0009323756628488162,-0.1793939769268036,-51.03543472290039,-9.514969825744629,17.18085479736328,1.9051004648208618,-1.1579086780548096,0.05314789339900017,,,,,,,,,
1739305055.8783813,-0.04950068788543037,1.1029858258596403,-0.48444827047864986,-1.4201348842757011,1.6253353320070638,1.0712450391396713,1.3568230778393235,0.0003191689491258546,-0.001231654166883899,-0.00033021531223107294,2.232810085957363e-05,0.0004687538227335301,-0.0015363919606216734,-0.0003607113733734526,-0.2071649730205536,-50.98386001586914,-9.491166114807129,17.15705108642578,1.8986917734146118,-1.1579086780548096,0.05955658480525017,,,,,,,,,
1739305055.8893676,-0.049498773496647434,1.1029811258932463,-0.4844472304531521,-1.4201379961698044,1.6253330607445837,1.0712429567625223,1.3568124261196677,0.0010017711793682096,-0.0013796404717696241,2.831484134063731e-05,0.000581637278871277,-0.0025025952107385688,-0.0009756258401765507,-0.003584125418951776,-0.2309686839580536,-50.96005630493164,-9.514969825744629,17.20862579345703,1.9179178476333618,-1.1505844593048096,0.11265717446804047,,,,,,,,,
1739305055.8994446,-0.04950442148320989,1.1029839103357708,-0.48445079645941264,-1.4201372344484164,1.6253342223715332,1.071247215496591,1.356822959797422,-0.0019202818797212744,-0.001284350818328673,-0.00040255090620872503,0.0006403281210798164,-0.0034588848326460187,-0.0005533640929650201,-8.881031352070168e-05,-0.1555902659893036,-50.96005630493164,-9.467362403869629,17.15705108642578,1.9051004648208618,-1.1505844593048096,0.05955658480525017,,,,,,,,,
1739305055.910335,-0.04950221732579352,1.102987583330086,-0.48444515196357485,-1.4201390562572656,1.6253349342447472,1.0712477402475709,1.3568189156331596,2.282285386784799e-05,1.8980467095724225e-05,0.00030450997466364494,-0.00044081207878954505,-0.0013477309097661959,-0.00081749070636827,-0.0005052530230702488,-0.1555902659893036,-51.00766372680664,-9.542740821838379,17.20862579345703,1.9115091562271118,-1.1643173694610596,0.09343110024929047,,,,,,,,,
1739305055.9203398,-0.0495006437891684,1.1029862121566167,-0.4844442067955629,-1.4201390954170687,1.625340367914143,1.071243960147873,1.3568221891263583,0.000738810872032054,-0.0010819489999803588,0.0008066717679487945,-0.0004625598078526411,0.0005099513508753969,-0.000801225656040333,0.0009086828750659682,-0.2071649730205536,-50.96005630493164,-9.542740821838379,17.18085479736328,1.8922830820083618,-1.1579086780548096,0.06596527993679047,,,,,,,,,
1739305055.930386,-0.049503402121314516,1.102987574863095,-0.48444609646755377,-1.4201380626328262,1.6253372079494344,1.071242224616008,1.3568135475268204,-0.0004703655562704962,0.0013721040809693487,0.0005911951335747265,0.0005456248674297603,0.00230271681745639,-0.0012728993067719911,-0.00365372523532692,-0.1555902659893036,-51.00766372680664,-9.542740821838379,17.18085479736328,1.8922830820083618,-1.1441757678985596,0.09983979165554047,,,,,,,,,
1739305055.9414277,-0.04949987529697875,1.1029823186754382,-0.4844508231784591,-1.4201344558538815,1.6253396882984927,1.071242950349411,1.356818668909087,0.00019940025242497122,-0.00043314172782988843,-0.0012446313118130428,0.0009520940204052066,0.0023285219498263643,-1.0895098554384736e-05,0.0007104541280737432,-0.1793939769268036,-50.96005630493164,-9.467362403869629,17.15705108642578,1.8986917734146118,-1.1505844593048096,0.05955658480525017,,,,,,,,,
1739305055.9523394,-0.04950305245081866,1.1029897464407419,-0.48444723142956064,-1.4201388921946103,1.6253334639783341,1.0712445607707541,1.356814846922904,-0.00045412611803320843,0.0018999012002310022,-0.00032430062363488746,-0.0007986187694142979,-0.0003695050976188941,-0.00011218678897536715,-0.0010712905259913392,-0.1317865550518036,-51.00766372680664,-9.514969825744629,17.18085479736328,1.9115091562271118,-1.1643173694610596,0.09983979165554047,,,,,,,,,
1739305055.9623415,-0.0494995337641828,1.102984387915013,-0.4844451055304147,-1.4201341337490885,1.6253329174213464,1.0712445738526322,1.3568192926500868,-8.564704821990913e-06,-0.0012655825373980864,0.0011091665572517246,0.0011683296196527387,-0.0007658913383550947,-0.00041370268811962015,0.0009488093847451036,-0.1793939769268036,-50.96005630493164,-9.514969825744629,17.15705108642578,1.9252420663833618,-1.1643173694610596,0.08610688149929047,,,,,,,,,
1739305055.972356,-0.04949952151504815,1.1029858660907008,-0.4844451516035538,-1.4201367464255807,1.6253343909955986,1.0712445607709016,1.3568224987995,0.0006875808668725917,0.00015324917094865827,0.00129635884307828,0.00037995083730928093,-0.000394214850499495,0.00019713301673739776,0.0013598140070046091,-0.1793939769268036,-50.98386001586914,-9.542740821838379,17.18085479736328,1.9051004648208618,-1.1643173694610596,0.05314789339900017,,,,,,,,,
1739305055.9823701,-0.04949952986051552,1.1029878171189083,-0.48445150541644816,-1.420140384290001,1.6253369426817097,1.07124456077068,1.356818650519066,-4.098933791892972e-06,0.0004970591089023863,-0.0014241381258637584,-0.0006077520480685243,0.0001874209130876161,1.767300837444757e-05,0.0001793235469404859,-0.1793939769268036,-51.00766372680664,-9.467362403869629,17.20862579345703,1.8922830820083618,-1.1643173694610596,0.06596527993679047,,,,,,,,,
1739305055.9933746,-0.04950218305806502,1.1029896422086678,-0.484449127841653,-1.42014049515897,1.6253310945475405,1.071242179553291,1.3568119139647492,-0.0011537660827874725,-0.00017126247298786436,-0.00019027108313281866,-0.0005480306005106016,0.000264859325691312,-0.0004882845404511916,-0.0022706628109472986,-0.1555902659893036,-51.00766372680664,-9.491166114807129,17.20862579345703,1.9051004648208618,-1.1441757678985596,0.11265717446804047,,,,,,,,,
1739305056.0035312,-0.049501236544507575,1.102987882030648,-0.4844472311073172,-1.420138100558971,1.6253385104846938,1.0712429386669196,1.3568111059873214,0.00013499476352177672,-0.0012083466912276325,0.0007258111533060197,-5.107290756298905e-05,0.00034154941979696354,0.0002529555834049087,-0.002123239105086661,-0.1555902659893036,-51.00766372680664,-9.514969825744629,17.18085479736328,1.8986917734146118,-1.1505844593048096,0.11998139321804047,,,,,,,,,
1739305056.0144327,-0.04950295880386111,1.1029876782338524,-0.4844490141064289,-1.420135489757727,1.6253377038162475,1.0712438031106097,1.356818949158322,-0.0004270084147834474,-0.0007171634293322102,0.0005505904149711295,0.00028517757769516114,0.0010398733225835466,-0.00044639324068752943,-0.00043369764941963756,-0.1317865550518036,-51.00766372680664,-9.491166114807129,17.13324737548828,1.9115091562271118,-1.1579086780548096,0.05314789339900017,,,,,,,,,
1739305056.0253856,-0.04950200906263915,1.1029906657145223,-0.4844507932192234,-1.4201360002269405,1.6253356400854635,1.0712445476887276,1.3568189099659722,-0.00021311261021995714,-1.7774195433793683e-05,-0.0007308729545564174,0.0009725176364617309,0.0016626560033423908,2.4951544219791247e-05,0.002483275215278809,-0.1317865550518036,-51.00766372680664,-9.467362403869629,17.18085479736328,1.9051004648208618,-1.1643173694610596,0.05314789339900017,,,,,,,,,
1739305056.03633,-0.049501268713598744,1.1029889332997092,-0.4844472314293915,-1.4201390995785466,1.625334535979983,1.0712424662630158,1.3568114427920392,0.00029376585509151754,0.0008801267906800082,0.0011654170049056499,-0.00012621591639194762,0.0012518513233086004,-0.0004274634742484634,-0.0013387181596023938,-0.1555902659893036,-50.98386001586914,-9.514969825744629,17.18085479736328,1.9115091562271118,-1.1505844593048096,0.11265717446804047,,,,,,,,,
1739305056.0463817,-0.049499524008291884,1.1029868954541318,-0.4844472314294116,-1.4201383449625178,1.6253382098324105,1.0712438031026261,1.356815770864748,0.0008706820290166567,0.0004450829200815856,0.00018365076392480362,-0.0007050168404709884,0.0010572615558677864,8.328634686499369e-05,-1.4499503982004958e-05,-0.1793939769268036,-50.98386001586914,-9.514969825744629,17.20862579345703,1.8986917734146118,-1.1579086780548096,0.07969819009304047,,,,,,,,,
1739305056.0574017,-0.049499521117436794,1.1029889617373014,-0.48444515163955604,-1.420137245933432,1.6253374187945857,1.0712411199151615,1.3568106945785403,1.1010553760420739e-05,-0.000570883506131674,0.0012455270189506446,0.0004872962042384677,0.000360324529850537,-0.0011611503231493416,-0.0019715935686248904,-0.1793939769268036,-50.98386001586914,-9.542740821838379,17.15705108642578,1.9051004648208618,-1.1441757678985596,0.11998139321804047,,,,,,,,,
1739305056.0674999,-0.049500997115076516,1.1029903167121662,-0.48444901410643065,-1.4201371139291294,1.6253345654575333,1.0712429371954242,1.356818947698461,7.787064784237871e-05,-0.001466035553469659,-0.000737284889625745,0.0010745536146432894,7.825300706939712e-05,0.0003396476449043426,0.0009329812883476464,-0.1555902659893036,-50.98386001586914,-9.491166114807129,17.15705108642578,1.9051004648208618,-1.1505844593048096,0.05314789339900017,,,,,,,,,
1739305056.0784128,-0.04949752313910378,1.1029889617566144,-0.4844507967834497,-1.420137352021116,1.62533833212975,1.0712438031106015,1.3568109286541794,0.0003122037689147468,-0.0002016401895840112,-0.0007903346426768392,0.0006807847083856759,0.0014272835704316918,0.00032804709725101343,-0.001932550347324078,-0.2071649730205536,-50.98386001586914,-9.467362403869629,17.15705108642578,1.8986917734146118,-1.1579086780548096,0.11998139321804047,,,,,,,,,
1739305056.0893748,-0.0494995210812918,1.102990674269697,-0.4844507967834497,-1.420138884507143,1.6253380570279505,1.0712429372133694,1.3568154058320445,0.0002054053841860215,-0.0004714471130751485,-0.0014461591634281515,-0.000720745356114903,0.00017725527941162475,0.00024487597064957306,-0.00040264878841365286,-0.1793939769268036,-51.00766372680664,-9.467362403869629,17.18085479736328,1.9115091562271118,-1.1505844593048096,0.08610688149929047,,,,,,,,,
1739305056.1003358,-0.04950123457749148,1.1029890298841336,-0.4844472061558067,-1.4201392262689039,1.6253284864977606,1.071242179553291,1.3568165677846404,-0.000560129061991948,-0.0006355415359805164,-0.0005281837400531649,-0.0010022673943655487,-0.002355610687372376,0.0009148449584925908,0.0013501471765424461,-0.1555902659893036,-50.98386001586914,-9.514969825744629,17.18085479736328,1.9179178476333618,-1.1441757678985596,0.07328949868679047,,,,,,,,,
1739305056.1103544,-0.049497519247655004,1.10298988991386,-0.48445079678330705,-1.4201373566016602,1.6253356860667996,1.0712429371595342,1.3568164439038757,0.001437453850436224,-0.0007509148198086704,-0.001441043792100905,0.0002109503326033304,0.0008625097821359033,0.0006145736629755325,0.00012199825416055621,-0.2071649730205536,-50.98386001586914,-9.467362403869629,17.15705108642578,1.9051004648208618,-1.1505844593048096,0.07328949868679047,,,,,,,,,
1739305056.1223562,-0.04949882039964491,1.1029918228134932,-0.4844490139624215,-1.420139480456111,1.6253399898129328,1.0712424488204864,1.3568201416392993,0.000996355528437206,-0.0004764362012191007,-7.952317468923553e-05,-4.2606358973274003e-05,0.0003317252274306923,-0.0010521147925676069,-0.0003470027023766202,-0.1793939769268036,-50.98386001586914,-9.491166114807129,17.15705108642578,1.8922830820083618,-1.1505844593048096,0.06596527993679047,,,,,,,,,
1739305056.133361,-0.049499521224487204,1.102989716582992,-0.48444901409442964,-1.4201373515177236,1.625335435570569,1.0712428834310912,1.3568158100698404,0.0007269780394479514,-0.0004457933463869828,-0.0007268359917377786,0.0007576113666389435,-0.0008137338815256101,-0.00016124450316122439,0.0002534184859021262,-0.1793939769268036,-50.98386001586914,-9.491166114807129,17.15705108642578,1.8922830820083618,-1.1505844593048096,0.07969819009304047,,,,,,,,,
1739305056.1443348,-0.04949744398705809,1.1029892277529219,-0.4844472314294116,-1.420139135026525,1.625334221071777,1.071242178099437,1.3568193534438557,0.0004948603765607602,0.0006166561716810906,-0.0003302592646424543,-0.0007831612726888761,-0.0008415756911653092,-0.0006782017644624105,0.002359912878454132,-0.2071649730205536,-50.98386001586914,-9.514969825744629,17.18085479736328,1.9051004648208618,-1.1441757678985596,0.04673920199275017,,,,,,,,,
1739305056.1543586,-0.04950123360068253,1.1029938124165053,-0.484447205183745,-1.4201391340453833,1.6253342385160798,1.0712395645580597,1.3568150128836498,-0.0005087220869255864,0.0004166813089497976,0.001113178133419611,-0.0004682264336954511,0.00025918526683586026,-0.0012696114353151623,-0.0008680995199961619,-0.1555902659893036,-51.00766372680664,-9.514969825744629,17.18085479736328,1.9051004648208618,-1.1579086780548096,0.08610688149929047,,,,,,,,,
1739305056.1643898,-0.04949728665349163,1.1029938016725347,-0.4844487001300484,-1.420137273203683,1.6253335814742749,1.0712438025543047,1.35681418607608,0.0010007836041932908,0.0014282402292817614,0.0008772310648160523,0.0005995670351733319,2.5829113168963078e-05,0.0007119306569269881,0.0007199040548479304,-0.2071649730205536,-51.00766372680664,-9.491166114807129,17.15705108642578,1.9115091562271118,-1.1579086780548096,0.09343110024929047,,,,,,,,,
1739305056.1744444,-0.049501233489885034,1.1029922067801754,-0.48444901410111346,-1.4201355706522976,1.6253352930254188,1.0712429372133598,1.3568193519902956,-0.0004212333132384972,6.966528847869195e-05,0.0003055846004102969,0.0009210342501462651,0.00013148276828149475,0.0018028741834955572,-0.00011062534654631654,-0.1555902659893036,-50.98386001586914,-9.491166114807129,17.13324737548828,1.8986917734146118,-1.1505844593048096,0.04673920199275017,,,,,,,,,
1739305056.186431,-0.049499551320814225,1.1029921800728837,-0.48444719890956,-1.4201373647773707,1.6253334633075003,1.0712429372133694,1.3568174184060762,-0.0003360585571530549,0.0007190183076521477,0.000659037038521365,-0.000250699453456251,-0.00038067443762300024,0.00015048356091327655,0.0009617674674319977,-0.1793939769268036,-50.98386001586914,-9.542740821838379,17.15705108642578,1.9115091562271118,-1.1505844593048096,0.05314789339900017,,,,,,,,,
1739305056.1973755,-0.04950112849677008,1.1029951637955342,-0.48444723143326396,-1.4201412817749115,1.625334234639943,1.0712442031973193,1.3568157549874202,-0.00046716873989805706,0.0022908837973602044,0.000157004303989733,-0.0008177501577923039,-0.0013872353516811073,-0.0004499099565499421,-0.00025422260012707056,-0.1555902659893036,-51.03543472290039,-9.514969825744629,17.18085479736328,1.9051004648208618,-1.1643173694610596,0.05314789339900017,,,,,,,,,
1739305056.2083402,-0.04949752346500159,1.1029950931852273,-0.4844490110462364,-1.4201356053329297,1.6253341096885345,1.0712425781844401,1.3568174275206477,0.0007005131978246996,0.0015976625485933232,-0.00041533171948536024,0.0006062378197810223,-0.0011277262987354115,-9.160079683708718e-05,0.0004312351154882323,-0.2071649730205536,-51.03543472290039,-9.491166114807129,17.13324737548828,1.9051004648208618,-1.1505844593048096,0.06596527993679047,,,,,,,,,
1739305056.2183526,-0.04950052414118721,1.1029899989707432,-0.4844430257405073,-1.4201373562747002,1.6253374012780233,1.0712427391057415,1.3568121993590818,-0.00030480269163473273,-0.0009050157052609901,0.001050695006798092,0.00027806005876705373,-0.001976771687013101,0.00046091145736530567,-0.0012926093807294808,-0.1555902659893036,-50.98386001586914,-9.542740821838379,17.15705108642578,1.9051004648208618,-1.1579086780548096,0.09983979165554047,,,,,,,,,
1739305056.2293615,-0.04949952107728688,1.1029875950336931,-0.48445079673544666,-1.4201373523495329,1.6253349791283518,1.0712421396554055,1.3568172577893696,-0.0009387338212233005,-0.00098115645960424,-0.0010067818659038328,0.0011251772609449644,-0.0008039556611732104,0.0001315103468964167,0.0022417568607656087,-0.1793939769268036,-50.96005630493164,-9.467362403869629,17.15705108642578,1.8986917734146118,-1.1441757678985596,0.06596527993679047,,,,,,,,,
1739305056.2394025,-0.04950052581640172,1.102988390416688,-0.4844490141064299,-1.4201391353535784,1.6253384599490122,1.0712385807611007,1.356818576400127,-6.165511804813993e-05,-0.0007717581050537874,-0.00020144880592301388,-0.0001366179075705881,-0.0005734260946294674,-0.00028518452450198553,0.0014321204919757059,-0.2071649730205536,-50.93228530883789,-9.491166114807129,17.18085479736328,1.9051004648208618,-1.1505844593048096,0.05314789339900017,,,,,,,,,
1739305056.2503834,-0.04950115478999082,1.102992171569017,-0.4844490928434306,-1.4201404557156263,1.6253342601817546,1.0712445155245243,1.3568160016037834,-6.755441182757996e-05,0.0009409143593519696,-0.0007183773619315382,1.159425506560641e-05,0.0015778004911509648,0.0010849400595524703,0.0005288934254681933,-0.1555902659893036,-50.98386001586914,-9.491166114807129,17.15705108642578,1.9051004648208618,-1.1643173694610596,0.06596527993679047,,,,,,,,,
1739305056.2614658,-0.049502942228630255,1.1029904636272683,-0.4844507967847832,-1.4201359416455581,1.6253342213971502,1.0712428134993266,1.3568159618681637,-0.0010661646074349121,-0.000316064480232006,-0.0010007248409620692,0.0004336975219541546,-0.0013450788485601924,0.0006263754613896103,0.001556098785545597,-0.1317865550518036,-50.96005630493164,-9.467362403869629,17.10944366455078,1.9051004648208618,-1.1505844593048096,0.03941498324275017,,,,,,,,,
1739305056.2723274,-0.049501207325673556,1.1029883191683774,-0.4844507966754429,-1.4201373523616736,1.6253364938922061,1.0712413913889018,1.356819469283134,-0.0015941308476008435,-8.541967265377241e-05,-0.0008762814955068897,0.0007338934655895007,0.0005532551511936053,-0.0007639080490301762,0.003131361846302925,-0.1555902659893036,-50.96005630493164,-9.467362403869629,17.15705108642578,1.8858743906021118,-1.1505844593048096,0.03941498324275017,,,,,,,,,
1739305056.2823641,-0.04950123064623838,1.1029903608856246,-0.4844451506674937,-1.4201393739901902,1.6253328625752383,1.0712383439858657,1.3568122607041564,-0.001132729638667111,-0.0006321315081997408,0.0008894025785942584,-0.0003541915656321837,-0.0010868594514857437,-0.0007996272735746069,-0.0003368926307073861,-0.1555902659893036,-50.96005630493164,-9.542740821838379,17.18085479736328,1.9179178476333618,-1.1505844593048096,0.07969819009304047,,,,,,,,,
1739305056.2923985,-0.04949668280534447,1.1029921892282895,-0.4844473364120617,-1.4201355696765383,1.6253374135569896,1.0712417074320744,1.3568118402721656,0.0008572400252780285,0.000289517417402539,-0.00010329065762317827,0.0017694649519613597,-0.0004309890094699143,-0.000704394257169728,-0.0013497249319464788,-0.1793939769268036,-50.98386001586914,-9.514969825744629,17.13324737548828,1.9051004648208618,-1.1505844593048096,0.09983979165554047,,,,,,,,,
1739305056.3033895,-0.049502945782332934,1.102993893901711,-0.48444715269300437,-1.420139739478741,1.6253369152947381,1.0712367770933768,1.356816957209447,-0.001744593841097599,0.0012581419540100345,-0.00020669743679346695,-0.0008651512856052106,0.0010219630304804993,-0.0017417576785522017,0.002124723582858552,-0.1317865550518036,-51.00766372680664,-9.514969825744629,17.15705108642578,1.8922830820083618,-1.1377670764923096,0.05955658480525017,,,,,,,,,
1739305056.31345,-0.049497392698750656,1.1029958908614177,-0.48444924350899804,-1.4201393768368755,1.6253389326490189,1.0712370067406185,1.356814338433905,0.00017039004109922225,0.000650159303012659,0.00020064241336864607,-0.0012169141096503697,0.0004141850803482782,-0.0011593093995993782,0.001184386220759044,-0.1793939769268036,-51.03543472290039,-9.491166114807129,17.18085479736328,1.8922830820083618,-1.1377670764923096,0.05314789339900017,,,,,,,,,
1739305056.324334,-0.04949578423124214,1.1029921805087999,-0.4844450732270084,-1.4201338135353325,1.6253349800316115,1.07124364410902,1.356813425297983,0.0017404022960839365,-0.0008089715180385342,0.0006675673786794283,0.0008125257263613302,-0.0008252428582604557,0.002169238521909981,1.434043872002403e-05,-0.2309686839580536,-50.98386001586914,-9.542740821838379,17.10944366455078,1.8986917734146118,-1.1579086780548096,0.05955658480525017,,,,,,,,,
1739305056.3343952,-0.04949931060714782,1.1029921911923959,-0.4844490139970959,-1.4201391468007363,1.6253364938922281,1.0712433912686727,1.3568095360888002,-2.871355645487711e-05,-0.00037457514915594024,0.0011792271382906412,0.0008459087927315513,-0.0009417872479806444,0.002392057377384599,-0.0018474795324570049,-0.1793939769268036,-50.98386001586914,-9.491166114807129,17.18085479736328,1.8858743906021118,-1.1579086780548096,0.09343110024929047,,,,,,,,,
1739305056.3453572,-0.04949854885598784,1.1029938929205758,-0.48444723142941104,-1.420139139060198,1.625336494053709,1.071242331577076,1.3568093158825405,0.0010411233184794077,0.0006309637482049158,-0.0005889096403879859,-0.00040344207569912,-0.0005462271667901635,0.0006058725762148368,-0.0017037968620485467,-0.1793939769268036,-51.00766372680664,-9.514969825744629,17.18085479736328,1.8858743906021118,-1.1579086780548096,0.10624848306179047,,,,,,,,,
1739305056.355399,-0.04949751436519821,1.102993164489639,-0.48444927859140874,-1.4201392148265066,1.6253374062865826,1.07124060527514,1.3568158502183305,0.0006818272709177499,0.00026991778526056615,-0.00021316661282183493,-0.0006798320303712088,-0.0006862345778811624,0.0015386647823375367,-0.00011467908109945735,-0.2071649730205536,-50.98386001586914,-9.514969825744629,17.18085479736328,1.9051004648208618,-1.1579086780548096,0.06596527993679047,,,,,,,,,
1739305056.3663468,-0.049497523032157105,1.1029885228277554,-0.4844490141410996,-1.420141280795093,1.6253374914539669,1.0712413540814902,1.356808660745049,0.0004191813875736359,-0.0007229557429344524,-0.0003182458943471906,-0.0009239291585486006,0.0021579661144903203,9.937593502409612e-06,-0.0010172301999526526,-0.2071649730205536,-50.93228530883789,-9.491166114807129,17.18085479736328,1.9051004648208618,-1.1505844593048096,0.09983979165554047,,,,,,,,,
1739305056.3784065,-0.04950123360202279,1.102993717856317,-0.4844472333735351,-1.4201373523535483,1.6253325587774416,1.0712417140568309,1.35680552245967,-0.0007586323255003501,0.001387825841903513,0.00041642942747613317,-0.00015300486523811812,-0.00011212123488198292,0.0003106515101893994,-0.0026219720488502942,-0.1555902659893036,-50.98386001586914,-9.514969825744629,17.15705108642578,1.8922830820083618,-1.1505844593048096,0.12639008462429047,,,,,,,,,
1739305056.3893898,-0.04949910521949914,1.1029922157297336,-0.4844474676404223,-1.4201375907680898,1.6253349785541098,1.0712413482607048,1.3568134885360983,-0.00031378108606316794,0.0005803206975066224,7.800224060241018e-05,0.0005837975725392801,-0.000845292343230764,0.0012565575881142497,0.00017980891001437163,-0.1555902659893036,-50.98386001586914,-9.514969825744629,17.15705108642578,1.8986917734146118,-1.1505844593048096,0.05955658480525017,,,,,,,,,
1739305056.3994215,-0.04950123355396387,1.1029939194116674,-0.48444893634282593,-1.4201391085369224,1.6253360899293516,1.071237804196575,1.3568126654661838,-0.0012776790970036968,-0.0005268290996508152,0.00035447932486195493,0.0009984039335635838,-0.0018737656945261214,0.00024122818338380558,-0.0008415601392085464,-0.1555902659893036,-51.00766372680664,-9.491166114807129,17.18085479736328,1.8922830820083618,-1.1441757678985596,0.06596527993679047,,,,,,,,,
1739305056.410359,-0.049499494444520634,1.102995917461487,-0.48444933129831674,-1.4201392148262886,1.6253357363956273,1.071242376507089,1.3568126654658148,0.000408876598824141,0.0011532619219820086,-0.000310308271418631,-0.0007043000769195535,-0.0007407295508886831,0.0012262860672378638,-0.00013360271630937675,-0.1793939769268036,-51.03543472290039,-9.514969825744629,17.18085479736328,1.8922830820083618,-1.1579086780548096,0.06596527993679047,,,,,,,,,
1739305056.4213917,-0.049502198707067326,1.102995902635275,-0.48444930282061743,-1.420139135063319,1.6253389151465143,1.0712416497530906,1.356808660691115,4.8171145859130394e-05,1.8155655519438703e-05,0.00010361280887304862,-0.0001844120034308086,-0.000482863381876602,0.0012878957125695557,-0.002392430873873924,-0.1317865550518036,-51.03543472290039,-9.491166114807129,17.18085479736328,1.8922830820083618,-1.1441757678985596,0.09983979165554047,,,,,,,,,
1739305056.4314458,-0.049501259927014554,1.1029912096259422,-0.4844486962471353,-1.4201391350265302,1.625334183658014,1.0712381863561709,1.3568102842484258,-0.00097687666849685,-0.0005311730444128332,-0.00021069803261449275,-0.00017806161032307133,-0.0019899706044373615,0.000815298664815119,-0.0011585803732067795,-0.1555902659893036,-50.96005630493164,-9.491166114807129,17.18085479736328,1.9051004648208618,-1.1505844593048096,0.08610688149929047,,,,,,,,,
1739305056.4423566,-0.0494953947580635,1.1029904800930617,-0.48444901410463637,-1.4201337869954727,1.6253334784332045,1.0712390347391185,1.3568135844704108,0.0009658930895741748,-0.00022571863176424153,-0.0005046812155753219,0.0017807359734898285,-0.0011633019895729096,-0.0003234637672678902,0.00040355421902842445,-0.2071649730205536,-50.96005630493164,-9.491166114807129,17.10944366455078,1.9115091562271118,-1.1579086780548096,0.05955658480525017,,,,,,,,,
1739305056.452361,-0.049497523104394404,1.1029911835710617,-0.4844487788674927,-1.420138067605248,1.6253349785723037,1.0712409433088066,1.3568130811140944,0.0005016295150200864,0.0001047826519475839,0.0006352151977105421,0.0006465639033525542,-0.0009299902740212341,0.000736250545617439,9.150988217742012e-05,-0.2071649730205536,-50.96005630493164,-9.491166114807129,17.15705108642578,1.8986917734146118,-1.1441757678985596,0.026597600430250168,,,,,,,,,
1739305056.4623902,-0.04949941500278407,1.102988479761784,-0.48444722850924266,-1.4201412148284982,1.625334377895395,1.0712390354448589,1.356813409972601,0.0007615816525362997,-0.0015458947638694886,0.0007521267387849385,-0.0012112237113745565,-0.0008297303632029804,6.664255800132299e-06,0.0012303983940816316,-0.1793939769268036,-50.93228530883789,-9.514969825744629,17.20862579345703,1.9051004648208618,-1.1579086780548096,0.05955658480525017,,,,,,,,,
1739305056.473401,-0.049497522995662555,1.1029946440584897,-0.4844472775385366,-1.4201393734451089,1.6253342180057542,1.0712392299334708,1.3568141284585287,9.104111134578414e-05,6.696200621708551e-05,-0.00013757130929185565,0.00015004340091804327,-0.0005823672432681052,-0.0006151847141757029,0.00024287976762448767,-0.2071649730205536,-50.98386001586914,-9.542740821838379,17.18085479736328,1.9051004648208618,-1.1505844593048096,0.05314789339900017,,,,,,,,,
1739305056.4834332,-0.049504422157071855,1.102991222531385,-0.4844500882944599,-1.420145143264654,1.625336038210127,1.0712390347569893,1.3568149784820842,-0.002045181880805615,0.00047352460001160113,1.237196108716792e-05,-0.001360232656959913,-0.00038002347018776297,0.0006700505097080496,0.0015694114371852387,-0.10798283666372299,-50.96005630493164,-9.467362403869629,17.23242950439453,1.8986917734146118,-1.1579086780548096,0.07328949868679047,,,,,,,,,
1739305056.4934454,-0.04949952107728688,1.1029921804125637,-0.4844473101544132,-1.4201381033989227,1.6253353318027015,1.0712382211695965,1.3568152934522073,0.00026113942072071317,-0.000643324179039137,0.0005983667355749192,0.0004984940974952151,-2.880090715663766e-05,-0.0005284454421940181,0.0017981357977526757,-0.1793939769268036,-50.98386001586914,-9.514969825744629,17.15705108642578,1.8986917734146118,-1.1505844593048096,0.05314789339900017,,,,,,,,,
1739305056.5053704,-0.04950099614187856,1.1029940503400066,-0.4844433689629814,-1.4201405312681383,1.6253357367186358,1.0712374111820042,1.3568094198110245,-0.0007196027535504262,0.0004580720421849733,0.0016592841254846548,-0.0006309817857846872,1.3616738516841146e-05,-0.00042255059360966153,-0.000327469782853135,-0.1555902659893036,-51.00766372680664,-9.566544532775879,17.15705108642578,1.8922830820083618,-1.1441757678985596,0.09343110024929047,,,,,,,,,
1739305056.5154066,-0.049502946121413725,1.1029939988852164,-0.4844490140704284,-1.4201433606015421,1.6253350963096194,1.0712390347390197,1.3568071453709665,-0.0009347274467962256,0.0009135503794743545,-0.0006661608791745063,-0.0012516847359267883,-0.001052665683917396,0.00034935612654338075,-0.0005455745115745901,-0.1317865550518036,-51.00766372680664,-9.491166114807129,17.20862579345703,1.8986917734146118,-1.1579086780548096,0.11265717446804047,,,,,,,,,
1739305056.5263216,-0.04950294482515777,1.1029966339168518,-0.48444830558143837,-1.4201391350386428,1.625334978788052,1.0712390739848763,1.3568110026626472,-0.000454888060637323,0.00028873651716395353,-0.00037499269253891173,-0.0004609393121829244,-0.0013366752627034012,-0.0003775557395531849,-0.0011913441213532799,-0.1317865550518036,-51.03543472290039,-9.491166114807129,17.18085479736328,1.8986917734146118,-1.1579086780548096,0.07969819009304047,,,,,,,,,
1739305056.536325,-0.04949539183830098,1.1029926401498011,-0.48444901398642487,-1.4201412924584824,1.6253360382101798,1.0712390347396843,1.3568123634875395,0.001082085306977829,-0.0005291841523905761,-0.0002182812424643511,-0.0003543646389055818,-0.00018320754690671264,-0.00010611717123919756,0.0003318605003214211,-0.2071649730205536,-50.96005630493164,-9.491166114807129,17.18085479736328,1.8986917734146118,-1.1579086780548096,0.05955658480525017,,,,,,,,,
1739305056.546362,-0.04949910478681867,1.1029958909717306,-0.4844484124844039,-1.420141214925994,1.6253357493679126,1.0712390347390197,1.3568062794198907,0.0005472675039943108,0.0009634776237057272,2.119769746721794e-05,-0.00013894682102661804,0.00041840054616659836,-0.0002779975286273026,-0.0009597740395056853,-0.1555902659893036,-51.03543472290039,-9.514969825744629,17.20862579345703,1.8922830820083618,-1.1579086780548096,0.11998139321804047,,,,,,,,,
1739305056.5574083,-0.04949751977229415,1.1029926141307813,-0.48444998313400434,-1.4201395010601618,1.6253342209119932,1.071239792399098,1.3568141807864116,0.0012240201102004448,0.0005910257892720717,-1.1225551789569238e-05,0.001083448578845475,-9.021012817574953e-05,0.000645043623178357,0.0018027011460490065,-0.2071649730205536,-50.96005630493164,-9.467362403869629,17.15705108642578,1.9051004648208618,-1.1643173694610596,0.05314789339900017,,,,,,,,,
1739305056.567454,-0.04949738296673778,1.1029927196464242,-0.484449119075318,-1.4201398507547207,1.6253342209119686,1.0712390347390197,1.356808656330464,0.0004938798849337666,0.0010184566821384005,-0.0017789166286185294,-0.0008006065441891056,-0.00030170775433854477,-0.0002443786094853772,-0.001598895404940567,-0.1793939769268036,-50.96005630493164,-9.491166114807129,17.18085479736328,1.9051004648208618,-1.1579086780548096,0.09983979165554047,,,,,,,,,
1739305056.5784132,-0.04950099612980887,1.1029962782455187,-0.48444901410702323,-1.4201374347698499,1.6253342209119686,1.0712391524765896,1.3568141863852474,-0.0007754478159376492,0.000914135865115719,-0.001526180750833587,-0.0001086999358913646,-0.00042981303575928976,0.0005370641827463391,0.0011970519804708028,-0.1555902659893036,-51.00766372680664,-9.491166114807129,17.15705108642578,1.9051004648208618,-1.1579086780548096,0.05314789339900017,,,,,,,,,
1739305056.5893333,-0.049497444310115844,1.102993593861338,-0.4844500387436793,-1.4201414532354295,1.625338341726916,1.0712354478834323,1.3568141793328932,0.0011299152439235992,-0.00037655670902836413,-0.0013235324125716928,-0.0001545163281111569,0.0023027998734682915,-0.0012130326459276343,0.00045648424361724243,-0.2071649730205536,-50.96005630493164,-9.514969825744629,17.20862579345703,1.9051004648208618,-1.1643173694610596,0.05314789339900017,,,,,,,,,
1739305056.6003535,-0.04950507557909752,1.1029926185696426,-0.4844472314812613,-1.4201412187423168,1.625335672601245,1.0712390213054936,1.356811041423979,-0.0020359688441284078,-0.0020014420207327007,-0.00012215384135034823,-9.401461596039533e-05,0.0008646642891849452,-7.120294153248181e-05,0.001845007900337731,-0.1317865550518036,-50.96005630493164,-9.514969825744629,17.20862579345703,1.9051004648208618,-1.1579086780548096,0.07969819009304047,,,,,,,,,
1739305056.6103868,-0.04950095926856828,1.1029941592475088,-0.4844490141064333,-1.4201373641234671,1.6253358540434486,1.0712390347383371,1.3568084862650607,-0.00044474018739782165,0.0004119518845727441,-0.00042079912692611883,0.0002642573186098816,0.0001732731354789752,-0.00013127184657010175,-0.000642310150516815,-0.1555902659893036,-51.00766372680664,-9.491166114807129,17.15705108642578,1.8922830820083618,-1.1579086780548096,0.09983979165554047,,,,,,,,,
1739305056.6214328,-0.0494995210807756,1.10299504572332,-0.4844510841776996,-1.4201388273099647,1.625336493892425,1.0712390347390197,1.3568153982525564,-0.00031026613301558283,0.0008624865324914788,-0.0018307247757821843,0.0004788564048237105,-0.0001646227841255129,0.0001940700469010398,0.002050625131073217,-0.1793939769268036,-50.98386001586914,-9.467362403869629,17.18085479736328,1.8858743906021118,-1.1579086780548096,0.04673920199275017,,,,,,,,,
1739305056.6323454,-0.04950123316949085,1.10299218971868,-0.48445068305385003,-1.4201372198930073,1.6253342223655187,1.071237411181709,1.3568126610539244,-0.0004068208153624475,-0.0008453620022751544,0.00030745202292901074,0.0003822020165099477,-0.0008034234490635179,-0.00036962008497727796,-1.741133861634086e-05,-0.1555902659893036,-50.98386001586914,-9.467362403869629,17.15705108642578,1.9051004648208618,-1.1441757678985596,0.06596527993679047,,,,,,,,,
1739305056.6423995,-0.04949718154815986,1.1029943539666174,-0.4844444167551124,-1.4201373523427812,1.6253355691980373,1.0712381688417874,1.3568126523836384,0.0012830379237200621,-0.0007826443372887723,0.0008875954826207408,0.0009450804832107328,-0.0008404398048707744,0.00027672814219756114,-5.387389484696255e-05,-0.2071649730205536,-50.98386001586914,-9.542740821838379,17.15705108642578,1.8986917734146118,-1.1505844593048096,0.06596527993679047,,,,,,,,,
1739305056.6533554,-0.04950196480280589,1.1029885052756734,-0.4844453876571607,-1.4201391703478006,1.6253346266689392,1.071237411181709,1.3568071453709336,-0.00038091606404684294,-0.000996907624577251,0.0006265169917339429,-0.00013012713267632344,-0.0003533263467333809,-0.0001914115352750491,-0.00295900811259066,-0.1317865550518036,-50.93228530883789,-9.542740821838379,17.18085479736328,1.9051004648208618,-1.1441757678985596,0.11265717446804047,,,,,,,,,
1739305056.6634254,-0.04950123358540426,1.1029970309544006,-0.48444502679741175,-1.420144078783372,1.625340027119323,1.071237411181709,1.3568079030310367,-0.00023781803392533232,0.001965572904809919,0.0007681193049129485,-0.0009436651357015885,0.0016435442820686673,-0.00016363182255263567,-0.0009092097759464293,-0.1555902659893036,-51.00766372680664,-9.514969825744629,17.20862579345703,1.8922830820083618,-1.1441757678985596,0.10624848306179047,,,,,,,,,
1739305056.6743279,-0.04949660440894421,1.102995371250998,-0.48444724336972544,-1.4201373524020167,1.6253345567601327,1.0712381509631193,1.3568051405528192,0.00022662104623909937,0.00039311821717145977,0.0006128526076996656,-0.0008459038066481847,-0.0006240298872497407,-8.495275716647172e-05,-0.0015860480659661202,-0.1793939769268036,-50.98386001586914,-9.514969825744629,17.15705108642578,1.9051004648208618,-1.1505844593048096,0.09343110024929047,,,,,,,,,
1739305056.6843462,-0.04950123355262889,1.102997031988986,-0.4844443968976179,-1.4201391615174839,1.6253351152114575,1.071237370954403,1.3568141792604165,-3.073569522916872e-05,0.00038949061535047726,0.00047736587763633665,0.001212453211431584,-0.0014679042436980263,-0.00035411568582734615,0.0007652594988616662,-0.1555902659893036,-51.00766372680664,-9.514969825744629,17.18085479736328,1.8986917734146118,-1.1441757678985596,0.05314789339900017,,,,,,,,,
1739305056.6943762,-0.04949944225230861,1.1029940108202614,-0.4844487514937545,-1.420140214354055,1.62533231348401,1.0712390347383385,1.3568110026626214,-0.0006605607941149573,0.0007181573712149183,0.0005815017831331974,2.5175748597494298e-05,0.0016348939491343689,0.0003295971914870823,-1.714665260872146e-05,-0.1793939769268036,-51.00766372680664,-9.491166114807129,17.15705108642578,1.8858743906021118,-1.1579086780548096,0.07969819009304047,,,,,,,,,
1739305056.7054486,-0.04950199624568722,1.1029948822801554,-0.48444901410494823,-1.4201443186347202,1.6253334967137822,1.0712367206696771,1.3568110026624256,-0.0004388928590315258,-0.00041529418506295934,-0.0005477086788243374,-0.002283624722021119,-0.00023937143554395262,-0.0007847798955146056,-0.000490219446061172,-0.1317865550518036,-51.00766372680664,-9.491166114807129,17.20862579345703,1.9115091562271118,-1.1505844593048096,0.07969819009304047,,,,,,,,,
1739305056.71632,-0.049501197263961225,1.1029895352386467,-0.4844483054734317,-1.4201394558789289,1.6253316326236862,1.0712374111735339,1.3568094183509718,-0.00015309116978324758,-0.0006302419115273477,-0.00037273619547323426,7.44968626674233e-05,-0.001957228936693575,-0.0011366452398744612,-0.0008341849966235607,-0.1555902659893036,-50.93228530883789,-9.491166114807129,17.18085479736328,1.9051004648208618,-1.1441757678985596,0.09343110024929047,,,,,,,,,
1739305056.7263691,-0.049499178082690054,1.1029915407261912,-0.4844490053458744,-1.4201423111119285,1.6253401500117561,1.071235567392548,1.356812952176054,0.00133592600456121,-0.0012673544397879756,-0.0004696120220214981,-0.0007442572420699354,0.0031381379302125806,-0.0010199541903314672,-0.001277374894849214,-0.1793939769268036,-50.96005630493164,-9.491166114807129,17.18085479736328,1.8858743906021118,-1.1377670764923096,0.05955658480525017,,,,,,,,,
1739305056.7364316,-0.049499078937362974,1.1029895133510734,-0.48444728189228486,-1.4201376732381759,1.6253362072443216,1.0712374111633152,1.3568149365004476,0.0005250892294048671,-0.0017029339255021803,2.9955799744267467e-05,0.0006303809365432532,-0.0003336438020926338,-0.0006812901245746268,0.0017379130463802178,-0.1555902659893036,-50.93228530883789,-9.491166114807129,17.15705108642578,1.8922830820083618,-1.1441757678985596,0.04673920199275017,,,,,,,,,
1739305056.7473855,-0.049501933028017954,1.1029951601473391,-0.48444723138363094,-1.4201355726177423,1.6253368471075722,1.0712349104545393,1.3568099822703636,-0.001215309374262453,0.00033098667116605667,0.0003322455303201686,0.0017054721669768757,0.0011873782514992253,-0.00047403668652639937,0.00035239535546879495,-0.1555902659893036,-50.98386001586914,-9.514969825744629,17.13324737548828,1.8858743906021118,-1.1505844593048096,0.07969819009304047,,,,,,,,,
1739305056.7583182,-0.04950091829004182,1.1029954755786733,-0.48444901410643043,-1.4201377168932703,1.6253360386966866,1.0712381688233936,1.3568138232070697,0.0005754399389614717,0.0009975226569769095,-0.00019410685530866234,0.0015286305053859501,0.0008577316463913903,0.00011444002928138096,0.001958672957738256,-0.1555902659893036,-50.98386001586914,-9.491166114807129,17.13324737548828,1.8986917734146118,-1.1505844593048096,0.05314789339900017,,,,,,,,,
1739305056.768326,-0.049499205760022515,1.1029947573821415,-0.4844469948943914,-1.4201373534760366,1.6253338174515866,1.0712357807124222,1.3568079025404642,0.00026324477841325187,0.0008953171758913883,0.0014041408413825165,0.0005301458493760344,-9.632169744877486e-05,-0.001009755229898074,0.0005769978497494112,-0.1793939769268036,-50.98386001586914,-9.514969825744629,17.15705108642578,1.9115091562271118,-1.1579086780548096,0.10624848306179047,,,,,,,,,
1739305056.7783642,-0.04949910521415914,1.1029953990397348,-0.4844472314254059,-1.4201420765035042,1.6253355007629837,1.0712374109610583,1.3568126649812897,0.00011308324148814105,0.0009185138151070027,-0.0005080995399786472,-5.360245110519696e-05,-0.00042280117184485784,-0.000185942918643899,0.0010701048187377982,-0.1555902659893036,-50.98386001586914,-9.514969825744629,17.18085479736328,1.8922830820083618,-1.1441757678985596,0.06596527993679047,,,,,,,,,
1739305056.789432,-0.04949948297040441,1.102990825506921,-0.4844472317534322,-1.4201392528170431,1.6253334632505607,1.071238168841786,1.356812547728242,-0.0003871881118764085,-0.0005334041232237807,0.0007248388041395885,0.0003124726192094546,-0.0009752755674630874,0.0003072653417788855,0.00040638392729124706,-0.1793939769268036,-50.96005630493164,-9.514969825744629,17.18085479736328,1.9115091562271118,-1.1505844593048096,0.06596527993679047,,,,,,,,,
1739305056.8003488,-0.04949736252943611,1.1029936865487127,-0.48444714401586264,-1.4201412936583262,1.625336397237087,1.0712363098963777,1.3568112524528055,0.00026203011560613546,-0.00036884179142000013,0.0013797960757643637,-0.0011438308730754316,0.0009788474706760655,0.00020507220644026516,5.070625313896923e-05,-0.1793939769268036,-50.96005630493164,-9.514969825744629,17.18085479736328,1.8986917734146118,-1.1505844593048096,0.06596527993679047,,,,,,,,,
1739305056.810354,-0.04950114586957651,1.102997111571333,-0.48444731016493114,-1.4201433695594878,1.6253349785960718,1.0712372904692182,1.3568134172882031,-0.0013078850208157458,0.0022727079436256443,0.0003283847472826504,-0.0008568283476647954,0.00026339567097017805,-0.0005839577926195269,0.0011484282888954785,-0.1555902659893036,-51.00766372680664,-9.514969825744629,17.20862579345703,1.8986917734146118,-1.1441757678985596,0.05955658480525017,,,,,,,,,
1739305056.821334,-0.0494980775226412,1.1029991348766375,-0.48444723142985613,-1.4201384149795815,1.6253349829326975,1.0712366490512821,1.356811041908471,0.0010464826113793402,0.002719323526622909,0.0003843370447253703,0.0004902230947347571,-5.7083751891778266e-05,-0.0012461560676435362,0.00047317852388540103,-0.1555902659893036,-51.03543472290039,-9.514969825744629,17.15705108642578,1.8986917734146118,-1.1377670764923096,0.07969819009304047,,,,,,,,,
1739305056.8323245,-0.04949752308699027,1.1029937205433755,-0.4844490186427188,-1.4201395100174914,1.625336796031834,1.0712379486098613,1.3568086476091625,0.0002043810851460751,0.0004182317799343684,-0.0009978733344326355,0.0004995932159573778,1.9622962640477974e-05,0.0002100666274096827,-0.0005353300197403336,-0.2071649730205536,-50.96005630493164,-9.491166114807129,17.15705108642578,1.8922830820083618,-1.1579086780548096,0.09983979165554047,,,,,,,,,
1739305056.8433187,-0.04950073566725683,1.1029936855487878,-0.48444723142942014,-1.4201356854518286,1.6253342209139627,1.0712381152037396,1.3568114463558478,-0.0007529786188092458,-0.0007057282825145568,0.00026334280700162266,0.00028373381004213844,-0.000878579824253695,-0.0005772215270721949,0.0010884126846274448,-0.1317865550518036,-50.96005630493164,-9.514969825744629,17.13324737548828,1.9051004648208618,-1.1505844593048096,0.07328949868679047,,,,,,,,,
1739305056.853366,-0.04949748795976818,1.1029953980694385,-0.48445079678344977,-1.4201440768224414,1.6253342746933277,1.0712341527935527,1.356811760010637,0.0005976662714728902,4.807681650269635e-05,-0.0007646661145078262,-0.0005729915436673153,0.0001300228526306426,-0.0009760909573107866,0.001004165460213126,-0.2071649730205536,-50.98386001586914,-9.467362403869629,17.20862579345703,1.9051004648208618,-1.1441757678985596,0.04673920199275017,,,,,,,,,
1739305056.8643546,-0.04950120721736391,1.102997084644309,-0.48444723142941165,-1.4201356493068622,1.6253365331383636,1.0712390341688152,1.3568114448305448,-0.0007914908625394354,0.0005539681331519131,-9.260402333935647e-05,0.0008386261762205567,3.326448985234518e-06,0.0004370597610255264,0.0006631005126101525,-0.1555902659893036,-51.00766372680664,-9.514969825744629,17.13324737548828,1.8858743906021118,-1.1579086780548096,0.07328949868679047,,,,,,,,,
1739305056.8743906,-0.04950097083830162,1.1029937630588347,-0.48444925031743036,-1.420139399719378,1.6253342601584897,1.0712374111816991,1.3568126073177973,-0.0013762637575622184,-0.0005977039520037811,-0.0008361618467235849,0.000739527543587431,-1.052886920229501e-05,-0.00020987128013442286,0.0007315050208412191,-0.1555902659893036,-50.96005630493164,-9.491166114807129,17.18085479736328,1.9051004648208618,-1.1441757678985596,0.06596527993679047,,,,,,,,,
1739305056.8853815,-0.049498566229066926,1.102994470886524,-0.4844482025204103,-1.4201383103132945,1.6253371488678452,1.071234152794461,1.356809366507573,0.0003702140635962291,0.0007691753008283297,0.00017891232677787932,-0.0008579842852019716,0.000832852044193055,-8.443161850767424e-05,-0.0016304709124214264,-0.1793939769268036,-50.98386001586914,-9.514969825744629,17.15705108642578,1.8922830820083618,-1.1441757678985596,0.09343110024929047,,,,,,,,,
1739305056.8953888,-0.04949667151104739,1.1029954127394956,-0.48445079586072454,-1.420137591143808,1.625335096381386,1.0712390345734764,1.3568130684574395,0.0011811706667630368,-0.0005740333822689249,-0.0008997609542338028,0.0011487049118115034,0.0004642507100529903,-3.1430607694132715e-05,0.0010477270038419934,-0.1793939769268036,-50.98386001586914,-9.467362403869629,17.15705108642578,1.8986917734146118,-1.1579086780548096,0.05955658480525017,,,,,,,,,
1739305056.906367,-0.04950020588828356,1.1029953990506274,-0.48444901281034664,-1.4201398767736695,1.6253334763340639,1.071238168841787,1.3568141807857443,-0.000401879189661062,-0.00012308471019325412,-0.0008979790121701156,0.00029402071080612347,-0.0005398281379878955,0.0010441548280086044,0.0008933438119756902,-0.1555902659893036,-50.98386001586914,-9.491166114807129,17.18085479736328,1.9115091562271118,-1.1505844593048096,0.05314789339900017,,,,,,,,,
1739305056.9173288,-0.049497519241848024,1.1029936865298704,-0.4844472304573426,-1.4201383089714534,1.6253353375990314,1.0712372487838075,1.3568110360943029,0.0008298301264561691,-0.00039039951613750805,9.211914912619297e-05,0.00025555769190062084,-0.0003962884138414212,-9.021372614082747e-05,-0.0007266521243390296,-0.2071649730205536,-50.96005630493164,-9.514969825744629,17.15705108642578,1.8986917734146118,-1.1441757678985596,0.07969819009304047,,,,,,,,,
1739305056.9274352,-0.04950119856672166,1.1029932773918147,-0.48445079678340036,-1.4201383868534834,1.6253373598076764,1.0712361707893432,1.3568074301423947,0.0005718892307315451,-0.0010814743567218001,-0.0012342406857534626,0.0001277138705178476,-9.32724570465377e-05,-0.0007662415817587639,-0.0015756089051088516,-0.1555902659893036,-50.96005630493164,-9.467362403869629,17.15705108642578,1.8785501718521118,-1.1377670764923096,0.10624848306179047,,,,,,,,,
1739305056.9383698,-0.04950028329267111,1.1029957306757805,-0.4844490150784924,-1.4201375937537075,1.6253338179719854,1.0712381688390622,1.356814598313063,0.00022522799708451607,0.0009057376822744447,-0.000586542399960616,0.0013648561179598119,-0.001063254913546227,0.0004647302687145491,0.002535085796234692,-0.1555902659893036,-50.98386001586914,-9.491166114807129,17.15705108642578,1.9115091562271118,-1.1505844593048096,0.04673920199275017,,,,,,,,,
1739305056.9494152,-0.0495008803260338,1.1029947273874137,-0.48444723142941715,-1.4201381858165842,1.6253358539716976,1.071237411181709,1.3568127635730018,0.0005565216104156062,-0.00035075686932496155,-0.0004926494597856804,0.00011714797397877779,0.0007320206115595454,7.412269416990605e-06,0.00021834428915452523,-0.1555902659893036,-51.00766372680664,-9.514969825744629,17.15705108642578,1.8922830820083618,-1.1441757678985596,0.05314789339900017,,,,,,,,,
1739305056.9603875,-0.0494994304638144,1.1029971124663427,-0.4844490141064307,-1.4201376705727031,1.6253341991093795,1.0712381688417874,1.3568105803718413,0.0011659006337012595,-4.9098993157857844e-05,-0.0004601845705083145,-0.0003093807212309328,-0.0012970115022185081,0.0003724511360094119,0.0009830590401091626,-0.1793939769268036,-51.00766372680664,-9.491166114807129,17.15705108642578,1.9051004648208618,-1.1505844593048096,0.04673920199275017,,,,,,,,,
1739305056.9704099,-0.04949580142788806,1.1029936865298753,-0.4844511438936746,-1.4201395021521208,1.6253357100680976,1.0712390347390197,1.3568173138250768,0.0007569446922246624,-0.0011241944093456874,-0.0010193836120640702,0.000745320821312945,1.1691353805624752e-05,0.0004997037669673542,0.0022442355681143765,-0.2309686839580536,-50.96005630493164,-9.491166114807129,17.15705108642578,1.8922830820083618,-1.1579086780548096,0.026597600430250168,,,,,,,,,
1739305056.9813576,-0.04949681367954558,1.102996793679894,-0.48444901411845337,-1.420137705574356,1.6253375535840202,1.071237411181709,1.3568141633437758,0.00043075619830914815,0.00010853287291943931,0.0005581806192148104,0.0009767237970660897,0.0009173756536981611,0.0003217127448934226,0.0006514201091674269,-0.2071649730205536,-51.00766372680664,-9.491166114807129,17.15705108642578,1.8858743906021118,-1.1441757678985596,0.05314789339900017,,,,,,,,,
1739305056.9933882,-0.04949951091278161,1.1029936860920107,-0.48444972273942977,-1.4201357143390738,1.6253356337687896,1.0712363205829594,1.3568102842483272,-0.001245193149034752,-0.0007339744652503813,0.00030053678064927516,0.001592562911340196,-0.00036295929684717124,-0.0010097587570437998,0.0002896812334570633,-0.1793939769268036,-50.96005630493164,-9.491166114807129,17.13324737548828,1.9051004648208618,-1.1441757678985596,0.08610688149929047,,,,,,,,,
1739305057.0043225,-0.04949836937417823,1.102996441589006,-0.48445079689279,-1.4201420226981722,1.625334220914627,1.071233824323405,1.3568094183511934,0.0009599723487461549,0.00019198765328375746,-0.0013378616012970478,-0.0008058527928768998,-0.0013943355856039408,-0.0013108748200503031,-0.0007625145673100558,-0.1555902659893036,-50.96005630493164,-9.467362403869629,17.18085479736328,1.9051004648208618,-1.1505844593048096,0.09343110024929047,,,,,,,,,
1739305057.014396,-0.049496629292358006,1.1029971881474103,-0.4844473100584065,-1.4201420236794977,1.6253358752884322,1.0712366534480557,1.3568117422341004,0.0003204618905072848,0.0010459049833060978,0.00020682553218625923,-0.0009293311923431288,0.00021335002306529214,-0.0003412092867425464,0.0005712867165882655,-0.1793939769268036,-51.00766372680664,-9.514969825744629,17.18085479736328,1.8922830820083618,-1.1377670764923096,0.07328949868679047,,,,,,,,,
1739305057.0253806,-0.04950122176654951,1.1029937121459525,-0.48445087552178123,-1.4201358346309434,1.6253323522199514,1.0712373933030397,1.3568134231253626,-0.0004689560462923195,0.00042416502618673117,0.00010303454396477893,0.0005646126677623812,-0.001316534065866834,-0.0005877642504971965,3.0686968791999677e-06,-0.1555902659893036,-50.96005630493164,-9.467362403869629,17.13324737548828,1.9179178476333618,-1.1441757678985596,0.05955658480525017,,,,,,,,,
1739305057.036333,-0.04949664386546495,1.102998676265753,-0.4844500881505989,-1.420138461438527,1.6253368002302404,1.0712361707975602,1.3568052198355964,0.0006791904495694697,0.0015319458333091327,-0.001219747347632336,0.0010223789670066603,-0.00012792131152308036,-0.00043130823842315474,-0.0024633516875561677,-0.1793939769268036,-51.05923843383789,-9.467362403869629,17.13324737548828,1.8922830820083618,-1.1377670764923096,0.11998139321804047,,,,,,,,,
1739305057.0464065,-0.04949909500626797,1.1029916885526785,-0.484450796771449,-1.4201366324120486,1.6253337543403585,1.0712381554246113,1.3568149340678943,6.336822306348349e-05,-0.0015865063971301427,-0.00035325586904823313,0.0008152488062114469,-0.0026359244659912603,0.00048000894632425857,0.001178501931558888,-0.1555902659893036,-50.93228530883789,-9.467362403869629,17.13324737548828,1.9051004648208618,-1.1505844593048096,0.04673920199275017,,,,,,,,,
1739305057.0573564,-0.04950212231717835,1.1029936776995524,-0.4844451506674943,-1.4201380774227113,1.6253373597868022,1.0712381688417114,1.3568140238029605,-0.0017132484287464534,-0.0006426462372765569,0.001124367444654455,0.0011930066702350024,0.00039177960072753876,0.0005012518159015097,0.0017336727717550012,-0.1317865550518036,-50.96005630493164,-9.542740821838379,17.15705108642578,1.8785501718521118,-1.1505844593048096,0.05314789339900017,,,,,,,,,
1739305057.0683932,-0.04949916780601673,1.1029971115712829,-0.4844510328504348,-1.4201384248919915,1.6253350967941333,1.0712390347390197,1.3568165576422642,-0.00037283152573713136,0.000663821984431801,-0.0014557628501294046,-0.0002528060238753122,0.0003332682657745273,0.00011760982820695616,0.0018439400073921928,-0.1793939769268036,-51.00766372680664,-9.467362403869629,17.15705108642578,1.8986917734146118,-1.1579086780548096,0.03300629183650017,,,,,,,,,
1739305057.080316,-0.049500969863556885,1.1029953843172546,-0.4844507970007961,-1.4201356766235054,1.6253349771191639,1.0712390332491306,1.3568149384464656,-0.0008284271905480485,0.0003802245398371337,-0.00095786783914348,0.000558208205039761,-0.0011370814052746952,0.0007291670864345275,0.0019528146896777088,-0.1555902659893036,-50.98386001586914,-9.467362403869629,17.13324737548828,1.8986917734146118,-1.1579086780548096,0.04673920199275017,,,,,,,,,
1739305057.0913126,-0.04949952064727086,1.1029936951380346,-0.48444901410643193,-1.4201404645828848,1.625334609929571,1.0712390347390113,1.3568102837639089,-0.000442432185262612,0.0008875982799107905,-0.0005324076776095337,-0.0005895264131883022,0.0003823052325334752,8.453424495278638e-05,0.00046495652133385877,-0.1793939769268036,-50.96005630493164,-9.491166114807129,17.15705108642578,1.8858743906021118,-1.1579086780548096,0.08610688149929047,,,,,,,,,
1739305057.101388,-0.049500173682013496,1.1029936865299188,-0.48444869915843114,-1.420140251763755,1.625335434243439,1.071234112567458,1.3568060326139533,0.00013636598092436653,0.0007306616631819745,-0.00012594975920597465,0.00032059535147274155,4.9997387793675944e-05,-0.000692531870941712,-0.0014161287287997597,-0.1555902659893036,-50.96005630493164,-9.491166114807129,17.15705108642578,1.8858743906021118,-1.1441757678985596,0.08610688149929047,,,,,,,,,
1739305057.1114004,-0.04950217848678552,1.1029978003361167,-0.48444830546809803,-1.4201398526867293,1.6253352609032494,1.0712361707417315,1.3568078635516725,-0.0014390018501093695,0.0007718429424166725,0.0006785045982869688,0.0007977210139846221,0.00033718979330805477,-0.0011861369181335392,-0.0006959550719596647,-0.10798283666372299,-51.00766372680664,-9.491166114807129,17.15705108642578,1.8922830820083618,-1.1377670764923096,0.10624848306179047,,,,,,,,,
1739305057.122397,-0.04949804979103464,1.1029960878192737,-0.48444901457046013,-1.4201397409464056,1.6253349785155282,1.0712374111789835,1.3568094168974203,0.0005748437286293314,0.0003262265963963401,-4.406672051684094e-05,0.0005184289414172728,0.0008817605152727599,-8.919539474401691e-05,-0.00022402876770474432,-0.1555902659893036,-50.98386001586914,-9.491166114807129,17.15705108642578,1.8986917734146118,-1.1441757678985596,0.09343110024929047,,,,,,,,,
1739305057.1333218,-0.049496329480752804,1.1029957528281107,-0.484448978968202,-1.4201374321629028,1.6253320547617014,1.0712389766333485,1.3568149362930741,0.0010876445113785203,-0.00016373937593131184,0.0005822729608938471,0.00038560617682954,-0.001624119608732614,-0.0010561377684812922,0.002716504140634371,-0.1793939769268036,-50.96005630493164,-9.491166114807129,17.15705108642578,1.9115091562271118,-1.1579086780548096,0.04673920199275017,,,,,,,,,
1739305057.1433258,-0.04949875048909498,1.102995399190573,-0.4844514549528322,-1.420139374427607,1.6253373998025038,1.0712390347380356,1.3568134231262972,-0.00021882897893113024,-0.00046320222691001954,-0.0016498917367664147,-0.0002942720567490124,1.1510805701077527e-05,0.0006096728750981974,0.00042196594833594553,-0.1555902659893036,-50.98386001586914,-9.491166114807129,17.18085479736328,1.9051004648208618,-1.1579086780548096,0.05955658480525017,,,,,,,,,
1739305057.15434,-0.04949677427712106,1.1029954755800244,-0.4844470284178535,-1.420140213376514,1.625334221127309,1.0712373575457048,1.3568116043741352,0.0004346256799430783,0.00103095828262108,0.0002614951663110985,0.0006401758082032784,0.00015026244172187657,-0.0004235028190266683,0.0003694118974782245,-0.2071649730205536,-50.98386001586914,-9.514969825744629,17.15705108642578,1.9051004648208618,-1.1441757678985596,0.06596527993679047,,,,,,,,,
1739305057.1643925,-0.049499871355682463,1.1029981550549774,-0.4844518379446017,-1.4201376040115476,1.6253349960146508,1.071237409691517,1.3568078632946734,-0.0010160363106295192,0.0012499347113415927,-0.000574807976644315,0.0017901274211260618,0.0005850365113062818,-0.00027567068669159404,-0.0017436310857843152,-0.1317865550518036,-50.98386001586914,-9.491166114807129,17.15705108642578,1.8986917734146118,-1.1441757678985596,0.10624848306179047,,,,,,,,,
1739305057.174459,-0.04950259182686075,1.1029953990972745,-0.4844490141542526,-1.4201392158118464,1.6253360894451303,1.0712390347389944,1.3568113286176298,-0.0019554161089246425,-0.0008869570805926524,-0.00026082024346086793,0.0010750585371102927,-6.379657344097298e-05,0.0006900412377219812,0.0001832874318094952,-0.1317865550518036,-50.98386001586914,-9.491166114807129,17.18085479736328,1.8922830820083618,-1.1579086780548096,0.07328949868679047,,,,,,,,,
1739305057.1853585,-0.04950017331957248,1.1029936868084675,-0.4844451519635769,-1.4201391654788633,1.6253333144952926,1.071239028282834,1.3568080054976956,-0.00038104627449363183,-0.0015075600617264393,0.0008686364181674474,-0.0006061277132475101,-0.0008710185396933645,0.0004672121142739185,-0.0020406604895020315,-0.1555902659893036,-50.96005630493164,-9.542740821838379,17.18085479736328,1.8858743906021118,-1.1579086780548096,0.09343110024929047,,,,,,,,,
1739305057.1953804,-0.04949804117248079,1.102998029924383,-0.48444723142941715,-1.4201401014562651,1.6253371495136377,1.0712381688416779,1.356812454089394,0.000356055595365628,0.0008911543645435546,4.5499491411047765e-05,0.00014033866459783602,0.000216313564245242,-8.168360070242881e-05,-0.0003388921040946172,-0.1555902659893036,-51.00766372680664,-9.514969825744629,17.18085479736328,1.8922830820083618,-1.1505844593048096,0.07969819009304047,,,,,,,,,
1739305057.2063587,-0.04949846856839846,1.1029946814175202,-0.4844443968974157,-1.4201398545756958,1.625333167580535,1.071233837407409,1.356814700945552,0.0004758853499280348,-0.00017496703660425461,0.0005354916793625542,-0.00020829372887451832,-0.0013255797981497322,-0.0008198229857155508,0.0016307134195855774,-0.1793939769268036,-50.96005630493164,-9.514969825744629,17.18085479736328,1.9051004648208618,-1.1505844593048096,0.03941498324275017,,,,,,,,,
1739305057.2174008,-0.04949714701457143,1.102995522244601,-0.4844475968244317,-1.4201376996794037,1.6253342209060224,1.0712374111572578,1.3568141801341607,-0.0004701078505286138,0.0004329835400616956,-0.0004286498287675327,0.0012837358420750159,-0.0009260507580719656,0.00034543119271177416,0.0025926008351222396,-0.1793939769268036,-50.98386001586914,-9.491166114807129,17.15705108642578,1.9051004648208618,-1.1441757678985596,0.05314789339900017,,,,,,,,,
1739305057.2283168,-0.049498122781432015,1.1029971117119997,-0.48444726738769495,-1.4201398885489378,1.6253349785720466,1.0712362378425988,1.3568089224169009,0.00021777078623303912,0.0006409917945979861,0.00026928497353979306,-0.0002443503696698047,-0.00013906578445608203,-0.0008703143581836867,0.0012086452655822898,-0.1555902659893036,-51.00766372680664,-9.514969825744629,17.18085479736328,1.8986917734146118,-1.1377670764923096,0.07969819009304047,,,,,,,,,
1739305057.2384176,-0.04949703926732822,1.102991918177281,-0.4844465227970216,-1.4201381503613566,1.6253349785720466,1.0712370491316416,1.3568074972931188,0.0005200953330431404,-0.0009466108029189333,0.0005676033501815414,0.001071342000700383,-0.0006529154859824357,-0.0004120510183073441,-0.0015016584296545547,-0.1793939769268036,-50.93228530883789,-9.514969825744629,17.15705108642578,1.8986917734146118,-1.1441757678985596,0.10624848306179047,,,,,,,,,
1739305057.2494059,-0.049499245183865795,1.1029971128323723,-0.4844452303725557,-1.4201420876276492,1.6253381176110198,1.071237290498656,1.356812664009974,-0.0011247693814128135,-4.0037011029327824e-05,0.00047411610709989884,-0.00028622987155919617,0.00019667594367729396,0.0003787749442590792,-8.808510592086455e-05,-0.1793939769268036,-51.00766372680664,-9.542740821838379,17.18085479736328,1.8721414804458618,-1.1441757678985596,0.06596527993679047,,,,,,,,,
1739305057.2603505,-0.04949656410699571,1.1029954075538775,-0.4844468881718759,-1.4201413248668062,1.6253349921385167,1.071236653300225,1.3568139988728032,0.0004260765196936521,-0.00044754582640861774,0.0010103476943399356,-0.0011290686359558847,-0.0002809247452078542,-0.00038495975167218027,0.0034911427319561125,-0.2071649730205536,-50.98386001586914,-9.491166114807129,17.20862579345703,1.8986917734146118,-1.1377670764923096,0.03941498324275017,,,,,,,,,
1739305057.2713122,-0.049498053717627485,1.102995411333245,-0.48444901795867473,-1.4201395072759528,1.6253348891849113,1.0712381688417836,1.3568126654352388,5.050514720580258e-05,-0.00017308614459322805,-0.0007603274305568411,0.0005838105691683055,-0.0007931188172653515,-0.0002797268188565906,0.0010200229500108289,-0.1555902659893036,-50.98386001586914,-9.491166114807129,17.15705108642578,1.9115091562271118,-1.1505844593048096,0.06596527993679047,,,,,,,,,
1739305057.2813325,-0.049494356843052055,1.1029936865299397,-0.4844490141064524,-1.420140217636259,1.6253381574944843,1.071237411181709,1.3568081504949785,0.0016386061600115395,-0.00030179316313664516,-0.00010203587911081029,0.0004412162709274581,-0.00015720504123580006,0.0003486003291847755,-0.0003132312016135905,-0.2071649730205536,-50.96005630493164,-9.491166114807129,17.15705108642578,1.8986917734146118,-1.1441757678985596,0.09983979165554047,,,,,,,,,
1739305057.2913842,-0.04950016941120606,1.1029953989415853,-0.48445044012098426,-1.4201387794870073,1.6253357362859606,1.0712381688417874,1.356812361541497,-0.00013022580321888765,-0.00020303629719737134,-0.00027793375944678113,0.000371583580037258,0.0001658313352065289,0.00015211343951526245,-0.000664592113572841,-0.1555902659893036,-50.98386001586914,-9.491166114807129,17.13324737548828,1.8922830820083618,-1.1505844593048096,0.05955658480525017,,,,,,,,,
1739305057.3013852,-0.049498032295285474,1.1029953990505996,-0.4844472314535613,-1.4201391718193705,1.6253357318714754,1.0712354129719723,1.3568071388927567,-1.934078805996646e-05,-0.00040138302185075374,0.0008311551158150649,-0.00018930706349807778,0.00023006313115493427,-0.0010159558954272259,-0.001782087858531823,-0.1555902659893036,-50.98386001586914,-9.514969825744629,17.18085479736328,1.8922830820083618,-1.1313583850860596,0.11265717446804047,,,,,,,,,
1739305057.3123202,-0.0494999899997798,1.1029952959212115,-0.48444515898402263,-1.4201440856873448,1.6253366915750123,1.0712388738282814,1.3568101266189403,-0.0005887730319367305,-0.00034399021566435645,0.00010764791644038343,-0.0007942863327917416,-9.283700093075782e-05,0.0005780682177732109,-0.0011880229547147428,-0.1317865550518036,-50.98386001586914,-9.542740821838379,17.20862579345703,1.8858743906021118,-1.1579086780548096,0.08610688149929047,716,761,726,43.780,0,0
1739305057.3223953,-0.04949886478970059,1.1029974657631219,-0.484447231429536,-1.4201392542299296,1.6253348215919678,1.0712356154410345,1.3568134216701138,-6.004378094656346e-05,0.000739607168286776,-0.00010277660897103685,0.001131242112816221,-0.0018258079546366961,-0.0003343080004538717,0.0030095950156253967,-0.1555902659893036,-50.98386001586914,-9.514969825744629,17.18085479736328,1.8986917734146118,-1.1579086780548096,0.05955658480525017,719,761,728,43.563,0,0
1739305057.3334086,-0.04950006998692272,1.1029973411712608,-0.48444833949559213,-1.4201399341527892,1.6253343386486523,1.07123867267669,1.3568126652504657,-0.0013973025456775505,0.0004779031210435435,-0.0008949207999913178,0.0003201294016801234,-0.00027563493895930237,-0.00022141959943920584,0.0002290940373756835,-0.1317865550518036,-51.00766372680664,-9.491166114807129,17.18085479736328,1.9051004648208618,-1.1579086780548096,0.06596527993679047,716,761,728,43.563,0,0
1739305057.3443098,-0.04949632829264773,1.102997161611096,-0.48444515163574786,-1.4201423536273505,1.625333424006698,1.0712378067967159,1.3568060064500505,0.0007391793474146509,-0.0012439145956980881,0.0008024032547192979,-0.001283218946717397,-0.0008830955333375354,0.0011007127763095277,-0.002813350141374103,-0.1793939769268036,-51.00766372680664,-9.542740821838379,17.18085479736328,1.9115091562271118,-1.1505844593048096,0.08610688149929047,715,761,729,43.563,1,0
1739305057.3544612,-0.049498119965348975,1.1029954248761917,-0.4844461912391754,-1.4201384430647486,1.6253360889596535,1.0712374111755776,1.3568091843398655,0.0007830281181812346,-0.0009328165862284793,0.0006097696663276398,0.0009196808154224473,-0.0009715288596278773,0.00014869258331127896,0.0005045042224997997,-0.1555902659893036,-50.98386001586914,-9.491166114807129,17.13324737548828,1.8922830820083618,-1.1441757678985596,0.05955658480525017,717,761,727,43.563,0,0
1739305057.3653226,-0.04949899086926045,1.1029963301062067,-0.4844490140904955,-1.4201404914165034,1.625334181668103,1.0712381688417874,1.3568079029532734,-0.00022761717911815428,0.0001274613691607513,-1.8360060082935033e-05,-9.612037638721508e-05,-0.0021814894635051965,0.0008417052960520536,0.0009400050243689532,-0.1555902659893036,-50.98386001586914,-9.491166114807129,17.15705108642578,1.9051004648208618,-1.1505844593048096,0.10624848306179047,716,761,727,43.780,0,0
1739305057.3753383,-0.049494356967199095,1.1029954334993592,-0.484449014430451,-1.4201462161428744,1.6253347283125068,1.0712348970455385,1.3568125477282436,0.001617562287299854,-0.001489469687618543,0.00017851647696411115,-0.001775984817182751,0.0010036908493022984,-0.0014249418977559732,-0.000761660147558286,-0.2071649730205536,-50.98386001586914,-9.491166114807129,17.23242950439453,1.8858743906021118,-1.1505844593048096,0.06596527993679047,717,762,727,43.672,1,0
1739305057.3853877,-0.049498067305011766,1.1029971239593943,-0.48444909673168296,-1.4201402079101357,1.6253349838718307,1.0712374111263008,1.3568084906237423,0.0010291284892799055,0.0005197465579096344,-0.000623016965718817,7.654365384330994e-05,-3.67912085154607e-05,0.0005248664553184441,0.0003049151262326749,-0.1555902659893036,-51.00766372680664,-9.491166114807129,17.18085479736328,1.8986917734146118,-1.1441757678985596,0.09983979165554047,716,761,727,43.563,0,0
1739305057.3963473,-0.04949762279149572,1.10299368653008,-0.48445292268384604,-1.4201422876636522,1.6253350236321942,1.0712341527944602,1.3568112002842867,0.0008118284937406587,-0.0006432343199966325,-0.0012043246251443587,-0.000499221998654779,0.0005842237708378598,-0.0012005892412641427,0.0002007191390212649,-0.1317865550518036,-50.96005630493164,-9.467362403869629,17.20862579345703,1.8986917734146118,-1.1441757678985596,0.06596527993679047,718,761,726,43.563,0,0
1739305057.4083228,-0.04949804106027216,1.102993687474678,-0.48445114000942796,-1.4201423507177577,1.6253360894449198,1.0712333951282516,1.3568089226294882,0.0008640210409153404,-8.717961930873163e-06,-0.0006939590797646613,-0.0017688461787123294,-1.987491345541597e-05,-0.0004676658299866751,-0.0007593571350739235,-0.1555902659893036,-50.96005630493164,-9.491166114807129,17.18085479736328,1.8922830820083618,-1.1377670764923096,0.07969819009304047,718,757,726,43.563,1,0
1739305057.4183803,-0.04949433056665315,1.102990973648221,-0.4844511371012433,-1.4201422738774223,1.6253342165533118,1.0712381688233936,1.3568126656691921,0.001657728005779895,-0.0028389316245251072,-0.0002634590988517047,-0.0002214367829581989,0.00023043294612373657,0.000664918278339442,0.0007506129764661416,-0.2071649730205536,-50.93228530883789,-9.491166114807129,17.18085479736328,1.9051004648208618,-1.1505844593048096,0.06596527993679047,719,760,726,43.563,0,0
1739305057.4293678,-0.04949780815813194,1.1029954330515697,-0.4844472315733716,-1.4201405709989772,1.6253350963095428,1.071238168841787,1.356809224125783,0.00015793310847494592,-0.0005084025185170744,0.00022317836301729278,0.000397020523840781,-0.00031785676529022273,0.0003919167045453762,-0.0012530153559186922,-0.1555902659893036,-50.98386001586914,-9.514969825744629,17.15705108642578,1.8986917734146118,-1.1505844593048096,0.08610688149929047,718,760,726,43.672,0,0
1739305057.4403079,-0.049498120180304125,1.1029956409215542,-0.48444515196357746,-1.4201446371822701,1.62533422139715,1.071237411181709,1.3568134226358324,-0.0006195201892576143,0.0005505878405791835,0.00041687265786050125,-0.0011687201472044266,-0.0003470609532295172,0.00029360107040097216,0.0001539897881297257,-0.1555902659893036,-50.98386001586914,-9.542740821838379,17.20862579345703,1.9051004648208618,-1.1441757678985596,0.05955658480525017,716,759,726,43.563,1,0
1739305057.4504318,-0.04949975365754826,1.102994673657695,-0.4844472537868332,-1.4201387883244594,1.6253365091604586,1.0712381553776051,1.3568133829279048,0.0005891177400228597,-0.0002714039953150186,0.0007482154584384697,0.0009949240844279136,0.0006491707611546723,0.0012312334334091061,0.003330622381435816,-0.1317865550518036,-50.93228530883789,-9.514969825744629,17.13324737548828,1.8986917734146118,-1.1505844593048096,0.03300629183650017,716,759,725,43.455,1,0
1739305057.4613845,-0.04949632850750786,1.1029942822294836,-0.48444722268123475,-1.4201384251241003,1.6253357362580458,1.0712374110159375,1.3568102652984346,0.0005717769594297974,-0.00017617708257406468,0.0017976672002357466,0.00019306316733309767,-0.0015105588152477258,0.0005067301525381984,0.0006323766104832938,-0.1793939769268036,-50.98386001586914,-9.514969825744629,17.15705108642578,1.8922830820083618,-1.1441757678985596,0.08610688149929047,718,760,718,43.346,0,0
1739305057.4733777,-0.049498351229039915,1.1029939165359446,-0.4844490141064142,-1.4201401019422848,1.6253381444044828,1.0712380078785937,1.3568138232130156,0.0006190770442073468,-0.0006693428204801876,0.0004246353949696153,0.0011436105165937751,4.5496710154996846e-05,-0.0007708630613324997,0.0009377798330549158,-0.1793939769268036,-50.96005630493164,-9.491166114807129,17.18085479736328,1.8986917734146118,-1.1505844593048096,0.05314789339900017,718,759,726,43.563,1,0
1739305057.4843702,-0.049496343095644796,1.1029919308801255,-0.4844500658534008,-1.4201462161399852,1.6253357362380823,1.0712381509628164,1.3568101648128605,0.0010311687048121664,-0.0018085245944496349,-0.00020675417381221301,-0.0015012142294777093,0.0005416314827541765,-0.00038726476560853356,1.0540622240240742e-05,-0.1793939769268036,-50.93228530883789,-9.514969825744629,17.23242950439453,1.8922830820083618,-1.1505844593048096,0.11998139321804047,716,760,728,43.455,1,0
1739305057.49439,-0.04949804102848426,1.1029917255455979,-0.4844490141544319,-1.4201397607054267,1.6253364938922035,1.0712372905003968,1.356812192481761,0.0008615049372597079,-0.0008272361634782323,-0.0001789836844885612,0.0005959874702318205,0.0010386495000419104,0.00024287066302759898,0.001039730992147699,-0.1555902659893036,-50.93228530883789,-9.491166114807129,17.10944366455078,1.8858743906021118,-1.1441757678985596,0.06596527993679047,716,761,727,43.563,0,0
1739305057.5053465,-0.049499757441757664,1.1029981102332378,-0.4844472050757384,-1.4201404912159723,1.6253396732911083,1.0712364866533812,1.356811036091633,-0.0008847856683124516,0.001559027810345978,0.0002249776333619844,-0.0006812535035845168,0.0016908385483630434,-0.0011758386239486588,-0.000286117993192869,-0.1317865550518036,-51.00766372680664,-9.514969825744629,17.15705108642578,1.8858743906021118,-1.1377670764923096,0.07969819009304047,716,759,726,43.563,1,0
1739305057.5164075,-0.04949804102830314,1.10299371583582,-0.48444900535742885,-1.4201423535669802,1.6253365201099512,1.0712366470626191,1.3568109626260687,-0.00020918251106009944,-0.0007015565444365776,-0.0002863417580848904,-0.000692907637982595,0.0015561589855385789,-0.0009432207949649545,0.0015032663907437727,-0.1555902659893036,-50.96005630493164,-9.491166114807129,17.18085479736328,1.8858743906021118,-1.1377670764923096,0.05314789339900017,716,758,728,43.672,0,0
1739305057.527396,-0.04949875005604166,1.103000206807939,-0.48444723142939516,-1.4201415654672125,1.625334822234692,1.0712381688233814,1.356813423120278,-0.0009945206853867834,0.0010750046582688488,-6.153318401550071e-05,0.0001454975610667283,0.00018427572664566375,-0.00048305830296537064,0.001030122394628432,-0.1555902659893036,-51.00766372680664,-9.514969825744629,17.20862579345703,1.8986917734146118,-1.1505844593048096,0.05955658480525017,717,759,727,43.563,0,0
1739305057.5383453,-0.04949632851150851,1.1029954019024972,-0.48444912816167335,-1.4201444198101547,1.625333918933035,1.0712381688417871,1.3568126654658148,0.0001285738629923475,-0.0009735438001322182,-0.0005378293640135019,-0.0007082631271361365,3.486936805646978e-05,9.827372934454556e-05,0.0023566232453533574,-0.1793939769268036,-50.98386001586914,-9.491166114807129,17.18085479736328,1.8986917734146118,-1.1505844593048096,0.06596527993679047,716,759,728,43.563,1,0
1739305057.5493834,-0.04949976533546922,1.102995488282452,-0.4844469952190558,-1.4201421153054248,1.625334103168417,1.071237411181709,1.3568094183511934,-0.0011233192247351973,-0.0014419860891907786,0.0005306082363562334,-0.0004199203352783067,0.0001255506745844632,-0.0007141160102983241,0.001772341650354772,-0.1317865550518036,-50.98386001586914,-9.514969825744629,17.18085479736328,1.9051004648208618,-1.1441757678985596,0.09343110024929047,716,758,727,43.672,1,0
1739305057.5613346,-0.04949474642851216,1.1029975624385762,-0.48444728142546656,-1.420140570998983,1.6253357362314604,1.071235776351772,1.356811041908504,0.0011809025948595845,0.0002376625341517365,0.0002605714031497443,-0.00034496092154161456,0.00024538141969758894,0.0010841108256161589,0.001076520014477092,-0.2309686839580536,-50.98386001586914,-9.542740821838379,17.15705108642578,1.8922830820083618,-1.1579086780548096,0.07969819009304047,717,759,728,43.563,1,0
1739305057.572357,-0.04949443610849985,1.1029981569482317,-0.48444746764441887,-1.4201423536773476,1.6253376887045103,1.0712347956551644,1.3568045533514124,0.0010285795981497823,-0.00027634664365724855,-3.407686476316295e-05,-0.000615084860059078,-0.000378499871525733,-0.0008634844772935542,-0.0019530958284590364,-0.2071649730205536,-50.98386001586914,-9.514969825744629,17.18085479736328,1.9115091562271118,-1.1313583850860596,0.10624848306179047,717,758,726,43.672,1,0
1739305057.583308,-0.04949916635146695,1.1029939170785077,-0.48444625159252425,-1.4201387883233094,1.625335736255978,1.0712344272276626,1.356813421653874,-0.0006527768359254649,-0.0010349499949181302,0.001242792393156261,0.0009170143809115883,-0.0004895818404650168,-0.0009197592483785458,0.0010727710395067192,-0.1793939769268036,-50.96005630493164,-9.514969825744629,17.13324737548828,1.8922830820083618,-1.1505844593048096,0.05955658480525017,719,758,726,43.780,1,0
1739305057.5933657,-0.04950046024300317,1.1029994084026584,-0.4844444429899635,-1.420140570019182,1.625333111492731,1.0712381686128793,1.3568109960577976,-0.0010783498778534435,0.00069390729444004,0.0015921368111974014,0.000658635985780211,-0.0014070137546929827,0.0008757122741415073,0.0002648022093580725,-0.1317865550518036,-51.00766372680664,-9.542740821838379,17.15705108642578,1.9115091562271118,-1.1505844593048096,0.05314789339900017,716,759,722,43.672,1,0
1739305057.6034076,-0.04949643656831156,1.1029978002384924,-0.484447126410742,-1.4201401990797682,1.6253364938743322,1.071237250273685,1.3568062657454558,-0.00010571119794201996,0.0016486774084431405,0.0002869234083730183,-5.373858601620849e-06,0.0001783650970638822,-0.0005662676563040287,-0.00038851172966533165,-0.1793939769268036,-50.98386001586914,-9.514969825744629,17.18085479736328,1.8858743906021118,-1.1441757678985596,0.11998139321804047,716,759,726,43.672,1,0
1739305057.6143098,-0.04950001636050542,1.1029937634254021,-0.4844461911909748,-1.4201403694251937,1.6253349785720466,1.0712381688414845,1.3568129516915113,-0.001182890555328798,-0.0007483649682873161,-0.00022766224074723378,-0.00020200823624029989,0.0013010330125163376,-8.036252968771762e-05,-0.0006294492336405668,-0.1317865550518036,-50.96005630493164,-9.491166114807129,17.15705108642578,1.8986917734146118,-1.1505844593048096,0.05955658480525017,718,758,727,43.455,0,0
1739305057.6243274,-0.049496564998903855,1.1029937743982847,-0.484447467592605,-1.4201405709969148,1.6253358539696952,1.071239792399098,1.356806005957551,0.0005362678722792078,0.0005729645933851957,-0.0003035535204828315,0.0006535742961977329,0.00034532449672080494,0.0021681159956344364,3.141758752245815e-05,-0.1793939769268036,-50.96005630493164,-9.514969825744629,17.15705108642578,1.8922830820083618,-1.1643173694610596,0.08610688149929047,716,757,726,43.563,1,0
1739305057.6343596,-0.04949656499845812,1.1029971488402341,-0.4844451506714938,-1.4201423536773476,1.625334203309854,1.0712366132946276,1.3568066685878772,0.0007218118023686038,-0.00043511866441029346,0.0007689720614047109,-0.0006509816309392797,-0.00042662592418107946,-0.0011240654694983508,-0.0024211591962184946,-0.1793939769268036,-51.00766372680664,-9.542740821838379,17.18085479736328,1.9051004648208618,-1.1377670764923096,0.07969819009304047,717,757,727,43.672,0,0
1739305057.6453152,-0.04949804599914947,1.1029957616426378,-0.4844471565086486,-1.4201423448470298,1.625335722988568,1.071234146834678,1.3568080286158424,0.0001287855004952079,-0.0014705715157808542,0.00023967456709143625,-0.0003365628033607234,-0.0008244122856210085,-0.0005599973228649026,-0.0013621209555053364,-0.1555902659893036,-50.96005630493164,-9.514969825744629,17.18085479736328,1.8922830820083618,-1.1441757678985596,0.06596527993679047,718,760,727,43.563,1,0
1739305057.6553185,-0.0494980410283214,1.102996674991641,-0.48444722753989594,-1.4201387883231598,1.6253349785718223,1.0712381489213185,1.3568024853269722,-0.0006378171879622382,-0.000663790103537816,-0.0006988236592269765,0.001691141253433919,-0.0006619712931104048,-0.0010038902329129597,-0.0016353508670020834,-0.1555902659893036,-50.96005630493164,-9.514969825744629,17.13324737548828,1.8986917734146118,-1.1505844593048096,0.14012299478054047,717,758,727,43.672,1,0
1739305057.665341,-0.04949633250842832,1.10299376699411,-0.4844511400053618,-1.4201423536773476,1.6253364938922032,1.0712365326747408,1.3568117995446543,0.00030443204580279536,-0.0010986975304243906,-0.0017355049715616737,-0.0011012839905905649,0.0002514272384975189,8.924221760997806e-05,0.0003873125267568762,-0.1793939769268036,-50.96005630493164,-9.491166114807129,17.18085479736328,1.8858743906021118,-1.1377670764923096,0.07328949868679047,717,758,727,43.563,1,0
1739305057.6753826,-0.04950241201809175,1.1030001343273352,-0.4844472317894345,-1.4201423536773476,1.6253373597894358,1.0712374111796623,1.3568141807864114,-0.00189729526313537,0.0007868420749642623,0.00043935235530923625,-9.195783472194764e-06,0.0006770853561113733,0.0012414323482061646,0.0023086274885454885,-0.10798283666372299,-51.00766372680664,-9.514969825744629,17.18085479736328,1.8785501718521118,-1.1441757678985596,0.05314789339900017,717,758,727,43.563,0,0
1739305057.686337,-0.0495004630151496,1.1029936865469339,-0.4844451516395581,-1.4201398557445912,1.6253349765801446,1.0712381688417874,1.356809480252709,-0.000546774277469792,-0.0014113935835984494,0.0010532171307378836,0.00020476756863604866,-0.0005784572958842506,0.0006097089009287272,4.1828266647912565e-05,-0.1317865550518036,-50.96005630493164,-9.542740821838379,17.15705108642578,1.8986917734146118,-1.1505844593048096,0.06596527993679047,717,758,727,43.563,1,0
1739305057.6973753,-0.04949704716366023,1.102996095824396,-0.4844472309973842,-1.4201423507298707,1.6253364938921921,1.0712341342536202,1.3568110353764649,-0.0004260569343478482,0.0007168596352738026,1.3552299781228157e-05,-5.195333955678087e-05,2.565935928036824e-05,-0.0011519382366334983,0.0003930686315733659,-0.1793939769268036,-50.96005630493164,-9.514969825744629,17.18085479736328,1.8858743906021118,-1.1441757678985596,0.07969819009304047,717,758,726,43.563,1,0
1739305057.7083085,-0.04949804104040772,1.1029918024266527,-0.48444935732840133,-1.4201423507338584,1.625334377895395,1.071234524789515,1.3568069468969501,-6.675260873222473e-05,-0.0018892837461310192,0.00026595682926809964,-0.000825222307859649,-0.0009687152693997167,-0.0011334796350845118,-0.0014691989989159449,-0.1555902659893036,-50.93228530883789,-9.514969825744629,17.18085479736328,1.9051004648208618,-1.1579086780548096,0.08610688149929047,717,760,732,43.672,1,0
1739305057.7183454,-0.049499750770147156,1.102994451964689,-0.4844483840784232,-1.4201384252331,1.625334978357592,1.0712365994665796,1.356811681812173,-0.0007099367785199109,-0.0002621229252999652,-0.0007464732626887854,0.00034755282608276713,0.0006049923021108846,-0.0007264493513661256,0.0009073270080942552,-0.1317865550518036,-50.96005630493164,-9.491166114807129,17.15705108642578,1.8986917734146118,-1.1505844593048096,0.07328949868679047,718,758,726,43.563,1,0
1739305057.7293158,-0.04949348767715515,1.102991766172545,-0.4844472314258551,-1.4201387882748577,1.6253341438738043,1.0712325837669394,1.3568141803012301,0.000887148278929493,-0.0019658598527234903,-0.000579371546151788,0.0007797954421110158,-0.00015843960804163768,-0.001185024344834482,0.00022840258867636986,-0.1793939769268036,-50.93228530883789,-9.514969825744629,17.13324737548828,1.9051004648208618,-1.1441757678985596,0.05314789339900017,715,759,726,43.563,0,0
1739305057.7393508,-0.049499756648630315,1.1029954765287713,-0.48444901410643054,-1.4201385499047277,1.625336089440921,1.0712374109364509,1.3568113935435222,-0.00036198371736368535,-0.0007285078234746493,-0.0005011642464988577,0.0015769970868174242,0.0007794724080509534,0.00046526661051855773,0.00045805190364505436,-0.1317865550518036,-50.98386001586914,-9.491166114807129,17.13324737548828,1.8922830820083618,-1.1441757678985596,0.07328949868679047,718,758,726,43.563,0,0
1739305057.7503808,-0.04949975322420828,1.102998460227857,-0.48444507257853564,-1.420138787340817,1.6253334632538838,1.071238168841786,1.356815450644204,-0.0004689863859989356,-0.000209491373876146,0.0014486527900091464,0.00030476441552483265,-0.0010509222469718058,0.0011198468366871868,0.001871994804490431,-0.1317865550518036,-50.98386001586914,-9.542740821838379,17.13324737548828,1.9115091562271118,-1.1505844593048096,0.03941498324275017,717,762,727,43.672,1,0
1739305057.761406,-0.04949633723019483,1.1029970939947744,-0.48444932613809627,-1.420144433358185,1.6253357362321252,1.0712374056281673,1.3568147314614698,-0.0002099754969788405,5.800707700314182e-06,-0.0010765441826369204,-0.001168111229619262,0.000364167225142509,-0.0004479335610385911,0.002562559557223674,-0.1793939769268036,-50.96005630493164,-9.491166114807129,17.20862579345703,1.8922830820083618,-1.1579086780548096,0.03941498324275017,721,758,726,43.563,1,0
1739305057.772304,-0.04949802890325482,1.1029936903283362,-0.4844472314311731,-1.4201441950486233,1.6253351355554733,1.0712374111725125,1.3568102261172637,-2.7654371140765124e-05,6.592610743562458e-05,0.00020589706351496816,-0.00033981937150688634,0.001059902200238504,0.0013288695204838941,0.00042337606453251046,-0.1555902659893036,-50.96005630493164,-9.514969825744629,17.20862579345703,1.8986917734146118,-1.1441757678985596,0.05955658480525017,716,758,725,43.563,1,0
1739305057.7823877,-0.04949632850730069,1.1029965563307123,-0.4844444430065571,-1.4201405709962909,1.625339684437652,1.0712372458040293,1.3568126654116732,-1.2765636914019982e-05,0.001330699039098209,0.001286937014298813,0.0008988002643774971,0.00128543789941909,-0.00104492719064473,0.0017923763308186598,-0.1793939769268036,-50.96005630493164,-9.542740821838379,17.15705108642578,1.8858743906021118,-1.1441757678985596,0.06596527993679047,716,758,726,43.672,1,0
1739305057.7933283,-0.0494980408838916,1.1029971885718606,-0.4844472332255257,-1.4201405356790575,1.6253342267441802,1.071233341103857,1.3568112511614252,-0.00011831357093396684,-0.00039717189776721494,-1.572177363289953e-05,6.455755171733498e-05,0.00045588554144130537,-0.0006830506854789515,-8.617372619928705e-05,-0.1555902659893036,-51.00766372680664,-9.514969825744629,17.15705108642578,1.9051004648208618,-1.1505844593048096,0.06596527993679047,717,758,727,43.563,0,0
1739305057.8034189,-0.049496329480700894,1.1029965530776145,-0.48444336993462916,-1.4201402049660983,1.6253349785721456,1.0712373568017737,1.3568071453470067,0.0009482538797702982,-9.858549254694682e-05,0.0018952730390940447,-0.00016318727733555038,0.00023564102868439777,0.0004322644910130655,-0.0018683062500027179,-0.1793939769268036,-50.96005630493164,-9.566544532775879,17.18085479736328,1.8986917734146118,-1.1441757678985596,0.11265717446804047,719,758,726,43.563,1,0
1739305057.813429,-0.049499753548984886,1.1029960197284423,-0.4844490137824266,-1.4201464455870785,1.6253327055918119,1.0712380461733386,1.3568158043437222,-0.0005195781399185832,-0.0008167295204909853,-0.00040810738072199175,-0.002356763971268712,-0.0005032265711893605,0.0007206117095178983,0.0027173055841502973,-0.1317865550518036,-50.96005630493164,-9.491166114807129,17.23242950439453,1.9179178476333618,-1.1505844593048096,0.03941498324275017,718,764,727,43.455,1,0
1739305057.8243644,-0.049498964339319995,1.1029955109973328,-0.4844489353694253,-1.4201383454370937,1.6253345744850782,1.0712379945226966,1.3568109881271448,-0.0009393217317174209,0.0004096207284387703,0.0005156288297261604,0.0011627386845584065,-0.00034564301422898694,-0.00012623383951826842,-0.0001971819327828511,-0.1317865550518036,-50.98386001586914,-9.491166114807129,17.15705108642578,1.8986917734146118,-1.1505844593048096,0.07969819009304047,718,758,727,43.563,1,0
1739305057.8354042,-0.04949632850305091,1.1029939285062418,-0.48444731016596704,-1.42014057084241,1.6253345568412998,1.0712390163627379,1.3568134215109742,-7.655932527707526e-06,-0.0004300778976558182,-0.000341361615370948,0.0009438841752486593,0.0007093150782953774,0.0004326611266005552,0.0009137312560243338,-0.1793939769268036,-50.96005630493164,-9.514969825744629,17.15705108642578,1.9051004648208618,-1.1579086780548096,0.05955658480525017,718,759,728,43.563,1,0
1739305057.8463054,-0.04950359445275947,1.1029975022978864,-0.4844511400055759,-1.4201387882142928,1.6253357468382905,1.0712330083941297,1.3568110824957587,-0.0018279052223478857,0.00035146878016396914,-0.0014916454933403083,0.0003228349956936557,-0.00039084993423227674,-0.001361663108306811,-0.001353411022438879,-0.10798283666372299,-50.98386001586914,-9.491166114807129,17.13324737548828,1.8922830820083618,-1.1441757678985596,0.06596527993679047,717,758,728,43.563,1,0
1739305057.8573308,-0.04949632949271812,1.1029998760904185,-0.4844492503654334,-1.4201404650365148,1.6253336130214604,1.0712349093458111,1.3568098909902997,0.0006304246432659792,0.0003380526683566615,-0.00025798740866728626,0.0013358531403664547,-0.00048747771286160215,-0.0001830240434361408,9.673041197374348e-05,-0.1793939769268036,-51.00766372680664,-9.491166114807129,17.15705108642578,1.9115091562271118,-1.1643173694610596,0.05955658480525017,717,759,728,43.563,1,0
1739305057.8673434,-0.0494980410282539,1.1029943757613863,-0.48445114919001175,-1.420140570998534,1.625336808954743,1.0712372361198277,1.3568085036478712,0.00041086813916624303,-0.0014716353538482667,-0.0008115247503540607,0.0004934486065318305,-9.159739679933589e-05,0.00037989588317106926,-0.002342725776775135,-0.1555902659893036,-50.96005630493164,-9.491166114807129,17.15705108642578,1.8922830820083618,-1.1441757678985596,0.09983979165554047,717,759,726,43.563,1,0
1739305057.8783486,-0.04949632948070334,1.102993793134474,-0.4844473101784641,-1.4201416380945615,1.6253345297331627,1.0712348563209175,1.356808374584602,0.0009793611906735492,-0.0015312834087583627,9.63480094845094e-05,0.0004893531652198778,0.00027444898959793544,0.0005677336423210261,-0.0013300939493433622,-0.1793939769268036,-50.93228530883789,-9.514969825744629,17.18085479736328,1.8785501718521118,-1.1505844593048096,0.06596527993679047,718,758,728,43.563,1,0
1739305057.889341,-0.04949632948070883,1.102998486728907,-0.48445077053822766,-1.4201423536733082,1.6253317330849368,1.071238168767907,1.3568066679362507,-0.00024828289488496025,0.0008720174561591104,-0.0006760383690733861,-4.0220356273020245e-05,-0.00030960045568444346,0.0019204626647303922,-0.0012052779671302724,-0.1793939769268036,-50.98386001586914,-9.467362403869629,17.18085479736328,1.8922830820083618,-1.1505844593048096,0.07969819009304047,719,757,731,43.455,1,0
1739305057.8994071,-0.04949975354901785,1.102999289824795,-0.48444901442911786,-1.4201388657975373,1.6253309240566298,1.0712367162000065,1.356813825413414,-0.0006331173957540616,0.0012799403805594121,-0.00023427651163631687,0.0012980933134162948,-0.0014791968293724886,0.00043737552501220894,0.0005605057661969814,-0.1317865550518036,-51.00766372680664,-9.491166114807129,17.13324737548828,1.9051004648208618,-1.1505844593048096,0.05314789339900017,718,758,730,43.780,1,0
1739305057.910372,-0.04949975354896841,1.1029967091253088,-0.48444901421443815,-1.420138788323455,1.6253366290601774,1.0712366668653965,1.3568116812919917,-0.0007691986888510713,-4.4605631848815643e-05,-0.0005667342476427059,0.0011504283629008257,-0.0013618916244331402,-0.0010858276998319046,5.4229887732917204e-05,-0.1317865550518036,-50.96005630493164,-9.491166114807129,17.13324737548828,1.9115091562271118,-1.1505844593048096,0.07328949868679047,717,759,728,43.672,1,0
1739305057.9213836,-0.04949631973850993,1.1029944008215238,-0.48444754637741183,-1.4201423536773476,1.6253359989821905,1.0712368882221903,1.356810284247758,0.0011043915059525931,-0.001546936752799337,-0.00048313614919300566,-0.0007436295901434325,0.00015699337750563316,-0.0004738464998296087,0.0003938324981761417,-0.1793939769268036,-50.96005630493164,-9.514969825744629,17.18085479736328,1.8986917734146118,-1.1441757678985596,0.08610688149929047,719,758,728,43.455,0,0
