IITGN-Robotics/Franka_IITGN_ROBOTICS/franka_ros/franka_iitgn/data01/s_f_001.csv
time,fr3_joint1_pos,fr3_joint2_pos,fr3_joint3_pos,fr3_joint4_pos,fr3_joint5_pos,fr3_joint6_pos,fr3_joint7_pos,fr3_joint1_vel,fr3_joint2_vel,fr3_joint3_vel,fr3_joint4_vel,fr3_joint5_vel,fr3_joint6_vel,fr3_joint7_vel,fr3_joint1_eff,fr3_joint2_eff,fr3_joint3_eff,fr3_joint4_eff,fr3_joint5_eff,fr3_joint6_eff,fr3_joint7_eff,flexpin1,flexpin2,flexpin3,Force,ContactMic,ContactMic_gt
1739302702.8313005,-0.12779566769152376,1.076610757960989,-0.37313719015015223,-1.409959924558572,1.5269037976546593,1.1410623977172087,1.3589764663158899,0.00042657400598007433,-0.0017393502445092546,0.0017470373205149374,0.0005395481458121708,0.00013202397201569004,0.0002806837939359014,0.0014408063932268768,-0.4571039378643036,-51.65036392211914,-6.876725196838379,18.31946563720703,2.0817971229553223,-0.8612778186798096,0.05955658480525017,,,,,,,,,
1739302702.8423193,-0.12779566769152378,1.0766144693712527,-0.37313961810616064,-1.4099627150974776,1.5269037976546591,1.1410664439823792,1.358975455147446,0.0007734639542528058,-0.0005542193567259427,-0.0005410755119349545,0.00020163421625406263,-0.0002061573339058053,0.000347832027275835,0.0015455702373989915,-0.4571039378643036,-51.70193862915039,-6.848954200744629,18.31946563720703,2.0817971229553223,-0.8686020374298096,0.05955658480525017,,,,,,,,,
1739302702.8523571,-0.1277922423266708,1.076616417476156,-0.3731414715097497,-1.4099627515561692,1.5269021740973483,1.1410632638298064,1.3589713980273728,0.0011427017495623572,0.0009412229472172593,-0.0011057158953224626,0.0005815746376206277,0.0006053244479596762,7.796548675018156e-05,0.0003218742191678473,-0.5047113299369812,-51.72574234008789,-6.848954200744629,18.31946563720703,2.0955300331115723,-0.8686020374298096,0.09343110024929047,,,,,,,,,
1739302702.8632689,-0.12779933908894336,1.0766162216851318,-0.3731421276939147,-1.4099645341247897,1.5269006590961651,1.1410632636144422,1.3589702359190394,-0.0002965374975408974,0.0006365984882950121,-0.0012832881577594186,0.0002277507963227445,-0.0005325629820518233,6.190107972736565e-05,-0.0015070613392288144,-0.4055292308330536,-51.72574234008789,-6.848954200744629,18.34326934814453,2.1083474159240723,-0.8686020374298096,0.10624848306179047,,,,,,,,,
1739302702.8733394,-0.1277976656317153,1.07661628396824,-0.37313926691625293,-1.4099604331262803,1.5269041932717151,1.141063263614441,1.358975402807608,-0.00015238288026684168,0.0017918963747864426,0.00045545463787485737,0.0006029927337702199,-0.0001486780841841146,-0.00010354559989369887,0.00047284107649297216,-0.4293329417705536,-51.72574234008789,-6.848954200744629,18.29169464111328,2.0753884315490723,-0.8686020374298096,0.05955658480525017,,,,,,,,,
1739302702.884345,-0.12779471843236626,1.0766159045442611,-0.3731394183916402,-1.4099645598472441,1.5269030399925367,1.1410616400571305,1.3589698828678352,0.0010595766205738228,0.0009117660585791648,0.0011949542323039014,-0.0009327737962947315,-0.00022080426730810334,-0.000879896926529453,-0.0003743265816272645,-0.4571039378643036,-51.74954605102539,-6.876725196838379,18.34326934814453,2.0882058143615723,-0.8548691272735596,0.10624848306179047,,,,,,,,,
1739302702.8953457,-0.1277951840760725,1.0766124795959682,-0.3731392931620693,-1.4099663184371973,1.526902178457999,1.141063263614441,1.3589709227155566,0.0008998790073322154,-0.0006425118433298884,4.1766116181578755e-05,-0.001567365218666758,0.0002646151609797982,-0.0005026261650570189,-0.0008950069258958468,-0.4293329417705536,-51.70193862915039,-6.848954200744629,18.36707305908203,2.0955300331115723,-0.8686020374298096,0.09343110024929047,,,,,,,,,
1739302702.9062662,-0.12779903535107048,1.0766167975863528,-0.3731423380429761,-1.4099606727467406,1.5269019266334307,1.1410623977172087,1.3589691119616156,6.658347924974801e-05,0.0018353810854165574,-0.0011031587515646848,8.020916745146267e-05,0.0007064842615585982,-0.0006489243543006388,-0.0005299283821479419,-0.4055292308330536,-51.70193862915039,-6.848954200744629,18.29169464111328,2.1019387245178223,-0.8612778186798096,0.11265717446804047,,,,,,,,,
1739302702.9163554,-0.12779566768958867,1.0766145090671972,-0.37313750639956206,-1.4099607482963574,1.526903797436815,1.1410623977172087,1.358968259148945,8.609601467673338e-05,-3.23099853257786e-05,-0.00048039117837977215,-5.083765548430982e-06,0.0013092859458978096,-0.0005377974784205235,-0.001402033284307576,-0.4571039378643036,-51.70193862915039,-6.876725196838379,18.29169464111328,2.0817971229553223,-0.8612778186798096,0.11998139321804047,,,,,,,,,
1739302702.9273026,-0.12779566769152376,1.0766145459013614,-0.3731395491933534,-1.4099606364469564,1.52690303552491,1.141063263614441,1.358971295676824,0.0004995232231085285,-3.424336110858256e-05,0.0001595108548594074,0.0006071904634799947,0.0007618592520331173,-8.519567807361151e-05,-0.00041842519974096524,-0.4571039378643036,-51.70193862915039,-6.876725196838379,18.29169464111328,2.0882058143615723,-0.8686020374298096,0.06596527993679047,,,,,,,,,
1739302702.9373834,-0.127797626568214,1.0766108354404011,-0.37314317850801526,-1.4099585259991214,1.5269045553146616,1.1410640212745196,1.3589714674620408,0.00010351117848842768,-0.0011845944443770618,-0.0018636743895904897,0.0006911477441957526,8.068378979249026e-05,-6.958904279356664e-05,0.0017955696545261949,-0.4293329417705536,-51.65036392211914,-6.825150489807129,18.29169464111328,2.0753884315490723,-0.8750107288360596,0.06596527993679047,,,,,,,,,
1739302702.9493167,-0.12779310492425353,1.0766062284612825,-0.37313806606860495,-1.4099788742658934,1.5269043595909726,1.1410559685404074,1.3589730214646276,0.0011456112365513965,-0.0012792855257243094,-0.0002266786236819157,-0.0022147165332426404,-0.001020815767903322,-0.0007468560095130528,0.0006851325061596433,-0.3301508128643036,-51.49563980102539,-6.848954200744629,18.09729766845703,1.8858743906021118,-0.9665634632110596,0.03941498324275017,,,,,,,,,
1739302702.9593518,-0.127789619437102,1.0766072809583025,-0.37313926684746895,-1.4100073246898868,1.5269020090328371,1.1410397868515298,1.358966794510793,0.0013393407570539194,0.0009330826894418972,0.0005429513209481129,-0.00400089637931219,-0.0016564056804763102,-0.002055750056529348,0.0021300488402183496,-0.3063471019268036,-51.49563980102539,-6.848954200744629,18.12110137939453,1.8529154062271118,-0.9931137561798096,0.05314789339900017,,,,,,,,,
1739302702.9702885,-0.12779104777626477,1.0766155011778575,-0.37313925509404744,-1.4100304917384856,1.5268996211537356,1.1410277356558909,1.3589578318279592,3.0187915791566374e-05,0.002058805335176028,-0.0005778849733485851,-0.0015368695796390984,-0.0004408470705137346,-0.0026885340792447703,0.0004123407117622239,-0.2547723948955536,-51.57101821899414,-6.848954200744629,18.12110137939453,1.8327738046646118,-1.0132553577423096,0.09983979165554047,,,,,,,,,
1739302702.981352,-0.12778585488712368,1.0766142911655356,-0.37314104071443943,-1.410050152313845,1.5268987573291541,1.1410203702964017,1.3589559140734424,0.0008011231786532137,-0.00023085226978688617,-0.0008342463894723533,-0.0026371167014146804,-0.00033776188942267647,-0.0011319221570467238,-0.0013459708430052933,-0.2825433909893036,-51.51944351196289,-6.825150489807129,18.16870880126953,1.8400980234146118,-1.0196640491485596,0.09343110024929047,,,,,,,,,
1739302702.9922812,-0.1277826559463068,1.0766172699401702,-0.3731394236059279,-1.410056136424965,1.5268979575040094,1.1410171926239918,1.3589555111507756,0.0009459584903516671,0.00033288071928282186,8.634336058535388e-05,-0.0012863594096110941,0.0005018696979682349,0.00019914323499887744,-0.0005115312679120391,-0.2825433909893036,-51.51944351196289,-6.848954200744629,18.12110137939453,1.8465067148208618,-1.0059311389923096,0.06596527993679047,,,,,,,,,
1739302703.0033243,-0.1277834539489301,1.0766157973056751,-0.3731424163504545,-1.4100594370486155,1.5268987552289028,1.1410106232699169,1.3589573224333413,-0.00038019741111567734,-0.0012306662079269153,0.00011290937829530571,0.0005586781705681907,0.0005458929654835067,-0.0005853064393510732,0.0012913685741345645,-0.2309686839580536,-51.49563980102539,-6.848954200744629,18.12110137939453,1.8400980234146118,-0.9867050647735596,0.05314789339900017,,,,,,,,,
1739302703.0133774,-0.12778456575510516,1.0766225179285265,-0.3731428322396216,-1.4100580103185747,1.5268978573543934,1.1410108692556051,1.358956967768089,-0.000149980611529593,0.0005846349792934639,0.0007412729045020163,-0.00024229685913533798,0.0007153915090553762,-0.0006610017155752438,0.0013983392999022564,-0.2547723948955536,-51.54721450805664,-6.801346778869629,18.06952667236328,1.8465067148208618,-0.9931137561798096,0.05314789339900017,,,,,,,,,
1739302703.024304,-0.12778592651243242,1.076621680040088,-0.37314295016533255,-1.4100646886114259,1.526900472560484,1.1410055196120727,1.3589553158117669,0.0008438631198823302,-0.0007559645485941068,-0.0006626866343230814,-0.0017031428322524546,3.65782493231276e-05,-0.0026431431063829846,0.0007798028296479509,-0.2071649730205536,-51.54721450805664,-6.801346778869629,18.14490509033203,1.8400980234146118,-0.9867050647735596,0.06596527993679047,,,,,,,,,
1739302703.0353525,-0.1277860153275282,1.07662332243185,-0.37314176735862753,-1.4100657943383417,1.5269003631738793,1.141009241050978,1.3589526634431512,0.00025898647026098765,-0.0007966926056242458,-0.0004273847978954682,-0.0007165383732281965,0.001297683867628951,-0.0005438969542923535,-0.00043489111861976513,-0.2309686839580536,-51.54721450805664,-6.825150489807129,18.12110137939453,1.8263651132583618,-1.0196640491485596,0.05955658480525017,,,,,,,,,
1739302703.0463707,-0.12778533863062594,1.0766235864013096,-0.37314495812489173,-1.4100700003541955,1.526898392689836,1.141007615985958,1.3589498198524632,0.0001596431044145735,-0.0016073582649417696,-0.0004911180683083414,-0.0008133937221792997,-0.0015415796174411717,-0.00012281888466277282,-0.0012828489186006958,-0.2309686839580536,-51.51944351196289,-6.801346778869629,18.14490509033203,1.8400980234146118,-1.0059311389923096,0.07328949868679047,,,,,,,,,
1739302703.0573716,-0.12778488996629972,1.076628674784448,-0.37314577189251513,-1.410067959763678,1.5268983930189641,1.1410076154893196,1.3589515992023795,8.889927282115609e-05,0.0009667002656903658,-0.0005562250623652709,-0.0006546111397117218,0.0012009183330308655,6.924602402550163e-05,0.0003585465318231586,-0.2071649730205536,-51.54721450805664,-6.801346778869629,18.14490509033203,1.8400980234146118,-1.0059311389923096,0.05955658480525017,,,,,,,,,
1739302703.067372,-0.12778343985403312,1.0766221154503304,-0.37314283227162626,-1.4100727906589203,1.5268932729598,1.141007615985941,1.3589455191324948,-0.0005586373313717947,-0.0001885474771749727,0.00024849958559368656,-0.0019619781039243275,-0.0002861673945489838,0.0003295085390331025,-0.0005698277716306907,-0.2309686839580536,-51.49563980102539,-6.801346778869629,18.16870880126953,1.8465067148208618,-1.0059311389923096,0.11265717446804047,,,,,,,,,
1739302703.078351,-0.12778146491411868,1.0766242611692958,-0.3731438596910884,-1.4100623015031437,1.52689874129728,1.1410084818831818,1.3589506840759127,0.00022920257467785556,0.00026384360338978273,6.239269785032438e-05,0.0003957895636027375,0.001932418592799443,0.00013953916719018573,0.0002770062846066086,-0.2547723948955536,-51.49563980102539,-6.801346778869629,18.06952667236328,1.8400980234146118,-1.0132553577423096,0.06596527993679047,,,,,,,,,
1739302703.088421,-0.12778223202645603,1.0766258259000068,-0.37314591561904104,-1.4100709277780066,1.526899480580382,1.1410092388810873,1.358948342748398,0.0011113601757834664,0.0018097482270618638,-0.0009443992439796258,-0.0008065558970372399,0.0009747863068694242,0.0010125766299481853,0.000551577212254429,-0.2309686839580536,-51.54721450805664,-6.801346778869629,18.14490509033203,1.8327738046646118,-1.0196640491485596,0.08610688149929047,,,,,,,,,
1739302703.0993595,-0.12778314809390723,1.0766221154020839,-0.37314283519143604,-1.410068562101364,1.5268963605315298,1.1410068583258672,1.3589521995562357,0.0005707227266716439,-0.0008217216919864323,0.00038259134431356263,0.00013318395495519482,0.0010508046480475505,-0.00035973578453592605,0.0010469833501949286,-0.2309686839580536,-51.49563980102539,-6.801346778869629,18.12110137939453,1.8327738046646118,-0.9995224475860596,0.05314789339900017,,,,,,,,,
1739302703.1103663,-0.1277832823798671,1.076622115365745,-0.3731413966910675,-1.4100707955533243,1.5268983546475747,1.141007211592416,1.3589474331356428,-7.001607463532705e-05,-0.001030963416607053,-2.1998130134338488e-05,-0.0009971514452989578,0.001386031383774441,0.0004807949973552897,-0.0012502175369172098,-0.2309686839580536,-51.49563980102539,-6.848954200744629,18.14490509033203,1.8327738046646118,-0.9995224475860596,0.09343110024929047,,,,,,,,,
1739302703.1213267,-0.127786808609931,1.0766238279228146,-0.3731452293380844,-1.4100692506554444,1.526899131939442,1.1410060470317829,1.3589521993944833,-0.0011881208809788354,-9.111532289787035e-05,-0.001306193904837083,-0.0001466506666654951,0.0009669849091559264,9.250516541834311e-05,0.000998217084584034,-0.1793939769268036,-51.51944351196289,-6.801346778869629,18.12110137939453,1.8327738046646118,-0.9931137561798096,0.05314789339900017,,,,,,,,,
1739302703.1323147,-0.12778114845646826,1.076625825863668,-0.3731449120612323,-1.4100710604667435,1.5268947933870558,1.1410021517662103,1.3589525128647284,0.0005210355558272429,-0.0002185729745839377,-0.00030400176910299763,-0.001304752772698596,-0.0008982257025639389,-0.0014690315836407514,0.0014344116955583108,-0.2547723948955536,-51.54721450805664,-6.773575782775879,18.14490509033203,1.8327738046646118,-0.9995224475860596,0.05314789339900017,,,,,,,,,
1739302703.1423595,-0.1277847977864212,1.0766286879767801,-0.3731438841848273,-1.410069330445038,1.526897777303146,1.1410023930488253,1.3589483028618277,0.0003580542004311833,-3.6954779344210815e-05,-0.0013725466400287619,0.0005658263705045946,0.0011219921436492345,-0.0013589543086364347,-0.00026366955595479713,-0.2071649730205536,-51.54721450805664,-6.825150489807129,18.12110137939453,1.8465067148208618,-0.9995224475860596,0.08610688149929047,,,,,,,,,
1739302703.1533356,-0.12778138577118495,1.0766267884207978,-0.373143254304829,-1.4100728129103677,1.5268979914750203,1.141006060413583,1.3589465458837973,0.0012648347134327964,0.0005990674723262627,-5.226036929095546e-05,-0.001143776602785363,-0.0005566893154414429,0.0006501959379338493,-0.00031375255235059954,-0.2547723948955536,-51.54721450805664,-6.825150489807129,18.16870880126953,1.8327738046646118,-0.9931137561798096,0.07328949868679047,,,,,,,,,
1739302703.16336,-0.12778314712130015,1.0766280638749441,-0.373141058330717,-1.4100696140618592,1.5268938809513788,1.1410028630738076,1.358944312503591,-0.0003275735400991133,0.0006973088188004577,0.0011720049352024241,0.000487913054865508,-0.00026077212427331277,0.00013363927800777518,-0.002840756026980612,-0.2309686839580536,-51.54721450805664,-6.825150489807129,18.09729766845703,1.8400980234146118,-1.0059311389923096,0.10624848306179047,,,,,,,,,
1739302703.1733754,-0.12777836665396092,1.07662219883743,-0.3731431754439694,-1.4100692549326488,1.5268948411452246,1.1410013875697582,1.358952199367254,0.0009562345287150481,-0.0008654024456654445,0.0007820777478270808,-0.0008058927546449523,-0.0010333362770359445,-0.0001371732373208304,0.002723962256436744,-0.2547723948955536,-51.49563980102539,-6.825150489807129,18.12110137939453,1.8327738046646118,-0.9931137561798096,0.05314789339900017,,,,,,,,,
1739302703.1843243,-0.1277831391476356,1.0766166954726948,-0.3731413703099402,-1.4100667896684564,1.5268947335465497,1.1410038344555131,1.3589489273775317,0.0002870533473550835,-0.0021689853339934115,0.00025127373184371355,0.00026240475256737077,0.0003591189267802985,-8.373590294857707e-05,0.0006998388126023343,-0.2309686839580536,-51.42026138305664,-6.825150489807129,18.09729766845703,1.8327738046646118,-1.0059311389923096,0.05314789339900017,,,,,,,,,
1739302703.1944015,-0.12778114411580532,1.0766221183455746,-0.37314179738974446,-1.4100692509602317,1.5268954912060206,1.1410040770450778,1.3589478286893555,0.0005461400803693278,-0.0008177393607461455,-0.00043456480019521236,-0.0003195373232336092,0.0004132390744936904,-0.0003192386898123729,-0.0002837949699797472,-0.2547723948955536,-51.49563980102539,-6.825150489807129,18.12110137939453,1.8263651132583618,-1.0132553577423096,0.08610688149929047,,,,,,,,,
1739302703.2053573,-0.12778464920146815,1.0766238401326536,-0.37314295027756067,-1.4100684249487994,1.5268931099886316,1.1410027424789768,1.3589470325092412,-0.0007132708566877432,-0.00203489793741125,-0.0012276623430359434,0.000914894460603048,-0.00044691022418075693,-0.0009141427841943706,0.0012727953565277326,-0.2071649730205536,-51.51944351196289,-6.801346778869629,18.09729766845703,1.8465067148208618,-1.0059311389923096,0.09983979165554047,,,,,,,,,
1739302703.21639,-0.12777929062907803,1.0766243417687256,-0.37314504009871174,-1.4100682187371423,1.52689386764871,1.1410019707450787,1.3589448355120413,0.00019748634677557047,-0.0015704088600650987,0.0003561536006013031,0.00034393170292362524,-0.0009178824440513533,-0.001260472491492061,-0.0006715596627615826,-0.2547723948955536,-51.49563980102539,-6.801346778869629,18.09729766845703,1.8400980234146118,-0.9995224475860596,0.10624848306179047,,,,,,,,,
1739302703.228295,-0.12778284779930343,1.0766270465680312,-0.3731371998712241,-1.4100682499680999,1.5268896290961924,1.1410019707449994,1.3589498181705444,-0.0008797876424337194,-8.278847721385252e-05,0.001018709304701403,0.0008698286959621816,-0.00106265980073676,-0.0008635166133260301,0.0001699481210534484,-0.2309686839580536,-51.51944351196289,-6.876725196838379,18.06952667236328,1.8400980234146118,-0.9995224475860596,0.07328949868679047,,,,,,,,,
1739302703.2383053,-0.12778480166016498,1.0766270465736327,-0.3731428673241439,-1.4100653885210024,1.5268916971138655,1.1410027284050779,1.3589483021391648,-0.0008929519818797304,8.846720393706201e-05,-0.00014656652476114718,0.0011548878114783327,-0.0017716953353436662,0.00039979866098110664,7.670716310944387e-06,-0.2071649730205536,-51.51944351196289,-6.801346778869629,18.06952667236328,1.8465067148208618,-1.0059311389923096,0.08610688149929047,,,,,,,,,
1739302703.2493503,-0.12778213586671075,1.0766270465736327,-0.37313929311366933,-1.4100721149381128,1.526892808002605,1.1410044714721688,1.3589518707599535,0.00013761355794374608,0.0003062922272864718,0.0004178339397697006,-0.001149803681388155,-0.0006718682352430743,0.000981676106256385,-4.682845372002971e-05,-0.2309686839580536,-51.51944351196289,-6.848954200744629,18.12110137939453,1.8400980234146118,-0.9931137561798096,0.04673920199275017,,,,,,,,,
1739302703.2603374,-0.12778582975681504,1.076623073491559,-0.37314174314119886,-1.4100682895304224,1.5268928065510485,1.1410027284234714,1.3589442980756867,-0.0017910833469984763,-0.0016165436279957353,-0.0006208150309967052,0.00012095477725435928,-0.0006186334499544518,-0.0003155851414793258,-0.002145185017738309,-0.1793939769268036,-51.49563980102539,-6.848954200744629,18.09729766845703,1.8400980234146118,-1.0059311389923096,0.11998139321804047,,,,,,,,,
1739302703.2712772,-0.1277807660112583,1.0766233840456378,-0.37314286867013496,-1.410066343491997,1.5268947335399525,1.1410004537559517,1.3589479405927671,0.0001405270890055652,-0.0007496461487855494,-0.00046996552018498496,-0.00021006552363091852,0.00027017908078231525,-0.001232973982110139,0.0003063848197183789,-0.2309686839580536,-51.47183609008789,-6.801346778869629,18.06952667236328,1.8327738046646118,-0.9867050647735596,0.08610688149929047,,,,,,,,,
1739302703.281285,-0.12777826146593158,1.0766194253990884,-0.37314420291368333,-1.4100675477837377,1.5268938671641932,1.1410035943022818,1.358946558612064,0.00033385342073963514,-0.002056354088693989,0.0005475312386919386,0.0006783595103074676,0.0003933145052487432,1.6698391599766823e-06,-0.0013605336646490165,-0.2547723948955536,-51.42026138305664,-6.825150489807129,18.09729766845703,1.8400980234146118,-1.0132553577423096,0.09983979165554047,,,,,,,,,
1739302703.291353,-0.12778001173527387,1.0766259407080976,-0.3731457488924537,-1.410071785208244,1.5268906882497968,1.1410007933693,1.3589493595946294,0.00043960764361911423,0.00019280243336866756,-0.0004436310442122684,-0.0006299466274276924,-0.0007199208165611674,-0.0008802776356424686,0.00029426534623386974,-0.2309686839580536,-51.49563980102539,-6.801346778869629,18.14490509033203,1.8400980234146118,-0.9995224475860596,0.07969819009304047,,,,,,,,,
1739302703.3023076,-0.12778168616865554,1.0766298016361937,-0.3731411550119845,-1.4100685575029996,1.526893867576927,1.1410027279139148,1.3589503220325687,-0.0004759511856652278,0.0004961076512096999,0.00011160777414361384,0.0003622664801869286,-0.00021822748382860845,0.0005850667807122054,0.0016658607665015787,-0.2071649730205536,-51.51944351196289,-6.825150489807129,18.06952667236328,1.8400980234146118,-1.0059311389923096,0.06596527993679047,,,,,,,,,
1739302703.3134081,-0.12777986806595806,1.07662704662029,-0.37314235057340933,-1.4100710458032162,1.5268932306696394,1.141001970744991,1.3589490024047948,0.0003099557403181961,0.00048329468718773483,2.6755159962694075e-05,0.0009083166767841508,-0.0003299121091048262,-1.898557795326757e-05,0.001297510536578379,-0.2309686839580536,-51.51944351196289,-6.848954200744629,18.14490509033203,1.8465067148208618,-0.9995224475860596,0.07969819009304047,,,,,,,,,
1739302703.324286,-0.12778168616824187,1.076627743841686,-0.37314136460663255,-1.4100696228922576,1.526896248866326,1.141001213084921,1.3589399088687093,-0.0004253756750680562,0.0017251437077824795,0.0009460913594652213,0.0006435295984872054,0.0006679937957004124,-0.00024386845177554244,-0.0031091782750761856,-0.2071649730205536,-51.51944351196289,-6.825150489807129,18.09729766845703,1.8199564218521118,-0.9931137561798096,0.11998139321804047,,,,,,,,,
1739302703.3342896,-0.12778168747057927,1.076627046585441,-0.3731420831757956,-1.4100699956983425,1.5268923523285534,1.1410027284050777,1.3589481788031803,2.58685702545419e-05,0.0002742101441526832,-5.742124490795521e-05,1.0624403652707151e-05,-8.034701175217647e-05,0.0008967026423410419,-4.9997846550627533e-05,-0.2071649730205536,-51.51944351196289,-6.825150489807129,18.12110137939453,1.8529154062271118,-1.0059311389923096,0.05955658480525017,,,,,,,,,
1739302703.3443944,-0.1277816861685067,1.0766258152348813,-0.37314491206421213,-1.4100706603288813,1.5268938005006634,1.1410011738390644,1.35894741956133,-0.0008592332602364813,-0.00013210274558677224,-0.00014764579445342044,-0.00044121119459470027,0.0012630697007670344,-0.0007335507918660977,0.0005059401162428172,-0.2071649730205536,-51.51944351196289,-6.773575782775879,18.09729766845703,1.8529154062271118,-0.9931137561798096,0.06596527993679047,,,,,,,,,
1739302703.3553166,-0.12777997406969874,1.0766270465713157,-0.3731437897026439,-1.4100704470612306,1.5268938561145529,1.1410008555114868,1.3589483021882032,-0.00011751911250129318,0.00021941853726575514,-0.0007034803692902815,-0.00047077239172378644,0.0003438754996218033,-0.00032435932340129975,0.0013151895748636157,-0.2309686839580536,-51.51944351196289,-6.801346778869629,18.09729766845703,1.8400980234146118,-0.9931137561798096,0.08610688149929047,,,,,,,,,
1739302703.365324,-0.12778168616844768,1.076629275047555,-0.37314283364214684,-1.4100677199546985,1.5268931099884362,1.1409980341644774,1.3589448019360124,0.00026536903262152186,0.0017441535650878008,0.00020690366303324417,0.0002761124964295527,0.0009152185081538063,-0.0007606783993686297,-0.001222943839535767,-0.2071649730205536,-51.54721450805664,-6.801346778869629,18.09729766845703,1.8465067148208618,-0.9931137561798096,0.11265717446804047,,,,,,,,,
1739302703.3763304,-0.12778168616844054,1.076623851436669,-0.373141796088238,-1.4100682984913486,1.526892352825183,1.1410027279026158,1.3589473788515716,3.540601013510499e-05,-0.0013593924104634675,0.0004827355491342812,0.0002615931598984269,0.00051015239582512,0.001131218318687868,-0.00068579641600424,-0.2071649730205536,-51.47183609008789,-6.825150489807129,18.09729766845703,1.8529154062271118,-1.0059311389923096,0.09343110024929047,,,,,,,,,
1739302703.386433,-0.1277859064173501,1.0766290445183795,-0.3731410495574664,-1.4100717156255809,1.5268938676487185,1.1410010430195336,1.358952078215882,-0.0018881052786935604,0.0008893269050249735,0.0007474977494103444,-0.0007051672337506168,0.0002077630748215193,-0.0005539759585718603,0.0015171257692016354,-0.1555902659893036,-51.54721450805664,-6.825150489807129,18.12110137939453,1.8400980234146118,-0.9931137561798096,0.05314789339900017,,,,,,,,,
1739302703.397365,-0.1277783405603204,1.076627046573633,-0.3731431216509508,-1.4100677863454119,1.5268929733549084,1.1410019707440393,1.3589470555005203,0.0006550618118743389,3.234411446882332e-05,0.0006984103593852257,0.0010730573007353339,0.0001336915181135672,0.00045947012777938545,-0.0020190466520755546,-0.2547723948955536,-51.51944351196289,-6.801346778869629,18.09729766845703,1.8465067148208618,-0.9995224475860596,0.05955658480525017,,,,,,,,,
1739302703.408288,-0.1277799472798478,1.0766274258570607,-0.3731459292121388,-1.4100685058406661,1.5268900793475468,1.1410004554248425,1.3589474364378964,7.894640686559835e-05,-0.0006157462700551482,-0.0022130673026951615,0.00047193157365985473,-0.0015985927588173683,-9.063819190524266e-05,-9.30231028552365e-05,-0.2309686839580536,-51.49563980102539,-6.801346778869629,18.09729766845703,1.8721414804458618,-0.9867050647735596,0.09343110024929047,,,,,,,,,
1739302703.4192812,-0.1277778114461461,1.076627072130241,-0.37314564823993107,-1.410069623007108,1.5268933965369247,1.1410015017812383,1.3589511132654193,0.0009652845032162017,0.00010880972033056662,-0.0012541683647825314,0.0005923112226456297,-0.0009315983695005057,0.00020418035797376493,0.0012798443378012597,-0.2309686839580536,-51.51944351196289,-6.773575782775879,18.09729766845703,1.8400980234146118,-0.9995224475860596,0.05314789339900017,,,,,,,,,
1739302703.429351,-0.12777782898855117,1.0766291141281614,-0.37314283525850284,-1.4100717176103044,1.5268926661754243,1.1410004554169006,1.3589469293696856,0.0003769292786680664,0.0003219306932167734,0.000552623554404636,-0.001081425265906622,-0.0005710350015259116,0.001069070047102625,0.00045446294834645045,-0.2309686839580536,-51.51944351196289,-6.801346778869629,18.12110137939453,1.8465067148208618,-0.9867050647735596,0.06596527993679047,,,,,,,,,
1739302703.4393697,-0.12777825816084593,1.076629350667182,-0.3731417610940592,-1.4100699349385677,1.5268954519526479,1.1410019295610756,1.3589506684492587,0.00010587596674010362,0.0015188293712398771,0.001078793313209169,0.0001870692802852207,0.0005519300563302731,0.000635314884458204,0.001255711673118015,-0.2547723948955536,-51.54721450805664,-6.825150489807129,18.09729766845703,1.8263651132583618,-0.9995224475860596,0.06596527993679047,,,,,,,,,
1739302703.4493873,-0.1277809729218834,1.0766311109190017,-0.373142870252307,-1.4100703225343998,1.5268946942994208,1.1410027240437295,1.35894655962362,0.0006092345889556349,0.00015046172043127113,0.00029987827995020294,-0.0006455400973854314,0.0003120529314584196,0.0014449308121988163,0.0020813933933862077,-0.2071649730205536,-51.54721450805664,-6.801346778869629,18.12110137939453,1.8327738046646118,-1.0059311389923096,0.07328949868679047,,,,,,,,,
1739302703.4603279,-0.12777556002716725,1.0766253350093742,-0.37314199734122444,-1.4100697298432432,1.5268943752725026,1.1410006970745592,1.358947973706947,0.0018091006431452399,-0.00045549661232518476,-0.00015885213492090286,-0.0005399522875164228,-0.0005432021949454544,4.739860415796856e-05,0.0017057861009273922,-0.2825433909893036,-51.49563980102539,-6.825150489807129,18.09729766845703,1.8327738046646118,-0.9931137561798096,0.07969819009304047,,,,,,,,,
1739302703.4713082,-0.12777826112300877,1.076625951427865,-0.3731428364394605,-1.410075795244403,1.5268915546295316,1.1410005050789216,1.3589457420310247,0.0010258832391900794,-0.00039336514542480014,-0.00013267830218432146,-0.0020345486516622126,0.00043295836403968826,0.0012155431574879727,-0.0005952453210338657,-0.2547723948955536,-51.47183609008789,-6.801346778869629,18.16870880126953,1.8327738046646118,-0.9995224475860596,0.07969819009304047,,,,,,,,,
1739302703.4813085,-0.1277792617033411,1.0766253341973373,-0.3731451946559313,-1.410065743185219,1.5268938674333692,1.1410018515290579,1.3589402813910492,0.00043805055046901726,-7.073967764409215e-05,6.110271872003081e-05,0.0012422403658650873,-0.0009827027215391475,0.00039391883918973663,-0.0020785001517494264,-0.2309686839580536,-51.49563980102539,-6.801346778869629,18.06952667236328,1.8400980234146118,-0.9995224475860596,0.11265717446804047,,,,,,,,,
1739302703.4913507,-0.12777782898899773,1.0766202512013512,-0.3731438854087377,-1.4100724691499886,1.5268931233976215,1.140998989449074,1.3589466796227048,0.0009446288958038105,-0.0013266605958876002,-0.0015284757289365375,-0.0011120659743519927,0.0011405360948455374,0.0005276729031733055,-0.00021684694868041982,-0.2309686839580536,-51.42026138305664,-6.801346778869629,18.12110137939453,1.8465067148208618,-1.0132553577423096,0.08610688149929047,,,,,,,,,
1739302703.5013509,-0.1277816505283705,1.0766281684778014,-0.3731395390510334,-1.4100743416499013,1.5268930586662706,1.1409976751176278,1.3589452296280458,-0.0006239807368719745,0.0003962654953146331,0.0008892280767609449,-0.001016375451237354,-0.00035633327353295596,0.0009186282936355908,-0.0004773280053566849,-0.2071649730205536,-51.49563980102539,-6.848954200744629,18.12110137939453,1.8465067148208618,-0.9931137561798096,0.09983979165554047,,,,,,,,,
1739302703.511376,-0.12777997071729355,1.0766318765709586,-0.3731457017526703,-1.410068527496478,1.5268953087368806,1.1409966206137558,1.3589489360164102,0.0004865553797837016,0.0011353274621173513,-0.0012711326514139695,0.0017547093933748398,2.9268454188920975e-06,-0.0015055495232142522,0.0015968898899510584,-0.2309686839580536,-51.54721450805664,-6.801346778869629,18.06952667236328,1.8465067148208618,-0.9931137561798096,0.05314789339900017,,,,,,,,,
1739302703.5223384,-0.12778136942317012,1.076631012184265,-0.3731423493277418,-1.410070448526494,1.5268923509425962,1.1409961993499627,1.3589521590938989,0.0005231341206862195,-9.715189458995134e-05,-0.0003128950884503385,0.00029090520458641166,0.00020417512170567122,-0.00029726785926851727,0.0014400041031750535,-0.2071649730205536,-51.57101821899414,-6.848954200744629,18.09729766845703,1.8529154062271118,-0.9867050647735596,0.05314789339900017,,,,,,,,,
1739302703.5333467,-0.12778263538963952,1.0766270758991034,-0.3731431754972235,-1.4100724696211961,1.5268915546315462,1.1410035491643915,1.3589450298336327,-0.0013057958984019572,0.0003450179344245421,7.295769175963787e-05,-0.0008292944966417687,-0.0006800373834081829,0.0013560758802292302,-0.0018738186602070025,-0.2071649730205536,-51.51944351196289,-6.825150489807129,18.12110137939453,1.8327738046646118,-1.0132553577423096,0.11265717446804047,,,,,,,,,
1739302703.543371,-0.12777826081751859,1.0766300517849268,-0.37314491204770145,-1.4100723902586987,1.5268901817638003,1.1409996824957476,1.3589488137022474,0.00017321397959646446,0.00012333585886746548,-0.001319598061286082,-0.0011198543337505578,-0.0006967098149952723,0.0004926188148921112,0.00016912798250169462,-0.2547723948955536,-51.54721450805664,-6.773575782775879,18.12110137939453,1.8593240976333618,-0.9931137561798096,0.05314789339900017,,,,,,,,,
1739302703.554284,-0.12777994727939765,1.076625343856593,-0.3731392669758116,-1.410074252299113,1.526890366050141,1.140998872338479,1.3589503400251688,0.0007062908262489872,-0.0002824181826396751,0.0006336281545621934,-0.000452934720888614,-0.0010840528841668067,-0.001289777989139916,0.0012377937966902173,-0.2309686839580536,-51.49563980102539,-6.848954200744629,18.14490509033203,1.8657327890396118,-0.9867050647735596,0.05955658480525017,,,,,,,,,
1739302703.5642881,-0.127781290643345,1.0766281035023515,-0.37314141901247,-1.4100706870545392,1.5268938133748584,1.1409979772937582,1.3589454208522243,-0.0005080001118390607,0.000301394579388726,0.0009115525178579312,0.00034788211216551986,0.0008421641223365477,-0.0005247102423515474,-0.0007334622773672664,-0.2071649730205536,-51.49563980102539,-6.848954200744629,18.09729766845703,1.8400980234146118,-0.9931137561798096,0.10624848306179047,,,,,,,,,
1739302703.574314,-0.12777825819046768,1.0766291157493089,-0.37314598595055243,-1.4100706869455248,1.5268930969057601,1.1410011978485979,1.3589506820789083,0.0013356730857753921,0.0009184497361042821,-0.0018471033514898178,-9.762903934097958e-05,0.0019270875209460598,-0.00021434139569086733,0.002970064184772549,-0.2547723948955536,-51.51944351196289,-6.801346778869629,18.09729766845703,1.8465067148208618,-0.9931137561798096,0.06596527993679047,,,,,,,,,
1739302703.585342,-0.12777997353914802,1.0766274045814406,-0.37314354220433266,-1.4100710048369618,1.5268923523283318,1.1409990197521198,1.3589425650222158,0.0002767087018101858,0.0006510711610137598,0.00016497838729539972,0.0007126543501466163,0.0003453600822535199,0.0013607712627148028,-0.0004281854566556386,-0.2309686839580536,-51.49563980102539,-6.801346778869629,18.09729766845703,1.8529154062271118,-1.0059311389923096,0.09343110024929047,,,,,,,,,
1739302703.595367,-0.12778144885365053,1.0766272794629128,-0.37314317548383075,-1.410068607157462,1.52689472046399,1.1409977307179962,1.3589479564261633,-0.0013554804257117996,3.9208710264616213e-05,-0.00021459000891994472,0.0006243492253693543,0.0011392557291173828,0.0001936936697322288,0.0020155691535133895,-0.2071649730205536,-51.51944351196289,-6.825150489807129,18.06952667236328,1.8327738046646118,-0.9995224475860596,0.07969819009304047,,,,,,,,,
1739302703.6054077,-0.12777793297595325,1.0766294230916655,-0.37314600805551373,-1.4100731848782795,1.5268930688040432,1.1409975436241677,1.358940992955289,0.0011483637695266372,-0.0001579683430233114,-0.0008715067868296312,-7.283231277030279e-05,-0.0008837790434225406,-0.001364087504241483,-0.0003111310613450925,-0.2547723948955536,-51.51944351196289,-6.801346778869629,18.12110137939453,1.8465067148208618,-0.9931137561798096,0.11998139321804047,,,,,,,,,
1739302703.6163774,-0.12778344386407448,1.0766300664983217,-0.3731449963612435,-1.4100723898239795,1.5268872989429034,1.1410007352024405,1.3589459828030075,-0.0005957944237078337,0.0007618708741276288,-0.00018578400662714605,-0.00040155237434241645,-0.0019773389509948206,0.0004255889714534127,-0.0017483623124915687,-0.1793939769268036,-51.51944351196289,-6.801346778869629,18.12110137939453,1.8593240976333618,-0.9995224475860596,0.09343110024929047,,,,,,,,,
1739302703.6274245,-0.1277814133663013,1.0766261376104698,-0.3731432105826995,-1.4100707558649672,1.5268906885000677,1.1410005515745183,1.358950263900583,0.000568284387889659,-2.6520933991266472e-05,-0.0003907379227271452,0.0005025155273149407,0.0003941266407783472,0.0011257315685993961,0.0023440277563876845,-0.2071649730205536,-51.49563980102539,-6.825150489807129,18.06952667236328,1.8400980234146118,-0.9995224475860596,0.06596527993679047,,,,,,,,,
1739302703.6383693,-0.12778073690876968,1.0766283993603911,-0.373142832381919,-1.4100724696386981,1.5268938676247827,1.140997105796383,1.3589464995309042,-0.0006865478390732382,-5.645280975615278e-05,0.0009097878653219078,0.00034417380546158233,0.0013037632600949125,-0.0004454989129247277,0.0018597787942295047,-0.2071649730205536,-51.49563980102539,-6.801346778869629,18.12110137939453,1.8400980234146118,-0.9867050647735596,0.07328949868679047,,,,,,,,,
1739302703.649269,-0.12778136985187433,1.07663114620394,-0.3731428335179259,-1.41007386705909,1.5268923523285531,1.1409957064957745,1.358947967912595,-0.00022514418881353418,-0.00019864757251727364,-0.00011686454425742922,-0.0016431751422718117,-0.0002492040355572913,-3.5347595018052434e-05,0.0011112411455180755,-0.2071649730205536,-51.54721450805664,-6.801346778869629,18.09729766845703,1.8529154062271118,-0.9867050647735596,0.07969819009304047,,,,,,,,,
1739302703.6592836,-0.1277792251208234,1.076630136130273,-0.37314104954484556,-1.4100706869993784,1.526891842132417,1.1409967859375758,1.358940318841513,0.0017065751347360256,-8.300192151124393e-05,0.0004840145444681233,0.0016348861957583985,-0.001663958965590807,-0.0011253159897481823,-0.003410730244430126,-0.2071649730205536,-51.51944351196289,-6.825150489807129,18.09729766845703,1.8529154062271118,-0.9867050647735596,0.11265717446804047,,,,,,,,,
1739302703.6693428,-0.12778168604340634,1.0766257172725258,-0.3731420818743777,-1.410072496113498,1.526891817308364,1.1409964844995415,1.3589441637456503,2.7018884834379775e-05,-0.0009869325622555382,0.0005363341707092057,0.00042568183372345076,-0.0005739726617831393,-0.0017389403715242825,0.0001803584855198867,-0.2071649730205536,-51.47183609008789,-6.825150489807129,18.12110137939453,1.8465067148208618,-0.9931137561798096,0.11998139321804047,,,,,,,,,
1739302703.6793723,-0.12778360500436164,1.076629227330182,-0.3731411548689933,-1.410068607156116,1.5268932814273548,1.140997339007814,1.3589520245785869,-0.0015648284296171362,-0.00018623379814925562,0.00034439404216573784,0.0010058400638195241,0.0014915760945986736,-0.0004124269142649064,0.0008933784304517067,-0.1793939769268036,-51.51944351196289,-6.825150489807129,18.06952667236328,1.8327738046646118,-0.9995224475860596,0.05314789339900017,,,,,,,,,
1739302703.690459,-0.12778157968227735,1.0766262566558529,-0.3731410539132992,-1.4100706865457966,1.5268935129797176,1.1409990342073848,1.35894288006353,-0.0007505861260090772,0.0005709421901904915,0.0007912562950441472,0.0003164384127122286,0.0009663436123670574,-0.00029604072295840844,-0.00016056571680364367,-0.2071649730205536,-51.49563980102539,-6.825150489807129,18.09729766845703,1.8400980234146118,-1.0059311389923096,0.09983979165554047,,,,,,,,,
1739302703.7013776,-0.1277833325312267,1.076625920569351,-0.3731445881280197,-1.4100746124463126,1.526892990795509,1.1409999383872467,1.3589397246919768,-0.0008208286970191375,-0.002371115060178579,5.251882834461782e-05,-0.0004726577426997478,0.00010331614193930493,0.0014015761585948906,-0.0021933680542589873,-0.1793939769268036,-51.47183609008789,-6.749772071838379,18.12110137939453,1.8465067148208618,-1.0132553577423096,0.11998139321804047,,,,,,,,,
1739302703.7123377,-0.12777997375423622,1.0766273909515065,-0.37314284513443535,-1.4100706989857474,1.5268879957188195,1.1409967998703958,1.35894579649481,-2.7463934015873248e-06,-0.0006036693565814166,-5.821349596457065e-05,-8.628669043182942e-06,-0.002050586276563196,-0.000494370321129421,-0.00017318940333393984,-0.2309686839580536,-51.51944351196289,-6.801346778869629,18.09729766845703,1.8529154062271118,-0.9931137561798096,0.06596527993679047,,,,,,,,,
1739302703.722339,-0.1277799616029276,1.0766283569183523,-0.373145705960547,-1.4100709256913548,1.5268942853062832,1.141001796082726,1.3589403171218126,0.0008754453452170571,0.00021778910628809017,-0.000163330981237887,0.00020285818870961547,0.0005961803066810926,0.0023447927926462395,-0.001201252708349352,-0.2309686839580536,-51.49563980102539,-6.801346778869629,18.09729766845703,1.8327738046646118,-0.9995224475860596,0.11265717446804047,,,,,,,,,
1739302703.7332757,-0.12777882667151508,1.0766301460138643,-0.3731438842334935,-1.4100742532847506,1.5268938267802066,1.1409979620493576,1.3589473123109528,-0.00017806107625506165,0.00047217647493038445,-2.7728240672653e-05,-0.0011050934464603124,0.0008389456016252026,-0.00010704537224802131,-0.0004831331258955568,-0.2071649730205536,-51.51944351196289,-6.825150489807129,18.14490509033203,1.8400980234146118,-1.0059311389923096,0.05314789339900017,,,,,,,,,
1739302703.7433872,-0.12778168514341062,1.0766273909560249,-0.3731412862358564,-1.4100744646632686,1.5268915770636742,1.1409979997639033,1.3589442936167433,-0.0003408316291124405,-0.0009055898392290494,0.0004900852758693233,-0.00036276416428482447,0.0002751926988981366,0.0005237028775242342,-0.00043191474944351185,-0.2071649730205536,-51.51944351196289,-6.825150489807129,18.14490509033203,1.8593240976333618,-1.0059311389923096,0.07969819009304047,,,,,,,,,
1739302703.7543354,-0.1277816585221036,1.0766284248809983,-0.37314283513847324,-1.4100721782103434,1.5268939078218446,1.1409959890493315,1.3589407994046279,-0.0006542463927352229,-0.00018737675595780113,0.0002059074983250078,0.00022571161031734963,0.0006300619101117423,-0.0010005828012875197,-0.0005485893451303403,-0.2071649730205536,-51.49563980102539,-6.801346778869629,18.12110137939453,1.8400980234146118,-0.9802963733673096,0.11265717446804047,,,,,,,,,
1739302703.7653651,-0.12777926170318513,1.0766267240261056,-0.37314354182691983,-1.4100722341457572,1.5268927567761486,1.1409964447193208,1.3589447368578595,0.0007383839922980486,-3.540180279855941e-05,0.0005066661513522987,-0.0003678441606425922,0.00024652274040604696,-9.808300734621381e-06,-0.00098415224860483,-0.2309686839580536,-51.47183609008789,-6.801346778869629,18.12110137939453,1.8465067148208618,-0.9931137561798096,0.06596527993679047,,,,,,,,,
1739302703.7762733,-0.12777615477101628,1.0766301464674284,-0.37314492368845614,-1.410074721349579,1.526893499894516,1.1410003812878053,1.3589457964750913,0.0013685621184572313,0.00042140810314834063,-0.0005916879335749875,-0.0006712151932817447,-0.0006325948431145519,0.00023816331633345062,0.0017128404421551718,-0.2825433909893036,-51.51944351196289,-6.773575782775879,18.12110137939453,1.8400980234146118,-0.9995224475860596,0.06596527993679047,,,,,,,,,
1739302703.7863362,-0.12777826069109588,1.0766282010717534,-0.3731419948210475,-1.4100706894910304,1.5268927949224005,1.1409972067879033,1.358941034058258,0.0006228550280470728,0.000559147562969841,0.0007786999228609902,0.0006896503653642498,9.111505860433223e-05,-0.0002820473821109059,-0.001771967738850022,-0.2547723948955536,-51.49563980102539,-6.825150489807129,18.09729766845703,1.8400980234146118,-0.9995224475860596,0.10624848306179047,,,,,,,,,
1739302703.797266,-0.12777509692978556,1.076628345580223,-0.3731428711540935,-1.4100706862914303,1.526892973119604,1.140998077771074,1.3589417917183366,0.001364687237826777,0.00025532919475795943,0.00020124976725195413,-0.00046625867706685445,0.00022591044014635384,-0.00011605268783406177,-0.0011700572695110994,-0.2547723948955536,-51.49563980102539,-6.801346778869629,18.09729766845703,1.8465067148208618,-1.0059311389923096,0.09983979165554047,,,,,,,,,
1739302703.8083413,-0.12777965619780013,1.076630132293773,-0.37314104954548294,-1.4100725500765372,1.5268927567736037,1.1409979600354898,1.3589441716477186,0.0001350330786099059,9.916801528164079e-05,0.0007269850172996169,-0.0006046825287398358,0.0008685434483005961,-0.00039796259378834154,-0.0006149378933668451,-0.2309686839580536,-51.51944351196289,-6.825150489807129,18.12110137939453,1.8465067148208618,-1.0059311389923096,0.07969819009304047,,,,,,,,,
1739302703.8183486,-0.1277799736097468,1.0766284297151218,-0.37314105861739977,-1.4100733481124261,1.5268938538649064,1.140999623627727,1.358946554153548,0.0006699705472650874,-0.00020837343918067688,0.00106164265928461,-0.0013841003856332262,0.00035987612795909966,8.438661244527889e-05,-0.00011798987087842685,-0.2309686839580536,-51.49563980102539,-6.825150489807129,18.12110137939453,1.8400980234146118,-0.9931137561798096,0.05955658480525017,,,,,,,,,
1739302703.8283532,-0.12777989410873264,1.0766275425084415,-0.37314705054765135,-1.4100725492192954,1.526893861349759,1.1409964841745366,1.3589393972574897,0.0002990021207545867,-0.0012338814403979733,-0.0007602183996979337,0.0001666688825371262,0.0007469593028108867,-0.00043609046708416646,-0.0030436516729742654,-0.2309686839580536,-51.49563980102539,-6.773575782775879,18.12110137939453,1.8400980234146118,-0.9931137561798096,0.11998139321804047,,,,,,,,,
1739302703.8393307,-0.12778059033475953,1.076628433479341,-0.37314419906103546,-1.4100707664197307,1.5268892753988592,1.1409956870539288,1.3589472594856002,0.00026004791518578123,0.00040861244638882254,-0.0010022177437265369,0.00012236873322714993,-0.0008283177642605909,-0.001257345412032844,0.0009632461293432288,-0.1793939769268036,-51.49563980102539,-6.825150489807129,18.09729766845703,1.8400980234146118,-0.9867050647735596,0.05314789339900017,,,,,,,,,
1739302703.8493514,-0.12777825687756272,1.0766301120020854,-0.3731438835063784,-1.4100721079500091,1.5268906475244748,1.1409972023734174,1.3589462398094154,0.0006490692214081427,-0.001063083037336702,0.0004937139826880379,-4.9802628389635515e-05,-4.357059957499007e-06,0.00031123060504727255,0.0024766887217493147,-0.2547723948955536,-51.51944351196289,-6.801346778869629,18.14490509033203,1.8400980234146118,-0.9995224475860596,0.06596527993679047,,,,,,,,,
1739302703.8612707,-0.12777754820598192,1.0766301460149692,-0.37314294156672034,-1.4100728139928291,1.5268912883115955,1.1409956870532607,1.3589456395121124,0.00120173018653452,0.0002379563150796991,0.0001560807833683248,0.00010761968746462959,0.0003436503121480867,-0.000721428228540807,0.00038533642160467057,-0.2547723948955536,-51.51944351196289,-6.801346778869629,18.12110137939453,1.8529154062271118,-0.9867050647735596,0.06596527993679047,,,,,,,,,
1739302703.8714142,-0.12778068428591427,1.07662843349443,-0.37314574563546493,-1.4100747301858287,1.526889273939409,1.1409983660585312,1.3589449320848068,-0.0002298261607301051,-0.0002895483769073563,0.00028336165939330004,-0.00036227893002513346,-0.0003279547853388837,0.0009050690084314585,0.00136128757550918,-0.2309686839580536,-51.49563980102539,-6.801346778869629,18.12110137939453,1.8400980234146118,-1.0059311389923096,0.07328949868679047,,,,,,,,,
1739302703.8833728,-0.12777997234958213,1.07662843349443,-0.3731438957940089,-1.4100727084172697,1.526892739253552,1.1409972023757093,1.358944172935734,-0.0009851844935673533,0.0007283943102053805,-0.0005057008643135516,-0.00021068463419202639,-0.0007503674588000558,-0.0010767034190482382,-0.0010869538936615138,-0.2309686839580536,-51.49563980102539,-6.825150489807129,18.12110137939453,1.8465067148208618,-0.9995224475860596,0.07969819009304047,,,,,,,,,
1739302703.8933961,-0.12778051944187768,1.0766267124704298,-0.37314496688546234,-1.4100706997017745,1.5268891729275555,1.141001139001719,1.3589370292835585,0.0005719055581744107,-0.0010675126523611996,-0.0014898997819692708,0.0009729508520784357,0.0009214467089379598,0.0011407400220229357,-0.0009858902930362677,-0.1793939769268036,-51.47183609008789,-6.801346778869629,18.09729766845703,1.8529154062271118,-1.0059311389923096,0.14012299478054047,,,,,,,,,
1739302703.9053094,-0.12777926038333778,1.0766239659145145,-0.37314498434221777,-1.4100774413525339,1.5268899179743434,1.140997960051441,1.3589410340582584,-0.000710828603715399,-0.0012538093192402799,-0.0006760608136148916,-0.0019537699464251502,-0.0002550165068125327,-2.6097406139647376e-05,0.0002964795984760256,-0.2309686839580536,-51.47183609008789,-6.801346778869629,18.14490509033203,1.8465067148208618,-1.0059311389923096,0.10624848306179047,,,,,,,,,
1739302703.9153514,-0.12777925290987815,1.0766301459996088,-0.3731431842045249,-1.4100706869635253,1.5268929471191497,1.1409979600334959,1.3589417917183366,0.00029606730183345066,0.0004753106285889213,-5.3853036670572124e-05,0.0014104999028041092,0.0006038904217215577,-0.0005838787931547889,-0.0011318385557634143,-0.2309686839580536,-51.51944351196289,-6.825150489807129,18.09729766845703,1.8465067148208618,-1.0059311389923096,0.09983979165554047,,,,,,,,,
1739302703.9263365,-0.12778168518776786,1.076630661786957,-0.3731431034391147,-1.4100717200926993,1.5268919280360211,1.1409960915006294,1.358948069473712,-0.0005106939035465225,-0.00015368120340507406,-0.0005020685628213423,-0.0007345972544844169,0.0009274880348423377,-0.0006292889802627847,0.0019901931011413287,-0.2071649730205536,-51.49563980102539,-6.801346778869629,18.09729766845703,1.8465067148208618,-0.9931137561798096,0.04673920199275017,,,,,,,,,
1739302703.937271,-0.12777712576171965,1.076628461016793,-0.3731392668693356,-1.4100742641881663,1.526890455740896,1.1409964619924426,1.3589402942768478,0.0006749236693097088,-0.0007921604074541418,0.0002671638072151228,0.0001613823087649773,-0.0009342660379400593,0.000413204233558295,0.00017285784136445066,-0.2309686839580536,-51.49563980102539,-6.848954200744629,18.14490509033203,1.8327738046646118,-0.9931137561798096,0.11265717446804047,,,,,,,,,
1739302703.9483204,-0.12778168615236413,1.0766301460530012,-0.37314293724051145,-1.4100717200927662,1.5268900638944118,1.1409964447134366,1.3589394105010484,0.0007566348786335969,0.0007653873971147579,0.0007207795452811225,-0.0008820499276149787,-0.0012411976123163952,0.00030553649675453277,-0.0012133464469553405,-0.2071649730205536,-51.51944351196289,-6.801346778869629,18.09729766845703,1.8593240976333618,-0.9931137561798096,0.11998139321804047,,,,,,,,,
1739302703.9583538,-0.12777993838145094,1.0766300972970029,-0.3731392931152497,-1.4100738172561518,1.526892352141124,1.1409956870532607,1.358943375239167,-0.00010772519878803229,0.0007044104181640684,0.0008998808183793331,-0.00145932259043272,0.0009548803193876641,-3.846482965845456e-05,0.0010812143014028216,-0.2309686839580536,-51.51944351196289,-6.848954200744629,18.09729766845703,1.8529154062271118,-0.9867050647735596,0.05955658480525017,,,,,,,,,
1739302703.9693494,-0.1277792220514869,1.0766267209734237,-0.37314317355966614,-1.4100746521459073,1.5268933835626417,1.1409953831371429,1.3589473074350376,0.00048078238142640486,-0.0008276420126995143,-0.000881279618544131,-0.0006863947576383116,-0.0006183420890372626,-0.0012155580432696566,0.0007904860462155365,-0.2071649730205536,-51.47183609008789,-6.801346778869629,18.12110137939453,1.8400980234146118,-0.9931137561798096,0.05314789339900017,,,,,,,,,
1739302703.9794486,-0.12777951383372071,1.07663247362121,-0.3731428322276233,-1.4100735294066489,1.5268902113156209,1.1409956870352826,1.3589410338966785,-0.0010215533322848864,0.0011289530130419415,-0.00038387256382333595,-0.0014956994500542483,-3.465656920963715e-05,-0.0011861819075928413,-0.0020387738096733225,-0.2071649730205536,-51.54721450805664,-6.801346778869629,18.12110137939453,1.8400980234146118,-0.9867050647735596,0.10624848306179047,,,,,,,,,
1739302703.9903007,-0.12777925188886705,1.0766301464692378,-0.3731431738475363,-1.4100753306878127,1.5268891051514415,1.140996444713339,1.3589441729357248,0.0011514040243554868,0.00011217233940504488,-0.0008373113598822904,-0.0005944307493029698,-0.0011540099111496044,-6.71375128489347e-05,-0.0004208835761793317,-0.2309686839580536,-51.51944351196289,-6.801346778869629,18.12110137939453,1.8400980234146118,-0.9931137561798096,0.07969819009304047,,,,,,,,,
1739302704.0003119,-0.12778334128459531,1.0766301460151844,-0.37314207443926084,-1.41007639821213,1.52689103789474,1.1409972023734174,1.3589410340582584,-0.0006909744322808544,0.0007845377935575776,0.002060215484243849,-0.002206068558277946,-0.0005866429900828409,-0.00017681074283947438,-0.0010935321979996084,-0.1793939769268036,-51.51944351196289,-6.825150489807129,18.14490509033203,1.8327738046646118,-0.9995224475860596,0.10624848306179047,,,,,,,,,
1739302704.0112772,-0.12777927460680813,1.0766309705173123,-0.37314325742295473,-1.4100734586221675,1.5268913796961088,1.1409972023554722,1.3589379932894576,0.0003346408101423999,0.0010094039150661557,0.00013945987454860807,-5.84929631950175e-05,0.0008332604963983216,-0.0002922974883879658,-0.002715820363135818,-0.2071649730205536,-51.51944351196289,-6.825150489807129,18.12110137939453,1.8327738046646118,-0.9995224475860596,0.11998139321804047,,,,,,,,,
1739302704.0213304,-0.1277836048550122,1.0766267240401173,-0.37314283333930187,-1.4100725049605618,1.526889153082442,1.1409956870532603,1.3589457950154855,-0.0009205627418411335,-0.0006298769207137465,-0.00029155312097150696,0.0001967622684787733,-0.0009783467178779708,-0.00048625911662277357,0.0017538828032091713,-0.1793939769268036,-51.47183609008789,-6.801346778869629,18.12110137939453,1.8400980234146118,-0.9867050647735596,0.06596527993679047,,,,,,,,,
1739302704.031371,-0.12778154794931224,1.076628433494482,-0.37314566707787816,-1.410073184878878,1.5268883459786113,1.1409956826926098,1.3589441729357006,-0.0009931356759817682,0.00020810895242821521,-0.00036388812825475993,-0.0007422904783322744,-0.0007040208455297045,-0.0005006073037327402,0.0007753260252964412,-0.1793939769268036,-51.49563980102539,-6.801346778869629,18.12110137939453,1.8465067148208618,-0.9867050647735596,0.07969819009304047,,,,,,,,,
1739302704.0422962,-0.12777704671707774,1.0766323912049114,-0.37313929327348316,-1.4100743317764584,1.5268929732741803,1.1409956855996857,1.3589449126686843,0.0011209731208195026,0.0005695394982978623,0.00212632048173374,-0.00031742414174382335,0.0002512879599372543,-1.95099162450827e-05,0.000583917998178021,-0.2309686839580536,-51.54721450805664,-6.848954200744629,18.14490509033203,1.8465067148208618,-0.9867050647735596,0.07328949868679047,,,,,,,,,
1739302704.0523367,-0.12777685030980918,1.0766301460193484,-0.37314567852703345,-1.410072469623888,1.5268892577925421,1.1409972023733927,1.3589402763978762,0.0004294444543389671,7.21631407333612e-05,-0.0014835944884698774,0.00046562716234018224,-0.001539878969431889,0.00017092895989798368,-0.00022124888760645346,-0.2309686839580536,-51.51944351196289,-6.801346778869629,18.12110137939453,1.8400980234146118,-0.9995224475860596,0.11265717446804047,,,,,,,,,
1739302704.0633333,-0.1277785746902373,1.0766285570623515,-0.37314021176387296,-1.4100707135818313,1.526895432499636,1.1409964447133392,1.3589442073485276,0.000865196281672692,-0.0004726098070741329,0.0015973793773438295,0.0005348623858932431,0.003088583134530831,-0.0003574567024571001,0.00043000782578426144,-0.2071649730205536,-51.49563980102539,-6.848954200744629,18.09729766845703,1.8263651132583618,-0.9931137561798096,0.07969819009304047,,,,,,,,,
1739302704.0733547,-0.12778159431496466,1.0766267209757914,-0.3731431755678294,-1.4100706913066248,1.5268883867568654,1.1409979600334959,1.358946554154138,0.0005517544107045381,-0.0012338877818394343,-0.00045049782413866194,-8.671334588852039e-05,-0.0008427808898559819,0.0001379317273237598,0.0015490402598703841,-0.2071649730205536,-51.47183609008789,-6.825150489807129,18.09729766845703,1.8465067148208618,-1.0059311389923096,0.05955658480525017,,,,,,,,,
1739302704.0852728,-0.12778365340000258,1.0766328870593518,-0.3731428352580362,-1.4100706869455475,1.5268891036918686,1.1409924950569204,1.3589441293292182,-0.0013862202113188637,0.0015092822054352726,0.0006579843452118048,0.0007578375937191517,-0.0001460879621484941,-0.000595722457810194,0.0004691951819671401,-0.1793939769268036,-51.54721450805664,-6.801346778869629,18.09729766845703,1.8400980234146118,-0.9867050647735596,0.07969819009304047,,,,,,,,,
1739302704.097295,-0.12777985611757142,1.076629916428298,-0.37314306843284806,-1.4100686879367221,1.5268913780252076,1.1409972023494659,1.358949812056204,4.482397355148957e-05,-0.000777873717649329,0.0008484304558218738,0.0009463834642838479,0.0012231274998462246,-4.091865533038325e-05,0.0030178511037638224,-0.2309686839580536,-51.51944351196289,-6.801346778869629,18.06952667236328,1.8327738046646118,-0.9995224475860596,0.05955658480525017,,,,,,,,,
1739302704.1073582,-0.12777798539843183,1.076628434623673,-0.3731431472791825,-1.4100709253645582,1.526889966635886,1.1409922061608215,1.3589403168642982,0.0007944958233265428,-0.00019233747435878296,6.21890678302253e-05,-7.665264943635129e-05,-0.0005078010809925897,-0.0013462348348157811,-0.00030688843707833203,-0.2547723948955536,-51.49563980102539,-6.801346778869629,18.09729766845703,1.8327738046646118,-0.9931137561798096,0.11265717446804047,,,,,,,,,
1739302704.1183307,-0.12778344668132313,1.0766331526838642,-0.37314392199256247,-1.4100714947826236,1.526889652661082,1.140997202301637,1.3589423160983527,-0.0009139672829895543,0.0008401967927108411,9.932713071422554e-05,0.0010168396666862729,-0.0011581925397980513,0.0003489294711218956,0.00025672336145355495,-0.1793939769268036,-51.51944351196289,-6.825150489807129,18.06952667236328,1.8327738046646118,-0.9995224475860596,0.05955658480525017,,,,,,,,,
1739302704.1283562,-0.1277816773776636,1.076630155227185,-0.3731438908132784,-1.4100724784691607,1.5268890997598803,1.1409956870532603,1.3589396206989786,-0.0005435911446743426,-0.0002127406360510612,-0.0005640052856270663,0.00012330192050963762,0.0012037310265392608,-0.0005040172455851243,-0.0012111077412021458,-0.2071649730205536,-51.51944351196289,-6.801346778869629,18.12110137939453,1.8400980234146118,-0.9867050647735596,0.10624848306179047,,,,,,,,,
1739302704.139309,-0.12778294579656585,1.0766321545077646,-0.3731392669097826,-1.4100749776938613,1.526889138522987,1.1409983950173688,1.358947311805655,-0.0006504791727407692,0.0010965000527953244,0.0026230453050552814,-0.002072911863841778,6.583738217157966e-05,-0.0001448751346508899,0.001103255443008112,-0.1793939769268036,-51.54721450805664,-6.848954200744629,18.14490509033203,1.8400980234146118,-0.9867050647735596,0.05314789339900017,,,,,,,,,
1739302704.1503124,-0.12777791540496902,1.0766289376018654,-0.37314318710856154,-1.410068854408659,1.5268890999233715,1.1409932651682153,1.358939370464027,0.0008390553455960902,-0.0008995692594149206,0.0013911490159599317,0.002068263212965051,0.0004576643518050434,-0.0003096041534007903,-0.00019872826293345462,-0.2547723948955536,-51.49563980102539,-6.825150489807129,18.06952667236328,1.8400980234146118,-0.9931137561798096,0.09343110024929047,,,,,,,,,
1739302704.1622994,-0.12777783781265328,1.0766303932669037,-0.3731396172901226,-1.4100714022026561,1.5268907276796095,1.1409932657810025,1.358950570182936,0.0003130844451260933,0.0007069821574188892,7.842014640664755e-05,0.00017995902434349612,-0.00013424206096739787,-0.000521339245331298,0.002130477346880648,-0.2309686839580536,-51.51944351196289,-6.848954200744629,18.09729766845703,1.8263651132583618,-0.9931137561798096,0.05314789339900017,,,,,,,,,
1739302704.1732643,-0.12777873189289676,1.0766267209750946,-0.3731438853748801,-1.4100738658639487,1.5268933378296725,1.140996446095109,1.3589465542271297,0.0007367903082938366,-0.0008666723197824169,-0.0009976899217353575,0.00032985572500008795,0.000695343932935398,-0.00010895562593092782,0.0015029650325600675,-0.2071649730205536,-51.47183609008789,-6.825150489807129,18.09729766845703,1.8400980234146118,-0.9931137561798096,0.05955658480525017,,,,,,,,,
1739302704.183376,-0.12778136969869042,1.0766267209736988,-0.37314291143889505,-1.4100754220549596,1.5268933379014256,1.1409964445518568,1.3589366746172997,-0.0006789591885454349,-0.0014300515416321726,0.00048124093529069956,-0.0012411263814840125,0.00011475550121802013,0.00019614812593435086,-0.001367181255408044,-0.2071649730205536,-51.47183609008789,-6.801346778869629,18.12110137939453,1.8400980234146118,-0.9931137561798096,0.14012299478054047,,,,,,,,,
1739302704.1933827,-0.12777849556498183,1.0766301738264226,-0.37314495812128684,-1.41007291252931,1.526890525718363,1.1409956868917541,1.3589427600828843,-0.0004554467792194729,-0.00018799798879365256,-0.0009404895323929228,0.00040207227565135044,0.0002764657813543133,-0.0004458190676051546,0.00013511456035393787,-0.2071649730205536,-51.51944351196289,-6.801346778869629,18.09729766845703,1.8400980234146118,-0.9867050647735596,0.07969819009304047,,,,,,,,,
1739302704.204333,-0.12777923378909428,1.0766301566800702,-0.3731414191324758,-1.410070671193725,1.526891555478531,1.1409946272536247,1.3589457964312255,0.0007357514949853694,1.8933391588330016e-05,0.001307815880306441,-0.0007981942591844481,0.0001780661698711989,-0.000669010713710677,0.0013426903742933104,-0.2071649730205536,-51.51944351196289,-6.848954200744629,18.12110137939453,1.8465067148208618,-0.9867050647735596,0.06596527993679047,,,,,,,,,
1739302704.215309,-0.12778080981346823,1.0766306587346821,-0.37314314850237335,-1.410075637581825,1.5268901610692567,1.1409964445338858,1.3589409896606857,-0.0001711268581418594,-0.0006937823145774739,-5.9644163502755524e-05,-0.0005856940033699109,0.00012058282058723335,-0.00017264650330686286,-0.0014670807472928174,-0.1793939769268036,-51.49563980102539,-6.801346778869629,18.16870880126953,1.8400980234146118,-0.9931137561798096,0.07969819009304047,,,,,,,,,
1739302704.2253532,-0.1277813667702327,1.0766323712929173,-0.37314317544917686,-1.4100746418739774,1.5268899671304086,1.1409972004353472,1.358944930541895,-0.0006359233933055702,0.0009517048566865024,-0.0008979994774704814,-0.00119326248495305,0.00022227843234825544,0.0003735061411908459,0.00048416555013582833,-0.2071649730205536,-51.51944351196289,-6.825150489807129,18.12110137939453,1.8327738046646118,-0.9995224475860596,0.07328949868679047,,,,,,,,,
1739302704.2362742,-0.12778085948937623,1.0766326185166915,-0.37314176697438123,-1.410071509594547,1.5268901582692458,1.1409956870532496,1.358936236718399,-0.0005419006647996097,1.181705088438984e-06,-0.000634011790602006,-0.0010749900400743556,-0.0002074096145833118,-0.00048819653129584823,-0.0024791169884394665,-0.2071649730205536,-51.51944351196289,-6.825150489807129,18.09729766845703,1.8400980234146118,-0.9867050647735596,0.11998139321804047,,,,,,,,,
1739302704.2473133,-0.12777798459867717,1.0766301460291186,-0.3731393129809959,-1.4100725844213167,1.526888799851755,1.1409979077056869,1.358940732062291,0.0009368700175019775,-0.001041364252215669,0.0017241746094560887,-0.0003506788456506235,-9.524049016611995e-05,0.00016389795812449,-0.00043038041113813104,-0.2547723948955536,-51.51944351196289,-6.876725196838379,18.12110137939453,1.8400980234146118,-1.0059311389923096,0.09983979165554047,,,,,,,,,
1739302704.2592645,-0.12777680066056057,1.0766301552855817,-0.3731410495968269,-1.4100742259541788,1.5268883804316609,1.1409964447132406,1.3589417916625075,0.0014243224513235699,-0.0009179634594199025,0.0010790321206369555,-0.0006982939181979309,-0.0009046006584660176,5.1898216142005264e-05,-0.0003131820402232559,-0.2309686839580536,-51.51944351196289,-6.825150489807129,18.14490509033203,1.8465067148208618,-0.9931137561798096,0.09983979165554047,,,,,,,,,
1739302704.2693784,-0.12777951971716356,1.0766305031901935,-0.37314284392258595,-1.410074574369808,1.526889099277347,1.1409947811191077,1.3589449305958037,0.0002664319805341851,0.0020741682124223787,-0.00025667341043288664,-0.0002383329970401367,-0.0009695494901871023,-9.503583030579118e-05,0.0005257249332179709,-0.2071649730205536,-51.51944351196289,-6.801346778869629,18.14490509033203,1.8400980234146118,-1.0059311389923096,0.07328949868679047,,,,,,,,,
1739302704.279396,-0.12777923387892787,1.0766287631656746,-0.3731392669760096,-1.4100706869509774,1.5268907759533115,1.1409925080850374,1.3589417917183366,-0.0002063910794712817,-0.0010783668540769215,0.0016276206492750428,0.0010650973704079323,0.0003300417139075716,-0.0009623489510853799,-7.172639539081659e-05,-0.2071649730205536,-51.49563980102539,-6.848954200744629,18.09729766845703,1.8529154062271118,-0.9867050647735596,0.09983979165554047,,,,,,,,,
1739302704.2913306,-0.12777930960667447,1.0766302559054208,-0.3731451482226985,-1.4100706987192801,1.526890158933276,1.1409956870353153,1.3589436627395892,8.333912826692522e-05,8.187467907838685e-05,-0.000790804338378722,1.4989742928058802e-05,-0.0006702284685549939,0.0002863038675894651,-0.0013775889473589236,-0.2071649730205536,-51.51944351196289,-6.773575782775879,18.09729766845703,1.8400980234146118,-0.9867050647735596,0.07969819009304047,,,,,,,,,
1739302704.3013453,-0.127779232780915,1.076629196515743,-0.37314514836804047,-1.4100732203449717,1.526889611967632,1.1409956870532605,1.3589473118107533,-0.00018359496151792564,0.0002743091827612794,0.00011861959626703437,-0.0004392354924722112,-0.0009833921553936077,-0.00024439433818499985,-0.0001392285405466421,-0.2071649730205536,-51.47183609008789,-6.773575782775879,18.12110137939453,1.8327738046646118,-0.9867050647735596,0.05314789339900017,,,,,,,,,
1739302704.3122988,-0.12777852061909004,1.0766331954698813,-0.3731411282831577,-1.4100706869497608,1.5268872424245226,1.1409979600334959,1.3589410166156555,1.820184163815416e-05,0.0003816787393836406,-0.00011557639580735281,-0.0002978150903609419,-0.000764226347694681,0.0002525313775297422,0.000590608541684288,-0.2071649730205536,-51.51944351196289,-6.825150489807129,18.09729766845703,1.8199564218521118,-1.0059311389923096,0.10624848306179047,,,,,,,,,
1739302704.3223333,-0.1277770463861634,1.076628694022277,-0.3731431734168423,-1.4100771143036566,1.526889965102588,1.1409949289086656,1.3589449305955088,-0.0012239218332708562,-0.0006935953252301068,-0.0005645224406779662,-0.0005210728026370912,0.00026497005876402805,2.0944620395602954e-06,0.0007886116459084581,-0.2309686839580536,-51.49563980102539,-6.801346778869629,18.14490509033203,1.8327738046646118,-0.9802963733673096,0.07328949868679047,,,,,,,,,
1739302704.333266,-0.12777680549140627,1.0766307728073654,-0.3731428448605712,-1.410070792925492,1.5268890992232922,1.1409964442288196,1.3589451280592584,0.0011184316101099903,-0.0009747500761584591,6.718640657271506e-05,0.0010410645122658835,0.0003063623335264271,-0.000810858344683226,-0.00039409465719982906,-0.2309686839580536,-51.49563980102539,-6.801346778869629,18.09729766845703,1.8400980234146118,-0.9931137561798096,0.05955658480525017,,,,,,,,,
1739302704.3433187,-0.1277806449463357,1.076630150576934,-0.3731392931136852,-1.410075205975672,1.5268907228344373,1.140996444713331,1.3589392475176634,0.0002241093432597004,0.0012700294641112887,0.0014431852584504187,-0.0008344004135951516,0.00016446524936213416,-0.00014321579698552817,-0.0032262149331030608,-0.2071649730205536,-51.51944351196289,-6.848954200744629,18.14490509033203,1.8263651132583618,-0.9931137561798096,0.11998139321804047,,,,,,,,,
1739302704.3533428,-0.12778064465682082,1.0766324119547168,-0.37314116360051075,-1.4100730641474017,1.5268890992771276,1.1409972023734174,1.3589458024498324,0.00011402488129247363,0.0003499335557155742,0.000980019685280698,-0.0008675211637479022,-0.0007749126968440581,0.0009015114764474479,0.00035241888402010686,-0.2071649730205536,-51.51944351196289,-6.825150489807129,18.14490509033203,1.8400980234146118,-0.9995224475860596,0.06596527993679047,,,,,,,,,
1739302704.363397,-0.1277768054179516,1.0766284335328038,-0.37314284097232975,-1.4100746153696324,1.52688996517436,1.1409956870532607,1.358942562303,0.0006780589925625798,-0.0010803783806355538,0.00015194190676656396,-0.000819640802385567,0.0005620856313752672,-0.00036422994378378066,-0.0012713451012420786,-0.2309686839580536,-51.49563980102539,-6.801346778869629,18.12110137939453,1.8327738046646118,-0.9867050647735596,0.09343110024929047,,,,,,,,,
1739302704.3743305,-0.127777095107409,1.0766284349641309,-0.3731410787067248,-1.4100738747023416,1.5268925801695667,1.140995686891755,1.358942549378488,0.0007606552658676198,1.2448684984580193e-05,0.0007966368942340664,-4.047134283311529e-05,0.00036057447244482036,-0.00014212275902069092,0.0013586485195238856,-0.2309686839580536,-51.49563980102539,-6.825150489807129,18.09729766845703,1.8465067148208618,-0.9867050647735596,0.09343110024929047,,,,,,,,,
1739302704.3843684,-0.1277787988440105,1.0766343691961109,-0.37314495952542265,-1.4100735042409147,1.526889101286975,1.1409971892914623,1.358941791556831,0.0003415486669818466,0.0012615720588753316,-0.00090933015766373,-0.0008433975869692893,-0.0007322194079863133,-0.0009059727066550006,-0.0005511412794535736,-0.2071649730205536,-51.54721450805664,-6.801346778869629,18.12110137939453,1.8400980234146118,-0.9995224475860596,0.09983979165554047,,,,,,,,,
1739302704.3953984,-0.1277807335291255,1.0766284462067137,-0.3731410495568323,-1.4100714114734836,1.5268875897711833,1.140997201727321,1.358944015952298,-0.000185914387442254,0.0003884638384671051,6.381572737782184e-05,0.0001137896464179291,0.00045321834550609175,0.00022566034131661967,0.0009479776442379164,-0.2071649730205536,-51.49563980102539,-6.825150489807129,18.09729766845703,1.8529154062271118,-0.9995224475860596,0.07969819009304047,,,,,,,,,
1739302704.406331,-0.12777882567898197,1.0766307731452718,-0.37313950448289357,-1.4100685426077926,1.5268890992772262,1.1409960915006183,1.3589426161224396,0.00017146997497738897,0.0006114588418996978,0.0013704755230678465,0.0012848320824887392,-0.000630040671576518,-0.00044478649975171594,0.0006189690498984043,-0.2071649730205536,-51.49563980102539,-6.848954200744629,18.09729766845703,1.8400980234146118,-0.9931137561798096,0.06596527993679047,,,,,,,,,
1739302704.4173555,-0.12778050721086634,1.076632144977902,-0.373143885373349,-1.4100745702354165,1.5268879491584828,1.1409949293925177,1.3589351719424456,-0.0001739059172089352,-0.0007833929311686544,0.00019237983812905673,-0.00013360557147434925,-0.0010798136660338737,-0.0020643834561780688,-0.002525603584561012,-0.1793939769268036,-51.54721450805664,-6.825150489807129,18.14490509033203,1.8465067148208618,-0.9802963733673096,0.11998139321804047,,,,,,,,,
1739302704.4283383,-0.1277804894747598,1.0766301827576872,-0.3731428411304157,-1.4100725050546241,1.5268883411303171,1.1409950318625,1.3589465540757932,5.7801734192252144e-05,-0.0008111962886192855,0.00014299504391384406,0.0006858558958950266,-0.0006358987915548256,-0.0010739306339729686,0.0009814370051485577,-0.1793939769268036,-51.51944351196289,-6.801346778869629,18.12110137939453,1.8465067148208618,-0.9931137561798096,0.05955658480525017,,,,,,,,,
1739302704.4393375,-0.12777879883855447,1.0766316061079366,-0.3731449582288968,-1.4100710136674797,1.5268889303048963,1.140995687045285,1.3589441729357252,-0.00017461034759153483,-0.0004335414441802901,-0.0009857628862281883,0.0006373379034209582,-0.0008368502223237579,-0.0002949237829324146,0.0014712578713987387,-0.2071649730205536,-51.51944351196289,-6.801346778869629,18.09729766845703,1.8465067148208618,-0.9867050647735596,0.07969819009304047,,,,,,,,,
1739302704.449356,-0.1277767787035651,1.0766268350062185,-0.3731459121454268,-1.4100724696391413,1.5268882391776402,1.1409956870532603,1.3589465541535553,0.0010098771933223288,-0.0012500699083268219,-0.0017541940482240909,5.9703862712559954e-05,-0.00034239924803439474,0.00023849986326270783,0.0026606055677354484,-0.2309686839580536,-51.47183609008789,-6.801346778869629,18.12110137939453,1.8593240976333618,-0.9867050647735596,0.05955658480525017,,,,,,,,,
1739302704.4602973,-0.12777859179845644,1.0766310022228673,-0.373141058731202,-1.4100729386765478,1.5268892606238635,1.1409949293931825,1.3589473117597983,0.0008748980176672748,0.0007963806805958748,-0.0002041550584544546,-0.00014366689285773504,0.0009060395728282827,-0.0005670554026126172,0.0005367253828042734,-0.2071649730205536,-51.51944351196289,-6.825150489807129,18.09729766845703,1.8400980234146118,-0.9802963733673096,0.05314789339900017,,,,,,,,,
1739302704.470322,-0.12777964404939227,1.0766272793382599,-0.37314106121003104,-1.4100707795282323,1.5268895702356047,1.1409964447133392,1.358947272567774,0.00024776372231083654,-0.00026629273914363237,-0.0002669673481249725,0.0012308036885719498,0.00040010216634277793,0.0003259344986840026,0.0017608120366419417,-0.2309686839580536,-51.44406509399414,-6.825150489807129,18.06952667236328,1.8400980234146118,-0.9931137561798096,0.05314789339900017,,,,,,,,,
1739302704.481396,-0.12777872022125508,1.076632704316856,-0.3731414310012514,-1.4100709257073516,1.5268907228353246,1.140996142735288,1.3589454901547013,0.0004924352545386706,-0.0002502609648456026,1.1573454993035292e-05,0.00031433612169780333,3.842083925573804e-05,0.00016994421094873165,0.0004771166347661837,-0.2071649730205536,-51.51944351196289,-6.848954200744629,18.09729766845703,1.8263651132583618,-0.9995224475860596,0.05955658480525017,,,,,,,,,
1739302704.49261,-0.127776782595248,1.0766249826567449,-0.3731438957897792,-1.4100735757689684,1.526888340163499,1.1409964442228406,1.358936441802508,0.00021507376694304036,-0.002118373183665427,-0.0009345517486490888,-0.0007145083864554158,-4.985835872108854e-05,-0.00010332859470864555,-0.0016967813549314727,-0.2309686839580536,-51.44406509399414,-6.825150489807129,18.09729766845703,1.8465067148208618,-0.9931137561798096,0.10624848306179047,,,,,,,,,
1739302704.5033627,-0.1277785179021368,1.0766268079513042,-0.37314507233615857,-1.4100742788068217,1.5268907620802867,1.1409964447133363,1.358941028329842,-6.617254323829536e-05,-0.0006907601769482056,-0.00022047363149596327,5.849121227129544e-05,0.0009512467611890509,0.0004299411430500487,-0.0017361529051904163,-0.2071649730205536,-51.47183609008789,-6.801346778869629,18.14490509033203,1.8263651132583618,-0.9931137561798096,0.10624848306179047,,,,,,,,,
1739302704.5143251,-0.12778290905688752,1.0766306985676528,-0.3731442091181048,-1.4100724813964487,1.526888381024633,1.1409964447133392,1.3589402632623602,-0.002312404612603473,-0.00025643979836132585,8.556042494833616e-05,0.0006868698073773339,-0.0006261018787651668,-0.0001661487315228213,-0.001413849340124919,-0.1555902659893036,-51.49563980102539,-6.825150489807129,18.12110137939453,1.8465067148208618,-0.9931137561798096,0.11265717446804047,,,,,,,,,
1739302704.5254025,-0.12778048037176543,1.076627690057967,-0.37314386881717193,-1.4100746153899535,1.526889097339728,1.1409964447133392,1.358944736693179,-0.0005180676814021688,-0.0012152338307501035,0.0008297205550377696,-0.0002566494590222569,-0.0004362936177473878,-0.0003766046951288785,0.0002263240093177732,-0.1793939769268036,-51.44406509399414,-6.801346778869629,18.12110137939453,1.8400980234146118,-0.9931137561798096,0.06596527993679047,,,,,,,,,
1739302704.5362859,-0.1277821928803681,1.0766344551603237,-0.37314037559837404,-1.4100724699657414,1.5268899651743564,1.1409979600334959,1.3589485819408995,-0.0008727172894010605,0.0018409262663386435,0.0006828772272823299,0.00041817335353087155,5.0129092715263195e-05,0.0010165024510173932,0.0009685277904114399,-0.1555902659893036,-51.54721450805664,-6.876725196838379,18.12110137939453,1.8327738046646118,-1.0059311389923096,0.03941498324275017,,,,,,,,,
1739302704.546341,-0.12777811695355792,1.0766268076121328,-0.373145230460128,-1.41007342722145,1.526887939107748,1.1409964447133392,1.3589377774372355,0.0002923426696826761,-0.0010304540665877658,-0.0008807709872764962,-0.0001464934309865353,-0.00013850896522303005,-2.624701255237366e-05,-0.003157560880800577,-0.1793939769268036,-51.47183609008789,-6.801346778869629,18.12110137939453,1.8529154062271118,-0.9931137561798096,0.13279877603054047,,,,,,,,,
1739302704.556372,-0.1277789397688106,1.076629507960239,-0.37314171175166927,-1.4100724706199055,1.5268889055422452,1.1409964447133392,1.3589434152736535,-0.00023435557845536683,0.00019512128812233874,0.0002108021173624968,-0.000510294933843947,-0.0002911659883504953,0.0004678164728098577,0.00018492956634727644,-0.2309686839580536,-51.49563980102539,-6.848954200744629,18.12110137939453,1.8327738046646118,-0.9931137561798096,0.08610688149929047,,,,,,,,,
1739302704.5672636,-0.12777676994647216,1.076628461085649,-0.3731456784683831,-1.410072708150143,1.5268883416110677,1.1409964272707362,1.3589452538896045,0.0009785529531989216,-0.001028695949990653,0.00041572941902817066,-5.862444289334273e-05,-0.0013721837791213442,0.00012014282826222495,0.0005896387732612743,-0.2309686839580536,-51.49563980102539,-6.801346778869629,18.12110137939453,1.8465067148208618,-0.9931137561798096,0.07328949868679047,,,,,,,,,
1739302704.5773456,-0.12778071810847336,1.0766314140481283,-0.37315170086460003,-1.410072826763877,1.526888359059652,1.1409971456846624,1.3589457968336356,-0.00035365835153452823,-0.0003715078455582404,-0.001383477380664952,0.0015258841603411713,0.0007657198350790297,-0.0011433970814550345,0.001166810956728835,-0.1793939769268036,-51.49563980102539,-6.722001075744629,18.12110137939453,1.8465067148208618,-0.9995224475860596,0.06596527993679047,,,,,,,,,
1739302704.5874114,-0.12777676990207895,1.0766297708794512,-0.37314525336292986,-1.4100727199299428,1.5268899651746555,1.1409972023724573,1.3589425493784208,0.0002602154782391665,0.00016262363555460664,-0.000543871342617251,-0.00039732865542890143,-0.00035516859700394183,-0.00022620889780661861,-0.002511398065850253,-0.2309686839580536,-51.47183609008789,-6.773575782775879,18.12110137939453,1.8327738046646118,-0.9995224475860596,0.09343110024929047,,,,,,,,,
1739302704.597424,-0.12777529458410405,1.0766305158661449,-0.37314602069809494,-1.4100717334194366,1.5268890992771278,1.1409964447133392,1.3589359985998057,5.0059872325451324e-05,0.00042785917264102425,-0.0002682073930671764,-0.0010425982665436997,0.0006347117227568185,-0.00010260454505097577,-0.001434712072015986,-0.2547723948955536,-51.51944351196289,-6.801346778869629,18.06952667236328,1.8400980234146118,-0.9931137561798096,0.11265717446804047,,,,,,,,,
1739302704.6083348,-0.12777677868882834,1.0766294503410512,-0.3731438124380854,-1.4100724786158627,1.5268891180117754,1.1409956739713083,1.35894170659721,0.0010759932745174462,-0.00011748970001764968,0.0010879442178436303,0.0003584191918656758,1.1944739269656186e-05,-0.0009537465449903572,-0.0009787041493586465,-0.2309686839580536,-51.49563980102539,-6.801346778869629,18.12110137939453,1.8400980234146118,-0.9867050647735596,0.07328949868679047,760,728,707,39.328,0,0
1739302704.6193354,-0.1277767698981023,1.0766354816899657,-0.3731449237179746,-1.4100693342215511,1.5268883808630116,1.1409956870531868,1.3589430739797048,0.0007961247586127855,0.0011429233858346994,0.0004027882245316556,0.0012105338621994557,-0.00023670178631554566,0.00022301589174781198,-0.0014838970485606489,-0.2309686839580536,-51.54721450805664,-6.773575782775879,18.06952667236328,1.8465067148208618,-0.9867050647735596,0.07969819009304047,759,728,707,39.328,0,0
1739302704.6293404,-0.12777677282786487,1.0766300544247016,-0.37314569721197105,-1.410070713448789,1.5268883459783646,1.1409964447133392,1.3589410296789965,0.0013985870082823804,-0.0007596776773557681,-0.0005517473584483309,0.0013482470394631588,-0.0006418874380691187,0.00023642655148365576,-0.001185826041057692,-0.2309686839580536,-51.47183609008789,-6.801346778869629,18.09729766845703,1.8465067148208618,-0.9931137561798096,0.10624848306179047,760,727,707,39.328,1,0
1739302704.6402614,-0.12777979820350902,1.076631731672541,-0.37314602095684674,-1.4100746432983675,1.5268883417786288,1.1409935925456705,1.3589465149076243,-0.00019827567479211675,0.0007377681455870298,-0.0011279471890288137,-0.0005800457947399765,-0.000491393226221624,-0.0018724864932318577,0.0008978774778765459,-0.1793939769268036,-51.49563980102539,-6.801346778869629,18.12110137939453,1.8465067148208618,-0.9729721546173096,0.05955658480525017,760,726,706,39.436,0,0
1739302704.650376,-0.12777879882695065,1.0766295354867264,-0.3731442382853103,-1.410068636626871,1.5268915206929459,1.1409964447053635,1.358939216759386,-0.0004671266669827063,-0.00021184039547563637,1.0642096576010532e-05,0.0009848585662087714,0.0008509526133965882,-0.0005309399509659732,-0.0014803594932553507,-0.2071649730205536,-51.49563980102539,-6.825150489807129,18.06952667236328,1.8465067148208618,-0.9931137561798096,0.11265717446804047,762,726,706,39.328,0,0
1739302704.6613603,-0.1277804832900445,1.076625798855908,-0.37314345102332,-1.4100706879267249,1.5268883416230312,1.140997959548979,1.3589434150583126,-0.0007740576501209743,-0.0005587962337415352,0.0005155126700104115,0.0004196268794286292,0.00031469637622855346,-0.0006963382209577056,-0.00011235399229973992,-0.1793939769268036,-51.44406509399414,-6.825150489807129,18.09729766845703,1.8465067148208618,-1.0059311389923096,0.08610688149929047,760,726,708,39.436,0,0
1739302704.6722975,-0.12778058583289317,1.0766317711910296,-0.3731441596518745,-1.410074359244526,1.526884456277242,1.1409972023734147,1.3589441729357243,-0.000717282387324016,3.144371337238946e-05,-0.0005816850334921093,-6.524881463010671e-05,-0.0015956552093687962,0.0008582210244508462,0.0008518020425091945,-0.1793939769268036,-51.49563980102539,-6.825150489807129,18.14490509033203,1.8465067148208618,-0.9995224475860596,0.07969819009304047,759,726,708,39.436,0,0
1739302704.682303,-0.1277785616340114,1.076635481816119,-0.3731480629484529,-1.4100735745702528,1.5268890990498236,1.1409956870532607,1.3589441336898689,-0.0002538227847170465,0.0008121178452060726,-0.0014371329378765813,0.00043951731612947546,-0.0006440310662202242,0.000386074925503192,0.0009467769379197244,-0.2071649730205536,-51.54721450805664,-6.773575782775879,18.09729766845703,1.8400980234146118,-0.9867050647735596,0.07969819009304047,761,727,705,39.328,0,0
1739302704.6923046,-0.12777505748717455,1.0766300587207522,-0.3731439117799368,-1.41007279933664,1.5268883416170453,1.1409964432597888,1.358944155492458,0.0014014523275904622,0.00013269405824168723,-0.0010259896000051143,-6.212166036045078e-05,-0.0009323472136480094,2.4354236696354863e-06,0.00042502534947185016,-0.2547723948955536,-51.47183609008789,-6.825150489807129,18.12110137939453,1.8465067148208618,-0.9931137561798096,0.07969819009304047,762,727,706,39.328,0,0
1739302704.702365,-0.12777848241878573,1.076630046623982,-0.37314107681102415,-1.4100707929149197,1.5268883414555436,1.1409972023733927,1.3589429050792157,0.0006570686577113229,-0.0022040082707484076,0.001064965731677437,-0.0013085140599869009,0.00039466460708972786,0.0010714321885663051,-0.00021968345745200925,-0.2071649730205536,-51.47183609008789,-6.825150489807129,18.09729766845703,1.8465067148208618,-0.9995224475860596,0.08610688149929047,760,726,707,39.328,1,0
1739302704.7133107,-0.12777856543012994,1.0766317713544684,-0.37314602101648864,-1.4100686909170985,1.5268908801244114,1.1409964316313868,1.3589410967943225,0.0003549791621728978,0.00026226985997977606,4.14738405447786e-05,0.00022887799615993422,0.00030021008005192773,-0.00010414718123126336,-0.0014503341470185039,-0.2071649730205536,-51.49563980102539,-6.801346778869629,18.06952667236328,1.8529154062271118,-0.9931137561798096,0.09343110024929047,761,726,707,39.436,0,0
1739302704.7242627,-0.12777705971606806,1.0766361940194036,-0.37314213072366237,-1.4100707224126219,1.5268907209149782,1.1409964447132652,1.358946514737993,0.0007771670855330386,0.0014172909911757533,0.0008138491967577116,0.00035292539784194263,0.0007231444649010488,0.0006320180672394328,0.00011499456353745942,-0.2071649730205536,-51.54721450805664,-6.848954200744629,18.09729766845703,1.8263651132583618,-0.9931137561798096,0.05955658480525017,760,727,708,39.436,0,0
1739302704.7343369,-0.12777848239469025,1.076631762209232,-0.3731435210062608,-1.4100724725665819,1.5268883416170167,1.1409964316313868,1.3589425493777476,-0.0003183479553491508,-0.0002689159845071711,0.000498841378413514,2.177806790560526e-05,0.000314361501298694,2.1199702635629595e-05,-0.00026155381230955684,-0.2071649730205536,-51.49563980102539,-6.825150489807129,18.12110137939453,1.8465067148208618,-0.9931137561798096,0.09343110024929047,759,725,706,39.436,0,0
1739302704.7453606,-0.12777676989805226,1.0766287663815073,-0.37314321188398636,-1.4100706869455728,1.526889416523431,1.1409979600332742,1.3589425492169094,0.0006264788445565076,-0.0009688637431072454,0.0004922433928344461,0.0007637366732650619,-0.0006252686091776676,0.0006752890678242325,-0.0007851143805395946,-0.2309686839580536,-51.49563980102539,-6.825150489807129,18.09729766845703,1.8593240976333618,-1.0059311389923096,0.09343110024929047,762,725,708,39.436,1,0
1739302704.7553666,-0.12778048079368315,1.0766314627996796,-0.3731423502958114,-1.410073790311637,1.5268883372710205,1.1409953331945286,1.3589454944615897,-0.00214406012354717,4.9231926287536965e-05,0.0012548415548467556,-0.000877817888827389,-0.00024998899389590875,-0.0013077985915844435,0.0011983000131197091,-0.1793939769268036,-51.47183609008789,-6.848954200744629,18.09729766845703,1.8465067148208618,-0.9867050647735596,0.05955658480525017,761,726,709,39.436,0,0
1739302704.7663364,-0.1277777737857873,1.0766332554157518,-0.3731438941986843,-1.4100725487858716,1.5268875839569465,1.1409964442268248,1.3589448782620133,0.0004865846088500627,0.0009118879923429104,0.00011238214214146766,-0.00017922060439821134,-0.0007254360394526945,-0.0010370034887477514,-0.0004970555461822753,-0.2071649730205536,-51.54721450805664,-6.801346778869629,18.12110137939453,1.8529154062271118,-0.9931137561798096,0.07328949868679047,761,729,707,39.436,0,0
1739302704.777301,-0.1277802705129469,1.0766282982437942,-0.3731431861663131,-1.4100754366097512,1.5268867085593225,1.1409929636593916,1.3589425488936029,0.0001150333165989818,-0.001821466803590061,0.0012155087075245027,-0.0008717527656076793,-0.0012682891480288372,-0.0005647679979894673,0.00015247747935259588,-0.1793939769268036,-51.44406509399414,-6.801346778869629,18.12110137939453,1.8593240976333618,-0.9995224475860596,0.09343110024929047,760,726,707,39.436,0,0
1739302704.7883399,-0.1277784823095924,1.0766316889395782,-0.3731438688736691,-1.4100736970534573,1.5268883416163848,1.1409972023494896,1.358944172935723,-0.0009703223255419104,0.0002642563044097414,-0.001298123629906434,0.00013892203364069503,0.0002486767757759128,0.0004711170457009784,0.0015432333186267786,-0.2071649730205536,-51.49563980102539,-6.801346778869629,18.12110137939453,1.8465067148208618,-0.9995224475860596,0.07969819009304047,761,726,706,39.436,2,0
1739302704.7992513,-0.127778482418782,1.0766300853233637,-0.37314389513489354,-1.4100707929301226,1.5268891516049365,1.140997202373417,1.3589387458097708,0.00106302214105214,-0.0009019127022879059,-0.001194661094522188,0.002190224710943035,8.057634211484948e-05,0.0004155529734920801,-0.001034092786665732,-0.2071649730205536,-51.47183609008789,-6.801346778869629,18.09729766845703,1.8400980234146118,-0.9995224475860596,0.11265717446804047,761,726,710,39.436,1,0
1739302704.809353,-0.12777465278849232,1.0766334824057173,-0.3731414204585598,-1.4100724725665796,1.5268875839572664,1.1409964447133392,1.3589417785739089,0.0009793338073632541,0.0013853665855975018,0.0008045437542144372,0.0004309633503271189,0.000672127625671968,0.00035044127615238167,5.859430298000781e-05,-0.2309686839580536,-51.51944351196289,-6.848954200744629,18.12110137939453,1.8529154062271118,-0.9931137561798096,0.09983979165554047,761,726,709,39.328,0,0
1739302704.8203115,-0.12777640404113164,1.0766259343852738,-0.3731473922213507,-1.4100727080774766,1.5268844050425832,1.140997201727395,1.3589440014167222,-0.00036115997538703416,-0.0022160017259647605,-0.0011765094440435839,0.0009889646622504179,-0.0008010521327658928,0.00018490522410272774,-0.0009083160559893071,-0.2309686839580536,-51.44406509399414,-6.773575782775879,18.12110137939453,1.8529154062271118,-0.9995224475860596,0.07969819009304047,761,725,707,39.328,1,0
1739302704.8303251,-0.12778243311877388,1.0766300587977935,-0.3731431777777858,-1.4100746285847607,1.5268875839031357,1.1409956870532496,1.3589425493755103,-0.0023331088015955347,-0.0005184875941503114,-0.000675472660628388,-0.001130913288900603,-0.0011544593336225509,-6.473427018850584e-05,-0.00015154122273818504,-0.1555902659893036,-51.47183609008789,-6.801346778869629,18.12110137939453,1.8529154062271118,-0.9867050647735596,0.09343110024929047,760,725,708,39.328,1,0
1739302704.84133,-0.12777680505715538,1.076631771354537,-0.3731438135021056,-1.410070726203567,1.5268878859350217,1.1409929587603918,1.3589409940213375,0.0003312261784165918,0.00035476980312897007,-0.0002256398560618441,0.0002581300090044209,7.134488703490992e-05,-0.0010565418510808762,0.0002905028254618409,-0.2309686839580536,-51.49563980102539,-6.801346778869629,18.09729766845703,1.8593240976333618,-0.9995224475860596,0.07969819009304047,760,726,709,39.328,1,0
1739302704.8522823,-0.12777684965576444,1.0766317710153757,-0.3731438854864481,-1.4100753581178127,1.5268879882488156,1.1409937214031878,1.358941033986478,9.632314552831557e-05,7.140316886516382e-05,0.0009047091096645288,-0.0005195509423866272,-0.0006701628535196671,9.38020034623794e-05,-0.00011381373325483352,-0.2309686839580536,-51.49563980102539,-6.825150489807129,18.12110137939453,1.8465067148208618,-1.0059311389923096,0.10624848306179047,762,726,708,39.436,0,0
1739302704.8623235,-0.12777848242013456,1.076633483875263,-0.3731442108455937,-1.410072470107524,1.5268878706607854,1.140995669538876,1.3589457964930352,0.0008485756786668106,0.0016784823328153773,0.0011132194896537671,0.0003045705557883088,-0.0016607839343971119,0.00024880008166625647,0.0012240382390756215,-0.2071649730205536,-51.51944351196289,-6.825150489807129,18.12110137939453,1.8465067148208618,-0.9867050647735596,0.06596527993679047,762,725,709,39.436,1,0
1739302704.8732579,-0.1277767698620504,1.0766317716439016,-0.37314207717592385,-1.4100728327127376,1.526889959195995,1.1409949293930834,1.3589369900377017,0.0005621028341071375,2.781942897214017e-05,-0.0005328663945124171,0.0011904460319869647,-0.00010310196845920582,-0.0005629369854476514,-0.0023874162177639664,-0.2309686839580536,-51.49563980102539,-6.825150489807129,18.09729766845703,1.8327738046646118,-0.9802963733673096,0.14012299478054047,760,726,709,39.436,1,0
1739302704.8843439,-0.1277806182518877,1.0766300588338111,-0.3731450371992631,-1.4100752943133936,1.5268907633557747,1.14099491412493,1.3589472929168156,0.0007693167095952806,-0.0010099854783705534,-0.0002829288557749581,-0.0015405563466205905,7.591107722248807e-05,-0.0021415792378856923,0.0012668261288933174,-0.2071649730205536,-51.47183609008789,-6.801346778869629,18.14490509033203,1.8529154062271118,-0.9931137561798096,0.05314789339900017,760,726,707,39.545,1,0
1739302704.8953354,-0.12777848285684906,1.0766354817784372,-0.3731491618215318,-1.410066471686397,1.5268907184797702,1.1409956819898723,1.3589417736296758,0.0001953255731167653,0.0012736179142858513,-0.002373386586735624,0.002530528731431548,0.0007324568032126362,0.00018298098795973162,-0.0015180150626632955,-0.2071649730205536,-51.54721450805664,-6.749772071838379,18.06952667236328,1.8263651132583618,-0.9867050647735596,0.09983979165554047,761,726,707,39.436,1,0
1739302704.9053574,-0.1277791953397635,1.0766317713545366,-0.37314412324578555,-1.4100694287751183,1.5268871838701794,1.1409932657988653,1.358948576343727,-0.0005397367853365475,-8.597510508603337e-05,0.00017389755819918545,0.00040297944198188526,-0.00033705588636419586,-0.0007876094204951094,0.0006524842524119138,-0.2071649730205536,-51.49563980102539,-6.825150489807129,18.06952667236328,1.8593240976333618,-0.9931137561798096,0.03941498324275017,761,724,706,39.328,1,0
1739302704.9153602,-0.12777919480927163,1.0766334838752685,-0.3731413917626049,-1.4100709342083342,1.5268903183931253,1.1409960914467943,1.3589394104948673,4.69821706367738e-05,2.1101072686282056e-05,0.0003350905674083159,0.0010778782216935372,0.000886388771392795,-0.00016928013102490347,-0.0005123066960789958,-0.2071649730205536,-51.51944351196289,-6.825150489807129,18.09729766845703,1.8327738046646118,-0.9931137561798096,0.11998139321804047,759,725,709,39.545,0,0
1739302704.9263608,-0.12777856152773512,1.0766341991310058,-0.37314578387120745,-1.410070688255114,1.5268899695370048,1.1409956870512663,1.3589465539382144,-0.0016252800524795398,0.0014947500406500146,0.00019907688858119093,3.7941140556924737e-05,0.00016746080922649666,7.450809305685583e-05,0.0021034260163577726,-0.2071649730205536,-51.51944351196289,-6.801346778869629,18.09729766845703,1.8327738046646118,-0.9867050647735596,0.05955658480525017,761,725,708,39.436,0,0
1739302704.9373305,-0.12778048036008346,1.0766280479967323,-0.37314310639591414,-1.4100774433147623,1.5268882868666813,1.1409956865687438,1.3589449291422526,-0.0005595263893908677,-0.0014311186937754417,0.0011786396248631378,-0.0023537945594507784,-0.00020491718074739206,-0.0009036929916464091,0.00045388348201951445,-0.1793939769268036,-51.44406509399414,-6.801346778869629,18.14490509033203,1.8465067148208618,-0.9867050647735596,0.07328949868679047,759,724,708,39.436,1,0
1739302704.9473403,-0.12778216663470146,1.076635482457888,-0.3731456944082376,-1.410074491099229,1.5268891007297507,1.1409972023734092,1.3589471388774683,-0.0005070006957228871,0.0005781335728646102,-0.0006816321846103444,-0.00011056731495723504,0.0003429957720098672,6.142633636463058e-05,0.0007545711815626547,-0.1555902659893036,-51.54721450805664,-6.801346778869629,18.14490509033203,1.8400980234146118,-0.9995224475860596,0.05314789339900017,760,725,708,39.436,1,0
1739302704.9582577,-0.12778048035919243,1.076630058833817,-0.37313927966108523,-1.4100760614715775,1.5268875839569958,1.1409921887182188,1.3589391374743445,-0.0007544850726930409,-0.0008860795215125707,0.0009324419728747376,-0.0005284584478670196,-0.0004167655586278618,-0.0007866398491367947,-0.00012011176277542326,-0.1793939769268036,-51.47183609008789,-6.848954200744629,18.16870880126953,1.8529154062271118,-0.9931137561798096,0.08610688149929047,760,725,708,39.436,1,0
1739302704.96834,-0.12778048003561632,1.0766300588338062,-0.37314570574453126,-1.4100707252106819,1.5268889815395577,1.1409971848587388,1.3589425312173447,-0.0009491346257472547,-0.0002858767282426231,0.000608655117531346,0.000445937898103392,0.0009529357566368451,0.0003867009692343663,-0.00022628754745576983,-0.1793939769268036,-51.47183609008789,-6.801346778869629,18.09729766845703,1.8400980234146118,-0.9995224475860596,0.09343110024929047,760,726,707,39.328,0,0
1739302704.9792678,-0.12777845617311662,1.0766355112505142,-0.3731435788066583,-1.4100714287407372,1.526887544710893,1.1409971631275277,1.3589362315865252,-0.00013453322474762003,0.002231937630487351,0.00043373923173208707,-0.0010695815565062619,-0.00020460035119325648,0.0009879898519898859,-0.0015439374316867905,-0.2071649730205536,-51.54721450805664,-6.801346778869629,18.09729766845703,1.8529154062271118,-0.9995224475860596,0.11998139321804047,762,725,708,39.436,0,0
1739302704.9893577,-0.1277767698976082,1.076633483875767,-0.37314388335723364,-1.41007173329623,1.5268890992764632,1.1409979598713256,1.358944682535196,0.0005684591042198905,0.0007892556632782028,-8.27390926705117e-05,0.0003515375935175613,-7.35401768112734e-05,0.0009070318358403108,-0.001162856979692708,-0.2309686839580536,-51.51944351196289,-6.801346778869629,18.09729766845703,1.8400980234146118,-1.0059311389923096,0.06596527993679047,763,725,708,39.436,1,0
1739302705.0003943,-0.12777848241878387,1.0766334839116072,-0.3731441295103382,-1.4100706957817475,1.526886669313466,1.1409961383746363,1.3589472980255353,0.0006475947073332145,0.0007604224801658952,0.000863092335277287,0.0009149851367865787,-0.0018594311829083013,0.0006159893576713759,0.0013418954741381151,-0.2071649730205536,-51.51944351196289,-6.825150489807129,18.09729766845703,1.8593240976333618,-0.9995224475860596,0.05314789339900017,761,726,707,39.328,1,0
1739302705.0113304,-0.12778048003561632,1.0766334837245302,-0.3731457028815182,-1.4100732656593842,1.5268887460635319,1.140997202367411,1.3589413652194033,-0.0010100555618034154,0.00031725551492624906,-0.0001102645129141827,-0.0008362525910292387,0.0005334415836965139,0.00029962023761795814,0.00028206030518035277,-0.1793939769268036,-51.51944351196289,-6.801346778869629,18.12110137939453,1.8400980234146118,-0.9995224475860596,0.09343110024929047,760,725,709,39.545,0,0
1739302705.0232837,-0.12777575336002578,1.0766317712414826,-0.3731441206640471,-1.4100773913184885,1.5268890992751338,1.1409922061608218,1.3589420210869687,0.000883517196972704,-0.00024602240326364246,0.0013411688619755584,-0.0020478926053516854,-0.0008309095144871997,-0.0010541884568386185,2.8585838308398066e-05,-0.2071649730205536,-51.49563980102539,-6.825150489807129,18.14490509033203,1.8400980234146118,-0.9931137561798096,0.09343110024929047,760,725,709,39.545,1,0
1739302705.0343635,-0.1277784824016479,1.0766300588338058,-0.37314423839309757,-1.410071405186945,1.5268875795963204,1.1409964447053635,1.3589430738892398,-0.0006105727093820212,-4.316520738164979e-05,-0.0007567530957203225,-8.975086004744785e-05,-0.0008140161367437227,0.000878899727414496,-0.0006267450341957235,-0.2071649730205536,-51.47183609008789,-6.825150489807129,18.09729766845703,1.8529154062271118,-0.9931137561798096,0.07969819009304047,760,725,709,39.328,1,0
1739302705.046338,-0.1277806182518882,1.076630058833806,-0.3731435297243178,-1.410073181060106,1.5268875969850635,1.1409964447133392,1.3589415564807645,-0.0005533498672693593,0.0002455959738321953,0.0012641663819091048,0.0007859550248651549,-0.0005526963584051958,0.00030609414518856844,-0.00034026615540581613,-0.2071649730205536,-51.47183609008789,-6.825150489807129,18.09729766845703,1.8529154062271118,-0.9931137561798096,0.06596527993679047,761,726,706,39.328,0,0
1739302705.0573351,-0.12777676995029896,1.0766334835361069,-0.37314599380327323,-1.4100773900589443,1.526889097823602,1.1409979600334959,1.3589457567546848,0.0009907230106360459,0.0005677521077666693,-0.00042864912057720097,-0.000580903236161275,-0.0004581257049043279,-0.0005261395172542275,0.00023242339859242712,-0.2309686839580536,-51.51944351196289,-6.801346778869629,18.14490509033203,1.8400980234146118,-1.0059311389923096,0.06596527993679047,760,728,705,39.436,0,0
1739302705.068371,-0.12778048035963718,1.0766317713545355,-0.37314237697914626,-1.4100735385447671,1.5268868204826833,1.1409956739713083,1.358942617578424,-0.0004938427441683519,-0.00021650709930330197,-0.00021472392330240464,0.0003092167114750653,-0.0006877849775294066,-0.0008569375497988057,0.00014859888155412072,-0.1793939769268036,-51.49563980102539,-6.848954200744629,18.12110137939453,1.8593240976333618,-0.9867050647735596,0.06596527993679047,760,728,707,39.545,1,0
1739302705.0793118,-0.12778216667087197,1.0766317683020818,-0.3731498746802059,-1.4100728721826583,1.5268891103133098,1.1409964403526145,1.3589429042709422,-0.0015932189048539172,0.0003311585197923625,-0.002349995559948898,0.0005746449647011393,-4.287182086494534e-05,7.739294595394332e-05,0.0007337544367604805,-0.1555902659893036,-51.49563980102539,-6.749772071838379,18.09729766845703,1.8400980234146118,-0.9931137561798096,0.05955658480525017,760,726,707,39.328,0,0
1739302705.089324,-0.12777848241834,1.0766280873838547,-0.37314810075203686,-1.4100738789788705,1.5268890994388202,1.1409944539206727,1.3589355668335716,1.9980252402203367e-05,-0.0013439726557224621,-0.0013699964283684159,-6.0451740170878684e-05,-0.00011669458287483055,-0.0013133596805804477,-0.002753641704528849,-0.2071649730205536,-51.44406509399414,-6.773575782775879,18.09729766845703,1.8400980234146118,-0.9802963733673096,0.11265717446804047,760,725,706,39.545,1,0
1739302705.1002536,-0.12777505835392555,1.0766317708647866,-0.3731449712076701,-1.410075339966232,1.5268875970389242,1.1409972023707333,1.35894381969643,0.0009521466931988658,-0.00020669714162276814,0.00022059351670805584,-0.0007254292899832062,0.0008497305626270853,0.00021451071292627761,0.0012763135052426416,-0.2547723948955536,-51.49563980102539,-6.801346778869629,18.12110137939453,1.8529154062271118,-0.9995224475860596,0.07969819009304047,760,723,707,39.436,1,0
1739302705.1102605,-0.1277784824188004,1.0766298204152187,-0.37314032979952355,-1.410076508439846,1.5268890992773492,1.1409975555861271,1.3589454938634213,-0.00042417656244874075,-0.0003439757563241408,-1.1895447820350837e-05,-0.0005253725300256829,0.0019391061328299327,0.0008646580802943981,0.0011110938744032393,-0.2071649730205536,-51.47183609008789,-6.848954200744629,18.14490509033203,1.8400980234146118,-0.9995224475860596,0.05955658480525017,760,726,708,39.436,1,0
1739302705.120269,-0.12777690223017554,1.0766334927015486,-0.37314423792528906,-1.4100767542611299,1.5268868262968927,1.140997202379399,1.3589390383741284,0.00086043574696242,0.0001886801822657043,-0.00036737590302772505,7.972692678510245e-05,0.00045058253948513163,0.0012771477249861223,-0.0009455452192506108,-0.2309686839580536,-51.51944351196289,-6.825150489807129,18.14490509033203,1.8593240976333618,-0.9995224475860596,0.11998139321804047,760,725,708,39.436,1,0
