IITGN-Robotics/Franka_IITGN_ROBOTICS/franka_ros/franka_iitgn/data01/s_f_014.csv
time,fr3_joint1_pos,fr3_joint2_pos,fr3_joint3_pos,fr3_joint4_pos,fr3_joint5_pos,fr3_joint6_pos,fr3_joint7_pos,fr3_joint1_vel,fr3_joint2_vel,fr3_joint3_vel,fr3_joint4_vel,fr3_joint5_vel,fr3_joint6_vel,fr3_joint7_vel,fr3_joint1_eff,fr3_joint2_eff,fr3_joint3_eff,fr3_joint4_eff,fr3_joint5_eff,fr3_joint6_eff,fr3_joint7_eff,flexpin1,flexpin2,flexpin3,Force,ContactMic,ContactMic_gt
1739305194.4355316,-0.048431728822717394,1.1018040108178684,-0.485671669234041,-1.422540819643768,1.6261855321894114,1.0723375773378776,1.3562277716786622,0.0008787551009401553,-0.00048146798151748915,-0.00026761837768835993,0.0001519761767942392,-0.0009422273321654457,0.0004413041645472164,8.7200882253219e-05,-0.2309686839580536,-50.82913589477539,-9.594315528869629,17.03406524658203,1.9115091562271118,-1.1643173694610596,0.09343110024929047,,,,,,,,,
1739305194.4455333,-0.048433441343381706,1.1018002202782107,-0.48567554051918277,-1.4225370754032096,1.626188265563849,1.0723328841869861,1.3562260442046337,-0.001173283331927259,-0.0005772852068056541,-0.0005033533315971651,0.000854240958821127,-0.00027156272954826104,-0.001275674272972468,-0.0006929795175999332,-0.2071649730205536,-50.80533218383789,-9.542740821838379,16.98249053955078,1.8986917734146118,-1.1643173694610596,0.07969819009304047,,,,,,,,,
1739305194.4565055,-0.04843415163206528,1.1018046138934074,-0.4856727278791227,-1.4225449732612767,1.6261837675792157,1.0723334623187326,1.3562282797250662,-0.0011530880209763875,2.9723113646364617e-05,-0.00012509366244182118,-0.0018856668991112783,0.00015956926134019146,-0.0001542749621767154,-0.0005248578623954506,-0.2071649730205536,-50.85690689086914,-9.594315528869629,17.05786895751953,1.9115091562271118,-1.1707260608673096,0.05314789339900017,,,,,,,,,
1739305194.468461,-0.04843448185400096,1.1018049175625326,-0.48566992157462885,-1.4225411882261296,1.6261840401084968,1.0723327031657022,1.3562280934006226,-0.0004342897512623232,0.0007587665880800668,0.0007588770922015153,-0.00035965663390026705,-0.0014179490443940188,-2.171334601088192e-05,0.0006552138653749634,-0.2309686839580536,-50.82913589477539,-9.618119239807129,17.03406524658203,1.8986917734146118,-1.1643173694610596,0.05955658480525017,,,,,,,,,
1739305194.478477,-0.04843332692764465,1.1018048535298526,-0.4856747026864596,-1.4225449724268988,1.6261882655607722,1.072333501052781,1.3562222428282658,0.0001902613023651368,-0.0005245816414301576,-2.089947854842256e-06,0.0003090071617696414,0.00063257193391067,0.0001957511830687696,-0.00018334050606546933,-0.2071649730205536,-50.82913589477539,-9.566544532775879,17.05786895751953,1.8986917734146118,-1.1707260608673096,0.07328949868679047,,,,,,,,,
1739305194.4885585,-0.048430406835759415,1.1018032059870704,-0.48567738193861165,-1.422538431857034,1.6261825054126415,1.0723342184879,1.3562182938875809,0.0015392465632371394,0.0002761750677365261,-0.0014833419354034632,0.001339335205561021,-0.0011296615995929431,-0.0010705734504444183,-0.0022559885327173654,-0.2071649730205536,-50.80533218383789,-9.514969825744629,16.95868682861328,1.9115091562271118,-1.1771347522735596,0.10624848306179047,,,,,,,,,
1739305194.4995046,-0.048428614212331224,1.101803216383826,-0.48567380395100596,-1.422542373845736,1.626183278085393,1.0723327031477543,1.3562179653975204,0.00024886713361115713,0.00029911419247658877,0.0005642315617351122,0.0002966833194609403,0.00024965800494224625,-0.000859171292301807,-0.000988955765877666,-0.2825433909893036,-50.80533218383789,-9.594315528869629,17.01026153564453,1.9051004648208618,-1.1643173694610596,0.09983979165554047,,,,,,,,,
1739305194.510475,-0.04843329173924285,1.1018041645427494,-0.4856776663453151,-1.4225441565229047,1.6261870086390098,1.0723342184858558,1.356221469403972,-0.00018104051624665002,0.0002175868246429792,-0.0010998710038790226,-0.0009063182734986903,0.00040962057618889464,0.0004868549469018128,-0.0012423873521514456,-0.2071649730205536,-50.85690689086914,-9.542740821838379,17.03406524658203,1.9051004648208618,-1.1771347522735596,0.06596527993679047,,,,,,,,,
1739305194.5206077,-0.048430143765677246,1.1018069252551528,-0.485675645513999,-1.4225445196130975,1.626187518904108,1.072333460825778,1.3562205549218365,0.0006298231332282111,-0.0006007792630031139,-0.001719223118370861,-0.00014755722513499472,-0.001100206535028122,-9.15103401246769e-05,0.0003816116546813533,-0.2071649730205536,-50.85690689086914,-9.542740821838379,17.01026153564453,1.9051004648208618,-1.1707260608673096,0.05955658480525017,,,,,,,,,
1739305194.5315297,-0.04843082126577757,1.10180692810516,-0.4856723896022344,-1.422540297011582,1.626186645124396,1.0723326988050486,1.356217756470466,2.2087998382245163e-05,0.0005165421949014425,0.0005162386669985065,0.0019506998857191453,-7.400401291913036e-05,9.932550789128615e-05,0.001588852935349405,-0.2309686839580536,-50.85690689086914,-9.594315528869629,16.98249053955078,1.9115091562271118,-1.1643173694610596,0.07969819009304047,,,,,,,,,
1739305194.5424764,-0.04843223383084022,1.1018049297444084,-0.48567375881839153,-1.4225472570546123,1.6261880039449874,1.0723319455055966,1.3562181532627886,-0.0017541678291947225,-0.0002042943872372528,0.000786240223838687,-7.772356799766353e-05,0.0016073138332829426,-0.00017689297648264076,-0.00012067505561955344,-0.1793939769268036,-50.82913589477539,-9.566544532775879,17.03406524658203,1.8986917734146118,-1.1579086780548096,0.10624848306179047,,,,,,,,,
1739305194.5525506,-0.04843237798423981,1.101802148650565,-0.4856737460685726,-1.422549157848741,1.6261817664832243,1.0723327031656995,1.356217045864609,-0.0008699578402848875,-2.7891459910863023e-05,0.00039115568849990966,-0.00019909667586327066,-0.0014813436128872123,0.00022105166608665425,0.0004138019884751731,-0.1793939769268036,-50.82913589477539,-9.566544532775879,17.05786895751953,1.9179178476333618,-1.1643173694610596,0.07969819009304047,,,,,,,,,
1739305194.5635276,-0.04843598103519839,1.101799507275322,-0.48567167808839334,-1.4225473486464304,1.6261851396037479,1.072330961870819,1.3562198449702605,-0.0011703517804472381,-0.002542684567473668,0.0010959107797306133,-0.00051141564367641,4.016877317137104e-05,-0.001166842140189976,-0.000315475074113858,-0.1555902659893036,-50.75375747680664,-9.594315528869629,17.03406524658203,1.9252420663833618,-1.1505844593048096,0.05314789339900017,,,,,,,,,
1739305194.5735908,-0.04843214125580283,1.1018049046545175,-0.4856716780524581,-1.4225509405273111,1.6261873603952426,1.0723312509055043,1.3562149216269286,-0.0010310016883259736,-0.0008718993012670321,0.0009245830456644081,-0.0014595725865546093,0.00013483178777638332,-0.001132888749576376,-0.0019062732074623244,-0.1793939769268036,-50.82913589477539,-9.594315528869629,17.08167266845703,1.9179178476333618,-1.1643173694610596,0.09343110024929047,,,,,,,,,
1739305194.5845716,-0.04843013191156389,1.1018049301641788,-0.48567167945654666,-1.422547348682769,1.6261854954440922,1.0723316433578665,1.3562117961557372,-0.0004718506238126608,0.000472965265407271,0.0008434759643264567,0.0005016616766120983,-0.00037675099379281683,-0.0004474562746545921,-0.0010025875714427621,-0.2071649730205536,-50.82913589477539,-9.594315528869629,17.03406524658203,1.9179178476333618,-1.1643173694610596,0.11998139321804047,,,,,,,,,
1739305194.5955138,-0.048428418091672455,1.1018032357402923,-0.4856744664753358,-1.4225491578502927,1.6261882784965045,1.0723323837270975,1.3562189263995708,0.0006929423116546547,-0.0011614901989838024,-0.0010501821936589315,-0.0016013930315823893,0.0017537042899541397,-0.00015320656794876015,0.00046699133151557247,-0.2309686839580536,-50.80533218383789,-9.566544532775879,17.05786895751953,1.8986917734146118,-1.1707260608673096,0.05955658480525017,,,,,,,,,
1739305194.6064878,-0.04842694624317419,1.101801732422113,-0.48567557844307363,-1.4225495209409345,1.6261874672252135,1.0723291659581216,1.3562169077211714,0.00010281701332882053,-0.0008609790084928178,-0.0009032681060969284,-0.0002176153066087913,0.0011212069902936338,-0.0006055596628373495,0.0009676701400458375,-0.2547723948955536,-50.75375747680664,-9.542740821838379,17.03406524658203,1.9051004648208618,-1.1643173694610596,0.07969819009304047,,,,,,,,,
1739305194.6165242,-0.0484318927769005,1.1018069373755965,-0.48567553757781956,-1.4225455929327684,1.6261843290075004,1.0723288553143728,1.3562181643965932,2.454811727116413e-05,0.00045852783282782664,-0.0004669010677883208,0.0003162867760356207,-0.0016036242447325427,0.00020815577691942296,0.0008939744757998155,-0.1793939769268036,-50.85690689086914,-9.542740821838379,17.01026153564453,1.9051004648208618,-1.1707260608673096,0.06596527993679047,,,,,,,,,
1739305194.6274953,-0.04843237700768037,1.1018049419380973,-0.4856716793485343,-1.4225510209817673,1.6261824068171153,1.0723334041286523,1.356213928732749,-0.0004660106241238191,-0.00042022212792023635,0.0008918016725919215,-0.0008050648150685514,-0.0005791015310632677,0.0026299740511319066,-0.0006531089448108025,-0.1793939769268036,-50.82913589477539,-9.594315528869629,17.08167266845703,1.9115091562271118,-1.1707260608673096,0.06596527993679047,,,,,,,,,
1739305194.6375282,-0.04843384140295113,1.1018077915145201,-0.48567553953820763,-1.422548453521015,1.6261863926174036,1.0723314346625024,1.3562161918969995,-0.0016446008478994837,0.0006559443593778071,-0.0005078882683946633,0.0007350764576420133,0.0012239995318854687,0.002057918266326451,0.00012154827021467436,-0.1555902659893036,-50.82913589477539,-9.542740821838379,17.01026153564453,1.9115091562271118,-1.1579086780548096,0.07969819009304047,,,,,,,,,
1739305194.6475413,-0.04843211686124549,1.101801221059391,-0.4856716780524409,-1.4225455925451551,1.626187520838789,1.0723294506708925,1.3562141465155393,-0.0007836775556173198,-0.0013729613624108494,0.0001526890000673615,0.000306048648916975,0.0013530669506970749,0.0005371599254934824,-0.00045071950174948704,-0.1793939769268036,-50.77756118774414,-9.594315528869629,17.01026153564453,1.9051004648208618,-1.1771347522735596,0.09983979165554047,,,,,,,,,
1739305194.6584976,-0.04843013054014284,1.10180703414302,-0.4856764941118863,-1.4225530859679238,1.6261859605725226,1.0723303691842176,1.3562189205850443,0.0007560330129526211,0.0007535888434676212,-0.0013325435966991819,-0.0010134200770987225,-0.0019427174267846196,-0.0001002342210840319,0.0007153487286470135,-0.2071649730205536,-50.85690689086914,-9.542740821838379,17.08167266845703,1.9179178476333618,-1.1579086780548096,0.05955658480525017,,,,,,,,,
1739305194.6685038,-0.048432128553233485,1.1018058878740369,-0.48567375785846223,-1.4225492641779363,1.6261836418406026,1.0723263112908645,1.3562148038865351,-0.0007706169652992732,0.0005324943585873433,0.0002041200417186282,-0.000996331578114371,-0.0006074916754083852,-5.5560208500226866e-05,0.00037690332612402584,-0.1793939769268036,-50.82913589477539,-9.566544532775879,17.05786895751953,1.8986917734146118,-1.1505844593048096,0.09343110024929047,,,,,,,,,
1739305194.679507,-0.04843244423709407,1.1018098156244847,-0.4856734400588812,-1.4225541560722148,1.6261828265843479,1.0723263243187593,1.3562149878857053,-0.0012462083520284899,-0.0005666611103960388,0.000627357367207145,-0.002408320718697489,-0.0015642521373018393,-0.00017545876029453132,0.00037275360842530664,-0.1793939769268036,-50.85690689086914,-9.566544532775879,17.08167266845703,1.9179178476333618,-1.1505844593048096,0.06596527993679047,,,,,,,,,
1739305194.6895175,-0.04842841679788606,1.1018052523562964,-0.48567376658548694,-1.4225523751933113,1.6261847933597233,1.0723263131750953,1.3562131042721277,1.797274946304864e-05,-0.0014703193293551784,0.0003865384816798412,-0.0004442014201683232,0.001152460252612055,3.9439380642345605e-05,-0.0003734817437345704,-0.2309686839580536,-50.82913589477539,-9.566544532775879,17.05786895751953,1.8922830820083618,-1.1505844593048096,0.09983979165554047,,,,,,,,,
1739305194.7004979,-0.04843013061237435,1.1018049345267924,-0.48567390893417034,-1.4225580094356234,1.6261850975749037,1.0723275772207679,1.3562117812872039,-0.001056676450534845,-0.0022890847052463264,-0.0002088163050460557,-0.0017192269759399848,-4.766766781218309e-05,0.000281025880348657,-0.0018768971186593954,-0.2071649730205536,-50.82913589477539,-9.594315528869629,17.13324737548828,1.8986917734146118,-1.1643173694610596,0.11998139321804047,,,,,,,,,
1739305194.710506,-0.04842841809165045,1.1018101423409088,-0.48567166925991995,-1.4225541596144367,1.6261849231727892,1.0723271771279836,1.3562187687698701,7.765473035536771e-06,4.536180013239811e-05,0.0006528039990043411,-0.0002512990657939618,0.0002206457583625351,-6.184664312400037e-05,0.0006842466353382756,-0.2309686839580536,-50.85690689086914,-9.594315528869629,17.08167266845703,1.8986917734146118,-1.1579086780548096,0.05955658480525017,,,,,,,,,
1739305194.7205198,-0.048429997687183986,1.1018087593990566,-0.4856737665907197,-1.4225522469902396,1.6261875072217729,1.0723263105907843,1.3562213076140635,-4.969417081753072e-05,-0.000374576800290213,-0.000584259687537513,0.000759976924712121,0.0006564991172091138,0.00019252448193884437,0.001423749103267265,-0.1793939769268036,-50.88071060180664,-9.566544532775879,17.05786895751953,1.9051004648208618,-1.1505844593048096,0.03941498324275017,,,,,,,,,
1739305194.732532,-0.04843058402165675,1.1018072827721066,-0.48567375881442415,-1.4225555940069752,1.62618362972837,1.0723259056962844,1.3562164274439443,-0.00020332847798004336,-0.0007149402627956566,-6.650920416194074e-05,-0.0003593003635284516,-0.001010273323442657,-0.0013170314672587256,-0.0002500313254185524,-0.2309686839580536,-50.85690689086914,-9.566544532775879,17.05786895751953,1.8986917734146118,-1.1505844593048096,0.07969819009304047,,,,,,,,,
1739305194.7435164,-0.04842918357690793,1.1018096300945657,-0.48567452086766116,-1.4225554763973198,1.62618428327746,1.0723261875227672,1.3562112356314022,0.0006246044760510547,0.0003418156731575673,0.0004392200885669535,0.001777451528761929,-0.0022185831319387265,0.00046452847595282486,-0.0019343603339024057,-0.2071649730205536,-50.88071060180664,-9.514969825744629,17.05786895751953,1.9051004648208618,-1.1505844593048096,0.11265717446804047,,,,,,,,,
1739305194.7535422,-0.048430126590752715,1.101803480716903,-0.48566989532294913,-1.4225520029783258,1.6261876232595538,1.072327171317743,1.3562157874975065,-0.0004405072769243021,-0.0005851855649774823,0.0024234256680142055,0.0018176681293366154,0.0015244544645283504,0.0011403531664857356,-0.0005660664681751021,-0.2071649730205536,-50.77756118774414,-9.618119239807129,17.01026153564453,1.8922830820083618,-1.1579086780548096,0.08610688149929047,,,,,,,,,
1739305194.7645059,-0.04842670546263735,1.1018102944679304,-0.48567375913839506,-1.4225612271778285,1.626187755165245,1.0723271727733554,1.3562133714740219,0.000906347680988433,7.011344422507156e-05,0.0008738512137844029,-0.002687619340171518,0.000782048479302736,0.0010457136790379558,-0.001769282462120229,-0.2547723948955536,-50.82913589477539,-9.566544532775879,17.13324737548828,1.8986917734146118,-1.1579086780548096,0.10624848306179047,,,,,,,,,
1739305194.775509,-0.04842831239457347,1.101810146804445,-0.48567761736575576,-1.4225555823973997,1.6261864475836787,1.072326364959827,1.3562149209241494,0.0004912393508037474,0.00046531528640028717,-0.0010239138703236228,-0.00011241444734624135,0.000698408266105651,-9.82223742880131e-05,-0.0013507208882760301,-0.2309686839580536,-50.85690689086914,-9.514969825744629,17.05786895751953,1.9051004648208618,-1.1643173694610596,0.09343110024929047,,,,,,,,,
1739305194.7864652,-0.04842941707532508,1.1018083885419152,-0.4856716780524409,-1.4225555941711587,1.6261847419575024,1.0723240879047018,1.3562156692993452,0.000450131469462885,0.00020158918321368767,0.0011251185098678886,0.000176634048923682,1.0208873742749479e-05,-1.0008873426622087e-05,-0.0016456253951369327,-0.2071649730205536,-50.82913589477539,-9.594315528869629,17.05786895751953,1.8986917734146118,-1.1441757678985596,0.08610688149929047,,,,,,,,,
1739305194.7965033,-0.04842841418223504,1.1018138228815133,-0.4856755434355173,-1.4225573778293796,1.6261871632118123,1.0723215450207289,1.3562153678038127,-1.8508305217315594e-05,-3.067997488687656e-05,-0.0006933509172666402,-0.00068971357881615,0.0009572576277720397,0.0006083215889003649,0.0005660050094124728,-0.2309686839580536,-50.90848159790039,-9.542740821838379,17.08167266845703,1.9051004648208618,-1.1505844593048096,0.07969819009304047,,,,,,,,,
1739305194.807494,-0.048428418091628386,1.1018101732467533,-0.48567761932805775,-1.4225573891670882,1.626184286930034,1.0723227634287293,1.3562195648616555,0.0006354059882443236,-0.0001012928286197682,-0.00043926618514962047,-0.0012350680772164947,0.0013109801577549656,-0.0007979566222397545,0.001447348860166358,-0.2309686839580536,-50.85690689086914,-9.514969825744629,17.08167266845703,1.8922830820083618,-1.1579086780548096,0.05314789339900017,,,,,,,,,
1739305194.8184664,-0.04843010430539337,1.1018118592771735,-0.48567383657929636,-1.4225555156797094,1.626187748847908,1.0723282823167744,1.3562130356467155,0.0001639642507112382,-0.00013305704620582642,-0.0006762759562811564,0.00017372647631681905,0.0009062804998993295,0.0010999652372184064,0.0003788065628266195,-0.2071649730205536,-50.88071060180664,-9.566544532775879,17.05786895751953,1.8986917734146118,-1.1707260608673096,0.10624848306179047,,,,,,,,,
1739305194.8285682,-0.04842998859326176,1.101813887633117,-0.4856764856877958,-1.4225547307189388,1.626189030294197,1.0723225396065816,1.3562132296313105,-0.001456799984213204,0.0018862547970386152,-0.00040378979395746796,0.0006092273845179563,0.0011019688110534566,-5.902886038659234e-05,-0.00021800820338070085,-0.1793939769268036,-50.90848159790039,-9.542740821838379,17.03406524658203,1.8922830820083618,-1.1579086780548096,0.07969819009304047,,,,,,,,,
1739305194.8395438,-0.04842967192313786,1.1018104747861175,-0.48567378830558267,-1.4225538153149646,1.6261853341342192,1.0723246817434307,1.3562172626248903,-0.0003157637031254479,-1.4557275585942443e-05,-0.00039157772421139864,0.0007567778024485829,0.0005477143021016084,0.000783800196225489,0.002269774346149685,-0.1793939769268036,-50.85690689086914,-9.566544532775879,17.03406524658203,1.8922830820083618,-1.1771347522735596,0.04673920199275017,,,,,,,,,
1739305194.850457,-0.048430130562427495,1.1018150774388213,-0.48567191386356634,-1.4225597925360869,1.626185137884071,1.0723224087624572,1.356215783142839,-0.0007742253856537018,0.0009792335284780755,0.00016537295446715348,-0.0018354357085931022,-0.00017107659559754897,0.0003098131822971805,-3.264063928479005e-05,-0.2071649730205536,-50.88071060180664,-9.594315528869629,17.10944366455078,1.8922830820083618,-1.1579086780548096,0.08610688149929047,,,,,,,,,
1739305194.8604581,-0.048429180637804006,1.101811966276184,-0.48567167859244764,-1.4225555984123863,1.6261859380243346,1.0723231664225354,1.3562126465443218,-0.0005211909179257037,0.00111656954449733,0.0008002835394731785,-0.00024350404405666353,0.001556013448145006,-0.0002379360327925769,-0.000688662229167545,-0.2071649730205536,-50.88071060180664,-9.594315528869629,17.05786895751953,1.9051004648208618,-1.1643173694610596,0.11265717446804047,,,,,,,,,
1739305194.8704662,-0.048425758503253265,1.1018104123217345,-0.4856737578423222,-1.422556797122811,1.6261835240769886,1.0723224087624572,1.3562187694158816,0.0008032845237352841,0.00046889920184339464,0.0003447858012013801,8.912944342162545e-06,-0.001761677913269786,0.0009422520731553607,0.00032794022463416054,-0.2547723948955536,-50.82913589477539,-9.566544532775879,17.03406524658203,1.8986917734146118,-1.1579086780548096,0.05955658480525017,,,,,,,,,
1739305194.8804917,-0.04843013059634298,1.1018083906515568,-0.4856744693914972,-1.4225563860069337,1.6261881041601023,1.0723224087624572,1.3562134185339625,0.0005910734199263154,-0.000495234725019049,-0.00025555714212611633,-0.00021476698309166192,0.000535669053768134,3.458239082971114e-05,-0.0014054993515378409,-0.2071649730205536,-50.82913589477539,-9.566544532775879,17.05786895751953,1.8986917734146118,-1.1579086780548096,0.06596527993679047,,,,,,,,,
1739305194.891504,-0.048432128553234616,1.1018130110507962,-0.4856755408473694,-1.4225556291699173,1.626186237914013,1.0723207852051464,1.3562187548535996,-0.0010494734064844385,0.0005862562190027422,-0.00011003264160691016,0.0005220273549637786,-0.0010778473982858043,-0.00018658932798302314,0.0011178533003393413,-0.1793939769268036,-50.85690689086914,-9.542740821838379,17.05786895751953,1.9115091562271118,-1.1441757678985596,0.05955658480525017,,,,,,,,,
1739305194.9015749,-0.04842776298343641,1.101814008471948,-0.48567695116259735,-1.4225581469034074,1.6261887256184788,1.0723215428652249,1.3562157474820504,-0.0001876752815079611,0.001076653107890008,0.00027135385223555215,-0.0015073831466289366,0.002121245621371548,7.52376438231185e-05,-0.00023078102451573232,-0.2071649730205536,-50.88071060180664,-9.542740821838379,17.08167266845703,1.8858743906021118,-1.1505844593048096,0.05955658480525017,,,,,,,,,
1739305194.9125378,-0.04842360086381359,1.101809377819836,-0.48567554045428124,-1.4225586063637092,1.6261842854724724,1.0723215428652249,1.3562149041098204,0.0008094360301086884,0.0007658625115712221,-0.0005095731646298573,-0.0006714568562145244,-0.0008027922134133987,0.00012250631760409155,0.0006267168853973632,-0.2547723948955536,-50.80533218383789,-9.542740821838379,17.05786895751953,1.8922830820083618,-1.1505844593048096,0.09343110024929047,,,,,,,,,
1739305194.9235244,-0.04842746701695539,1.101806440380955,-0.48567380395145415,-1.4225565939710436,1.6261892278948886,1.0723224087624572,1.3562125504649392,0.0006946250422962525,-0.0001405665458157631,0.001370499320724799,0.0008763883097369057,0.0006460077415813773,0.0002177893530067015,-0.0010446169862963024,-0.2309686839580536,-50.80533218383789,-9.594315528869629,17.05786895751953,1.8785501718521118,-1.1579086780548096,0.08610688149929047,,,,,,,,,
1739305194.9355216,-0.04843211674761186,1.1018130372496975,-0.4856737577452976,-1.4225586933223038,1.6261859317835539,1.0723215026382218,1.3562196316595048,-0.0014114649837679485,0.0022462636945316345,6.934615878936474e-05,-0.001558338716525461,-0.001082969387759416,-0.00039039043063399364,0.00035583449775553836,-0.1793939769268036,-50.85690689086914,-9.566544532775879,17.05786895751953,1.9051004648208618,-1.1505844593048096,0.05314789339900017,,,,,,,,,
1739305194.946468,-0.04842617014925519,1.10181257486495,-0.48567168064159366,-1.4225618654615708,1.6261829231908687,1.072320418692376,1.3562181668006594,0.0010661625551183496,0.0005192014138043037,0.0011052048819966116,-0.0021613157429536583,-0.00014100525551003537,-0.0004042893822576502,-0.00036157346384805764,-0.2309686839580536,-50.88071060180664,-9.594315528869629,17.10944366455078,1.9051004648208618,-1.1441757678985596,0.06596527993679047,,,,,,,,,
1739305194.9565122,-0.048430048297312164,1.10181029492152,-0.4856737578423569,-1.422560489809908,1.6261877507885418,1.0723224087562502,1.3562113103428732,-0.0013996505432035643,-0.0005307184353086343,0.00019063624813191253,-0.001354736581571443,0.0002909287461918756,0.0004911252046061777,-0.0008081920584735185,-0.2071649730205536,-50.82913589477539,-9.566544532775879,17.10944366455078,1.8986917734146118,-1.1579086780548096,0.11998139321804047,,,,,,,,,
1739305194.9675124,-0.04842905031036358,1.101807576217265,-0.4856737578423131,-1.4225586945472428,1.6261874817577364,1.072321544318775,1.3562188866663036,0.0007149221689844424,0.00030037360478667717,-0.000594321073721635,-0.0007839617766098176,0.0008606353318028529,0.0004215225093142621,0.0008210981108251253,-0.1793939769268036,-50.77756118774414,-9.566544532775879,17.05786895751953,1.9051004648208618,-1.1505844593048096,0.05955658480525017,,,,,,,,,
1739305194.9775565,-0.04842696073055235,1.10181210984925,-0.4856776085354307,-1.4225584646907072,1.626189264409337,1.0723215428652493,1.3562150918090052,8.82184467739987e-05,0.0006492385681910893,-0.0005969228130426155,-0.0006420413589925424,0.0001763385978437574,0.00041571128867142,-0.00025267590254728577,-0.2071649730205536,-50.88071060180664,-9.514969825744629,17.05786895751953,1.8858743906021118,-1.1505844593048096,0.05314789339900017,,,,,,,,,
1739305194.9884841,-0.04842833034770904,1.1018160956863714,-0.4856737578782489,-1.422558617994547,1.6261842811148632,1.0723193310734802,1.3562181234913384,-2.6835011002576518e-05,0.0019624088255354053,-0.0007037050277715552,-0.0008805374302184637,-0.0015166681434022854,-0.0018546074866511658,0.0010104946984100718,-0.2309686839580536,-50.90848159790039,-9.566544532775879,17.05786895751953,1.8922830820083618,-1.1441757678985596,0.06596527993679047,,,,,,,,,
1739305194.9995527,-0.0484321021374919,1.101811207823971,-0.48567133367006565,-1.422552753992978,1.626183549702506,1.0723249837125346,1.3562126289609748,-0.0022743164485673935,0.0008191246091464783,0.0012837621245202343,0.0019257323895163182,-0.0005795952582850457,0.002084543085887725,-0.0006827022528390214,-0.1793939769268036,-50.85690689086914,-9.594315528869629,17.01026153564453,1.8986917734146118,-1.1707260608673096,0.09983979165554047,,,,,,,,,
1739305195.0105371,-0.04842831145617847,1.101804450169642,-0.4856714396319343,-1.4225597871280098,1.626185540818258,1.0723215384015394,1.3562134178819336,0.00070307289574296,-0.0021315893868018654,0.0018473447807330697,-0.001131237020552555,-0.000408737485334877,-0.0003457276422617944,-0.0009142487935315492,-0.2309686839580536,-50.77756118774414,-9.594315528869629,17.08167266845703,1.8858743906021118,-1.1505844593048096,0.06596527993679047,,,,,,,,,
1739305195.0215414,-0.048428146252169596,1.10180846717905,-0.4856716780511116,-1.4225566282956574,1.6261847405772267,1.072320730079228,1.3562169869756562,0.0009917004051716184,-0.0007136759268672507,0.0005992758916237391,0.0003353715380702561,-0.0005886950920094309,-0.0004331278544675401,0.0005177212049044857,-0.2309686839580536,-50.82913589477539,-9.594315528869629,17.05786895751953,1.8922830820083618,-1.1441757678985596,0.06596527993679047,,,,,,,,,
1739305195.0315585,-0.04842841418971523,1.1018110935679757,-0.48567690796963553,-1.4225572646746887,1.6261858000051108,1.0723211808212638,1.3562116884239264,-0.00023972049198684695,-7.403896177103804e-05,-0.001269946258052636,0.00012325966254836537,0.0006766673937905411,-7.468961580363808e-05,-0.0004403533279441112,-0.2309686839580536,-50.82913589477539,-9.514969825744629,17.03406524658203,1.8922830820083618,-1.1505844593048096,0.09343110024929047,,,,,,,,,
1739305195.0425165,-0.04843002408529597,1.1018112486366798,-0.4856716780484363,-1.4225586945958968,1.6261827545817065,1.0723215428631812,1.3562132300334069,0.0006801074517256574,0.0005638516779548243,0.00028961678386454285,-0.000275898283539268,-0.000135346225513618,0.00013274196655522894,-0.001411707514443986,-0.2071649730205536,-50.82913589477539,-9.594315528869629,17.05786895751953,1.9051004648208618,-1.1505844593048096,0.10624848306179047,,,,,,,,,
1739305195.0534825,-0.048426705534231514,1.101806542275721,-0.4856738365793129,-1.4225566245566612,1.6261827981795764,1.072322368480273,1.3562133774683305,0.00028433672566449886,-0.0013732163150892158,-0.0011506533739427238,0.00047701303453076094,0.00024275140909891,3.274986135091279e-06,-0.0008053041876438893,-0.2547723948955536,-50.80533218383789,-9.566544532775879,17.05786895751953,1.9051004648208618,-1.1579086780548096,0.09343110024929047,,,,,,,,,
1739305195.0635195,-0.04842991876621852,1.1018133524901788,-0.48567761998347225,-1.4225569118818302,1.626184405074159,1.0723215428645427,1.356217302815442,-0.00053069492757875,0.0018552559677809488,-0.0010191331944628312,0.0006810506753335647,9.0997884875017e-05,0.00010143117047251929,0.002464354498969199,-0.1793939769268036,-50.85690689086914,-9.514969825744629,17.03406524658203,1.8922830820083618,-1.1505844593048096,0.07328949868679047,,,,,,,,,
1739305195.0744593,-0.04842809351806147,1.1018122969382917,-0.4856755668009992,-1.4225625570607798,1.6261842963061264,1.0723231664225354,1.356213686553622,-0.00025585918118637845,0.0006415144502842564,-0.0012092914732035297,-0.001488857744452587,0.00020006134782971747,0.0002371975172031666,-0.00034597998930622565,-0.2309686839580536,-50.85690689086914,-9.542740821838379,17.10944366455078,1.9051004648208618,-1.1643173694610596,0.09983979165554047,,,,,,,,,
1739305195.0844796,-0.04842807598704691,1.1018133611370828,-0.48567023859786146,-1.4225586890340756,1.6261867435014752,1.0723215428652249,1.3562146834780906,0.00046242402259723573,0.00040108555896611615,0.0004359765744527625,0.00032355427920632385,0.0005292181683902771,0.00030056190503376475,-0.0005036523789447322,-0.2309686839580536,-50.85690689086914,-9.641922950744629,17.05786895751953,1.8986917734146118,-1.1505844593048096,0.05955658480525017,,,,,,,,,
1739305195.0955245,-0.04842727967630077,1.1018089298780018,-0.4856737578543138,-1.4225591636478798,1.6261856960057632,1.0723215428652249,1.3562193170947863,-0.000895415131192257,-0.00020007889843356687,-0.00042112782462321236,0.00016978800783249077,0.001401833442334854,-9.197040762518429e-06,0.0012096869044582051,-0.2071649730205536,-50.80533218383789,-9.566544532775879,17.03406524658203,1.8922830820083618,-1.1505844593048096,0.05314789339900017,,,,,,,,,
1739305195.1055422,-0.048427894470096954,1.101809651553444,-0.48567588374131027,-1.4225548371573986,1.6261854881540108,1.0723207852051464,1.3562125345445488,-0.0011275256248006965,-0.0006089321593062517,-0.0007559531469854993,0.0005099574226441871,0.001252485612208303,-0.0002417455985476468,0.0001683635327389186,-0.2071649730205536,-50.80533218383789,-9.566544532775879,17.03406524658203,1.8922830820083618,-1.1441757678985596,0.07328949868679047,,,,,,,,,
1739305195.1165538,-0.04842914717308556,1.1018130906857961,-0.4856737225330428,-1.4225569119051744,1.626184625750737,1.072321488732591,1.3562119873967489,0.00046988269144192815,0.00048769789221436493,0.0008675751910274892,0.0005393908045206846,0.00011352909287898412,-0.00024359375548140756,-0.0019195293808593416,-0.2071649730205536,-50.85690689086914,-9.566544532775879,17.03406524658203,1.8922830820083618,-1.1505844593048096,0.10624848306179047,,,,,,,,,
1739305195.1275291,-0.04843009227196631,1.1018126144981022,-0.4856698953748405,-1.4225607156895033,1.6261849279971352,1.072321542864308,1.356213288057931,-0.0019435984566848277,0.0007614593143737136,0.0021382894868408444,-0.0003835503643025885,0.0009804984905429266,-0.0001802784879586391,0.00039767544626364356,-0.2071649730205536,-50.85690689086914,-9.618119239807129,17.08167266845703,1.8986917734146118,-1.1505844593048096,0.10624848306179047,,,,,,,,,
1739305195.1375308,-0.048421523509934936,1.1018093889412934,-0.48567375751526426,-1.4225587054242006,1.6261878665931595,1.0723224082658274,1.356218437521277,0.0014809997742326166,-0.000785608631675224,-0.0005938886751139683,0.0004326790460135656,0.0007890536349363096,0.0006980132900416987,0.001566614608975167,-0.2825433909893036,-50.80533218383789,-9.566544532775879,17.05786895751953,1.8986917734146118,-1.1579086780548096,0.05955658480525017,,,,,,,,,
1739305195.148562,-0.04842530865261677,1.1018192215250902,-0.48567262289645435,-1.4225590491808906,1.6261851627580572,1.0723223953534533,1.3562101997739233,0.0016354490675169623,0.0019806125658374456,-1.555338484769426e-05,0.0009090133311739118,0.0020141983047481547,0.001108659969127313,-0.0017343444797524356,-0.2309686839580536,-50.90848159790039,-9.594315528869629,17.03406524658203,1.8858743906021118,-1.1579086780548096,0.11998139321804047,,,,,,,,,
1739305195.15951,-0.04842596138390806,1.1018113733649493,-0.48567375490420744,-1.422556920759269,1.626182804963574,1.0723182710689003,1.3562134047997105,0.0009901285069249316,-0.00035393546712304423,0.00016840651081027804,0.0002450854717328677,-0.001502201402241341,-0.00021605533900436144,-0.00017375791223411764,-0.2309686839580536,-50.82913589477539,-9.566544532775879,17.03406524658203,1.9051004648208618,-1.1505844593048096,0.06596527993679047,,,,,,,,,
1739305195.170449,-0.048427969067369646,1.1018126677027937,-0.48567553757584314,-1.4225587211940245,1.626183516756179,1.0723219259830123,1.3562170625233143,-0.00021650197985412884,0.0010030771382598537,-0.0004096191144346467,-0.0007682149855055284,-0.00018675062222365374,0.00017343317194554777,0.0006879760148970752,-0.2071649730205536,-50.85690689086914,-9.542740821838379,17.05786895751953,1.8986917734146118,-1.1579086780548096,0.03941498324275017,,,,,,,,,
1739305195.1805391,-0.04842522183450199,1.1018088337217387,-0.4856776664183125,-1.4225586946303943,1.6261835153017787,1.0723223946885578,1.3562147464743528,0.0012513449587168858,-0.0008647811226809743,-0.0008131595333692957,0.00022698584973579445,-0.0013655450338635696,0.0007683672498267597,-0.0005435758820400515,-0.2309686839580536,-50.80533218383789,-9.542740821838379,17.05786895751953,1.8986917734146118,-1.1579086780548096,0.09343110024929047,,,,,,,,,
1739305195.191523,-0.048425221792574615,1.1018094152138171,-0.4856711331863734,-1.4225587734490064,1.6261835628382473,1.0723224087623777,1.3562166972604706,0.0014606297121396695,-0.001193717882818211,0.0002511432796485533,-8.461846022434294e-05,-0.0005292764374880449,0.0007235823240575971,-0.0015567328169855809,-0.2309686839580536,-50.80533218383789,-9.566544532775879,17.05786895751953,1.8986917734146118,-1.1579086780548096,0.06596527993679047,,,,,,,,,
1739305195.202498,-0.048426934313305574,1.1018133650784097,-0.4856698954322903,-1.422558695575497,1.6261843265819709,1.0723214043055476,1.3562146290504875,0.0014318083519666177,0.00022237085092858427,0.0008834421065356115,0.00042398465193904113,-0.0005715827409892218,-0.0009104784113934964,-0.001743658823141047,-0.2071649730205536,-50.85690689086914,-9.618119239807129,17.05786895751953,1.8922830820083618,-1.1505844593048096,0.05955658480525017,,,,,,,,,
1739305195.212526,-0.048428089254296945,1.1018149984546775,-0.48567834856037584,-1.422560477270941,1.626183242805428,1.0723215428628783,1.356212288629101,-0.0010033701976762369,0.0007223805181835161,-0.0009308584733604641,-6.59659023187151e-05,0.00037355637787166293,0.00041866763530060434,-0.0009371934331710539,-0.2309686839580536,-50.88071060180664,-9.542740821838379,17.08167266845703,1.9051004648208618,-1.1505844593048096,0.07969819009304047,,,,,,,,,
1739305195.223547,-0.04842304742250773,1.10181136746551,-0.48567754474042635,-1.4225551557308205,1.6261836280354063,1.072320947181346,1.3562156108272043,0.0005536663554555898,-0.0002790545291793768,-0.0017792288294444622,0.0004726728120057651,-0.0014155519386148364,-0.0012415520693913882,-0.0020550666297937427,-0.2309686839580536,-50.82913589477539,-9.514969825744629,17.01026153564453,1.8986917734146118,-1.1579086780548096,0.05955658480525017,,,,,,,,,
1739305195.2344909,-0.04842893235014346,1.1018096654107892,-0.4856716780880332,-1.42255869590225,1.6261860917142432,1.07231914838044,1.3562138488315703,-0.00028154793591177114,-0.0006634152597906326,0.0007572618344843108,0.0002039594166928239,0.0013445536537332744,0.0002766426785633073,-0.00013840317486020243,-0.1793939769268036,-50.80533218383789,-9.594315528869629,17.05786895751953,1.8858743906021118,-1.1579086780548096,0.09343110024929047,,,,,,,,,
1739305195.2454906,-0.048429065179356835,1.1018097608727606,-0.48567375533090146,-1.4225585925546855,1.6261864516078706,1.0723207717777403,1.3562192250918885,-0.0004678322175940039,-0.00023702038392578667,0.0008653622944053775,0.0006683292784911214,-7.195203766472005e-05,-0.0010392329218217886,0.0016870922291217449,-0.2071649730205536,-50.80533218383789,-9.566544532775879,17.05786895751953,1.8858743906021118,-1.1441757678985596,0.04673920199275017,,,,,,,,,
1739305195.2555642,-0.04842906813844139,1.1018157931850738,-0.4856730430185607,-1.4225589330107564,1.6261867023155587,1.072319145243142,1.356212999305838,-0.00010565025494878049,0.0004798709396857825,0.001119263922659338,0.0006528749000813674,0.0008194974753251449,-0.00025688936713038376,-0.0005151943392451891,-0.2071649730205536,-50.88071060180664,-9.566544532775879,17.05786895751953,1.8986917734146118,-1.1579086780548096,0.07969819009304047,,,,,,,,,
1739305195.266476,-0.048428303619580296,1.1018098932224891,-0.48567944672192104,-1.4225531652266348,1.6261852629013926,1.0723222880630254,1.3562153819609006,-0.00037724825309860794,0.0002139818701876116,-0.0020339306801108762,0.0019567094338039516,0.0006417376985359147,0.0011786977388357094,0.000498003968861085,-0.2309686839580536,-50.80533218383789,-9.491166114807129,16.98249053955078,1.8922830820083618,-1.1579086780548096,0.08610688149929047,,,,,,,,,
1739305195.2765436,-0.04842693447375579,1.1018096196279916,-0.4856755395389264,-1.4225586975393054,1.6261824053774483,1.072317527884042,1.3562134506244865,0.0005591918363288817,-0.00046375292686693184,-0.0008034443498932237,0.00026210046853803007,0.00013732550476996778,-0.002253102161280894,-0.0015286527814622835,-0.2071649730205536,-50.80533218383789,-9.542740821838379,17.05786895751953,1.9115091562271118,-1.1579086780548096,0.09343110024929047,,,,,,,,,
1739305195.2885206,-0.048427013234271316,1.101809654945028,-0.485671678052452,-1.422556938734905,1.6261846211701743,1.0723224081830938,1.3562126527645462,-0.0004871314968590505,-0.00010330213446646389,0.0007453903712691959,0.0009237098679268133,-0.0010879336044111849,0.0007021061589982705,0.0014284907243152668,-0.2071649730205536,-50.80533218383789,-9.594315528869629,17.03406524658203,1.8922830820083618,-1.1579086780548096,0.07328949868679047,,,,,,,,,
1739305195.2994537,-0.04842893225430713,1.1018133652977955,-0.4856737607584982,-1.4225618824840165,1.6261842876564958,1.0723215428652237,1.356217862158528,-0.0006764837986831245,0.0006723486294670899,-0.00023242680441851887,-0.001827226748092897,-0.0008358110496108381,0.0006033571691555422,0.002031931454746344,-0.1793939769268036,-50.85690689086914,-9.566544532775879,17.05786895751953,1.9051004648208618,-1.1505844593048096,0.05955658480525017,,,,,,,,,
1739305195.309524,-0.04842893355326916,1.1018096549452256,-0.4856737565341672,-1.4225587211388457,1.6261838560671291,1.0723175266523552,1.3562130868653697,-0.00014434670273353326,-0.0010346048359254388,0.0005515399684644485,-0.000898927229970758,0.0002765606649445235,-0.00033046524739555776,-0.001832055133081206,-0.1793939769268036,-50.80533218383789,-9.566544532775879,17.05786895751953,1.9051004648208618,-1.1441757678985596,0.09983979165554047,,,,,,,,,
1739305195.3195467,-0.04842593500427864,1.1018075062345762,-0.48567554051930995,-1.4225590214251276,1.6261855214306127,1.0723226790081046,1.3562159773265483,0.0006184420233837395,-0.0020214082644725555,-0.00019163777924441095,0.00014768255296174036,-0.00048532021588707083,0.0007152114388137259,0.0005604510742414635,-0.2309686839580536,-50.80533218383789,-9.542740821838379,17.05786895751953,1.9179178476333618,-1.1643173694610596,0.05314789339900017,,,,,,,,,
1739305195.3304813,-0.04842522277093337,1.1018094135710794,-0.4856758847133718,-1.4225632723547013,1.626186089256847,1.0723223953507046,1.3562146820117007,0.000992700749577948,-0.00035407628362156074,0.00025420853103073383,-0.0017380432638490514,0.0006826557053073452,0.0006883935837328519,0.0018352657668317196,-0.2309686839580536,-50.80533218383789,-9.566544532775879,17.10944366455078,1.9051004648208618,-1.1579086780548096,0.05955658480525017,,,,,,,,,
1739305195.3405437,-0.04842522222562779,1.1018119889636173,-0.485673760794517,-1.4225587034363367,1.6261835277941783,1.072318903372068,1.3562138481862207,0.00044752042495864734,0.0006013226172930343,0.0002731759634991665,0.0002688207716934347,-0.0003515273824322023,-0.0014409206051267736,0.001085302481212975,-0.2309686839580536,-50.82913589477539,-9.566544532775879,17.05786895751953,1.8986917734146118,-1.1313583850860596,0.09343110024929047,,,,,,,,,
1739305195.3514714,-0.04843106326455741,1.1018126504816317,-0.4856737225210587,-1.4225576271726736,1.6261832252542607,1.0723231068249064,1.3562086350462224,-0.0013543910940586519,-0.00024273714227345032,0.0007456206684742666,0.0013062970325737235,-0.0002632207295411465,0.0005534290417528884,-0.002537265085979587,-0.1793939769268036,-50.85690689086914,-9.566544532775879,17.03406524658203,1.9051004648208618,-1.1643173694610596,0.10624848306179047,,,,,,,,,
1739305195.3614876,-0.04842522193692243,1.1018113674538512,-0.4856797108863155,-1.4225593759146988,1.6261846242070783,1.0723222344444345,1.3562182690282085,0.0007652031361067656,-0.0001410065464755902,-0.0018095850503380131,2.63012688712168e-05,0.0007825116475127679,2.385872379877016e-05,0.0024075257483113905,-0.2309686839580536,-50.82913589477539,-9.514969825744629,17.03406524658203,1.8986917734146118,-1.1579086780548096,0.05314789339900017,,,,,,,,,
1739305195.3715146,-0.048426934313308016,1.1018162264297608,-0.4856783294096182,-1.4225569513134873,1.6261843900722326,1.072321540875754,1.3562078809751978,-0.000877969372853985,0.0008418186777602484,-0.0012442361892639339,0.000903265575100896,-0.001770072191956437,0.0011717205976369618,-0.0027508968613159266,-0.2071649730205536,-50.85690689086914,-9.514969825744629,17.03406524658203,1.8922830820083618,-1.1505844593048096,0.11265717446804047,,,,,,,,,
1739305195.3824573,-0.048425221900833586,1.101815077980032,-0.48567659237831196,-1.4225541689587784,1.6261835104572642,1.0723224087624459,1.3562078802723903,0.0002929499098992443,-0.00024920136524458246,-0.0011524116345076687,0.0009637803179601214,-0.0008461747463785454,0.0010629588628349176,-0.0025172323847639454,-0.2309686839580536,-50.88071060180664,-9.566544532775879,17.03406524658203,1.8986917734146118,-1.1579086780548096,0.11265717446804047,,,,,,,,,
1739305195.3925428,-0.04842893225416413,1.1018155468223463,-0.4856737579863224,-1.4225587749085546,1.6261859838771962,1.0723211808221973,1.3562158849033277,-0.0007428265885941592,0.0006578324135778765,3.1812464470832834e-05,-6.129415708361374e-05,-0.0007119655584833644,0.0006559850460574768,0.0005299447494453758,-0.1793939769268036,-50.85690689086914,-9.566544532775879,17.05786895751953,1.9051004648208618,-1.1505844593048096,0.07328949868679047,,,,,,,,,
1739305195.4035099,-0.04842522179257438,1.1018113678455639,-0.48567561940034143,-1.42255735448009,1.626185086452078,1.072318975395342,1.3562165793058805,0.0005388168676993755,-0.0005124198603387823,-0.001810723154864135,-0.00040201414105301043,0.0013688873540286587,0.0002480027370882368,-5.068723130146165e-05,-0.2309686839580536,-50.82913589477539,-9.542740821838379,17.01026153564453,1.8986917734146118,-1.1579086780548096,0.06596527993679047,,,,,,,,,
1739305195.4135141,-0.04842522179257438,1.1018096552722827,-0.48567762041853035,-1.4225551293865684,1.6261841785944746,1.0723176554617662,1.3562173102025226,0.0004534628233956396,-0.0006579406465240716,-0.0014321835562699802,0.001999829419314445,0.0016484459210348522,-0.0006268284826267803,0.0018240957347388594,-0.2309686839580536,-50.80533218383789,-9.514969825744629,17.01026153564453,1.9051004648208618,-1.1579086780548096,0.03300629183650017,,,,,,,,,
1739305195.4244497,-0.04842421956052676,1.101812519020634,-0.4856755405193327,-1.4225583464189664,1.626183562684763,1.0723210420149631,1.3562154796609316,0.000588082740098453,0.00011420762742108445,-0.00011559574642248336,-0.00013127441018355186,-0.00039030106685446285,0.00029823355598330737,0.001168683624465664,-0.2547723948955536,-50.80533218383789,-9.542740821838379,17.01026153564453,1.8986917734146118,-1.1505844593048096,0.03941498324275017,,,,,,,,,
1739305195.4344654,-0.048425908709297166,1.10181336414712,-0.48567199300045705,-1.4225605126466787,1.6261879197587696,1.0723171514916805,1.3562122433816168,0.001792422038697649,-0.0005704587485069333,0.0004324790626708834,-0.0006124465949575871,0.00016346953774458255,-0.0004471224901551306,0.0005254942335800915,-0.2309686839580536,-50.85690689086914,-9.594315528869629,17.08167266845703,1.8922830820083618,-1.1505844593048096,0.07969819009304047,,,,,,,,,
1739305195.4445522,-0.048430621510792436,1.1018143985539666,-0.48567554052466577,-1.4225579803859327,1.6261838124964696,1.072316657279275,1.3562104554000793,-0.001511796662801263,0.0009774811440346792,-0.0006201795741500281,-0.0001329635923422518,-0.0016721200459501918,-0.0009712815111788426,-0.0005048717750464989,-0.1555902659893036,-50.85690689086914,-9.542740821838379,17.03406524658203,1.9051004648208618,-1.1505844593048096,0.09983979165554047,,,,,,,,,
1739305195.4555173,-0.048428931315780806,1.1018155111798558,-0.48567554149139386,-1.4225569133401295,1.6261874483829042,1.072319538085291,1.356207897720972,5.029898155036968e-05,0.0010765149560808685,-0.00132887817835546,0.0003987493733627386,0.0003959354491812631,-0.0013544753049016213,-0.0006179320821044594,-0.1793939769268036,-50.85690689086914,-9.542740821838379,17.03406524658203,1.8922830820083618,-1.1441757678985596,0.11265717446804047,,,,,,,,,
1739305195.4664662,-0.04843064769788322,1.1018106076505103,-0.48567762030919315,-1.4225604020497074,1.6261846255464618,1.0723195232621214,1.3562134003673414,-0.001374621658723967,-0.0003103928122733092,-0.0017588490357049074,-0.0004531420668025831,-0.0008383210548451149,-0.0005036678545087396,0.00014869395830052819,-0.1555902659893036,-50.80533218383789,-9.514969825744629,17.08167266845703,1.8922830820083618,-1.1441757678985596,0.06596527993679047,,,,,,,,,
1739305195.4765193,-0.04842901117517297,1.1018114469549525,-0.4856757777023935,-1.4225586936478238,1.6261843404024323,1.0723220221664105,1.356216994927178,-0.0005342061573953687,0.00045824415441223865,-0.0003439228478995149,3.612053282365261e-05,-0.00024689430935023347,0.0008491415982724733,0.0016772879404465067,-0.1793939769268036,-50.82913589477539,-9.542740821838379,17.05786895751953,1.9051004648208618,-1.1643173694610596,0.026597600430250168,,,,,,,,,
1739305195.487479,-0.04842524799174896,1.1018136041528885,-0.4856737840893186,-1.4225569120258974,1.6261890167127644,1.072317140236764,1.3562117768039503,3.3517502575628884e-05,-5.069465732408492e-05,-4.00724742526185e-05,0.0011098251045981397,0.0009372717813056268,-0.000739360293074047,-0.0001763861267881311,-0.2309686839580536,-50.85690689086914,-9.566544532775879,17.03406524658203,1.8922830820083618,-1.1505844593048096,0.07969819009304047,,,,,,,,,
1739305195.4975193,-0.04842885333363747,1.101811393960955,-0.4856776206336527,-1.4225633376761166,1.6261873464187058,1.0723203648163455,1.3562105064653311,0.00020733322055905908,0.0006760081039574826,-0.0008245645875194915,-0.0006207064567889522,0.0017185509529493949,-0.0007785048046880925,-0.0008156229820957916,-0.1793939769268036,-50.82913589477539,-9.514969825744629,17.08167266845703,1.9051004648208618,-1.1441757678985596,0.09343110024929047,,,,,,,,,
1739305195.508459,-0.04842892352080343,1.1018114557692855,-0.4856755405193339,-1.4225587250255913,1.6261843229797055,1.0723175411271708,1.3562125745089249,-0.00024845063820326725,0.0012201858007303734,-0.0014705919498769167,0.001164575895203585,0.0003398202151327016,-0.0001893366384121443,-0.001078791068366925,-0.1793939769268036,-50.82913589477539,-9.542740821838379,17.05786895751953,1.9051004648208618,-1.1579086780548096,0.09983979165554047,,,,,,,,,
1739305195.519459,-0.048428932254109325,1.101817946473113,-0.48567554051933215,-1.4225611642486227,1.6261882242212167,1.0723200208958612,1.3562118168647979,-0.00039341426657131545,0.0016207904194366894,-0.0004664714084303907,-0.0004730468565724581,-0.00010117688609240563,0.0008668711980567129,-0.0018057562069507267,-0.1793939769268036,-50.88071060180664,-9.542740821838379,17.05786895751953,1.8986917734146118,-1.1377670764923096,0.10624848306179047,,,,,,,,,
1739305195.5295703,-0.04842693431330557,1.1018113675145376,-0.48567554051933215,-1.4225590126361842,1.6261850409633092,1.0723164252931836,1.3562123388448821,0.000578959530321194,-0.00100294931985976,-0.0018710448392503772,-0.0009331532055127192,-0.0004528374570034888,0.00046372518647388815,0.0001708423672628582,-0.2071649730205536,-50.82913589477539,-9.542740821838379,17.05786895751953,1.8986917734146118,-1.1441757678985596,0.06596527993679047,,,,,,,,,
1739305195.5405555,-0.048428932254158626,1.1018133683502513,-0.4856715720886446,-1.422561797017007,1.6261870049779588,1.0723199143367526,1.3562145610155876,0.00024745384326620477,0.0005348194535605398,0.0013361789203080257,-0.0005347757796728994,0.0005701970625722197,-0.00021359546348427666,-0.00030991111253209894,-0.1793939769268036,-50.85690689086914,-9.594315528869629,17.05786895751953,1.9051004648208618,-1.1505844593048096,0.05314789339900017,,,,,,,,,
1739305195.5515442,-0.048430648130925354,1.1018115980354162,-0.48567167805066297,-1.4225577430004406,1.6261860929654701,1.0723202556047984,1.3562093955865366,-0.0016013250938750649,0.00012875880143421435,0.00028434537417950035,0.00040004265134170976,0.0005441213667967997,-8.775361042415424e-05,-0.0005369804348316542,-0.1555902659893036,-50.82913589477539,-9.594315528869629,17.03406524658203,1.9051004648208618,-1.1441757678985596,0.09983979165554047,,,,,,,,,
1739305195.561584,-0.04842693431332452,1.1018126501523762,-0.48567588374131004,-1.4225608308153745,1.6261826550296972,1.0723170729745042,1.3562134003672428,-0.00010767208990054601,0.0003777208965975306,-0.0011399228434334535,-0.000662580038955591,-0.0009692182085053885,-0.0002160249078567234,-0.0001963955619343817,-0.2071649730205536,-50.85690689086914,-9.566544532775879,17.08167266845703,1.9179178476333618,-1.1505844593048096,0.06596527993679047,,,,,,,,,
1739305195.572493,-0.048426079407429545,1.1018179399276007,-0.48567351947173704,-1.4225634299785512,1.626183628525159,1.072316299896663,1.3562141580277616,0.0010839560787005331,0.001826589507304756,1.072967174890376e-05,-0.0016446658163884918,-0.0013985923514224074,-0.0011851696959862157,0.0007068999914111357,-0.1793939769268036,-50.88071060180664,-9.566544532775879,17.08167266845703,1.8986917734146118,-1.1441757678985596,0.05955658480525017,,,,,,,,,
1739305195.583472,-0.048427981253058125,1.1018118007285953,-0.48567553168766875,-1.4225590577371052,1.6261876169355818,1.0723191694227943,1.3562101401706692,7.44625582302092e-05,0.0004910818557307695,-6.44949389790447e-05,2.0981637394874072e-05,-0.00011493356726929974,8.91572768951292e-05,-0.0006281466748457478,-0.1793939769268036,-50.80533218383789,-9.542740821838379,17.03406524658203,1.8922830820083618,-1.1441757678985596,0.09343110024929047,,,,,,,,,
1739305195.5935209,-0.04842693429720028,1.1018097609453792,-0.4856737578421635,-1.4225596747955147,1.626186599878807,1.0723166748738615,1.3562156731861912,4.817231055699684e-05,-0.0002878952485027127,-0.00010506938312069793,-0.0003462961104030618,-0.0003865213149013732,-0.0015255356406098106,-0.00048751498593197905,-0.2071649730205536,-50.80533218383789,-9.566544532775879,17.05786895751953,1.9115091562271118,-1.1505844593048096,0.04673920199275017,,,,,,,,,
1739305195.6035259,-0.04842695672296198,1.1018135172685675,-0.48567470279431857,-1.4225586947195215,1.6261849813659026,1.072318519529415,1.3562078802723836,-0.00024201859914943762,0.00011652433307298414,-9.164029440429535e-05,-0.0003086460402672666,-0.00023915250967675205,-0.0007107279587729891,-0.00023556536707806215,-0.2071649730205536,-50.82913589477539,-9.566544532775879,17.05786895751953,1.8986917734146118,-1.1377670764923096,0.11265717446804047,,,,,,,,,
1739305195.6135402,-0.04842522179295388,1.1018151662671274,-0.4856776951376047,-1.422560561104437,1.6261842969762874,1.0723200539439435,1.3562149152033232,0.0008220954321401272,0.0026373246184210777,0.0003795127230048755,-0.0005755392761359307,0.0003319232549347246,0.0006878815202840509,0.0012101489620164477,-0.2309686839580536,-50.88071060180664,-9.514969825744629,17.08167266845703,1.9051004648208618,-1.1505844593048096,0.05314789339900017,,,,,,,,,
1739305195.6235573,-0.04842893225415863,1.1018096853622623,-0.4856776203104549,-1.4225551332748891,1.6261842047578403,1.0723159175470178,1.3562134397745969,-0.0010751571125766329,-0.0007284756582949555,-0.0015333015119384033,0.0016363277120533784,0.0010444561873695951,-0.0011536093083111623,0.0010491856590615334,-0.1793939769268036,-50.80533218383789,-9.514969825744629,17.01026153564453,1.9051004648208618,-1.1441757678985596,0.06596527993679047,,,,,,,,,
1739305195.6335807,-0.04842522179257438,1.101815511283555,-0.48567167805245753,-1.4225586945939737,1.626185041392587,1.0723166557813202,1.3562087404024497,0.00012290917637764213,0.00028687248860073466,0.0012681415209872763,-2.6592204239356092e-05,0.00013492317063270418,0.000367417788994727,-0.0005680135259962241,-0.2309686839580536,-50.85690689086914,-9.594315528869629,17.05786895751953,1.8986917734146118,-1.1505844593048096,0.09343110024929047,,,,,,,,,
1739305195.6436045,-0.04842521302357828,1.1018155150259337,-0.48567458684501574,-1.4225597631713687,1.626186055611596,1.0723183190686751,1.3562141578423292,0.0015758887055837677,0.0021930599320071327,-0.0001925599954054985,-0.0003690610604256342,-0.0008260927163865775,-0.0003122855122051623,0.001155201087924421,-0.2309686839580536,-50.85690689086914,-9.542740821838379,17.05786895751953,1.9051004648208618,-1.1643173694610596,0.05955658480525017,,,,,,,,,
1739305195.653634,-0.048428932254010126,1.101811447302271,-0.48567380393530396,-1.4225569158595686,1.626184468774473,1.0723191560122036,1.3562096062990117,-0.0003274826319154519,-0.001147276669719949,-0.0005901784091081745,0.0008158292984866474,-0.0004935729740789859,0.0005842234272120524,-0.0014374421838752802,-0.1793939769268036,-50.82913589477539,-9.594315528869629,17.03406524658203,1.9179178476333618,-1.1441757678985596,0.08610688149929047,,,,,,,,,
1739305195.6645503,-0.04842477714026657,1.1018096651205298,-0.48567238669745716,-1.422561585087608,1.6261830546312837,1.0723158976978493,1.3562141536591354,0.0010082024014192745,-0.0012694269476753494,-0.0001795094864861394,-0.0005122733434257552,-0.00010995555272503443,-0.0013396856757671794,0.0017659583563000006,-0.2071649730205536,-50.80533218383789,-9.594315528869629,17.05786895751953,1.9115091562271118,-1.1441757678985596,0.05955658480525017,,,,,,,,,
1739305195.6755357,-0.048428932241981325,1.1018137521242108,-0.4856757767343321,-1.422560946341247,1.626185905246415,1.0723178838867862,1.35620863793244,0.00011185284090220275,0.0003198952604285193,-0.00112384117367796,-0.00037200136285284543,-0.0009408756384008339,-0.0006833612975208762,-0.0006252585156828709,-0.1793939769268036,-50.82913589477539,-9.542740821838379,17.05786895751953,1.8785501718521118,-1.1579086780548096,0.10624848306179047,,,,,,,,,
1739305195.6855662,-0.048431066476244684,1.101807905274802,-0.48567446309980805,-1.422565418557928,1.626187805896679,1.0723166552904955,1.3562126939418233,-0.0008682061868483814,-0.0015992282001687295,0.001039018961090627,-0.0018913561656524296,-0.00020340779207016544,-0.000851221293697853,0.0010289477935384523,-0.1793939769268036,-50.77756118774414,-9.566544532775879,17.10944366455078,1.8922830820083618,-1.1505844593048096,0.06596527993679047,,,,,,,,,
1739305195.6965282,-0.048423510258223834,1.1018162297016505,-0.48567375784629424,-1.422557628496972,1.6261846891442906,1.0723199183619923,1.356212181253313,0.001314105925872723,0.0010425035366600464,-0.0005987600977151725,0.0013115092660211229,-0.00026277623017184555,-0.0006220126268132621,-6.417013225551091e-05,-0.2547723948955536,-50.85690689086914,-9.566544532775879,17.03406524658203,1.8986917734146118,-1.1505844593048096,0.07328949868679047,,,,,,,,,
1739305195.7075195,-0.04842693431331114,1.1018162268093175,-0.48567554051933215,-1.4225587210889037,1.6261876317626935,1.0723175212551868,1.3562082847177612,0.0005110782129718306,0.0005864829276555313,-0.0008094309983016383,0.0004326591998675075,-3.994744110296091e-05,0.000764136998647046,-0.0013307013882429678,-0.2071649730205536,-50.85690689086914,-9.542740821838379,17.05786895751953,1.8986917734146118,-1.1579086780548096,0.10624848306179047,,,,,,,,,
1739305195.7184894,-0.04842894102315472,1.1018144670689947,-0.4856738039514545,-1.4225618823750994,1.6261849427651849,1.0723166552843535,1.3562086252792003,0.00013557448705127763,0.0014915446223319063,0.0011969290811675607,-0.0014202089715516452,0.0009344807241635673,-0.0008880832083125184,-0.0009160680634027775,-0.1793939769268036,-50.82913589477539,-9.594315528869629,17.05786895751953,1.8986917734146118,-1.1505844593048096,0.10624848306179047,,,,,,,,,
1739305195.7285073,-0.04842890594731885,1.101815537717469,-0.4856737880122289,-1.4225578960607272,1.6261843077097802,1.0723167761309056,1.356215555610134,-0.0007301198953691465,0.0010584440740201277,0.00019442609637259755,0.00045590133206586725,-0.0007014338336714701,-0.00019745921591082577,0.0007223481565756423,-0.1793939769268036,-50.85690689086914,-9.566544532775879,17.03406524658203,1.8922830820083618,-1.1505844593048096,0.04673920199275017,,,,,,,,,
1739305195.7394898,-0.04842693431315707,1.1018113687864166,-0.48567554051950246,-1.4225598126636516,1.6261855159464,1.0723171534045917,1.356213854164814,0.0006147007680286816,-8.180006135173444e-05,0.00016465143601002147,0.00024887967087773523,0.0002625316916487904,0.001029654776475564,0.0009702958852821563,-0.2071649730205536,-50.82913589477539,-9.542740821838379,17.03406524658203,1.8858743906021118,-1.1505844593048096,0.05314789339900017,,,,,,,,,
1739305195.749519,-0.048428221965475055,1.1018113969003736,-0.4856737578423131,-1.4225628868841165,1.6261882199676756,1.0723159110417113,1.3562123407111366,-0.000518731137619164,-0.0010341360781022876,0.00010560642650194339,-0.0015137592401673066,0.0015918795649483358,0.0004733170677118353,-0.0002663407864508877,-0.1793939769268036,-50.82913589477539,-9.566544532775879,17.10944366455078,1.8986917734146118,-1.1441757678985596,0.06596527993679047,,,,,,,,,
1739305195.7595525,-0.04842690507128979,1.101811367466457,-0.4856712928754671,-1.4225597291638785,1.6261882610615486,1.0723171381741603,1.3562156689693223,0.0003076679529690932,-0.0008178455164638473,0.0009279041494238272,-0.0002705711119546338,0.0011528713347163184,0.0007768563612978082,0.0003302556608894007,-0.2071649730205536,-50.82913589477539,-9.566544532775879,17.05786895751953,1.8986917734146118,-1.1505844593048096,0.04673920199275017,,,,,,,,,
1739305195.7704499,-0.04842716815303632,1.1018113792397155,-0.48567375684725184,-1.422560014780098,1.6261843290101334,1.072316669358253,1.3562121242084162,-0.0002889603405315837,0.0007828274012408974,-0.00015301068173643009,0.0007958095188362076,0.001264659892348275,-0.001273599221260331,0.001654533188662937,-0.2071649730205536,-50.82913589477539,-9.566544532775879,17.03406524658203,1.9051004648208618,-1.1505844593048096,0.07969819009304047,,,,,,,,,
1739305195.7805116,-0.04842822196943515,1.1018096637757446,-0.48567588374129317,-1.4225614432076101,1.6261814138671327,1.0723175211818239,1.356212065711914,-0.0006400494896459999,-0.00023097720594965603,-0.0008348116064934428,-0.0011004110591577385,-0.00025600061310389083,-0.0007263680492727198,-4.234966103639631e-05,-0.1793939769268036,-50.80533218383789,-9.566544532775879,17.08167266845703,1.9179178476333618,-1.1579086780548096,0.08610688149929047,,,,,,,,,
1739305195.791527,-0.048425142867599955,1.1018106115630328,-0.4856739930841671,-1.4225598113553537,1.6261857345883426,1.0723211435983795,1.3562089758828302,0.000595162222836112,-0.0006164862457912514,-0.0010603907463647005,0.0011029448569676585,0.0008827902313780264,0.0011900383051021827,-0.0012059232664221663,-0.2309686839580536,-50.80533218383789,-9.566544532775879,17.03406524658203,1.8922830820083618,-1.1579086780548096,0.09343110024929047,,,,,,,,,
1739305195.8015296,-0.0484289673288064,1.1018120827378963,-0.4856737578462969,-1.422563659613919,1.6261831112022227,1.0723159514871679,1.35621461368985,-0.0010022931870386092,-0.0008390078872093838,0.0002769749522887196,-0.0012128974084992048,-0.00205164657267458,0.0004896727965956504,0.000769660945135077,-0.1793939769268036,-50.82913589477539,-9.566544532775879,17.08167266845703,1.9051004648208618,-1.1441757678985596,0.04673920199275017,,,,,,,,,
1739305195.8125162,-0.04842350894726355,1.1018099065588127,-0.48567399405331274,-1.4225572416363854,1.6261828884632104,1.0723166955116603,1.3562085970655706,0.0005016723941716571,-0.0004846694960319044,0.0004362860644991204,0.0009079112656713447,2.597467358703308e-05,-4.2258245506969234e-05,-0.001216982837072572,-0.2547723948955536,-50.80533218383789,-9.566544532775879,17.03406524658203,1.9051004648208618,-1.1505844593048096,0.10624848306179047,,,,,,,,,
1739305195.8234453,-0.048426934313303735,1.1018133569049633,-0.48567373524094015,-1.4225601301153312,1.6261853111698128,1.0723175271413685,1.356213400367012,-0.0005871429032142041,0.0005345536712245179,0.0005968919247798243,-0.00019008601458846678,0.00011818932771504492,-0.00032780108829872566,0.001752254301048934,-0.2071649730205536,-50.85690689086914,-9.566544532775879,17.03406524658203,1.9115091562271118,-1.1579086780548096,0.06596527993679047,,,,,,,,,
1739305195.8335123,-0.04842987930573672,1.1018114560960408,-0.4856737490116126,-1.422559754613584,1.6261844438908877,1.0723166554499972,1.3562086379324647,-0.0008446952490173947,-0.0006703215023492101,0.0002328134229930719,0.0004427036584998032,0.0003397382803874783,-0.0003672779071829591,-0.0027586487611699463,-0.1793939769268036,-50.82913589477539,-9.566544532775879,17.05786895751953,1.8922830820083618,-1.1505844593048096,0.10624848306179047,,,,,,,,,
1739305195.8435233,-0.04842693432934397,1.1018096641040949,-0.4856716690029483,-1.4225619132081666,1.6261844052378727,1.0723175211815883,1.3562124952241539,-0.00028572677804234435,-2.4963604074700713e-05,0.0008675685014445113,0.00012210506774488691,-0.0018603041251054001,-0.00042702987608465187,-0.0011049727341255863,-0.2071649730205536,-50.80533218383789,-9.594315528869629,17.05786895751953,1.8922830820083618,-1.1579086780548096,0.07328949868679047,,,,,,,,,
1739305195.8535507,-0.048426925544309746,1.1018128377843561,-0.4856699041238407,-1.4225570306901103,1.6261860551034748,1.072315897789818,1.3562125344693459,-0.0005520677121199764,0.00012991417240730118,0.0011063670938053821,0.00047377800856468624,0.0004527658706983209,-0.0005002586949062341,0.0009105766961263768,-0.2071649730205536,-50.80533218383789,-9.618119239807129,17.03406524658203,1.9051004648208618,-1.1441757678985596,0.07328949868679047,,,,,,,,,
1739305195.8645327,-0.048425221792524877,1.101811379366699,-0.48567446647536144,-1.4225601217198878,1.6261874641483327,1.0723175211815865,1.3562189204625397,0.0006870713048606477,-0.0006451919022713178,0.00040527667216784513,-0.00023867397260496993,0.00014752933355156105,-0.0005780936620112634,0.003745201701126981,-0.2309686839580536,-50.82913589477539,-9.566544532775879,17.03406524658203,1.9051004648208618,-1.1579086780548096,0.019273381680250168,,,,,,,,,
1739305195.875482,-0.04842693431330557,1.101812313727236,-0.48567156329832933,-1.4225601393616334,1.6261831363988526,1.0723176820895977,1.3562138560497106,-0.0004143791493261639,0.00023757529799737608,0.0007474659578287191,-0.00013698916805130888,-0.0013439726369403515,0.0007487137570974987,0.0017931869425490813,-0.2071649730205536,-50.82913589477539,-9.594315528869629,17.03406524658203,1.9051004648208618,-1.1579086780548096,0.05314789339900017,,,,,,,,,
1739305195.8854797,-0.04842622445765884,1.1018181453340146,-0.4856716208217133,-1.4225601305678532,1.6261854933164537,1.072317340205929,1.3562078817079914,0.0007498891624876502,0.002140725235179398,0.0005065422336162509,0.00048289043331432716,-0.0006710676428102157,-0.0011115578898995087,-0.001387706478791954,-0.2071649730205536,-50.90848159790039,-9.566544532775879,17.03406524658203,1.9179178476333618,-1.1377670764923096,0.11265717446804047,,,,,,,,,
1739305195.8964694,-0.048425987257720314,1.1018151930547595,-0.48567167804039396,-1.4225636606004712,1.6261842723398237,1.072317521194006,1.3562141580277698,0.00030152097086413843,0.0006765638520485178,0.0014891452849015686,-1.2560714737543376e-05,-0.0013356581438604938,0.0004559928289509286,0.0011746507633347385,-0.2071649730205536,-50.88071060180664,-9.594315528869629,17.08167266845703,1.8922830820083618,-1.1579086780548096,0.05955658480525017,,,,,,,,,
1739305195.9075334,-0.04842693430795941,1.1018113677936574,-0.48567376961506054,-1.422560130240456,1.6261869918335554,1.0723166552843533,1.3562112840563987,0.0007220819572747783,0.0001908254401611283,0.0007890908370315048,-0.00021213370815639811,4.886992038386467e-05,-0.0005043843638439059,0.0009007893680654114,-0.2071649730205536,-50.82913589477539,-9.566544532775879,17.03406524658203,1.9051004648208618,-1.1505844593048096,0.07969819009304047,,,,,,,,,
1739305195.9195118,-0.048425221792574344,1.101813448949614,-0.4856737840880461,-1.4225562021234714,1.6261859378720271,1.0723158976242748,1.3562117579109974,-0.00011940466171164602,-0.00012842505278975514,0.0004051236284024089,0.000900925049477296,-0.0002571703750735859,-0.0007781456992696158,4.946002156910038e-05,-0.2309686839580536,-50.85690689086914,-9.566544532775879,17.01026153564453,1.9051004648208618,-1.1441757678985596,0.07969819009304047,,,,,,,,,
1739305195.9295177,-0.04842690800631729,1.101807657004846,-0.48567021161966845,-1.422560121688935,1.6261840206706921,1.0723166689140784,1.3562063496300354,-0.000279323645630229,-0.0016801267170952297,0.0004901324907271647,-0.0008574452049021805,-0.0003558796663223386,0.00025160176879099344,-0.002489932908413645,-0.2071649730205536,-50.77756118774414,-9.618119239807129,17.03406524658203,1.8986917734146118,-1.1505844593048096,0.11265717446804047,,,,,,,,,
1739305195.940509,-0.04842892207734728,1.1018158378957803,-0.48567556585522687,-1.4225598126761152,1.6261843246522505,1.0723182922508956,1.3562109789259467,-8.574330194480501e-05,3.5567909372176865e-05,0.001235474212516713,0.0005267854483930599,-0.0016481982679978726,0.0012387621099399784,5.808081287560598e-05,-0.1793939769268036,-50.85690689086914,-9.566544532775879,17.03406524658203,1.8922830820083618,-1.1643173694610596,0.05955658480525017,,,,,,,,,
1739305195.951516,-0.04842693723628512,1.1018113679551278,-0.4856755395415878,-1.4225601305549933,1.626187463824731,1.0723175211816107,1.3562144389173771,-0.0006006476825299146,-0.0005046740481210503,-0.0002280488276780656,-0.00019768539361918354,0.001329958221678868,0.00019182237368168436,0.00061929841946069,-0.2071649730205536,-50.82913589477539,-9.542740821838379,17.03406524658203,1.9051004648208618,-1.1579086780548096,0.05314789339900017,,,,,,,,,
1739305195.96152,-0.04842892933120943,1.101813400728091,-0.4856737578422965,-1.422563695921742,1.6261838667802864,1.0723151399641966,1.3562117353118275,-0.0005495747901868662,0.0005872218420251516,0.0006763829989158701,-0.0006315033641207676,0.0003511828161333913,-0.000783652403259866,6.097770198547402e-05,-0.1793939769268036,-50.85690689086914,-9.566544532775879,17.08167266845703,1.9051004648208618,-1.1377670764923096,0.05314789339900017,,,,,,,,,
1739305195.9724448,-0.04842693431328907,1.1018136842795965,-0.48567383755137467,-1.422565775711598,1.6261812770514972,1.0723158976242748,1.3562149159390626,0.0005227302694997775,4.7660770353008856e-05,-0.00013943264860064722,-0.0012326561199959096,-0.0006410823368597717,-0.000311217068616409,-0.000125741532658762,-0.2071649730205536,-50.85690689086914,-9.566544532775879,17.10944366455078,1.9179178476333618,-1.1441757678985596,0.05314789339900017,,,,,,,,,
1739305195.982481,-0.04842918070904795,1.1018153281252792,-0.48567375827569037,-1.4225619014709663,1.626186004960314,1.0723175211815856,1.3562145624751343,-0.00019224387430710697,0.001188767022085791,-0.0004272216181045155,0.00013109762131137425,-0.0005292920923286555,0.0003735222211533513,0.0009865323860870135,-0.1793939769268036,-50.88071060180664,-9.566544532775879,17.05786895751953,1.9179178476333618,-1.1579086780548096,0.05314789339900017,701,799,721,43.237,0,0
1739305195.9924934,-0.04842693431751317,1.1018096817674665,-0.48567561958035993,-1.422563391766154,1.6261827926076107,1.0723175211815856,1.3562090251750207,-0.0007116061964452755,-0.0004933635082903824,-0.000696696896479128,0.0002320660575721125,-0.001111392813046352,-0.0004536155298841435,-0.0009251124090916927,-0.2071649730205536,-50.80533218383789,-9.542740821838379,17.08167266845703,1.9051004648208618,-1.1579086780548096,0.06596527993679047,699,798,721,43.346,0,0
1739305196.003492,-0.04843064477488984,1.1018134537101405,-0.48567553168946065,-1.4225600514201764,1.6261889048344933,1.0723197270137739,1.3562132826049749,-0.001164220114844893,-0.00028369961668264575,-0.00040378342425437426,-0.00023624087054378547,0.001276637020027854,0.001812158506581158,0.0005832323703822025,-0.1555902659893036,-50.85690689086914,-9.542740821838379,17.03406524658203,1.8922830820083618,-1.1643173694610596,0.06596527993679047,696,798,720,43.455,0,0
1739305196.014453,-0.04842693420504636,1.1018133696599417,-0.48567375784216354,-1.4225579844721032,1.6261875150286396,1.0723158976487996,1.3562141580257674,-0.00034094082756272123,-0.0004989312116658668,6.762117158880726e-05,-0.0002706923845773763,0.00013934762442337654,-0.0001316187832639808,0.0013328708441075168,-0.2071649730205536,-50.85690689086914,-9.566544532775879,17.03406524658203,1.9051004648208618,-1.1441757678985596,0.05955658480525017,700,800,719,43.346,0,0
1739305196.0245006,-0.04842622110162269,1.1018116942240779,-0.48567021035944025,-1.422561913268947,1.6261835275821077,1.0723159378512779,1.3562149156878398,0.0001553752144469801,-7.714987436249792e-06,0.0009220542997621215,-0.0007243881122794829,0.000915762454185715,-0.0002305637819787767,0.001395268502015313,-0.2071649730205536,-50.82913589477539,-9.618119239807129,17.05786895751953,1.9115091562271118,-1.1441757678985596,0.05314789339900017,701,800,721,43.346,0,0
1739305196.0355136,-0.04842309384549625,1.1018096671932327,-0.48567554052111017,-1.4225657747304516,1.6261830590361794,1.0723158976245017,1.35621490325191,0.00044586112759310143,-0.0013719922441748204,-0.000765464090205034,-0.0008925495764157403,-0.0003197359793134313,-0.0004688392359650064,0.0022010896309547136,-0.2309686839580536,-50.80533218383789,-9.542740821838379,17.10944366455078,1.9115091562271118,-1.1441757678985596,0.05314789339900017,700,793,721,43.563,1,0
1739305196.0455253,-0.04842670043737277,1.101811367466166,-0.4856717145463559,-1.4225619132447065,1.6261878007462878,1.0723175211815856,1.3562085978953335,-4.3459918504290806e-05,-0.0006436470422965536,0.00016826670536016137,-0.0005154474479526291,0.0010176082687101814,-0.0002972132907777278,-0.0003702233795474564,-0.2071649730205536,-50.82913589477539,-9.566544532775879,17.05786895751953,1.8922830820083618,-1.1579086780548096,0.07969819009304047,702,799,721,43.346,0,0
1739305196.0574446,-0.04842522146647651,1.101812324410763,-0.4856744664637776,-1.4225655237975154,1.6261855041926572,1.0723158976242748,1.3562054560930312,0.001011250581210434,-0.0012182602471028788,3.697250726597342e-05,-0.0004529321122846081,0.00023938585114290702,-0.0005392334728345893,-0.0008694068467558911,-0.2309686839580536,-50.82913589477539,-9.566544532775879,17.08167266845703,1.8922830820083618,-1.1441757678985596,0.10624848306179047,701,800,720,43.346,0,0
1739305196.0674982,-0.0484269330141932,1.1018142412492131,-0.4856738100923599,-1.4225618858192808,1.626187108932057,1.0723166552843533,1.3562145622418278,-0.0005473051551210041,0.0010581369880966328,0.00023347545878923433,-0.00017880721955593461,0.0006604428571181935,-6.944430591951121e-05,-0.0002676052539640482,-0.2071649730205536,-50.82913589477539,-9.566544532775879,17.05786895751953,1.9051004648208618,-1.1505844593048096,0.05314789339900017,701,800,720,43.346,1,0
1739305196.0784793,-0.04842866918425382,1.1018142677834322,-0.48567167772629355,-1.4225602100400996,1.6261855147279054,1.0723158976242748,1.3562094130291602,-0.0011829461541322665,2.9799986535861633e-06,0.0010736680081204987,-8.592912259634624e-05,0.0006112062308708665,-0.0006016522555604053,0.0008604706780678782,-0.1793939769268036,-50.82913589477539,-9.594315528869629,17.03406524658203,1.8858743906021118,-1.1441757678985596,0.09983979165554047,701,800,721,43.455,0,0
1739305196.0885406,-0.04842350912601254,1.101816150482303,-0.48567554051933026,-1.4225600510952932,1.6261835451620934,1.0723165375467831,1.3562133480395324,0.00024696310595812227,0.00220683769216916,-0.0003037577139454102,0.00043555061145300427,0.0007872154663430351,0.00024003286369734316,0.0001895422361323868,-0.2547723948955536,-50.88071060180664,-9.542740821838379,17.03406524658203,1.9115091562271118,-1.1505844593048096,0.06596527993679047,700,800,721,43.346,0,0
1739305196.100579,-0.04842522179257355,1.1018096580400762,-0.4856752226278933,-1.4225618838098821,1.6261874686605973,1.0723164615427916,1.3562085985248071,0.00034997651134281,-0.0007215786099871638,0.0004457142554092037,0.0005190958944564808,0.0026827132101782778,-9.231022700562384e-05,-0.0004918814709798443,-0.2309686839580536,-50.80533218383789,-9.542740821838379,17.05786895751953,1.9051004648208618,-1.1579086780548096,0.10624848306179047,700,798,720,43.563,0,0
1739305196.1115212,-0.048423088003524954,1.1018151606708964,-0.4856754610458742,-1.4225619132446679,1.626184335578028,1.072316655264414,1.3562129806519883,0.0011894558339640643,0.0004905443924198881,-0.0013176134210072465,-0.00033788393496168043,0.0005354294835096129,0.00011872614609027582,0.0009188698149929404,-0.2309686839580536,-50.88071060180664,-9.542740821838379,17.05786895751953,1.9051004648208618,-1.1505844593048096,0.05955658480525017,699,802,721,43.455,1,0
1739305196.1224685,-0.04842409213610667,1.10180976199967,-0.48567546115403065,-1.4225636959217423,1.6261881413150887,1.072316655284353,1.3562135006555636,0.0006055912435201209,-0.0005182622567122142,-0.00020046140924155078,-0.0002475943863712625,0.0018364434196135467,-0.00024195499140656514,0.0012456511681796303,-0.2071649730205536,-50.80533218383789,-9.542740821838379,17.08167266845703,1.8986917734146118,-1.1505844593048096,0.06596527993679047,700,799,722,43.455,0,0
1739305196.1325407,-0.04842948978576592,1.10180968241914,-0.48567530209940896,-1.4225583478906851,1.6261846780962494,1.0723165390366722,1.3562148764436817,-0.0009401252433250112,-0.0017748337240752836,-0.0003432612620689973,0.0008104093248920736,0.0006198816082886532,-8.290334005845365e-05,0.0004953551613705552,-0.1317865550518036,-50.80533218383789,-9.542740821838379,17.01026153564453,1.8922830820083618,-1.1505844593048096,0.05314789339900017,700,800,721,43.346,1,0
1739305196.1434984,-0.048425115866504456,1.1018144942710355,-0.48567762030515,-1.422559052221774,1.6261867219272583,1.0723166552823844,1.3562149171407254,0.0012195018574157972,7.033095139823942e-05,-0.0008029994975156764,0.0006966122232632645,0.0006113600758295029,0.0006340629535866363,0.0012829305943926985,-0.2309686839580536,-50.82913589477539,-9.514969825744629,17.05786895751953,1.9115091562271118,-1.1505844593048096,0.05314789339900017,700,800,719,43.346,1,0
1739305196.1535265,-0.04842680106273232,1.101814398680655,-0.48567375784231304,-1.4225619132285727,1.6261843135802412,1.072316655284353,1.3562119477860386,-0.0010195385510434476,0.00109425490223893,0.0004791502165712218,-0.00037760754169565835,-6.160780960172592e-05,0.0001956235573376225,-0.0007026071353755166,-0.1793939769268036,-50.85690689086914,-9.566544532775879,17.05786895751953,1.8922830820083618,-1.1505844593048096,0.06596527993679047,701,799,722,43.237,1,0
1739305196.1645064,-0.048424906096684366,1.101817569500191,-0.48567618985899186,-1.4225590631464224,1.6261827920426108,1.072319036501742,1.3562149113189894,0.000737813798504068,0.002270319487634711,-0.0015911628785958449,0.0010535418075053868,-0.0011779393974675652,4.981944060050941e-05,0.0015846431450404954,-0.2309686839580536,-50.88071060180664,-9.566544532775879,17.01026153564453,1.9051004648208618,-1.1707260608673096,0.05314789339900017,700,798,721,43.237,0,0
1739305196.1755574,-0.04842451019943393,1.101817226680389,-0.4856737578834995,-1.4225622312572912,1.6261867238590468,1.072316655284353,1.3562133591832453,0.0009538654554012317,0.0011776404081530831,0.00026256795362661784,-0.001091769930297361,0.001104404299973976,-0.00016090894807958053,0.001717848002688063,-0.2309686839580536,-50.88071060180664,-9.566544532775879,17.05786895751953,1.9115091562271118,-1.1505844593048096,0.06596527993679047,701,800,721,43.346,0,0
1739305196.186439,-0.04842490480826549,1.1018096521632994,-0.4856737581663337,-1.4225601305683027,1.6261875651184656,1.0723175168209347,1.356213856049633,0.0008395468592384144,-0.0007078557011571983,-0.00019901464626904727,0.00035287778685782795,0.00034550967401963874,-0.00023680034874242178,0.0003196069232781633,-0.2309686839580536,-50.80533218383789,-9.566544532775879,17.03406524658203,1.8922830820083618,-1.1579086780548096,0.05314789339900017,701,800,721,43.455,0,0
1739305196.1964395,-0.04842669461130788,1.101812428085093,-0.485673862824996,-1.4225601217373867,1.6261835240290514,1.0723158976240532,1.3562109732453373,0.0004354861377682401,-0.0004975829630944658,-0.00036872994794543746,0.0006638067846298861,-0.0013598529533384311,-0.0003176125010744672,0.0003375000345913564,-0.2071649730205536,-50.82913589477539,-9.566544532775879,17.03406524658203,1.8986917734146118,-1.1441757678985596,0.05955658480525017,701,800,720,43.346,1,0
1739305196.2064643,-0.04842822181977632,1.1018179423723224,-0.4856755406985903,-1.4225636961033863,1.6261868071624455,1.0723158991141637,1.3562054590000987,-0.0003252350414816844,0.001309863768264407,0.000343094046167005,-0.0010647620660817364,-0.0006777669138041308,6.797836645292999e-05,-0.0005895214849050834,-0.1793939769268036,-50.88071060180664,-9.542740821838379,17.08167266845703,1.8986917734146118,-1.1441757678985596,0.10624848306179047,701,800,727,43.672,0,0
1739305196.21648,-0.0484290082400935,1.1018133658913865,-0.4856737578423161,-1.4225658416889573,1.6261835633247332,1.0723158976243,1.3562134001519017,-0.0015991812357310361,-0.0009064956438119755,0.0008209616007992038,-0.0010994279108573822,-1.7212643954733352e-07,-0.00036973259556928205,4.4409749944021815e-05,-0.1793939769268036,-50.85690689086914,-9.566544532775879,17.08167266845703,1.8986917734146118,-1.1441757678985596,0.06596527993679047,701,800,721,43.237,0,0
1739305196.2274914,-0.04842893225458757,1.1018116177673136,-0.48567383657931296,-1.4225619132931748,1.6261859875173375,1.0723175211815856,1.356215280404834,-6.329693857660523e-05,-0.0007126265288935257,-0.0001579427219932468,-0.0005522672159118077,0.0028868694623702187,-0.0005215693614311788,0.0017932017525761823,-0.1793939769268036,-50.82913589477539,-9.566544532775879,17.05786895751953,1.9179178476333618,-1.1579086780548096,0.04673920199275017,700,799,722,43.346,1,0
1739305196.2384744,-0.048426934313305574,1.1018135132345834,-0.4856756195807971,-1.4225601305677045,1.6261889839988182,1.0723166552843533,1.3562149156856218,-0.0003326012634106984,-0.0009877014665510774,0.00017304281792803405,0.00018535735078357827,0.003250430838128465,-3.1017178063107436e-05,0.0012072584493516853,-0.2071649730205536,-50.82913589477539,-9.542740821838379,17.03406524658203,1.8922830820083618,-1.1505844593048096,0.05314789339900017,701,799,720,43.346,1,0
1739305196.2484968,-0.048426925544309475,1.1018119070396397,-0.48567375784365197,-1.4225601266431187,1.6261844164705945,1.0723175211815856,1.3562086379324647,-2.121930876896618e-05,-0.0007695538166045232,0.0004279797719886392,0.0007879406102512319,-0.0005806654274832809,0.0006213795255357929,-0.00072366750544593,-0.2071649730205536,-50.80533218383789,-9.566544532775879,17.03406524658203,1.9179178476333618,-1.1579086780548096,0.10624848306179047,700,800,721,43.346,1,0
1739305196.2595232,-0.04842419581988293,1.1018098336613296,-0.4856755667649988,-1.4225601305676379,1.6261866136039058,1.0723166552843533,1.3562111216191715,0.0013276569176447336,-0.0020575698104205184,-0.0011186307915232929,0.00047784790157557797,-0.0006459482545210008,0.00012641258354346023,0.000439455034279964,-0.2309686839580536,-50.77756118774414,-9.542740821838379,17.03406524658203,1.9115091562271118,-1.1505844593048096,0.07328949868679047,701,800,721,43.346,1,0
1739305196.2704413,-0.048425222764976725,1.1018123215804358,-0.48567554055538376,-1.4225619132447231,1.626184477293019,1.0723158976242748,1.3562133959500984,0.000710756478823141,6.055343409721529e-05,7.826522373954924e-05,-3.651673016961346e-05,-0.00030020531259933,-0.00018404465273865465,3.0477531211353063e-06,-0.2309686839580536,-50.82913589477539,-9.542740821838379,17.05786895751953,1.8922830820083618,-1.1441757678985596,0.06596527993679047,701,800,721,43.346,1,0
1739305196.2805092,-0.04842893225417509,1.1018121583019578,-0.4856776664183297,-1.4225601305677043,1.6261813993084793,1.0723166509237023,1.356210717171728,-0.0017358658242141605,0.0009242389876686163,-0.0006507840602996127,0.0002500162904009476,1.5959015157866242e-05,-0.0005187129956175229,2.1558215595613478e-05,-0.1793939769268036,-50.80533218383789,-9.542740821838379,17.03406524658203,1.9179178476333618,-1.1505844593048096,0.07969819009304047,700,798,720,43.346,1,0
1739305196.2915177,-0.04842893225415863,1.1018096549593588,-0.485678327973041,-1.4225611973348884,1.6261851493832522,1.0723175211815608,1.3562082321706237,-0.001389457519565273,-0.000944920934243598,-0.0010395088663168054,-4.471757277712281e-05,0.001052955650621773,0.0011081162055669928,-0.0007756827002785883,-0.1793939769268036,-50.80533218383789,-9.514969825744629,17.05786895751953,1.8858743906021118,-1.1579086780548096,0.10624848306179047,698,800,720,43.237,1,0
1739305196.3015382,-0.04842350602406685,1.1018079307442248,-0.4856755402042677,-1.4225601305555804,1.6261878524121502,1.0723175211815854,1.356215621013238,0.0007772600177051602,-0.0011389618114769867,-0.0005245810431804402,0.000565815386559488,0.0008516506413788427,0.0002656407583003016,0.0007663917065543585,-0.2547723948955536,-50.77756118774414,-9.542740821838379,17.03406524658203,1.8922830820083618,-1.1579086780548096,0.04673920199275017,701,800,720,43.346,0,0
1739305196.3125038,-0.048425221684296825,1.101814505500791,-0.4856755405193303,-1.422565775711598,1.6261835670575984,1.0723166554498964,1.3562136981134192,-0.0003150886030120964,0.0018381934839554032,-0.0003302621268951314,-0.00046834153228381554,-0.0012290448787561688,0.00037149593718023604,0.0005981880376525303,-0.2309686839580536,-50.82913589477539,-9.542740821838379,17.10944366455078,1.8986917734146118,-1.1505844593048096,0.026597600430250168,701,799,719,43.237,0,0
1739305196.323503,-0.04842795499826004,1.101811367483673,-0.485675540627339,-1.422559776307829,1.6261842963056727,1.0723137271133583,1.3562094696406992,-0.00042882816529146803,-0.0004616171435466973,-0.00034274687479927664,0.000236700540356961,-0.0010820894717073714,-0.001849830495563167,-0.00013858102853970476,-0.1793939769268036,-50.82913589477539,-9.542740821838379,17.05786895751953,1.9051004648208618,-1.1377670764923096,0.08610688149929047,700,799,722,43.455,1,0
1739305196.33351,-0.048426911887098974,1.1018106391440992,-0.4856716780524593,-1.422561913208534,1.6261835108057283,1.0723166552604264,1.3562140271819985,-0.0005317110562917686,-0.0006597434733377486,0.0011702334769978279,-0.0004970753648293256,-0.0017541562745958244,0.00039275456088500667,0.0024583098355832602,-0.2071649730205536,-50.80533218383789,-9.594315528869629,17.05786895751953,1.8986917734146118,-1.1505844593048096,0.05955658480525017,701,799,724,43.455,1,0
1739305196.3444853,-0.04842521886944908,1.1018157974768092,-0.48567832894218665,-1.4225579848004921,1.6261828070623754,1.0723165108650103,1.3562138168031153,7.787013321764076e-05,0.0022887980089856355,-0.001377033635397732,0.0004427585886679457,0.0007038628229747391,-0.001225336585326086,0.0007464745168277883,-0.2309686839580536,-50.88071060180664,-9.514969825744629,17.03406524658203,1.9051004648208618,-1.1441757678985596,0.05314789339900017,701,800,721,43.346,1,0
1739305196.3554332,-0.04842679258300891,1.101817675026168,-0.4856716780564578,-1.4225619142137567,1.6261859504458394,1.072316655287815,1.3562117761577064,-0.0009045881222439653,0.002064843204445228,0.000353685118047083,-0.0005640441951922262,-0.0007519152620359634,0.00046394642556684513,4.956455314713266e-05,-0.1793939769268036,-50.88071060180664,-9.594315528869629,17.05786895751953,1.9051004648208618,-1.1505844593048096,0.07969819009304047,700,795,722,43.455,1,0
1739305196.3655043,-0.048424748230549805,1.101813514258299,-0.4856755400832671,-1.4225601305677207,1.626183212296646,1.0723164615434562,1.3562117637279687,0.0006166197826698708,0.0008506632493657201,-0.00034471565572203255,0.0006944234414284604,-0.0012839847136913813,-0.0005897310441941826,0.0006839384024885045,-0.2309686839580536,-50.82913589477539,-9.542740821838379,17.03406524658203,1.9115091562271118,-1.1579086780548096,0.07969819009304047,701,799,721,43.346,1,0
1739305196.3764765,-0.0484252188669024,1.1018172250150686,-0.48567482915183924,-1.4225600952464332,1.6261836324001617,1.0723166552783714,1.3562051051054358,0.0009144095768318587,0.0005680358774525366,0.00040150434908437166,0.00024094576704418252,-0.0010361777711668922,0.0002444452799438752,-0.0015421740734405062,-0.2309686839580536,-50.88071060180664,-9.542740821838379,17.03406524658203,1.8986917734146118,-1.1505844593048096,0.10624848306179047,700,800,721,43.237,1,0
1739305196.3875175,-0.04842519537731037,1.1018116857329052,-0.48567552895656374,-1.4225572695445559,1.6261885636813307,1.0723151399641964,1.3562136870037038,0.00012261467352267554,-0.0013587022191088073,4.67890595795385e-05,0.0017465787288232066,0.000751384861070611,-0.0002767982513892362,0.0008570236170336002,-0.2309686839580536,-50.82913589477539,-9.542740821838379,17.03406524658203,1.8922830820083618,-1.1377670764923096,0.05955658480525017,701,800,721,43.237,1,0
1739305196.397534,-0.04842522168386782,1.101814505177587,-0.485676604038854,-1.4225618337234118,1.626184640621276,1.0723175211815854,1.3562086364709376,5.712762899247819e-07,0.0009218411563214923,-0.0006716306943962485,0.00035335859709254366,-0.0010087266989793077,-0.00018754062225795554,0.0003051276644685263,-0.2309686839580536,-50.82913589477539,-9.566544532775879,17.05786895751953,1.8922830820083618,-1.1579086780548096,0.10624848306179047,700,800,721,43.346,1,0
1739305196.4095857,-0.04842598726172686,1.101816478057021,-0.4856738365953798,-1.422561913280613,1.6261851433548997,1.0723215372289114,1.3562149155263261,0.000644748260040085,0.00022097762926567027,-0.0005470571177667314,-0.000172275470814662,0.0010767624602738767,0.001894895153551433,0.0016255769248002378,-0.2071649730205536,-50.85690689086914,-9.566544532775879,17.05786895751953,1.8858743906021118,-1.1643173694610596,0.05314789339900017,702,798,721,43.455,0,0
1739305196.4205172,-0.04842522175114184,1.1018162648573973,-0.48567170433457096,-1.4225619220750412,1.6261828069015316,1.0723143030397346,1.3562106777644396,0.0008496997475288982,0.0005299127515836202,0.00015659019218384904,-0.0001664235145763091,-0.00011900095586203467,0.0003322609273108332,-0.0010340598123021122,-0.2309686839580536,-50.85690689086914,-9.594315528869629,17.05786895751953,1.9051004648208618,-1.1579086780548096,0.07969819009304047,701,799,720,43.455,0,0
1739305196.431465,-0.04842331892042185,1.1018161474298425,-0.48567588079801916,-1.4225636959217922,1.6261836716932883,1.072317521163419,1.3562139995845806,0.0003613089100256666,0.0005169431274550956,-0.0006994576905939205,-0.0002534450442734489,0.00014111018844202393,0.0011896597847362818,0.0006428860522320768,-0.2309686839580536,-50.88071060180664,-9.566544532775879,17.08167266845703,1.8986917734146118,-1.1579086780548096,0.05955658480525017,701,799,721,43.346,1,0
1739305196.4415097,-0.04842893126908396,1.1018150629418026,-0.4856744676033671,-1.4225636959217425,1.6261835684379902,1.0723175211815854,1.3562088690460594,-0.001982504600166684,0.00031082474693978576,9.004192047323351e-05,-0.0010018931466081252,-0.00020425868112238117,-0.00022347948741433546,-0.0013627984043026575,-0.1793939769268036,-50.82913589477539,-9.566544532775879,17.08167266845703,1.8986917734146118,-1.1579086780548096,0.10624848306179047,701,800,721,43.237,1,0
1739305196.4516141,-0.048428932254141945,1.1018130312416445,-0.48567167806447736,-1.4225636959217425,1.626184625529493,1.0723175211815854,1.3562077620542135,-0.0007840199419826112,-0.000667464107446185,0.0006749845491351762,-0.0007430310120641775,0.000595952252185668,0.00021153969202670036,-0.002663004674370295,-0.1793939769268036,-50.80533218383789,-9.594315528869629,17.08167266845703,1.8922830820083618,-1.1579086780548096,0.11265717446804047,701,800,721,43.237,1,0
1739305196.4624684,-0.04842498502967985,1.1018145857906174,-0.48567546104647247,-1.4225636959217425,1.6261842873378363,1.0723166731630212,1.3562130469923601,-5.73974483222329e-05,0.0008040828406408715,0.0002559429811320132,-2.6706589116549256e-05,-0.0004956938939507374,0.0007427056480776248,0.0020606881526043504,-0.2309686839580536,-50.82913589477539,-9.542740821838379,17.08167266845703,1.8922830820083618,-1.1505844593048096,0.06596527993679047,701,799,722,43.455,0,0
1739305196.4725146,-0.048426896302293694,1.1018156294021502,-0.4856738394914605,-1.4225594153119672,1.6261870991116114,1.072315897625183,1.35621233925761,-1.147376048606761e-05,0.0002522971108286704,-0.0011507656712040478,0.0010601852428593532,0.0007503543523274655,-8.531583973670978e-05,0.0011509576359149537,-0.2071649730205536,-50.85690689086914,-9.566544532775879,17.03406524658203,1.8986917734146118,-1.1441757678985596,0.06596527993679047,702,800,720,43.455,1,0
1739305196.4834769,-0.04843064466655908,1.1018107012270675,-0.48567554440773264,-1.4225601040754052,1.626187447540256,1.0723166551228476,1.3562093897225103,-0.0019211116320355897,-0.0007685800273588902,-0.00048215603460843837,0.001507223285406365,0.0003586580671501824,-0.0001583772601656044,8.054247630003768e-05,-0.1555902659893036,-50.80533218383789,-9.542740821838379,17.03406524658203,1.8922830820083618,-1.1505844593048096,0.09983979165554047,702,799,721,43.346,0,0
1739305196.494442,-0.048424480974792676,1.1018145818528788,-0.48567554062736096,-1.42255626810068,1.6261843248230619,1.0723148379861445,1.3562067413514467,0.00015579583003869814,0.0007870989454068728,-0.0002643611624088534,0.0015091428538345445,-0.0008985542181807337,-0.0009304683508599121,-0.0018602271862056359,-0.2309686839580536,-50.82913589477539,-9.542740821838379,16.98249053955078,1.8922830820083618,-1.1441757678985596,0.08610688149929047,702,800,720,43.346,0,0
1739305196.5044472,-0.04843032907848464,1.10181087565512,-0.4856762841465551,-1.4225601217373867,1.6261835233779847,1.072317521002135,1.3562130963791204,-0.00068470213912102,-7.926006701818836e-05,-0.002011003474609393,0.000343586118647747,-0.0008649947044594232,0.00029449153949692193,-0.0008645465729280974,-0.1555902659893036,-50.77756118774414,-9.542740821838379,17.03406524658203,1.8986917734146118,-1.1579086780548096,0.05955658480525017,701,800,721,43.346,1,0
1739305196.5144563,-0.04842406673797744,1.101810002434583,-0.48567161208769455,-1.4225590644544683,1.62618352531531,1.0723158976242717,1.356208579287959,0.0003765237452774366,0.0007089496889194564,0.0009514452370453226,0.0013679050199466637,-0.0011068882412941248,-4.950408720495045e-05,-0.0004105209853834922,-0.2071649730205536,-50.80533218383789,-9.566544532775879,17.01026153564453,1.8986917734146118,-1.1441757678985596,0.10624848306179047,700,800,720,43.346,1,0
1739305196.5245104,-0.04842893209733678,1.10181457592964,-0.4856737578059745,-1.4225601305798394,1.6261847521491395,1.0723175192435186,1.3562129292544645,-0.0009370137620980433,0.001025348613340861,1.016827815846977e-06,0.0011412209875261748,0.0004276133152927307,-7.467644327949192e-06,-0.001071964063118441,-0.1793939769268036,-50.82913589477539,-9.566544532775879,17.03406524658203,1.8922830820083618,-1.1579086780548096,0.06596527993679047,700,800,721,43.455,1,0
1739305196.5355382,-0.048426826162352866,1.1018138708609817,-0.48567167707131087,-1.4225601305677045,1.6261866525130344,1.072317519082002,1.356214758701754,6.78467774781527e-05,0.0009663527113693837,0.0013689930540769708,0.0005048776981082271,-4.3118825337069334e-05,0.0006447506783022936,0.0010146166877688073,-0.2071649730205536,-50.82913589477539,-9.594315528869629,17.03406524658203,1.9051004648208618,-1.1579086780548096,0.05314789339900017,701,804,720,43.346,1,0
1739305196.5455592,-0.048428219040644815,1.1018106372245002,-0.48567530642101076,-1.4225616777695833,1.6261866892755021,1.0723158969782167,1.3562156733452597,-0.0010450657974402304,-0.0005982011465166646,-5.016697459101861e-05,-0.00014140806054546966,0.001201481657179076,-0.00017919603453545748,0.0015157594877562974,-0.1793939769268036,-50.77756118774414,-9.542740821838379,17.05786895751953,1.8986917734146118,-1.1441757678985596,0.04673920199275017,700,803,720,43.346,1,0
1739305196.5565097,-0.048424685548947924,1.1018100423334902,-0.4856708968180424,-1.4225619135704428,1.6261850256331714,1.072315897624271,1.3562086372326072,0.0003862561437825736,-0.0014860152111010978,0.0019119916558151119,-0.00014378347084135552,-6.861900417494784e-05,0.00011918731715840907,-0.0008558507623378308,-0.2071649730205536,-50.77756118774414,-9.566544532775879,17.05786895751953,1.8858743906021118,-1.1441757678985596,0.10624848306179047,701,798,721,43.455,1,0
1739305196.5675118,-0.04842890449101986,1.1018165840529255,-0.48567762025669836,-1.4225601040767528,1.6261879059925188,1.072316655284353,1.3562075382574108,-0.0005136137209778307,-0.00029732835076800614,-0.00031151045220020337,0.00045338443978157404,-9.409892102952763e-05,0.000509109362880642,0.00018919066371567045,-0.1793939769268036,-50.85690689086914,-9.514969825744629,17.03406524658203,1.8986917734146118,-1.1505844593048096,0.07969819009304047,701,799,721,43.346,1,0
1739305196.5784662,-0.04842350883864962,1.1018193359391653,-0.4856717566804408,-1.4225611637147308,1.6261888989910454,1.0723158976242746,1.356214097675525,0.001651543065727536,0.0023146664806664914,0.0003839275687560561,-0.00015643841273468536,0.0016745412711132684,0.00042871739503396264,-0.000888302826575359,-0.2547723948955536,-50.90848159790039,-9.594315528869629,17.03406524658203,1.8922830820083618,-1.1441757678985596,0.04673920199275017,701,799,721,43.455,1,0
1739305196.5885031,-0.04842960992508424,1.101814506627683,-0.48567375816766517,-1.4225619220925374,1.6261827919592746,1.0723158976242746,1.3562064541514052,-0.001418736847664873,0.00011803856710343707,0.001140426837205312,-0.0006884720516586197,-0.0009425156886188754,-0.0005585712037988258,-0.0032464109715085133,-0.1555902659893036,-50.82913589477539,-9.566544532775879,17.05786895751953,1.9051004648208618,-1.1441757678985596,0.11265717446804047,702,799,722,43.346,1,0
1739305196.598509,-0.04842685505003782,1.1018145062065055,-0.485675566655988,-1.4225637224128453,1.6261881019159208,1.0723158976242746,1.356209552671914,-0.0005230894567916481,-0.00065591257041446,-0.0012564621507341863,-0.0004103278241456748,0.0010123008007312992,-0.00020190747645081072,-0.0024095589649925854,-0.2071649730205536,-50.82913589477539,-9.542740821838379,17.08167266845703,1.8721414804458618,-1.1441757678985596,0.05955658480525017,700,799,721,43.346,1,0
1739305196.6094353,-0.04842451150344335,1.1018131554958344,-0.4856755667651463,-1.4225619132448728,1.626184743274279,1.0723158976242746,1.3562046969713504,0.00045713005711340356,-0.0001060654102007675,-0.0005787461034471121,0.000888275541363283,0.00019220775220047504,8.698174488382038e-05,-0.0028595726026528004,-0.2309686839580536,-50.82913589477539,-9.542740821838379,17.05786895751953,1.8922830820083618,-1.1441757678985596,0.11265717446804047,700,800,720,43.346,0,0
1739305196.6195214,-0.0484267984530804,1.1018124403253369,-0.4856737578427575,-1.4225629541750517,1.6261871645284374,1.0723151399641964,1.3562149112732798,-0.0012861635856058038,5.5143301472607414e-05,-0.00012339256575326046,-0.0007386066359642785,0.0013124041204694921,-0.00018347135200202062,0.001373171678913668,-0.1793939769268036,-50.82913589477539,-9.566544532775879,17.08167266845703,1.8986917734146118,-1.1377670764923096,0.05314789339900017,701,799,721,43.346,1,0
1739305196.6304712,-0.04842511557824298,1.1018145860683246,-0.48567166925814204,-1.4225636959175552,1.6261844380411548,1.0723175205355633,1.3562086335717891,0.00041391279494912406,0.0008597655359128885,0.001168531381909167,-0.0002932500413309725,0.0018359937276109645,0.0005922763747729388,-0.0012517596448476242,-0.2309686839580536,-50.82913589477539,-9.594315528869629,17.08167266845703,1.8922830820083618,-1.1579086780548096,0.10624848306179047,700,799,721,43.455,1,0
1739305196.6405053,-0.04842611154150298,1.1018126351774653,-0.4856737568610177,-1.4225633437561978,1.6261851956834852,1.0723158976242637,1.3562138041689558,0.000559710322229827,-0.00016567824709681322,0.0010350281233948123,-6.694240127136998e-05,0.0020946204743352154,-0.0005053975361929367,0.002053515978662728,-0.2071649730205536,-50.80533218383789,-9.566544532775879,17.05786895751953,1.8858743906021118,-1.1441757678985596,0.05955658480525017,701,800,721,43.455,1,0
1739305196.651455,-0.04842447205680701,1.1018128735946993,-0.4856758482746785,-1.4225619132527985,1.6261849256935688,1.0723166550690124,1.356208636476917,0.0008505560992023408,-7.67118635274708e-05,0.0005005111720888685,0.00012848059645749403,-0.001687203493543542,0.0006765569436011812,-0.00210078865116656,-0.2309686839580536,-50.80533218383789,-9.566544532775879,17.05786895751953,1.9051004648208618,-1.1505844593048096,0.10624848306179047,702,797,721,43.346,1,0
1739305196.6615236,-0.048426185688164446,1.1018124037200983,-0.48567482540700335,-1.4225619132447234,1.6261862468615418,1.072315897624271,1.3562122884012802,-4.800219063481973e-05,0.0008343395454223845,-0.0003130435288170103,0.00026457398886621107,0.0008123550719286893,-0.0007524939457940477,0.00012650240932387635,-0.2071649730205536,-50.82913589477539,-9.542740821838379,17.05786895751953,1.8785501718521118,-1.1441757678985596,0.06596527993679047,700,798,721,43.563,0,0
1739305196.6725276,-0.048425185729579066,1.1018145830273618,-0.48567611994019927,-1.422560129586558,1.6261858915184766,1.0723166509237023,1.3562086379136336,-0.0007734346486678198,0.0006696463212090108,-0.00044064382644072516,0.0009486608687329706,-0.0005945356166010306,0.0007120328815701633,-0.0002593390236068225,-0.2309686839580536,-50.82913589477539,-9.566544532775879,17.03406524658203,1.8785501718521118,-1.1505844593048096,0.10624848306179047,698,800,721,43.346,1,0
1739305196.6835093,-0.048426855392272865,1.1018143498782182,-0.48567378410442513,-1.4225583518152691,1.6261856866201878,1.0723166552843448,1.3562149156340046,-0.0008047540245299369,1.604176924833951e-05,1.2880590217585416e-05,0.0008161461225417183,0.00034285559009825984,2.691795388797745e-05,0.0006264970816108248,-0.2071649730205536,-50.85690689086914,-9.566544532775879,17.01026153564453,1.8922830820083618,-1.1505844593048096,0.05314789339900017,701,800,720,43.237,1,0
1739305196.6944382,-0.0484289556377027,1.1018138355271563,-0.48567554343566555,-1.4225622324443794,1.6261843246516159,1.0723175061615662,1.3562134003672426,-0.0005975938457177366,0.00047214216304784003,-0.00024478575801139543,-0.0012686055257016212,-0.0005865500871136952,0.000474826212035359,0.0008453639138871605,-0.1793939769268036,-50.82913589477539,-9.542740821838379,17.05786895751953,1.8922830820083618,-1.1579086780548096,0.06596527993679047,701,798,721,43.346,0,0
1739305196.7055447,-0.04842819273588408,1.1018128706398946,-0.4856755405193815,-1.4225619132501288,1.6261859751568466,1.072318568064557,1.356207014375154,-0.0007919235269985778,-0.0013312446419651114,-0.00036719193637545244,6.145680349618727e-05,-0.001104773054194543,0.0008031445306853239,-0.0012293319382320066,-0.1793939769268036,-50.80533218383789,-9.542740821838379,17.05786895751953,1.9051004648208618,-1.1579086780548096,0.11998139321804047,692,799,721,43.346,1,0
