IITGN-Robotics/Franka_IITGN_ROBOTICS/franka_ros/franka_iitgn/data01/s_f_006.csv
time,fr3_joint1_pos,fr3_joint2_pos,fr3_joint3_pos,fr3_joint4_pos,fr3_joint5_pos,fr3_joint6_pos,fr3_joint7_pos,fr3_joint1_vel,fr3_joint2_vel,fr3_joint3_vel,fr3_joint4_vel,fr3_joint5_vel,fr3_joint6_vel,fr3_joint7_vel,fr3_joint1_eff,fr3_joint2_eff,fr3_joint3_eff,fr3_joint4_eff,fr3_joint5_eff,fr3_joint6_eff,fr3_joint7_eff,flexpin1,flexpin2,flexpin3,Force,ContactMic,ContactMic_gt
1739303334.6608598,-0.10738435089301289,1.0613648618373337,-0.39557257429048576,-1.4246495212160688,1.5184327919046516,1.160037240302905,1.364025896188587,0.0006141208355131061,-0.001251055678012103,0.001042293520251677,0.000670372472722888,-0.0012145248209642096,0.00013816369512018582,-0.0008771661834035762,-0.6316644549369812,-51.16238784790039,-7.713822364807129,18.29169464111328,2.0360207557678223,-0.42731785774230957,0.12639008462429047,,,,,,,,,
1739303334.6717756,-0.10738537693730575,1.0613670088763794,-0.3955743481860578,-1.4246516670559786,1.5184343767938742,1.160036066694986,1.3640310749158688,-0.0006948505801185901,-0.0006763585891311368,0.0008577181124520393,0.000273435338601149,0.00033331364209445184,0.00020485873602622996,9.176479224062308e-05,-0.6316644549369812,-51.16238784790039,-7.690018653869629,18.29169464111328,2.0360207557678223,-0.40809178352355957,0.07328949868679047,,,,,,,,,
1739303334.681846,-0.10738263834156404,1.0613704825909744,-0.3955742587374395,-1.4246522851055434,1.518432584285858,1.1600342229121805,1.364028107178761,0.00036720492137979016,0.0010292145037385106,0.00013483886990656396,-0.0014797083679924927,-0.001081692125542964,-0.00015004926708904904,-0.0010286383386698507,-0.6554681658744812,-51.21396255493164,-7.662247657775879,18.29169464111328,2.0561623573303223,-0.40168309211730957,0.10624848306179047,,,,,,,,,
1739303334.6919148,-0.10738385423496617,1.0613709400273952,-0.39557176904161584,-1.424650987762434,1.5184346329020249,1.159978468770259,1.3640284425057467,-0.0012797983639897441,0.0016157340729455257,0.0009737306272542224,0.0015595550861610091,-0.00015000318628731728,-0.009208085565613177,0.0017924401281254867,-0.4809076488018036,-51.16238784790039,-7.563065528869629,18.04572296142578,1.8721414804458618,-0.5857040882110596,0.05955658480525017,,,,,,,,,
1739303334.703875,-0.10737795511623796,1.0613578980139797,-0.3955710503336516,-1.4246747086260725,1.5184229877517177,1.1598638475965117,1.3640225021854664,0.002219345901763512,-0.002049483195496856,0.000746111723034133,0.00020110389308438596,-0.00017001636610807094,-0.006344158653875977,0.00044738312408834955,-0.3817255198955536,-50.96005630493164,-7.483719825744629,17.99811553955078,1.8071390390396118,-0.6772568225860596,0.06596527993679047,,,,,,,,,
1739303334.7158124,-0.10737892152901213,1.06136587579138,-0.39556464946265607,-1.4246953495762529,1.5184211211894914,1.1598434118475953,1.3640175751684138,0.00015138506072577605,-0.00044382128905982366,-0.0010614325947208305,-0.0014645949033523754,0.0006082117354360571,-0.002129151402722446,-1.1186445875109916e-05,-0.3063471019268036,-51.08700942993164,-7.483719825744629,18.02191925048828,1.8071390390396118,-0.6516220569610596,0.06596527993679047,,,,,,,,,
1739303334.7258735,-0.10737838031026474,1.0613749466453102,-0.3955584780671429,-1.4247127691762593,1.51842096569997,1.1598360696341314,1.364014018136626,-0.001605821147741652,0.0010131472854303873,0.0018684251364011978,-0.0027990661456838766,0.0004046152679744222,-0.0012828099157183802,0.002651251852804599,-0.2309686839580536,-51.13858413696289,-7.483719825744629,18.04572296142578,1.7934061288833618,-0.6442978382110596,0.05955658480525017,,,,,,,,,
1739303334.7378795,-0.10737589558335789,1.0613779462420676,-0.3955624098654617,-1.424720999837951,1.518419790671009,1.159832818432316,1.3640111637907524,-0.0004302975880148596,0.0010188444221480414,0.00015217649684263525,-0.0008319971587823112,-0.0002791317115934237,0.0008192925075335677,0.0014512181578164771,-0.2309686839580536,-51.19015884399414,-7.459916114807129,18.06952667236328,1.8007303476333618,-0.6442978382110596,0.07969819009304047,,,,,,,,,
1739303334.7479093,-0.10737191020152406,1.0613752499187759,-0.39556031214456805,-1.4247256349837092,1.518421070149402,1.1598271873269583,1.3640031758879365,0.0017235009288745703,-0.0014949554334072082,0.00010378651080464183,0.00012019185190386555,0.0014690906729392344,-0.0005286232983538338,-0.00024345666903135023,-0.2825433909893036,-51.11081314086914,-7.483719825744629,18.04572296142578,1.7805887460708618,-0.6378891468048096,0.09343110024929047,,,,,,,,,
1739303334.758807,-0.10737965892384309,1.0613778208759197,-0.3955582320631121,-1.424726580216648,1.5184217602414458,1.1598270673909818,1.3640067996753347,-0.0018941075336719672,0.00040669433595943836,-0.0014506328378787994,0.0001026289083099018,-0.00023634254635670408,0.0012838612858593842,9.48841370658791e-05,-0.2071649730205536,-51.13858413696289,-7.483719825744629,18.02191925048828,1.7741800546646118,-0.6378891468048096,0.07328949868679047,,,,,,,,,
1739303334.7698789,-0.10737864621632771,1.0613760401481462,-0.39555113799487596,-1.4247308716694056,1.5184174811331415,1.1598252893544092,1.363997394427209,-0.0004919490754145707,-0.0008481481943230078,0.0016410692998099575,-0.001039433404019608,-0.0006582626857387509,0.0013686999074063863,-0.0018983951605300372,-0.1793939769268036,-51.11081314086914,-7.535294532775879,18.06952667236328,1.7741800546646118,-0.6580307483673096,0.11998139321804047,,,,,,,,,
1739303334.7808714,-0.10737388353038985,1.0613743665070727,-0.39556171495352105,-1.424730872933248,1.5184185692256196,1.1598302075363294,1.3640001111774147,0.0010528004354827109,-0.0003405693584292222,-0.002340424617120012,-0.0007693523876251046,-0.002037554599895068,0.000746253411623812,-0.0005677944176198783,-0.2309686839580536,-51.08700942993164,-7.436112403869629,18.06952667236328,1.8007303476333618,-0.6644394397735596,0.13279877603054047,,,,,,,,,
1739303334.791913,-0.10737209164971713,1.0613699379555477,-0.39556164157242374,-1.4247280241431497,1.5184185690879752,1.1598310437116073,1.3640075330034749,0.0008581831160237703,-0.0010178124560561801,-0.0006172127729135387,0.0015772785228658028,-0.0005254795576693147,0.0008188595325437225,0.0009332500514679675,-0.2547723948955536,-51.03543472290039,-7.408341407775879,18.02191925048828,1.8007303476333618,-0.6708481311798096,0.06596527993679047,,,,,,,,,
1739303334.8038723,-0.10736827838574023,1.0613703628026079,-0.3955619513582589,-1.4247224968956422,1.518415188475993,1.159831029338202,1.3640016795961252,0.001432869590496258,-0.0001783149304117493,-0.0013923994310958599,0.0022675951563116683,-0.0010768928794761224,0.0007830982128289789,0.0009449956155775664,-0.2825433909893036,-51.03543472290039,-7.436112403869629,17.94654083251953,1.8007303476333618,-0.6708481311798096,0.07969819009304047,,,,,,,,,
1739303334.814918,-0.10736622006964436,1.0613743277331877,-0.3955599287304988,-1.424732295772164,1.5184176443161945,1.1598294500618074,1.363996864555057,0.0003681275832976776,0.0015538383101622371,-0.000654436829306536,0.0003823236476798502,-0.0005768593295450254,-0.00022337666651164097,-0.001121184519898632,-0.3063471019268036,-51.08700942993164,-7.459916114807129,18.04572296142578,1.8071390390396118,-0.6580307483673096,0.11998139321804047,,,,,,,,,
1739303334.8268077,-0.10736960142261104,1.0613706039397504,-0.3955595914246134,-1.4247283804264101,1.518417286214835,1.1598266755942246,1.364003252540295,0.000636110728207064,-0.00037360023272450116,0.0008116515049748408,0.0012787551974883268,0.0007557206525643649,-0.0008196313695433711,0.0016866828034473222,-0.2547723948955536,-51.03543472290039,-7.459916114807129,18.02191925048828,1.8071390390396118,-0.6644394397735596,0.06596527993679047,,,,,,,,,
1739303334.8368418,-0.10736704509239138,1.061372248106618,-0.39555817618117095,-1.424728747768311,1.5184140126932928,1.1598283371892426,1.3639997789476281,0.001515267797533965,0.0014231820678608583,0.0008182260271639599,-0.0001769406447270481,-0.0011684905015559282,-0.0013807500218013385,0.0002678855618486924,-0.2547723948955536,-51.08700942993164,-7.483719825744629,17.99811553955078,1.8071390390396118,-0.6516220569610596,0.08610688149929047,,,,,,,,,
1739303334.8468862,-0.10736768368554495,1.0613757199528155,-0.3955578067194527,-1.4247324502285006,1.5184172749925764,1.1598262669292418,1.3639996280294229,0.0006033042779955207,-0.0002469293920644099,-0.0002605413944213019,-0.00011168982687070775,-0.000666421661257337,-0.0009933590913195052,0.0018809089281770462,-0.2825433909893036,-51.11081314086914,-7.459916114807129,18.04572296142578,1.8071390390396118,-0.6314804553985596,0.09343110024929047,,,,,,,,,
1739303334.856914,-0.1073716328708666,1.0613760487520576,-0.3955580361740581,-1.4247337472040742,1.5184136337474659,1.1598235306148554,1.36400325059587,-0.0004236481186835153,0.0007421469483015776,-0.0004733696270623729,0.0005578771121187054,0.0004839433341730507,-0.0025113283377069698,0.0022453513112795373,-0.2309686839580536,-51.11081314086914,-7.483719825744629,18.06952667236328,1.8135477304458618,-0.6442978382110596,0.06596527993679047,,,,,,,,,
1739303334.8678453,-0.10737310960709001,1.0613743370417736,-0.39556144408945654,-1.42473238837797,1.5184133401978595,1.1598224247265685,1.3640028833721798,-0.0006034970015018303,-0.0006081011925547942,-0.0011552823915640326,0.0007574309075431065,-0.00026815015151560896,-0.0005895380106091984,0.0024584493889346416,-0.2071649730205536,-51.08700942993164,-7.436112403869629,18.04572296142578,1.8071390390396118,-0.6378891468048096,0.06596527993679047,,,,,,,,,
1739303334.8788898,-0.10736981577446039,1.0613761206720715,-0.3955617036290489,-1.4247354475948877,1.5184174068715472,1.1598227903194072,1.3640057046873497,0.001314443528604504,0.00014065014211233704,0.000280078318147265,-0.0013044426210010581,-0.00023288221551441037,-0.0009751528931703214,0.0005426049171908417,-0.2547723948955536,-51.11081314086914,-7.436112403869629,18.04572296142578,1.8071390390396118,-0.6378891468048096,0.07969819009304047,,,,,,,,,
1739303334.8888936,-0.10736500233585501,1.0613703885248271,-0.3955581499410849,-1.4247352085749163,1.518412690815504,1.159824043712187,1.363998864484999,0.0007971917963237067,-0.00214188391063459,0.0005009732252496126,-0.000864721679957849,-0.0008164510131927331,-0.0003290712483578597,-0.00037638807754978773,-0.2825433909893036,-51.03543472290039,-7.483719825744629,18.04572296142578,1.8135477304458618,-0.6516220569610596,0.09983979165554047,,,,,,,,,
1739303334.8999443,-0.10736235447256677,1.061370267171376,-0.39555778047363793,-1.4247287700603377,1.518412333224365,1.1598279783422953,1.3639994072497645,0.0010784804124086551,-0.00044518630379652947,0.0003518034065947823,0.001328515306526653,-8.154190980859237e-05,0.00039383791491403176,0.00024228385217020293,-0.3301508128643036,-51.05923843383789,-7.459916114807129,17.99811553955078,1.8135477304458618,-0.6580307483673096,0.08610688149929047,,,,,,,,,
1739303334.9108202,-0.10736507796264246,1.0613675556636601,-0.3955602388055966,-1.4247287801826318,1.5184136834959103,1.1598267859316187,1.363999203550572,0.000158670155591088,-0.0015268122072156316,-0.00032969453794298264,0.0013008164162606043,-0.00010462968868472586,-0.0006855241483605314,0.0013789586711933867,-0.2825433909893036,-51.03543472290039,-7.459916114807129,17.99811553955078,1.8007303476333618,-0.6708481311798096,0.09983979165554047,,,,,,,,,
1739303334.9208536,-0.10736675274975171,1.0613722774250842,-0.3955602993305902,-1.4247347991662946,1.518412882173235,1.1598307636262082,1.3639952535427824,0.0009850245181182969,0.0008178720039226685,-0.0004066039812214377,-0.0011840127150677087,-0.00035034015683955847,0.0006938893310241919,-0.0018211221573579796,-0.2547723948955536,-51.05923843383789,-7.436112403869629,18.04572296142578,1.8071390390396118,-0.6772568225860596,0.11998139321804047,,,,,,,,,
1739303334.9319053,-0.10737128751015607,1.061375813990118,-0.39556171669141654,-1.4247354201727358,1.518412923792954,1.159829044461474,1.3639955825000378,-0.000270462546942223,0.000988524686438598,-0.0013446589279624643,-0.0010879744524419427,-0.00022651469102966188,9.254356511330191e-05,-0.0021382402926401175,-0.2309686839580536,-51.11081314086914,-7.436112403869629,18.04572296142578,1.8071390390396118,-0.6580307483673096,0.12639008462429047,,,,,,,,,
1739303334.9419274,-0.10736844052144581,1.0613743390673418,-0.3955579137303064,-1.4247352881563278,1.5184129194325384,1.1598236479859054,1.3639942475909557,2.6628039870196042e-05,0.0013232146017158478,3.4211318809361643e-06,-3.840254172316401e-05,0.0004112330445571481,-0.00043361016724824625,-0.00028409261657634337,-0.2309686839580536,-51.08700942993164,-7.483719825744629,18.04572296142578,1.8071390390396118,-0.6378891468048096,0.13279877603054047,,,,,,,,,
1739303334.9529223,-0.10736743531815195,1.0613760497024922,-0.3955560352998804,-1.424735209338033,1.518414545896925,1.1598216620109214,1.364004001579618,-0.00016157846129528434,0.0006302936992766328,0.00047974678094953467,0.0003814928874881819,0.0012018379676528184,-0.0008525436635571281,0.002790099380259291,-0.2547723948955536,-51.11081314086914,-7.511490821838379,18.04572296142578,1.7934061288833618,-0.6314804553985596,0.05955658480525017,,,,,,,,,
1739303334.9639308,-0.10736585572661124,1.0613752954186213,-0.39556171399904155,-1.4247337948085075,1.5184121659715968,1.1598216794465905,1.3639972820319197,0.0002666750933543419,-0.000794953038141811,-0.00017662880659933026,0.0005837358580680522,0.0005381373958801974,0.0001614831894421617,0.0015778889859457677,-0.3063471019268036,-51.13858413696289,-7.436112403869629,18.02191925048828,1.8135477304458618,-0.6314804553985596,0.07969819009304047,,,,,,,,,
1739303334.9749784,-0.10736470090590788,1.0613744194734966,-0.3955599326182942,-1.4247351643226058,1.5184145415362977,1.1598231758706925,1.3639936204548282,0.0009633462309423775,-0.0004680479363412223,-0.0009296582917954841,-0.0003612740945664778,0.0010551701453999753,-0.00045756699517300684,-0.0009319072522811153,-0.2825433909893036,-51.08700942993164,-7.459916114807129,18.06952667236328,1.7934061288833618,-0.6442978382110596,0.10624848306179047,,,,,,,,,
1739303334.9858263,-0.107368437550035,1.0613720359581031,-0.3955578307810154,-1.4247337461284826,1.5184136770925838,1.159823175870586,1.363991978854393,-5.6903738344488434e-05,-0.0012305591495020214,0.0006848989528227714,0.0003064055977602001,0.00045712503113109674,-0.0004798562922585506,-0.0016837660755223685,-0.2309686839580536,-51.05923843383789,-7.483719825744629,18.02191925048828,1.8007303476333618,-0.6442978382110596,0.11998139321804047,,,,,,,,,
1739303334.996992,-0.1073667162604555,1.0613726599615911,-0.3955599326128965,-1.424733744880874,1.5184132130162626,1.1598247994278965,1.3639971081600841,0.0007308550914662072,0.00016110273769036847,-0.0017956662312352157,0.001875523561097011,0.0003340118483406311,-0.0005910950860173943,0.0005719455285973645,-0.2547723948955536,-51.05923843383789,-7.459916114807129,18.02191925048828,1.8135477304458618,-0.6580307483673096,0.08610688149929047,,,,,,,,,
1739303335.0078835,-0.1073667250294351,1.0613669190936192,-0.3955596964073018,-1.4247319631486415,1.5184126223137375,1.1598256094157837,1.363999120683995,-4.92780008336397e-05,0.00021470524786213635,-0.00035165902111467646,0.0010508205450711692,0.00038484343607790724,-0.0004209143169887682,0.00033815737579740227,-0.2547723948955536,-50.98386001586914,-7.459916114807129,17.99811553955078,1.8007303476333618,-0.6644394397735596,0.05955658480525017,,,,,,,,,
1739303335.0178869,-0.1073684375501828,1.0613669162585981,-0.39555814961326163,-1.4247355275578881,1.5184106507950172,1.159825557088861,1.3639951841069686,-0.001738425261070692,-0.0009086105980442264,0.0007176821332134846,-0.0011552383829982252,-0.0003433123570508406,-0.0006265838254054014,0.0008750563319201074,-0.2309686839580536,-50.98386001586914,-7.483719825744629,18.04572296142578,1.8263651132583618,-0.6644394397735596,0.06596527993679047,,,,,,,,,
1739303335.0289319,-0.1073684375501828,1.0613703120992155,-0.39556096022915777,-1.4247319620948176,1.5184118114668506,1.1598282804818412,1.3639983237037199,-0.0007953092242589416,-0.0009138036960147316,-0.0006297956630006203,-0.0006576799832105099,-0.0013603167410750927,0.00048413460752279715,0.0005378473026107249,-0.2309686839580536,-51.03543472290039,-7.408341407775879,17.99811553955078,1.8135477304458618,-0.6516220569610596,0.06596527993679047,,,,,,,,,
1739303335.0398324,-0.10736672113212001,1.0613714236155203,-0.3955589877222977,-1.4247345994620018,1.5184136812897597,1.1598255571119025,1.3639912193689676,0.0006136541947888883,-0.0006666628875921067,0.00015745594058127354,0.0008141581790395385,0.00028530811365339487,0.000686870545387187,-0.0007779835778288981,-0.2547723948955536,-51.05923843383789,-7.459916114807129,18.04572296142578,1.8007303476333618,-0.6644394397735596,0.12639008462429047,,,,,,,,,
1739303335.0498486,-0.10737056830790831,1.0613742634712147,-0.39555990246838607,-1.4247413806097524,1.5184129237931863,1.159822418210508,1.3639904557334046,-5.938496712881022e-05,0.00032620852933426623,1.3257709663703126e-05,-0.0025550637641680333,0.0003631468837740705,-0.0007623078461917192,-0.0010388288163658646,-0.2309686839580536,-51.08700942993164,-7.459916114807129,18.09729766845703,1.8071390390396118,-0.6378891468048096,0.13279877603054047,,,,,,,,,
1739303335.0599356,-0.10736577801395808,1.0613723420740402,-0.3955559914139164,-1.4247372392990107,1.5184129048970358,1.159823175870586,1.3639905509348698,0.0009333790511950468,-0.0019834859522333504,0.0002679221352281019,0.0002021957758126374,0.00010587353625050154,-0.0002787101059338084,-0.002186614060117195,-0.2547723948955536,-51.05923843383789,-7.511490821838379,18.06952667236328,1.8071390390396118,-0.6442978382110596,0.11998139321804047,,,,,,,,,
1739303335.0708706,-0.10737013833748685,1.0613760440336517,-0.3955545972009173,-1.4247373130689134,1.5184102676682287,1.159823175870586,1.3639936005785283,-0.0007062587423655902,0.0001277400570008866,0.000498306114359408,-0.0009859257415647704,0.0003366413953308155,0.0002200367895562856,-0.0005165854276167116,-0.2071649730205536,-51.11081314086914,-7.483719825744629,18.06952667236328,1.8071390390396118,-0.6442978382110596,0.10624848306179047,,,,,,,,,
1739303335.0809336,-0.10736640934539353,1.061376179560597,-0.3955571263001179,-1.424737310234939,1.5184105965020964,1.1598240417678183,1.3639983499394044,0.0011933463415111506,-0.0004019688444978709,-0.0003548956148903948,0.0006163006689903839,-0.0007255588664293738,3.5585204574650384e-05,8.461135605386267e-06,-0.2547723948955536,-51.08700942993164,-7.483719825744629,18.06952667236328,1.8263651132583618,-0.6516220569610596,0.06596527993679047,,,,,,,,,
1739303335.0918198,-0.10736671625510937,1.0613743400473423,-0.395558149923947,-1.4247414563190988,1.5184097036939577,1.159823175870586,1.3639951028245616,1.2006998922591813e-06,0.0007488838623310429,0.0004573952566485118,-0.0013518051248216354,-0.0007845771630796904,6.580443802856452e-06,-7.754838511584561e-05,-0.2547723948955536,-51.08700942993164,-7.483719825744629,18.09729766845703,1.8071390390396118,-0.6442978382110596,0.09343110024929047,,,,,,,,,
1739303335.1018338,-0.107364727088549,1.0613706295546053,-0.3955600371689405,-1.4247358140212925,1.5184120084854842,1.1598247994278965,1.3639935875045526,0.0006645202218033548,-0.00030938790249466857,-1.1808523870506926e-05,0.000475593681505541,-0.001275386996198983,0.00012375997964651165,4.6695990737926865e-05,-0.2825433909893036,-51.03543472290039,-7.459916114807129,18.02191925048828,1.8135477304458618,-0.6580307483673096,0.10624848306179047,,,,,,,,,
1739303335.1128485,-0.10736393740982687,1.0613669200741673,-0.3955617149718902,-1.424733745207469,1.518408987002492,1.1598263147480532,1.3639978920710032,0.0007945151144715459,-0.0012114784276621368,-0.0002953903242915824,0.00013996841450579923,-0.00047220557685597787,0.0007350975805098203,0.0027424511558644185,-0.2825433909893036,-50.98386001586914,-7.436112403869629,18.02191925048828,1.8135477304458618,-0.6708481311798096,0.06596527993679047,,,,,,,,,
1739303335.1228786,-0.10736464815426042,1.0613706298816707,-0.39556379508517064,-1.4247337448808584,1.5184129192171938,1.159825557087975,1.3639858699359082,0.0006816927261410864,0.00013793621172070538,-0.0013033134776021258,0.0007942670489942487,0.0017578950417531441,-0.0003218300068158576,-0.0023368816989600702,-0.2825433909893036,-51.03543472290039,-7.408341407775879,18.02191925048828,1.8071390390396118,-0.6644394397735596,0.13279877603054047,,,,,,,,,
1739303335.1348245,-0.107368437441478,1.06137411042793,-0.3955561485644062,-1.4247355398403716,1.5184093246786377,1.1598247994278965,1.3639982437504807,-0.0011712603226634764,0.0007995257235094147,0.0012951234391425244,-0.0003523364179536967,-7.54205722277928e-06,-0.0003248188332310067,0.0018745647411245018,-0.2309686839580536,-51.08700942993164,-7.511490821838379,18.04572296142578,1.8007303476333618,-0.6580307483673096,0.06596527993679047,,,,,,,,,
1739303335.1458683,-0.10735917118108483,1.0613723382948097,-0.3955598451331887,-1.4247337448809223,1.5184122291166366,1.1598224182105075,1.36399431851561,0.002304511391779553,-0.001021261708638714,-0.0003011982670474729,0.0024808785774971314,0.0010390202639709873,-0.0007943242760605373,0.0009348589790007826,-0.3301508128643036,-51.05923843383789,-7.459916114807129,18.02191925048828,1.8007303476333618,-0.6378891468048096,0.09983979165554047,,,,,,,,,
1739303335.1568062,-0.10736388252749157,1.0613716447022834,-0.39555853347314335,-1.4247373187731527,1.5184089869951833,1.1598216605504292,1.363997497070065,0.0010430777143414043,-0.0018754911909025656,-0.00010281577916711109,-0.0009501201901783856,0.0017858342685028075,-8.474178607225649e-06,0.0002703495471217732,-0.2547723948955536,-51.05923843383789,-7.483719825744629,18.06952667236328,1.8135477304458618,-0.6314804553985596,0.07328949868679047,,,,,,,,,
1739303335.1668305,-0.10736843706501353,1.0613760525329838,-0.39555969597743945,-1.4247347681075968,1.5184079269166246,1.1598199969561978,1.3639967351033948,-0.0010737463779360984,0.0005038796398656311,-0.0006640941060133377,-0.0006934520112657665,0.00021873336192285663,-5.70941771505613e-06,0.0004941865283021608,-0.2309686839580536,-51.11081314086914,-7.459916114807129,18.02191925048828,1.8135477304458618,-0.6442978382110596,0.07969819009304047,,,,,,,,,
1739303335.176882,-0.10736471539659553,1.0613780504777737,-0.39555993164223224,-1.4247345385366157,1.5184107351218548,1.159822114725071,1.3639963862512623,0.0003450953514056443,0.0013456773237231143,-9.151804319045951e-05,-0.0003140278920097133,0.0007791371158095113,0.0001786764524645354,-0.0007106423411059356,-0.2825433909893036,-51.13858413696289,-7.459916114807129,18.02191925048828,1.8135477304458618,-0.6442978382110596,0.07969819009304047,,,,,,,,,
1739303335.1888244,-0.10736745542255433,1.0613743387564458,-0.39555520167805897,-1.4247382864007192,1.5184089145540751,1.1598199969502074,1.3639911016296258,-0.00011032219032873925,-6.840012746977479e-05,0.0012603446647896088,-0.0002060237451623874,-0.0014255264967211686,-0.0013706086437467108,-0.0021431042400890023,-0.2309686839580536,-51.08700942993164,-7.483719825744629,18.04572296142578,1.8007303476333618,-0.6442978382110596,0.12639008462429047,,,,,,,,,
1739303335.1988883,-0.10736464816208956,1.0613684030066302,-0.39555678211359896,-1.4247355647708733,1.5184125690461847,1.1598197857009176,1.3639935613400573,0.0011110562295630006,7.372432498976801e-06,-0.0003433684160692874,0.0005525885024675431,8.010862131702849e-05,-0.0020275112776887427,-0.0008621866266395979,-0.2825433909893036,-51.00766372680664,-7.459916114807129,18.04572296142578,1.8071390390396118,-0.6516220569610596,0.10624848306179047,,,,,,,,,
1739303335.2088892,-0.10736388289904777,1.061372239927259,-0.39555506618410974,-1.424735538896194,1.5184085266361818,1.1598247993558195,1.3639877384760857,0.000269568972148292,-0.001046714300482731,0.0010420697589898634,0.0010704657648026726,0.000959335202762459,-0.0003165315945157502,-0.0019478616649489465,-0.2547723948955536,-51.05923843383789,-7.483719825744629,18.04572296142578,1.8071390390396118,-0.6580307483673096,0.11998139321804047,,,,,,,,,
1739303335.2198477,-0.10736669480908781,1.0613705275148013,-0.3955580624383191,-1.4247382375461766,1.518407398248141,1.159827860604714,1.3639983624590781,-0.0009119767750210279,-0.0013721083335276145,0.00043835465444027526,-0.001657678167524086,-0.0008265386787222807,-1.4020606235377875e-05,0.002079173863872531,-0.2547723948955536,-51.03543472290039,-7.483719825744629,18.06952667236328,1.8135477304458618,-0.6580307483673096,0.06596527993679047,,,,,,,,,
1739303335.22989,-0.10736447616034907,1.0613743704300003,-0.3955568356281574,-1.4247373140298256,1.518408161720333,1.1598247994797377,1.3639982322018251,0.0008119205875831397,0.0016544272704250452,3.782153784526063e-05,-0.0005256973858123748,0.0005657697584461836,0.0003893161340759576,0.001356932620812452,-0.2547723948955536,-51.08700942993164,-7.459916114807129,18.06952667236328,1.8071390390396118,-0.6580307483673096,0.06596527993679047,,,,,,,,,
1739303335.2408986,-0.10736387949556753,1.0613743429598004,-0.39555959129914586,-1.4247319634635986,1.5184099791800736,1.1598231758705861,1.3639936005858402,-0.0004103665220447601,0.0004377670808113536,-1.4096338515148115e-05,0.0014682970582010836,0.000522227622435601,0.0004076303659682828,-0.0005520859082151122,-0.2547723948955536,-51.08700942993164,-7.459916114807129,17.99811553955078,1.8007303476333618,-0.6442978382110596,0.10624848306179047,,,,,,,,,
1739303335.2518036,-0.10736648489445841,1.0613744469611655,-0.39555790984010913,-1.4247365454266272,1.5184089130877036,1.1598199969561978,1.3639940568769435,0.0008073537199523149,0.0015591781957487384,0.0003699935018673359,-0.000792564076622744,0.0007658332414233438,-0.0016049963800862206,-0.00012285673476074733,-0.2547723948955536,-51.08700942993164,-7.483719825744629,18.04572296142578,1.8007303476333618,-0.6442978382110596,0.09343110024929047,,,,,,,,,
1739303335.261872,-0.10736434570444486,1.0613739866804446,-0.3955614786482273,-1.424739717622046,1.518410578129467,1.159821660496594,1.3639974971061897,0.0013238440355131536,0.000625437488352435,-0.0013901517340631883,0.00035292603967784455,0.00045986073713043154,-0.00026629687176284546,0.0009613095154353257,-0.2547723948955536,-51.11081314086914,-7.436112403869629,18.06952667236328,1.8135477304458618,-0.6314804553985596,0.07328949868679047,,,,,,,,,
1739303335.2728193,-0.1073666431720567,1.0613780504661119,-0.3955589874489464,-1.4247386241610707,1.5184080129333222,1.159822418210507,1.364001083980376,0.0006555736508386785,0.002390232324798244,-0.0010621204608152455,-0.0020049184329544783,0.00033725260588120004,-0.0001895177928065209,0.0015355820463061607,-0.2547723948955536,-51.13858413696289,-7.459916114807129,18.04572296142578,1.7934061288833618,-0.6378891468048096,0.07969819009304047,,,,,,,,,
1739303335.2829485,-0.1073644801650654,1.061374337181766,-0.39555519777381104,-1.4247379341404018,1.5184073990236653,1.159824040314268,1.363996739703164,0.00024252918558988177,0.0002133636860502129,0.000674898118828918,-0.0006878435997177685,-0.00014216386530253226,0.0006864843602634148,-0.0003383598335521109,-0.2547723948955536,-51.08700942993164,-7.483719825744629,18.04572296142578,1.8135477304458618,-0.6516220569610596,0.07969819009304047,,,,,,,,,
1739303335.2938666,-0.10736660697815284,1.0613743397012374,-0.39555982747496077,-1.4247365113262591,1.5184125117117013,1.1598231758705777,1.3639983625368413,0.0004131337292453007,0.0011035874170601178,0.0001532122209291791,-0.0005299438796646833,0.0008400291208194566,-3.3545050917454895e-06,0.0009736197706833872,-0.2547723948955536,-51.08700942993164,-7.459916114807129,18.02191925048828,1.8071390390396118,-0.6442978382110596,0.06596527993679047,,,,,,,,,
1739303335.3039033,-0.10736809458300303,1.0613734139431499,-0.3955580702304402,-1.4247320000429902,1.5184089131554594,1.1598240243252154,1.3639908773542095,-0.00018221464897989946,-0.0002938113470941623,-0.00027129899146026085,0.0008150472578802253,-0.0004521117603047843,-6.821991037379951e-06,-0.00022937540919999762,-0.2309686839580536,-51.03543472290039,-7.483719825744629,17.99811553955078,1.8007303476333618,-0.6516220569610596,0.09343110024929047,,,,,,,,,
1739303335.3158324,-0.10736256078376334,1.0613723162663118,-0.39555958935987134,-1.4247358966280226,1.5184073979230348,1.1598231758704873,1.3639982447753434,0.000657639280116182,0.0017843986127330795,-0.001622348628829344,0.0006848176111682863,-0.0009754289185576166,-8.609430700777287e-05,0.0017251617679147485,-0.2825433909893036,-51.05923843383789,-7.436112403869629,18.02191925048828,1.8135477304458618,-0.6442978382110596,0.06596527993679047,,,,,,,,,
1739303335.3259442,-0.10736258441006497,1.061370628259723,-0.3955581470130963,-1.424736529591102,1.5184081554216082,1.1598240417678183,1.3639959686675127,-7.064221790872036e-05,0.0003201799946119313,-0.0003924184902857021,0.00030900879786339476,5.811986513417738e-05,0.00033935798899079435,0.0010084334624249544,-0.2825433909893036,-51.03543472290039,-7.483719825744629,18.02191925048828,1.8071390390396118,-0.6516220569610596,0.08610688149929047,,,,,,,,,
1739303335.3368137,-0.10736761765499578,1.0613736508314835,-0.39555602307020726,-1.4247350587741696,1.5184089116281352,1.1598240286858659,1.3639925008576192,-0.00047178424606021284,0.0008230590664167643,0.0008708643637664066,0.0006053861051128172,0.0005119436249301371,-0.00010447877157946197,0.0004629736590992086,-0.2309686839580536,-51.08700942993164,-7.483719825744629,17.99811553955078,1.8007303476333618,-0.6516220569610596,0.07969819009304047,,,,,,,,,
1739303335.346882,-0.10736636992535442,1.0613742379652906,-0.3955574412722647,-1.42473948712418,1.5184089130816607,1.1598240286856445,1.3639924496050886,-0.0006186490642602,0.001127001459847995,0.0010010048934307215,-0.0002892722407685255,0.0003466216960923428,0.0003664328435523921,-0.0015296828935863322,-0.2547723948955536,-51.08700942993164,-7.483719825744629,18.06952667236328,1.8007303476333618,-0.6516220569610596,0.08610688149929047,,,,,,,,,
1739303335.356897,-0.1073660577901922,1.0613753599911777,-0.39555790496972587,-1.4247393888486086,1.5184081597822578,1.1598231758703643,1.363993987531526,-0.0009454619422205693,0.0015091823708796573,1.8369384013132314e-05,-0.0006108940027197574,0.0005225671093764267,-0.00010663898561514965,-0.0001299266732289307,-0.2309686839580536,-51.11081314086914,-7.483719825744629,18.06952667236328,1.8071390390396118,-0.6442978382110596,0.09983979165554047,,,,,,,,,
1739303335.3689396,-0.10736364273193412,1.061374338019032,-0.3955580682867145,-1.4247385504642174,1.5184113343360197,1.159823175870586,1.3639983586586133,0.0004890317024376871,0.0004797577628763599,0.00047871295098774467,-0.001432452898973724,0.0012858168388413319,0.00044582624302755514,0.0011335030206229956,-0.2547723948955536,-51.08700942993164,-7.483719825744629,18.04572296142578,1.8071390390396118,-0.6442978382110596,0.06596527993679047,,,,,,,,,
1739303335.3808448,-0.10736627613720587,1.061376052221981,-0.3955617023343439,-1.4247339843464533,1.5184066401253773,1.1598216605504292,1.3639945684686035,-0.002314230561870731,0.0002414772024417109,-0.0012153307749263648,-0.0009436140320469843,0.0002293138079430216,1.7647794531828543e-05,0.0002837738214010259,-0.2309686839580536,-51.11081314086914,-7.436112403869629,17.99811553955078,1.8199564218521118,-0.6314804553985596,0.08610688149929047,,,,,,,,,
1739303335.3908536,-0.10736595154563225,1.0613723335720657,-0.39555814119265376,-1.4247400939026975,1.5184084553000856,1.1598221160709508,1.3639894020091683,0.0002772331772992711,-0.00017033280765783496,-0.0004637177052175279,-0.0007902924985867521,-0.0002462027276282186,-0.00045405397566629206,-0.0019012431833282095,-0.2309686839580536,-51.05923843383789,-7.483719825744629,18.06952667236328,1.8135477304458618,-0.6442978382110596,0.13279877603054047,,,,,,,,,
1739303335.4008758,-0.10736555705525419,1.0613723420751924,-0.39555993261815336,-1.424737929621021,1.5184086263897965,1.1598224181925596,1.3639867725806405,-0.0007061261583677374,-0.000513535979296896,0.00027124203031368184,0.00044904518935526304,0.000969150373161225,0.0003865319730894489,-0.0031934655601452136,-0.2309686839580536,-51.05923843383789,-7.459916114807129,18.04572296142578,1.8071390390396118,-0.6378891468048096,0.13279877603054047,,,,,,,,,
1739303335.4118462,-0.10736566003124581,1.0613741104279282,-0.39555744130828346,-1.4247386184921949,1.5184063344114296,1.1598247994278963,1.3639991206610502,0.0001467140685613952,0.001238397530590612,0.0009711728172064704,-0.000844507989022395,-0.0009354054828152047,0.00018843887577946528,0.0014152506455047359,-0.2547723948955536,-51.08700942993164,-7.483719825744629,18.04572296142578,1.8135477304458618,-0.6580307483673096,0.05955658480525017,,,,,,,,,
1739303335.4218972,-0.10736423905515285,1.061370275777096,-0.39555814118072613,-1.4247350616452181,1.5184110763187932,1.159825557087975,1.3639935962259275,-0.0003183321415259841,-0.0004924129971464524,0.00035221908618139484,-0.0004871500173697295,0.0007837491135582503,5.741771775089597e-05,-0.0012855973140913153,-0.2547723948955536,-51.05923843383789,-7.483719825744629,17.99811553955078,1.8199564218521118,-0.6644394397735596,0.10624848306179047,,,,,,,,,
1739303335.4328682,-0.10736808370896134,1.0613701964054765,-0.3955577279822552,-1.4247385495251723,1.518406942104544,1.1598247989433796,1.3639940024872224,-0.0005850608237010385,-0.0006977198097924826,-0.0005518129946866313,-5.253291405888506e-05,-0.00018132943972829537,0.00013251335115866303,-0.0005132628478656035,-0.2309686839580536,-51.05923843383789,-7.459916114807129,18.04572296142578,1.8263651132583618,-0.6580307483673096,0.09343110024929047,,,,,,,,,
1739303335.4438138,-0.10736526761022716,1.0613706191509544,-0.39555814989283494,-1.424736601433698,1.518406286410206,1.1598240417678156,1.3639924834626402,0.0004798269493511971,0.0001338799485116111,0.00020663192934441697,2.9889245831601892e-05,-8.092277188798889e-05,0.0005079633154973359,-0.0011096341359952255,-0.2309686839580536,-51.03543472290039,-7.483719825744629,18.02191925048828,1.8199564218521118,-0.6516220569610596,0.07969819009304047,,,,,,,,,
1739303335.4538555,-0.10736527925053618,1.0613743285733428,-0.39556171529531975,-1.4247358454815362,1.5184101209878995,1.1598240412833014,1.363994005458501,-0.0008565410883133335,0.0016672631389348293,-0.001494471850027371,0.00045805662674052935,3.8311906092654974e-05,-0.0007712189883804722,0.002266832662950004,-0.2309686839580536,-51.08700942993164,-7.436112403869629,18.04572296142578,1.8263651132583618,-0.6516220569610596,0.09983979165554047,,,,,,,,,
1739303335.4648926,-0.10736523248232513,1.0613743400161249,-0.39555606626318,-1.4247365606893463,1.5184071334755942,1.159821660711932,1.3639911015757928,-0.001228112744202344,0.0006577890119207284,8.22145272929935e-05,0.0007325945633788826,0.0005129654531086153,-0.0002552189555636658,0.0003581374134926437,-0.2309686839580536,-51.08700942993164,-7.511490821838379,18.04572296142578,1.8007303476333618,-0.6314804553985596,0.12639008462429047,,,,,,,,,
1739303335.4758682,-0.10736283027798285,1.0613743387564458,-0.39555602404226353,-1.424737938222952,1.5184061691411248,1.1598206009123007,1.3639909023704544,0.0012930144738435752,-0.00019905942883601387,0.000611549169565034,0.0004763434773162245,-0.0005158169087265597,-0.0012869742372464766,7.087296102060136e-05,-0.2547723948955536,-51.08700942993164,-7.483719825744629,18.04572296142578,1.8199564218521118,-0.6314804553985596,0.11998139321804047,,,,,,,,,
1739303335.4868064,-0.10736809160393115,1.061377200619217,-0.3955598266515725,-1.4247404096725311,1.5184073984048925,1.1598224182045256,1.3639902982593948,-0.0013963507284270294,0.00014413497380386938,-0.0009372239403048085,-2.261808630167855e-05,8.440322931876516e-05,-0.0008145565293508315,-0.002217276878753227,-0.2309686839580536,-51.08700942993164,-7.459916114807129,18.06952667236328,1.8135477304458618,-0.6378891468048096,0.13279877603054047,,,,,,,,,
1739303335.4978755,-0.1073652442223764,1.061374331561365,-0.3955614781104646,-1.4247383433820668,1.518407801562886,1.159824041767818,1.3639919639445475,-0.0004900641932510525,0.00033529050135316474,-0.0014007975662684539,-0.0008855776463855465,0.00010870060466672291,-0.0004502955913046572,-0.0007759570466186485,-0.2309686839580536,-51.08700942993164,-7.436112403869629,18.06952667236328,1.8071390390396118,-0.6516220569610596,0.11998139321804047,,,,,,,,,
1739303335.5088613,-0.10736695377184348,1.0613678628428251,-0.3955617152468712,-1.4247403983348392,1.518408155349161,1.1598216605504292,1.363991725647317,-0.00017573817041788262,-0.00043765123049277954,-0.00013675769995104346,-0.00023498177089225063,0.001346108298348829,0.0002512109603549788,-0.0007140195425953598,-0.2071649730205536,-51.03543472290039,-7.436112403869629,18.06952667236328,1.8071390390396118,-0.6314804553985596,0.08610688149929047,,,,,,,,,
1739303335.5188668,-0.10736352775604262,1.0613695866544097,-0.3955598266635725,-1.424738589206902,1.5184094244741622,1.1598198032153009,1.3640005965225916,0.0013974865881793326,-0.0014956459530282638,0.0002305642918098876,-0.0005922383575111927,-0.00020031033587993073,-0.0013331299762999265,0.0005988765769998821,-0.2547723948955536,-51.05923843383789,-7.459916114807129,18.04572296142578,1.7934061288833618,-0.6516220569610596,0.04673920199275017,,,,,,,,,
1739303335.5289474,-0.10736524038501652,1.0613723409788869,-0.3955580707704608,-1.424735061644722,1.5184066405799637,1.1598246811340294,1.3639994057759497,-4.107450374784188e-05,0.0006667642768517389,0.0003345806394308717,0.001189977433955264,-0.0002651619383039891,-0.0004230972207208008,0.000888353307111332,-0.2309686839580536,-51.05923843383789,-7.483719825744629,17.99811553955078,1.8199564218521118,-0.6580307483673096,0.05314789339900017,,,,,,,,,
1739303335.539804,-0.10736703247627942,1.061373413124876,-0.3955599325818523,-1.424740852239472,1.5184073583541693,1.1598240025212938,1.3639913906656311,-0.0011339506219336234,0.0017155586337619542,-0.0009517882313018493,-0.0012306032399368259,0.0012922227395703438,0.0004875071188898627,0.0003744229109018779,-0.2071649730205536,-51.08700942993164,-7.459916114807129,18.04572296142578,1.8135477304458618,-0.6516220569610596,0.11265717446804047,,,,,,,,,
1739303335.5508032,-0.10736387079384026,1.0613699321763412,-0.39556100212603335,-1.424734781093046,1.5184046494163057,1.1598240417675967,1.3639891535924369,-0.00023108736002317543,-0.0006934207175012457,-8.994546955891494e-05,0.0009050785729203998,-0.001243015576422464,-0.00014255975730060157,-0.000343667348495648,-0.2547723948955536,-51.03543472290039,-7.436112403869629,18.02191925048828,1.8327738046646118,-0.6516220569610596,0.11265717446804047,,,,,,,,,
1739303335.5608342,-0.10736695377763077,1.0613719408227948,-0.39555814992920485,-1.4247368442874404,1.5184066400934002,1.1598240417678183,1.3639899451517778,-0.00038924970334245187,-0.0008878407089085088,0.0004555260462185832,-0.0002494923730534368,0.00033863672263001,0.00017389922220000068,-0.0003580692262489055,-0.2071649730205536,-51.08700942993164,-7.483719825744629,18.02191925048828,1.8199564218521118,-0.6516220569610596,0.13279877603054047,,,,,,,,,
1739303335.5709,-0.10736766406052158,1.061374305962483,-0.395558565707318,-1.424736844217402,1.5184053703071687,1.1598227049203063,1.3639872106677575,-7.759694327710463e-05,-3.330900530484394e-06,-0.0016249487755685132,0.00026742726264140405,-0.001568345205468048,-0.00029272064307124095,-0.002395762363783086,-0.2071649730205536,-51.08700942993164,-7.436112403869629,18.02191925048828,1.8263651132583618,-0.6442978382110596,0.11998139321804047,,,,,,,,,
1739303335.582808,-0.1073642390591551,1.0613743395960826,-0.39555699261782984,-1.4247386184961308,1.5184062853784643,1.159821503564344,1.363992146164527,0.0003081777313829514,-0.00011589608234972832,0.0006695758900806671,-0.0005437110118313914,0.0002638897992926736,-0.0014463767461899031,0.0019745208522859484,-0.2547723948955536,-51.08700942993164,-7.459916114807129,18.04572296142578,1.8199564218521118,-0.6314804553985596,0.07969819009304047,,,,,,,,,
1739303335.592893,-0.10736376258230082,1.0613743390713746,-0.39555745629526623,-1.4247386269992564,1.5184049497032348,1.1598216590942203,1.363994705525968,0.00045840920622312203,0.00030218833095095734,0.00040568316074074135,-0.00024128321313585634,-0.0008691698414752533,-0.00022088105918025594,0.0007936929236875132,-0.2547723948955536,-51.08700942993164,-7.459916114807129,18.04572296142578,1.8327738046646118,-0.6314804553985596,0.05955658480525017,,,,,,,,,
1739303335.6038148,-0.10736808245439625,1.0613746575926906,-0.3955615982112262,-1.4247358709954563,1.5184032158971417,1.1598236883936002,1.3639869225945742,-0.0009990373093382735,0.0003922350121138927,-0.0013934826122385105,0.0005260235031586643,0.00040484197655735605,0.001506047677915346,-0.0002816087122471774,-0.2309686839580536,-51.08700942993164,-7.436112403869629,18.04572296142578,1.8135477304458618,-0.6516220569610596,0.12639008462429047,,,,,,,,,
1739303335.613831,-0.10736377723338086,1.0613675570454733,-0.395558853111586,-1.424735144014988,1.5184027652260745,1.159822418204523,1.3639875625244045,-0.0005695142969341514,-0.0012608438062560292,-0.002379591287419355,0.00029747861183728787,-0.0005918008393474768,2.5895630999093534e-05,0.00021977147341640678,-0.2547723948955536,-51.03543472290039,-7.436112403869629,17.99811553955078,1.8135477304458618,-0.6378891468048096,0.11998139321804047,,,,,,,,,
1739303335.624862,-0.10736524125531513,1.0613745783827353,-0.39555783386474297,-1.4247368443237762,1.5184073976830763,1.159824041767818,1.3639938300486407,-0.0003006174574788236,0.001075067921925167,-0.0006853711013026611,0.0012263281359459416,0.0008134163138633921,0.0001870191146555183,0.0021202088491761324,-0.2309686839580536,-51.08700942993164,-7.483719825744629,18.02191925048828,1.8135477304458618,-0.6516220569610596,0.09983979165554047,,,,,,,,,
1739303335.6358953,-0.10736523832810803,1.0613706295550538,-0.3955596146095129,-1.4247365607176097,1.5184042230462858,1.1598247950672456,1.363993030756517,-0.0004045928241959806,0.00020522779647638397,0.0009702231619281797,-3.238518643214713e-05,-0.0009169885903499027,0.0007423044361597867,0.0008640405656487193,-0.2309686839580536,-51.03543472290039,-7.459916114807129,18.04572296142578,1.8135477304458618,-0.6580307483673096,0.07969819009304047,,,,,,,,,
1739303335.6468403,-0.10736352873035902,1.0613705055102423,-0.39555602404049034,-1.424737708214776,1.5184066400835292,1.1598236748271094,1.363986804216299,0.0009239367848427386,-0.00043682550362525305,0.0009143554268209496,0.00019323682878156852,0.00039626356353298064,0.00027375498294574636,-0.0015791421744165454,-0.2547723948955536,-51.03543472290039,-7.483719825744629,18.04572296142578,1.8199564218521118,-0.6516220569610596,0.12639008462429047,,,,,,,,,
1739303335.656877,-0.1073635550373638,1.0613743400098874,-0.3955595884004432,-1.4247386269527214,1.5184065964949423,1.1598231714912925,1.3639944316105757,0.0005725474608155772,0.0005761866712270786,0.0003822258270224622,-0.00021612021815535184,-1.4022392385295733e-05,-0.0002884698848501263,9.270251452829492e-05,-0.2547723948955536,-51.08700942993164,-7.459916114807129,18.04572296142578,1.8199564218521118,-0.6442978382110596,0.08610688149929047,,,,,,,,,
1739303335.6669006,-0.1073642390192076,1.061376053518067,-0.3955571934306,-1.4247386269994,1.518406338069318,1.1598229821296642,1.3639898919251279,7.248590442498343e-06,0.0007268379239766665,0.00047030371634386746,0.0006534582927664755,-0.0004595184982956071,0.0005726506033419446,0.0003063474188252165,-0.2547723948955536,-51.11081314086914,-7.483719825744629,18.04572296142578,1.8135477304458618,-0.6516220569610596,0.10624848306179047,,,,,,,,,
1739303335.6778219,-0.10736524126313551,1.0613706172721222,-0.39555970416759706,-1.4247368433775736,1.518402690427086,1.1598228251283171,1.3639860378468835,-0.00011136671703870196,-0.0018363820518854466,-0.0009943369288683637,0.0006782779362108224,-0.0015830665146070381,0.00025645580805061833,-0.0014814429705073526,-0.2309686839580536,-51.03543472290039,-7.459916114807129,18.02191925048828,1.8263651132583618,-0.6516220569610596,0.13279877603054047,,,,,,,,,
1739303335.6879482,-0.10736516233014194,1.0613730242987762,-0.3955568618740163,-1.4247386269993951,1.5184042130149207,1.1598231758637179,1.3639890029821775,9.032554381372966e-05,8.251792473906115e-05,2.8561314826637063e-06,0.0005373837812874226,-0.0006581655738069514,0.0010343055050031458,0.000385750721706044,-0.2309686839580536,-51.08700942993164,-7.459916114807129,18.04572296142578,1.8135477304458618,-0.6442978382110596,0.10624848306179047,,,,,,,,,
1739303335.6987967,-0.1073652412506612,1.0613743390289616,-0.3955579135689392,-1.424737091684332,1.5184051247094807,1.159823038752346,1.3639903475361173,-3.1012629922653814e-05,0.0005660439271358035,0.0005096994557445887,0.0008093601429451996,0.00026325298673431725,0.00013962712787328452,-0.0009421297975180469,-0.2309686839580536,-51.08700942993164,-7.483719825744629,18.02191925048828,1.8327738046646118,-0.6442978382110596,0.09343110024929047,,,,,,,,,
1739303335.7088826,-0.10736352873037551,1.0613695870161834,-0.39555504095985594,-1.4247368443265704,1.5184070445488178,1.159821317887113,1.3639943537638437,0.0005899092759148074,-0.0016736922468706785,0.001039821318805858,-0.0003376698618262479,0.001471961664888995,-0.0003991585094242692,0.000423442097746433,-0.2547723948955536,-51.05923843383789,-7.483719825744629,18.02191925048828,1.8135477304458618,-0.6644394397735596,0.05955658480525017,,,,,,,,,
1739303335.7197995,-0.10736523259036983,1.0613706295390528,-0.3955595106417734,-1.4247404010681717,1.5184066400456215,1.159823386553127,1.3639833179343492,9.159107898069763e-05,-0.0007424396221167559,-0.0005677664297781566,-0.000251976956729325,0.0006010939019753907,0.00035527753957933367,-0.0020667447773577543,-0.2309686839580536,-51.03543472290039,-7.436112403869629,18.06952667236328,1.8199564218521118,-0.6580307483673096,0.15294037759304047,,,,,,,,,
1739303335.729858,-0.10736895171254429,1.0613722482120302,-0.395556770140147,-1.424740852578488,1.518405869359419,1.1598240415823855,1.3639897076127432,-0.0010955439622239915,-0.00012063982640727678,0.00039400878905891846,-0.000783525019939566,0.0005651863504230125,0.0013249585329438234,0.00013989040160978464,-0.1793939769268036,-51.08700942993164,-7.459916114807129,18.04572296142578,1.8263651132583618,-0.6516220569610596,0.09983979165554047,,,,,,,,,
1739303335.7408674,-0.1073669537718379,1.0613743413125765,-0.39555890027089513,-1.4247386270119637,1.518407397761455,1.159822940891929,1.3639967755028943,-0.0006003248599466336,0.0011392097281912243,-4.347622160894776e-05,5.9411731821385275e-06,0.00038762463488354346,-0.0005001990752791357,0.0035399749102189254,-0.2071649730205536,-51.08700942993164,-7.459916114807129,18.04572296142578,1.8135477304458618,-0.6516220569610596,0.06596527993679047,,,,,,,,,
1739303335.7518315,-0.10736595153979028,1.0613721707741484,-0.3955571949028092,-1.4247404011731504,1.5184073933470428,1.1598224167507427,1.3639921280938465,-0.00014501274593253707,0.00031866631264876864,-0.00010764266393225132,-0.000429893133709731,0.0003513372895085705,-0.0003237312489862035,-3.6188781252451986e-06,-0.2309686839580536,-51.08700942993164,-7.483719825744629,18.06952667236328,1.8135477304458618,-0.6378891468048096,0.07969819009304047,,,,,,,,,
1739303335.761878,-0.10736524126313551,1.0613724779980374,-0.39555825943356204,-1.4247404096762752,1.5184066401013756,1.159823175870561,1.3639904157380454,-0.0005548712725005718,-0.00010899359415007119,-0.00012248745690796563,-0.0014176812694290455,0.000719148544616298,0.0012971931235941615,0.0005779608979242795,-0.2309686839580536,-51.05923843383789,-7.459916114807129,18.06952667236328,1.8199564218521118,-0.6442978382110596,0.06596527993679047,,,,,,,,,
1739303335.7728765,-0.10736565992120395,1.061375055272694,-0.39555682283938254,-1.4247372840510106,1.51840764683603,1.1598222961122866,1.3639895121564807,0.00036819344585701174,0.0011370523072199066,0.00033198389177067027,0.0005928633455303807,-8.400432188115253e-05,0.000962439152574308,-0.000820605424471831,-0.2547723948955536,-51.08700942993164,-7.459916114807129,17.99811553955078,1.8263651132583618,-0.6378891468048096,0.12639008462429047,,,,,,,,,
1739303335.7848082,-0.1073615308376395,1.061370323440961,-0.39555853908407396,-1.4247368443726114,1.518407397825324,1.1598224177253014,1.363986449453667,0.0009835768073863252,-0.0014606559033743514,-0.0010411099292042883,0.000525082633704699,0.0007633283924175453,-0.00015829485085797903,-0.001634277229002861,-0.2825433909893036,-51.03543472290039,-7.436112403869629,18.02191925048828,1.8135477304458618,-0.6378891468048096,0.12639008462429047,,,,,,,,,
1739303335.7948875,-0.10736352970470923,1.0613743400110054,-0.3955567437700201,-1.4247424893612972,1.5184028053502803,1.1598222612270725,1.3639888322149705,-0.0004684885662944379,0.0003183068910183914,-0.0003710524501698201,-0.0004416266210375601,-0.0013512877207055183,-0.00021764541395196096,-0.0006261081938394927,-0.2547723948955536,-51.08700942993164,-7.459916114807129,18.09729766845703,1.8135477304458618,-0.6378891468048096,0.10624848306179047,,,,,,,,,
1739303335.8048968,-0.1073651626910114,1.0613706295546053,-0.3955576886138047,-1.424738640226707,1.5184049633993426,1.1598231700554986,1.3639936971195326,-0.0005210820487214958,-0.00010978249468384424,-0.0009915731959030103,0.00022402665958405366,0.00014127285270539751,-0.00025664549790641175,0.0008451054474595283,-0.2309686839580536,-51.03543472290039,-7.459916114807129,18.04572296142578,1.8071390390396118,-0.6442978382110596,0.05314789339900017,,,,,,,,,
1739303335.8149574,-0.1073652413580355,1.0613743397012534,-0.3955567437858071,-1.4247386268946458,1.5184057195896874,1.1598230188870609,1.3639919712300426,0.0006282823258797923,0.0006780035328963188,0.001410904084149022,-0.00010788340828058872,8.098604155198203e-06,0.0008906554597628216,0.0012361613969561528,-0.2309686839580536,-51.08700942993164,-7.459916114807129,18.04572296142578,1.8263651132583618,-0.6442978382110596,0.07969819009304047,,,,,,,,,
1739303335.8258383,-0.10736555401196798,1.0613729889775727,-0.3955595783018021,-1.4247386300518552,1.5184073565766858,1.1598235664560017,1.3639912090717357,-0.0008994537805723835,0.0008504986457744896,-0.0006651486726148284,-0.00019061637619220112,0.0010066619460906213,6.302518759418562e-05,0.0009732235029393467,-0.2309686839580536,-51.08700942993164,-7.459916114807129,18.04572296142578,1.8135477304458618,-0.6516220569610596,0.08610688149929047,,,,,,,,,
1739303335.8358405,-0.10736429421541852,1.0613743399475495,-0.3955550487223516,-1.4247386314086579,1.5184042057630962,1.159820089900951,1.3639903475349318,0.0002914586847102293,-0.00018505844963246124,0.0005144553136054011,0.0003994927775677762,-0.00042629008497711623,-0.0004688868357436307,-3.6231738721075914e-06,-0.2309686839580536,-51.08700942993164,-7.483719825744629,18.04572296142578,1.8135477304458618,-0.6580307483673096,0.09343110024929047,,,,,,,,,
1739303335.8468857,-0.10736321304117011,1.0613743116033192,-0.39556065526250195,-1.424735061578093,1.5184066226408286,1.1598240417412329,1.363985693337529,0.0007548229467377778,0.0009261462010223279,4.7668166166578495e-05,0.0014183384095525727,-0.0008330453956665555,0.00018007370394788826,-0.0012470221556945046,-0.2547723948955536,-51.08700942993164,-7.436112403869629,17.99811553955078,1.8199564218521118,-0.6516220569610596,0.13279877603054047,,,,,,,,,
1739303335.857801,-0.10736524413623694,1.061374237468059,-0.3955568487644898,-1.4247375341343302,1.5184049721464699,1.159819237842569,1.3639919580105115,0.00019373375990622196,-0.001347741933888636,8.976482380299147e-05,0.0007182767849385891,0.0008802406810079907,-0.001082975963607335,0.0010506422074230972,-0.2309686839580536,-51.08700942993164,-7.459916114807129,17.99811553955078,1.8071390390396118,-0.6378891468048096,0.07969819009304047,,,,,,,,,
1739303335.8678744,-0.107365241251123,1.0613729880321878,-0.39555768861439744,-1.4247404096903766,1.5184038128041357,1.1598226245383751,1.3639927287524685,-6.414074737730487e-07,0.0005247095093348649,-0.0006377286144683353,-0.0011494464505711725,-0.0014839560536057431,-0.002055197962852583,0.0002771811863591068,-0.2309686839580536,-51.08700942993164,-7.459916114807129,18.06952667236328,1.8135477304458618,-0.6516220569610596,0.07328949868679047,,,,,,,,,
1739303335.8788722,-0.107368082405841,1.0613723417177756,-0.3955567429020002,-1.424736844661543,1.5184084242917193,1.15982164148477,1.3639896685282935,-0.00011406491209924427,-0.0013414541244443521,0.0003174821857364852,0.0010589111659333817,0.00014309972551506517,0.00026511093800138727,-0.00014696075063637602,-0.2309686839580536,-51.05923843383789,-7.459916114807129,18.02191925048828,1.8007303476333618,-0.6314804553985596,0.09983979165554047,,,,,,,,,
1739303335.8888857,-0.10736352877849073,1.0613743401251996,-0.3955567554345321,-1.4247368565322092,1.518406600847316,1.1598197463650128,1.3639919710937958,0.0003026866292718857,0.00017482861563617434,-0.0003847893416540322,0.00020908390546039301,0.0013313416505121253,0.0010586127165676572,0.001314645590218491,-0.2547723948955536,-51.08700942993164,-7.459916114807129,18.02191925048828,1.8199564218521118,-0.6516220569610596,0.07969819009304047,,,,,,,,,
1739303335.8998451,-0.10736523735377539,1.061372342075337,-0.3955605794187445,-1.4247419236514272,1.5184073585154505,1.159822378940403,1.3639888264007956,-0.0002986214491364303,-0.0009939418218433867,-0.001318820508007501,-0.0006902191428273468,0.0015951961388404332,0.000564946382671255,-0.0011693330290325596,-0.2309686839580536,-51.05923843383789,-7.408341407775879,18.04572296142578,1.8135477304458618,-0.6378891468048096,0.10624848306179047,,,,,,,,,
1739303335.9108055,-0.10736153078945646,1.0613723420753365,-0.39555496109233285,-1.424736863347041,1.518406639616269,1.1598208105249561,1.363990308289198,0.0009025125904784305,5.907220542445172e-05,0.0009356768895261404,0.0013123005451627162,0.001475222561425425,-0.0010412976985325819,0.0002015143597415243,-0.2825433909893036,-51.05923843383789,-7.483719825744629,18.02191925048828,1.8199564218521118,-0.6516220569610596,0.09343110024929047,,,,,,,,,
1739303335.9208205,-0.10736420978907212,1.0613720373021884,-0.3955556959714526,-1.42473330644055,1.5184081508456129,1.1598237004718348,1.3639895898748533,8.687724811974063e-05,-0.0016329626829309624,0.0011787996735931178,0.001945560321812334,0.0006393242621556433,8.422039132952974e-05,0.0005140485490633319,-0.2547723948955536,-51.05923843383789,-7.483719825744629,17.97431182861328,1.8071390390396118,-0.6580307483673096,0.09983979165554047,,,,,,,,,
1739303335.930826,-0.10736279084712692,1.0613746579024668,-0.39555496110523225,-1.4247397210251544,1.5184049309625673,1.1598239892598927,1.3639896291209315,0.001555466907677995,0.0012581106562408989,0.0007396766698020238,-0.0006425492438569174,0.0002895084188931882,0.001850679166710015,-0.0005299881831172006,-0.2547723948955536,-51.08700942993164,-7.483719825744629,18.06952667236328,1.8071390390396118,-0.6516220569610596,0.09983979165554047,,,,,,,,,
1739303335.9408507,-0.10736555984546867,1.0613686329273309,-0.39555745240280527,-1.4247355197630571,1.5184073844634645,1.1598208192460335,1.3639919667324778,-0.0015457821655066157,-0.0008505971097977392,-0.0005148256369664998,0.0008107025098886167,0.0011827967218449376,-0.0001075626353789354,0.000643766175173367,-0.2309686839580536,-51.00766372680664,-7.459916114807129,18.02191925048828,1.8135477304458618,-0.6516220569610596,0.07969819009304047,,,,,,,,,
1739303335.9528747,-0.1073652412889916,1.0613707265952421,-0.39555853519938095,-1.4247345484699752,1.518406483117949,1.1598244418363446,1.3639923243051488,3.861639505205003e-05,-0.0006394250540898678,-0.00044299569402347233,0.0006282198769858063,0.0001223069527333457,0.00046264342066974984,-7.903834176493e-05,-0.2309686839580536,-51.03543472290039,-7.436112403869629,18.02191925048828,1.8199564218521118,-0.6580307483673096,0.07969819009304047,,,,,,,,,
1739303335.9638705,-0.1073635287303756,1.0613723420288619,-0.3955551973038031,-1.4247370919061197,1.518406638719385,1.1598239835533553,1.3639904652733876,3.662353107662463e-05,-8.263842800351718e-05,0.0010751451300136717,-0.0002711747136595688,-0.00014289582539697904,0.0015242036587627163,-0.0001404751698375171,-0.2547723948955536,-51.05923843383789,-7.483719825744629,18.02191925048828,1.8199564218521118,-0.6516220569610596,0.09343110024929047,,,,,,,,,
1739303335.9748824,-0.10736517402213666,1.0613743665071418,-0.39555681073704924,-1.4247416072176626,1.5184022839728455,1.159821289732625,1.363985693339523,0.0002399551974111989,-0.00010041436667133192,-0.0004405287058425395,-0.000769961310509863,-0.0004427317124258238,0.0008483837064677702,-0.00040741670084738237,-0.2309686839580536,-51.08700942993164,-7.459916114807129,18.04572296142578,1.8199564218521118,-0.6314804553985596,0.13279877603054047,,,,,,,,,
1739303335.9858396,-0.10736352872999601,1.061373295609831,-0.39555673984559847,-1.424737833334792,1.518405971804147,1.15982301301703,1.363986438077161,-1.0004392816015156e-06,0.000565921887016641,0.0006841175572616904,0.00015620607806258676,-0.0008637953761273141,0.0006078837865428283,-0.00015206385400517238,-0.2547723948955536,-51.05923843383789,-7.459916114807129,18.02191925048828,1.8135477304458618,-0.6442978382110596,0.12639008462429047,,,,,,,,,
1739303335.9968894,-0.10736452955505339,1.0613742379787563,-0.3955550917719938,-1.4247428741161954,1.5184042181446,1.1598228095756173,1.363986450979638,-0.0004306883836185906,-0.0008261511703688282,0.0007023184761414452,-0.0009762275181605287,-9.408608956166227e-05,-0.00010685080796418107,-0.00012565813046994784,-0.2309686839580536,-51.08700942993164,-7.483719825744629,18.06952667236328,1.8135477304458618,-0.6442978382110596,0.12639008462429047,,,,,,,,,
1739303336.0078015,-0.10736352872635797,1.0613760525363447,-0.3955548342143315,-1.4247424925326422,1.5184072255247931,1.159822060635079,1.3639880740704013,0.0006360180545544347,0.0015984963603922079,-0.0003080653109673125,-0.0012307946819540168,0.001052885619318872,0.0006993376505645445,0.0005445693652524955,-0.2547723948955536,-51.11081314086914,-7.459916114807129,18.09729766845703,1.8135477304458618,-0.6378891468048096,0.11265717446804047,,,,,,,,,
1739303336.0178134,-0.10736356380635982,1.0613723430564828,-0.39555523507283924,-1.4247391072094562,1.5184057060743588,1.159820337631219,1.3639909114543263,4.880806314150278e-05,-0.0006734303020933882,0.0005122601159779425,0.0002480970878404048,-0.00011464222042697542,-0.0014077669977192258,0.0013993438802701993,-0.2547723948955536,-51.05923843383789,-7.483719825744629,18.02191925048828,1.8263651132583618,-0.6516220569610596,0.07969819009304047,,,,,,,,,
1739303336.0279267,-0.10736153079011647,1.0613742638138344,-0.3955550398344268,-1.4247368475262128,1.518407979054524,1.1598240396055157,1.3639904113567909,0.0005748488459091903,0.0004808775075062718,0.0006489182169422683,0.0006649655025649111,0.0002913367764365753,-0.0012562869814831045,0.0018036848181765186,-0.2825433909893036,-51.08700942993164,-7.483719825744629,18.02191925048828,1.8071390390396118,-0.6516220569610596,0.06596527993679047,,,,,,,,,
1739303336.0388968,-0.10736524125110672,1.0613743397008233,-0.3955569799812502,-1.4247386273385803,1.5184073803179303,1.1598181387970652,1.363991617807949,0.00026065276519215096,0.0005337726523650219,0.0011163362684798324,0.00012679352248020146,0.0011618549562299046,-0.0013306473631072345,0.0009484276363500511,-0.2309686839580536,-51.08700942993164,-7.459916114807129,18.04572296142578,1.8135477304458618,-0.6378891468048096,0.07969819009304047,,,,,,,,,
1739303336.0489116,-0.10736500416343456,1.061373297477779,-0.3955585264508254,-1.4247404101286407,1.5184072226891816,1.159823040133424,1.3639814547790288,-0.0003151763524046463,-0.0004152673656832135,-0.00080975444363253,8.164051978837094e-05,-0.0011001437207049571,0.00043192513995811714,-0.0031407901190503747,-0.2309686839580536,-51.11081314086914,-7.436112403869629,18.06952667236328,1.8135477304458618,-0.6442978382110596,0.13279877603054047,,,,,,,,,
1739303336.0598288,-0.107368947814021,1.0613743396857012,-0.39555496120079386,-1.4247386544715026,1.5184043125522828,1.1598247861836724,1.3639888323525753,-0.0012850804009764132,0.000846549274761899,0.0014198031219608137,-0.0009250952216581225,-0.0019757093165022432,0.0015732822915958864,-0.0009382908861864141,-0.1793939769268036,-51.08700942993164,-7.483719825744629,18.04572296142578,1.8263651132583618,-0.6580307483673096,0.10624848306179047,,,,,,,,,
1739303336.0698776,-0.10736524125104069,1.0613723417603949,-0.3955568225068078,-1.4247457037023992,1.5184033301794486,1.1598208497712537,1.3639895898750771,-0.0004499719020677025,0.00020795647816186164,0.00044599602367421644,-0.002435110182095652,0.00025828595953397086,0.001395950078460116,-0.00010300883698417636,-0.2309686839580536,-51.05923843383789,-7.459916114807129,18.09729766845703,1.8199564218521118,-0.6516220569610596,0.09983979165554047,,,,,,,,,
1739303336.0799048,-0.10736344980941068,1.0613753201814538,-0.3955528851925118,-1.4247404098439065,1.518401891296743,1.1598224121807441,1.363991971092464,0.0012692728624818562,0.0007701178612045953,0.0012335538177052235,-0.00038721487293771277,0.0002616521325630545,0.0007486397038492515,0.002302391635784341,-0.2547723948955536,-51.08700942993164,-7.511490821838379,18.06952667236328,1.8199564218521118,-0.6378891468048096,0.07969819009304047,,,,,,,,,
1739303336.089915,-0.10736152689085432,1.0613727668351474,-0.39555682283089244,-1.4247378429275537,1.5184072400516584,1.15981842712183,1.3639912134323857,0.0009440270434759117,-1.0383247944164317e-05,-0.0010006287063658685,-0.0006750734062419629,-0.00016093263172265983,-0.0014832934920570285,0.000982554002415299,-0.2825433909893036,-51.03543472290039,-7.459916114807129,18.02191925048828,1.8135477304458618,-0.6442978382110596,0.08610688149929047,,,,,,,,,
1739303336.100869,-0.10736894878967025,1.0613723715217938,-0.39555711323789694,-1.4247386544771372,1.5184045055560491,1.1598224980168148,1.3639969647209704,-0.0013933783922558721,-0.00036164367552598035,-0.0004585527479790717,-0.00021561056771538588,0.00021850171471469627,-0.0006550968674535527,0.0022795796611349665,-0.1793939769268036,-51.05923843383789,-7.483719825744629,18.04572296142578,1.8071390390396118,-0.6516220569610596,0.07328949868679047,,,,,,,,,
1739303336.1109138,-0.10736153078947296,1.0613723421848513,-0.3955549873749004,-1.4247386300523213,1.5184026860973483,1.1598226612876552,1.3639920060494062,0.0007632653943088759,-0.000995226381223067,0.0009078732061580091,0.00041387776359981716,-0.00039927671188065355,0.0013819169196553917,-0.0008974765120844784,-0.2825433909893036,-51.05923843383789,-7.483719825744629,18.04572296142578,1.8135477304458618,-0.6442978382110596,0.07969819009304047,,,,,,,,,
1739303336.1218224,-0.10736352873037552,1.0613760515921136,-0.39555496109293536,-1.4247405236347759,1.518408913055088,1.159818016211435,1.3639925350118427,0.0004111493985330356,0.0011345522905094768,0.001047250661884611,-0.00047287603449073764,0.0007163725839859635,-0.0011727292739003156,0.0007240921827848903,-0.2547723948955536,-51.11081314086914,-7.483719825744629,18.06952667236328,1.8007303476333618,-0.6378891468048096,0.06596527993679047,,,,,,,,,
1739303336.1327965,-0.10736352761169701,1.0613723420753312,-0.3955567437698061,-1.4247426378296182,1.5184058778653804,1.1598197487092348,1.3639888322090148,0.0006769943852259271,0.0006796569455088917,-0.00018230471837283658,-0.000504628027891711,0.001661456108536194,-0.00012403470825557032,-0.0009101615197662588,-0.2547723948955536,-51.05923843383789,-7.459916114807129,18.06952667236328,1.8263651132583618,-0.6516220569610596,0.10624848306179047,,,,,,,,,
1739303336.1438272,-0.10736356672933964,1.061375290856083,-0.3955592350798241,-1.4247386262053805,1.5184049542313207,1.1598240395955424,1.3639891854277062,-0.0005660774245871699,0.001362211284008734,-0.0007051457954777601,0.000641751880959306,-2.2886543565109926e-05,0.0006993250256955733,-0.00043012814987903865,-0.2547723948955536,-51.08700942993164,-7.436112403869629,18.04572296142578,1.8327738046646118,-0.6516220569610596,0.10624848306179047,,,,,,,,,
1739303336.1538422,-0.10736524157609885,1.061372330743012,-0.39555981451680194,-1.4247404920927138,1.5184070053019996,1.1598180212210008,1.363985693339523,-0.0008850868538270217,0.0008788626894424224,-0.0009291018639586898,0.00017146262400949186,0.0003315617657575911,-0.0007057779214560795,-0.0009210454435473397,-0.2309686839580536,-51.05923843383789,-7.459916114807129,18.06952667236328,1.8135477304458618,-0.6378891468048096,0.13279877603054047,,,,,,,,,
1739303336.1648862,-0.10736671700894888,1.0613760525367288,-0.39555674382180944,-1.4247398117627548,1.5184018898926004,1.1598246640117547,1.3639856931760235,3.460956718513467e-05,0.0006269683168263391,-0.00012420493474556477,-0.00044672678101527794,-0.00021576527323840435,0.0018816171585637254,0.0002807589022238892,-0.2071649730205536,-51.11081314086914,-7.459916114807129,18.02191925048828,1.8199564218521118,-0.6580307483673096,0.13279877603054047,,,,,,,,,
1739303336.1758258,-0.10736453096197762,1.0613723002127904,-0.39555496105644833,-1.4247391075541496,1.5184048227943043,1.1598213433726534,1.3639919710924635,-0.000218637798651071,-0.0001550823983993005,0.0009910373942957967,0.0002160255722170588,0.00017592385456336146,0.0017378854428604514,0.0007733113967463603,-0.2309686839580536,-51.08700942993164,-7.483719825744629,18.02191925048828,1.8263651132583618,-0.6378891468048096,0.07969819009304047,,,,,,,,,
1739303336.1858325,-0.10736864478579888,1.0613713362725294,-0.39555527604078594,-1.4247415940244905,1.518401092872175,1.1598239981431082,1.3639924420427436,-0.0012400053526630634,-0.0001676325598476727,0.0005378584381580159,-0.001156091505354373,-0.0020378522716250954,0.0014981430932684604,0.0020667941032231265,-0.1793939769268036,-51.03543472290039,-7.483719825744629,18.04572296142578,1.8400980234146118,-0.6516220569610596,0.07969819009304047,,,,,,,,,
1739303336.1968246,-0.10736523832291019,1.0613740352186711,-0.39555496109812066,-1.4247390866487053,1.5184058431418987,1.1598232494580787,1.3639935948192556,-9.748444148726819e-06,-0.0002341130214038845,0.00042671236927080495,0.0010337774836362465,0.0003070297232920022,2.356649375902318e-05,0.00015136915176526045,-0.2309686839580536,-51.08700942993164,-7.483719825744629,18.06952667236328,1.8263651132583618,-0.6580307483673096,0.06596527993679047,,,,,,,,,
1739303336.2069318,-0.10736695084882267,1.0613745817775593,-0.39555697994446704,-1.4247427397601589,1.518405528528583,1.1598183115080773,1.363991617879755,-0.0012981226715988669,0.0002955166364936881,-0.00030000501433229837,-0.0005915835040763498,0.00028997602554860875,-0.0003153806316852074,0.0009520560025334081,-0.2071649730205536,-51.08700942993164,-7.459916114807129,18.09729766845703,1.8263651132583618,-0.6314804553985596,0.07969819009304047,,,,,,,,,
1739303336.217793,-0.10736524125109022,1.06137234240375,-0.3955575314651587,-1.4247350617975136,1.5184052228879628,1.1598214967274914,1.3639903426879918,-0.0006115039252070264,-0.0005079474854650965,-0.0005629284782230317,0.0014060976534537423,-0.00018443596446346508,0.00042148007371717474,-0.0003336123593070648,-0.2309686839580536,-51.05923843383789,-7.459916114807129,17.99811553955078,1.8199564218521118,-0.6580307483673096,0.09343110024929047,,,,,,,,,
1739303336.227866,-0.10736357257535599,1.061372342075342,-0.3955595783151417,-1.4247371282007468,1.5184049706690177,1.1598187666748523,1.363985811075017,0.00024172308172998704,-0.00045315374475201286,-0.000329170280295771,0.0006385186483501573,0.0002710768157518931,-8.100763424329972e-06,-0.0018730364648103393,-0.2547723948955536,-51.05923843383789,-7.459916114807129,18.02191925048828,1.8071390390396118,-0.6378891468048096,0.13279877603054047,,,,,,,,,
1739303336.2379007,-0.10736726689143186,1.061370527515378,-0.39555501641851437,-1.424739478648912,1.518407026459897,1.1598219029836863,1.363988832220978,0.00014126361053952004,-0.0011076669398268047,0.0012811283715730227,-0.000234520546562004,0.0003080614987963848,0.0007928258160287295,0.0013303646067630984,-0.2309686839580536,-51.03543472290039,-7.511490821838379,18.04572296142578,1.8135477304458618,-0.6378891468048096,0.10624848306179047,,,,,,,,,
1739303336.2488253,-0.10736344981322228,1.0613726600150348,-0.39555671760689104,-1.424736939000351,1.51840510669197,1.159824797811871,1.363991600437151,0.00015173513803128568,0.0006673622349231104,0.0004935361083366284,0.0008199511724852903,0.0013847683976871519,0.0024345591437035705,-0.00018470943084603156,-0.2547723948955536,-51.05923843383789,-7.459916114807129,18.02191925048828,1.8327738046646118,-0.6580307483673096,0.07969819009304047,,,,,,,,,
1739303336.2588615,-0.10736329196614453,1.0613743400215736,-0.3955551973033436,-1.4247386403413649,1.5184016424349982,1.1598201508126766,1.363995451978626,0.00011876073726199865,6.0287605471990864e-05,-0.0002805961723277588,-0.0010011673049515166,-0.0007910775182071331,9.544593025078021e-05,0.00021459287704169106,-0.2547723948955536,-51.08700942993164,-7.483719825744629,18.04572296142578,1.8263651132583618,-0.6580307483673096,0.08610688149929047,,,,,,,,,
1739303336.2699392,-0.1073614542299508,1.0613760224134376,-0.39555852644815853,-1.4247386271125295,1.5184027995121434,1.1598193315927572,1.3639871694357557,8.236423790932774e-05,0.0013598384457325853,-0.0012030276586711592,0.0006580998300592042,0.0007336936579518259,-0.0002845861749385159,-0.0011837912121845388,-0.2547723948955536,-51.11081314086914,-7.436112403869629,18.04572296142578,1.8135477304458618,-0.6516220569610596,0.11998139321804047,,,,,,,,,
1739303336.281846,-0.1073652412393961,1.0613713473017168,-0.3955567437698061,-1.4247426441115427,1.5184058691181217,1.1598235686913767,1.3639872042429784,-0.000465462412159053,-0.0019341431219794417,0.0002677403233355309,-0.0005884824449405557,0.00018452264730118824,0.0004810100308679817,-0.0007971765025864264,-0.2309686839580536,-51.05923843383789,-7.459916114807129,18.06952667236328,1.8263651132583618,-0.6516220569610596,0.11998139321804047,,,,,,,,,
1739303336.29283,-0.10736895171269094,1.061372311003828,-0.39555496109278704,-1.424740098583328,1.5184081495894362,1.1598198010430578,1.3639880757931193,-0.0017661611255654522,-0.000868969727353982,0.0005712782045230386,-0.0008143391785289882,0.0005569874687364518,-0.0010099610406251237,0.0003895079676067745,-0.1793939769268036,-51.05923843383789,-7.483719825744629,18.02191925048828,1.8071390390396118,-0.6516220569610596,0.11265717446804047,,,,,,,,,
1739303336.3028367,-0.10735939992347174,1.0613762909549735,-0.3955567437698061,-1.4247404098445844,1.5184061622437208,1.1598211824594757,1.3639904652727441,0.0020578795663543223,0.00023471851831227483,-0.0003213371374606041,0.00023711157678896818,0.0007136173900318136,-0.0015390718263547497,0.00025204335275528904,-0.2825433909893036,-51.11081314086914,-7.459916114807129,18.06952667236328,1.8135477304458618,-0.6378891468048096,0.09343110024929047,,,,,,,,,
1739303336.3138175,-0.10736351763982079,1.0613708679745302,-0.3955567437698061,-1.4247372012577957,1.5184020294330958,1.1598197851196996,1.3639903475358177,0.0009253639798892656,-0.0012574688980517728,0.00018585000290587573,0.0003678296172972083,-0.0006133549972823191,-0.00039346413178513115,0.00038219121745027213,-0.2547723948955536,-51.03543472290039,-7.459916114807129,18.02191925048828,1.8199564218521118,-0.6516220569610596,0.09343110024929047,,,,,,,,,
1739303336.3238447,-0.10736497818103609,1.061373297481822,-0.3955508605313539,-1.4247369394067626,1.518402687696133,1.159819645998282,1.3639943523102935,0.00024306754732637953,0.0004196435114781802,0.0014000520032581478,0.0010585587674093893,-0.0006679734131533741,0.00020389303683049056,0.0007141582750030612,-0.2309686839580536,-51.11081314086914,-7.535294532775879,18.02191925048828,1.8135477304458618,-0.6516220569610596,0.05955658480525017,,,,,,,,,
1739303336.333855,-0.10736497806850959,1.0613706295079481,-0.3955549610887549,-1.4247418412366697,1.5184066395371683,1.1598192735640518,1.3639918533548938,-5.189924332575192e-05,-0.00041071365416563664,0.00037286371741126394,-0.0005618978237718457,0.0007803035659665897,-0.001141634153837531,-0.0006634182302149244,-0.2309686839580536,-51.03543472290039,-7.483719825744629,18.04572296142578,1.8199564218521118,-0.6516220569610596,0.07969819009304047,,,,,,,,,
1739303336.344933,-0.10736521494263276,1.0613723421843524,-0.3955538261469301,-1.4247386585595851,1.518407384518068,1.1598193320227637,1.363983266268354,-0.00013769415390791059,0.0004701387312294042,0.0012103469553398426,-0.0006957293529058202,0.0018996741959309282,-0.0009474668573572051,-0.0017819635303425263,-0.2309686839580536,-51.05923843383789,-7.511490821838379,18.04572296142578,1.8135477304458618,-0.6516220569610596,0.12639008462429047,,,,,,,,,
1739303336.3558047,-0.10736150444629926,1.0613726629102151,-0.39555675121550005,-1.4247408797117498,1.5184044860146892,1.1598203373953473,1.363985693319551,0.0006262656617993835,0.0002876474726405026,-0.0005720674355763223,-0.0005141865457103437,0.00037211813482186917,-0.0005918108549048345,-0.0011605465691293699,-0.2825433909893036,-51.05923843383789,-7.459916114807129,18.04572296142578,1.8071390390396118,-0.6516220569610596,0.13279877603054047,,,,,,,,,
1739303336.3668613,-0.10736163601732687,1.0613741075953163,-0.3955591058798447,-1.4247405200297503,1.5184031065000885,1.15982281931115,1.3639861490195562,0.0005907915023549061,0.00039102274714076385,-0.001981021150485798,-0.000578373452785861,-0.00013490595034083995,0.0015539547527874975,-0.0012467772038025039,-0.2825433909893036,-51.08700942993164,-7.459916114807129,18.06952667236328,1.8199564218521118,-0.6516220569610596,0.11998139321804047,,,,,,,,,
1739303336.3778036,-0.10736524125170073,1.061374263485457,-0.39555471959874783,-1.4247371312538228,1.518403105407705,1.1598184613003797,1.363987208651704,0.00013927445019374182,-0.00038383726748392774,0.0007665962149021906,0.0007279127129489509,-0.000670781236349966,-0.00050353847567949,0.000940731541396331,-0.2309686839580536,-51.08700942993164,-7.483719825744629,18.02191925048828,1.8135477304458618,-0.6442978382110596,0.11998139321804047,,,,,,,,,
1739303336.3878288,-0.10736624640615303,1.0613721093364201,-0.39555674376571637,-1.424741099493228,1.5184063364356521,1.1598205079458228,1.3639888322149964,-0.0005169953218284549,-0.0002623109560826387,9.172305417329903e-05,0.0001468409479476755,-0.0009278593570934428,0.0009206059356078706,8.925447756181522e-05,-0.2071649730205536,-51.05923843383789,-7.459916114807129,18.04572296142578,1.8135477304458618,-0.6516220569610596,0.10624848306179047,,,,,,,,,
1739303336.398808,-0.10736176754842389,1.0613723420740226,-0.39556060634468754,-1.4247368453915084,1.5184069645975642,1.1598212878832657,1.3639872086576856,1.0249068026818597e-05,-0.00020725400583412269,-0.0016365514467545192,0.0015604899863351938,0.0005945488512889359,0.00016276857938987737,0.00012347317776018464,-0.2825433909893036,-51.05923843383789,-7.408341407775879,18.02191925048828,1.8135477304458618,-0.6314804553985596,0.11998139321804047,,,,,,,,,
1739303336.4088619,-0.10736695366758822,1.0613723307376444,-0.3955613613028435,-1.4247398116483232,1.518408135872096,1.1598176675174754,1.3639871912150827,-0.00010530921122500102,-0.00036046211727967136,-0.0015553657258526284,-0.0006410802705097549,0.000972900190409234,-0.0013504312271470924,0.0007362083395478015,-0.2071649730205536,-51.05923843383789,-7.436112403869629,18.02191925048828,1.8071390390396118,-0.6378891468048096,0.11998139321804047,738,727,727,39.436,0,0
1739303336.4198415,-0.10736153078952186,1.0613723420752725,-0.39555496121679673,-1.424740880067484,1.5184026299551059,1.1598184603114292,1.3639895711403287,0.001490536598784302,-0.00042585758175532027,0.000381869613700813,-0.001143371351850295,-0.0019822750276101,0.0011389191794328112,0.0005467727122334301,-0.2825433909893036,-51.05923843383789,-7.483719825744629,18.04572296142578,1.8135477304458618,-0.6442978382110596,0.09983979165554047,737,720,728,39.436,0,0
1739303336.4308472,-0.107363110385056,1.0613743302531768,-0.3955549625328792,-1.4247371863608562,1.5184011598297085,1.1598224935486812,1.3639888302768237,0.0012371743513231342,0.0009627430609919424,0.0005239353948813212,-0.00010555951906990178,-0.001972889323306234,-0.0003723822492069739,-0.0004662025695293414,-0.2309686839580536,-51.08700942993164,-7.483719825744629,18.02191925048828,1.8263651132583618,-0.6516220569610596,0.10624848306179047,739,724,720,39.111,0,0
1739303336.4418578,-0.10736500447618338,1.0613741114090194,-0.3955567438058165,-1.4247411524425257,1.5184079939970354,1.1598184125238546,1.3639868023799275,-0.000211501623697711,0.0002399821088768597,0.0007866301127906521,-0.0012203381174701483,-0.00023338311709985405,-0.0017013971998199573,-0.0011032269642915911,-0.2309686839580536,-51.08700942993164,-7.459916114807129,18.06952667236328,1.8071390390396118,-0.6442978382110596,0.09343110024929047,737,726,727,39.545,1,0
1739303336.4528399,-0.10736145186722101,1.061375363770846,-0.3955549610927872,-1.4247376227027309,1.5184018916001187,1.1598217058198812,1.3639872086376732,0.0017600928462892635,0.0010102056719466556,0.0005239465210708039,0.0005730636450725087,-0.0006490856510727866,0.0009804942645939877,-0.0003511920099751714,-0.2825433909893036,-51.11081314086914,-7.483719825744629,18.02191925048828,1.8327738046646118,-0.6442978382110596,0.11998139321804047,735,725,726,39.545,2,0
1739303336.4628415,-0.10736524124977015,1.0613743390597175,-0.3955567440938267,-1.4247387124813367,1.5184081537517973,1.1598203390659294,1.3639907022014128,-0.0005794510176204337,0.0009738284246978584,0.00026438632678585714,-0.0005860706285200435,0.0018503989789609527,0.0011514087044766053,-3.8729953627589745e-05,-0.2309686839580536,-51.08700942993164,-7.459916114807129,18.04572296142578,1.8071390390396118,-0.6516220569610596,0.09343110024929047,736,726,727,39.436,0,0
1739303336.4738154,-0.10736355406303089,1.061370618652973,-0.39555852546568054,-1.4247386544719824,1.518407356900607,1.1598185268576453,1.363991971094466,-1.3628549918171071e-05,-0.0003259665356432583,-0.0005012496377367402,0.0002523446038391956,0.00171645224608167,-0.0006209456116214254,0.0001244401093564445,-0.2547723948955536,-51.03543472290039,-7.436112403869629,18.04572296142578,1.8135477304458618,-0.6442978382110596,0.07969819009304047,737,725,726,39.328,0,0
1739303336.4838624,-0.107365267558524,1.0613706308626158,-0.39555671727883623,-1.4247386280173508,1.518401251268091,1.159822243544241,1.3639903082892966,-0.0006335430397543002,-0.0008652668944650045,-3.1411999191964995e-05,0.0012510989526419625,0.00017748829215295136,0.0005490673906507095,0.00025579939853922963,-0.2309686839580536,-51.03543472290039,-7.459916114807129,18.04572296142578,1.8263651132583618,-0.6378891468048096,0.09343110024929047,736,727,727,39.436,1,0
1739303336.494924,-0.10736524125125521,1.0613723509056614,-0.39555681378434554,-1.424737915771958,1.5184027531039979,1.1598215928995468,1.3639856928527907,0.000292426378749638,-0.0002326325371299798,-0.0007305521466807677,0.0012562929386491623,-0.0006532291983926749,0.0001607275864856813,-0.0008672529568539288,-0.2309686839580536,-51.05923843383789,-7.459916114807129,18.02191925048828,1.8135477304458618,-0.6442978382110596,0.13279877603054047,736,726,730,39.545,1,0
1739303336.5058894,-0.10736524125110672,1.061370947446094,-0.3955567466863865,-1.424737174144364,1.5184054071042223,1.159818448700909,1.363991971092461,0.00014585885082636573,-0.0013701616913109576,-0.00046433145343738455,0.0004241113291796399,0.0005807703227790166,-0.0009078922603312303,0.0013017698798882672,-0.2309686839580536,-51.03543472290039,-7.459916114807129,18.02191925048828,1.8263651132583618,-0.6442978382110596,0.07969819009304047,737,727,728,39.328,0,0
1739303336.516909,-0.10736152202052636,1.0613760525387153,-0.39556060623669714,-1.4247434906610672,1.518404056854358,1.1598184263953895,1.3639894986034953,0.00042575383646172374,0.00018480044558265044,-0.0020078821368218975,-0.0015406844387353459,-0.0001965422162447321,-0.0009573673752188922,-0.0005992832596048137,-0.2825433909893036,-51.11081314086914,-7.408341407775879,18.06952667236328,1.8135477304458618,-0.6442978382110596,0.07969819009304047,736,727,727,39.436,0,0
1739303336.5277922,-0.10736695247267787,1.0613722737218372,-0.3955567439484716,-1.4247415970560102,1.518402988764373,1.1598195848748096,1.3639918533409365,-0.0017383073443952486,0.0005126141600515417,-8.928093048521341e-06,-0.000541160750466311,-0.0005560462297103725,0.00011993766996732839,0.0010778820326037568,-0.2071649730205536,-51.08700942993164,-7.459916114807129,18.04572296142578,1.8199564218521118,-0.6442978382110596,0.07969819009304047,738,728,727,39.436,1,0
1739303336.5399296,-0.10736539920128828,1.061370629507948,-0.39555677012348056,-1.4247416062504352,1.5184037795148975,1.1598184075056501,1.363993594164593,-0.000550428890651886,-0.0008478856641055735,-0.0003811900282077477,0.00040214211695077196,0.0005099964384972353,-0.001310644122903605,0.0018747511797319676,-0.2309686839580536,-51.03543472290039,-7.459916114807129,18.04572296142578,1.8071390390396118,-0.6442978382110596,0.06596527993679047,737,727,727,39.328,1,0
1739303336.55088,-0.10736524125140393,1.061374337170102,-0.39555288130298105,-1.4247404201960387,1.5184019111379694,1.1598188804052956,1.3639848975785962,-0.001054783331510257,0.000417690174098829,0.0005101445674977115,0.0009311721465183377,-0.0017125773423178091,-0.00012659723383046565,-0.0007072422557006776,-0.2309686839580536,-51.08700942993164,-7.511490821838379,18.06952667236328,1.8199564218521118,-0.6442978382110596,0.11265717446804047,736,726,727,39.545,1,0
1739303336.5609112,-0.107363110385056,1.0613753636671097,-0.3955549873384537,-1.42474195123669,1.5184033872121983,1.1598220704536324,1.3639903474813508,0.0009805295428211903,0.00029260143361529257,0.0007124623614351326,-0.0009394014564631654,-0.00101840291210512,0.0009855508648879323,0.0010308897036947428,-0.2309686839580536,-51.11081314086914,-7.483719825744629,18.04572296142578,1.8071390390396118,-0.6442978382110596,0.09343110024929047,736,726,728,39.328,0,0
1739303336.5718293,-0.10736482191942548,1.061374334452471,-0.3955574524029532,-1.4247368539884135,1.518403391410677,1.1598209457204969,1.3639853270428668,0.00035486767315837385,0.001369670190344649,-0.0003173226304242261,6.050336120556123e-05,-0.0005476488305289259,-0.00031859008075356616,-0.002092680189309528,-0.2071649730205536,-51.08700942993164,-7.459916114807129,18.02191925048828,1.8071390390396118,-0.6644394397735596,0.13279877603054047,738,728,727,39.328,1,0
1739303336.5819232,-0.1073652412150036,1.0613723420752421,-0.395556274727801,-1.424737695957634,1.5184033862425712,1.1598187613603947,1.3639904142756332,-0.0006587127474539672,0.000909954818073514,0.000272775341547065,0.0007922941386711709,0.00040061984182779677,0.0003710907115621614,5.0572125093525846e-05,-0.2309686839580536,-51.05923843383789,-7.436112403869629,18.02191925048828,1.8071390390396118,-0.6442978382110596,0.06596527993679047,738,727,728,39.436,0,0
1739303336.5928907,-0.10736478671112408,1.06137137887187,-0.395558605171114,-1.4247434636441287,1.518408553327995,1.1598184120769928,1.3639891448883155,0.0002475974149625049,-0.0010692026469586958,-0.00038770329192059944,-0.0005995770292449138,0.0002176961705599477,-9.686715205126122e-06,-0.00013422831386467054,-0.2071649730205536,-51.03543472290039,-7.436112403869629,18.06952667236328,1.8007303476333618,-0.6442978382110596,0.07969819009304047,742,727,728,39.545,0,0
1739303336.6038072,-0.10736524078137051,1.061372342088026,-0.3955585264481583,-1.4247387465491004,1.5184051734631598,1.1598200310563918,1.3639869746705007,-0.0007109395538847571,-5.3581566248970945e-05,-0.0008592114311267097,0.00031386877734106497,0.00022463699183798724,0.00042564372142590335,-0.0011555484922304458,-0.2309686839580536,-51.05923843383789,-7.436112403869629,18.04572296142578,1.8199564218521118,-0.6580307483673096,0.08610688149929047,736,727,725,39.436,0,0
1739303336.6138568,-0.107362818441684,1.0613775095393487,-0.39555674344275726,-1.4247415211114136,1.518403441048805,1.1598194671371331,1.3639905580083354,0.0005954654959145313,0.0006410535249293571,0.00019249399378873106,-0.0013780685322117754,0.00014629472826443307,-5.6438912909009906e-05,-0.00013508788747105074,-0.2547723948955536,-51.11081314086914,-7.459916114807129,18.06952667236328,1.8071390390396118,-0.6442978382110596,0.07969819009304047,739,727,728,39.436,1,0
1739303336.6248548,-0.10736429376515524,1.0613744198309525,-0.3955567787640276,-1.4247378375407391,1.5184067288159775,1.1598200703041648,1.3639870909174567,0.0004322368594670868,0.000644406758534085,0.00033438277291924834,0.0004448137702394418,0.001227971954188162,0.0002010664322389752,-0.0006002465628531667,-0.2309686839580536,-51.08700942993164,-7.459916114807129,18.02191925048828,1.8071390390396118,-0.6580307483673096,0.11998139321804047,738,730,727,39.545,1,0
1739303336.63492,-0.10736349353008617,1.061374340017541,-0.39555488162051994,-1.4247404098062935,1.5184035179261406,1.1598192733969008,1.3639832720812255,0.00020045598951240609,0.0012760154805328498,0.000707267201169258,-3.569242175748249e-05,0.00023482637418350844,2.594540324099589e-05,-0.0011499379669656432,-0.2547723948955536,-51.08700942993164,-7.483719825744629,18.06952667236328,1.8071390390396118,-0.6516220569610596,0.12639008462429047,736,730,727,39.436,0,0
1739303336.6458666,-0.10736153068106453,1.0613723194039903,-0.3955545891718278,-1.4247368457920828,1.5184044466888933,1.159818407499004,1.3639857064015362,0.0015051103341797633,-0.0005038914900189411,0.0007860086212147776,0.0003596284980892877,0.00047420054179423874,-0.0005649045507952922,-0.0004959308278283235,-0.2825433909893036,-51.05923843383789,-7.459916114807129,18.02191925048828,1.8071390390396118,-0.6442978382110596,0.13279877603054047,739,727,727,39.328,1,0
1739303336.6569095,-0.10736524125110611,1.0613723420402157,-0.3955588696566403,-1.424742741275021,1.518406565970395,1.1598192733962362,1.3639919710925377,-0.0011452848267066043,-0.00014011404327359477,-0.0014890237846357267,-0.0008128982083702766,0.00020226153128833626,-0.0007713264505264363,0.0020011974953273123,-0.2309686839580536,-51.05923843383789,-7.459916114807129,18.09729766845703,1.8071390390396118,-0.6516220569610596,0.07969819009304047,738,728,728,39.436,1,0
1739303336.6669166,-0.10736618830268481,1.0613741138074317,-0.39555435085571833,-1.4247399308113886,1.518405557614778,1.159820801798345,1.3639935990104253,-0.0004475489687697457,0.00016181015405632103,0.0005807569098820031,0.0010470229787638134,0.0008767686977041724,0.00027237364666437777,0.0018164838625842855,-0.2309686839580536,-51.08700942993164,-7.483719825744629,18.02191925048828,1.8007303476333618,-0.6644394397735596,0.06596527993679047,738,728,728,39.545,1,0
1739303336.6778693,-0.10736524125645285,1.0613760497012206,-0.39555852644338035,-1.4247412369092876,1.5184019255192036,1.15981927339631,1.3639864507822914,-0.0015839662358952543,0.0004514067282255251,-0.0010485888939813011,0.00019920744171362539,-3.5168334543290774e-05,3.510253757953586e-05,-0.0014393268289929063,-0.2309686839580536,-51.11081314086914,-7.436112403869629,18.06952667236328,1.8199564218521118,-0.6516220569610596,0.12639008462429047,738,728,728,39.328,0,0
1739303336.6888416,-0.10736351703838076,1.0613721134682055,-0.3955500466336557,-1.4247425720002975,1.5184033885038792,1.159818407499004,1.363984866686152,0.0001598034980681971,0.0002964230126431556,0.0012852545407594192,0.0002225490686210285,-0.0010288380833944546,-0.00019202882054758285,-0.002076722119931681,-0.2547723948955536,-51.05923843383789,-7.511490821838379,18.09729766845703,1.8071390390396118,-0.6442978382110596,0.14012299478054047,739,729,728,39.328,1,0
1739303336.699803,-0.10736311024064438,1.0613706295533147,-0.39555498699540304,-1.424740195464097,1.5184041447101115,1.1598192733962362,1.3639895709253078,0.0007112591444161976,-0.0014543824437672035,-5.458107734911089e-05,0.00034770752045438634,-0.0007316208776120036,0.0007754780793953125,-0.0005635203607744349,-0.2309686839580536,-51.03543472290039,-7.483719825744629,18.02191925048828,1.8007303476333618,-0.6516220569610596,0.09983979165554047,740,729,727,39.545,1,0
1739303336.709859,-0.10736524121501786,1.0613706295546053,-0.39555855269293044,-1.424735157684882,1.5184034657032441,1.159818407499004,1.3639902297972624,-0.0004751694777633781,-0.0015468484283656023,-0.001751202956552733,0.000895898267661882,0.00022376574375516082,-4.337751867241484e-05,-0.000527243671721417,-0.2309686839580536,-51.03543472290039,-7.436112403869629,17.99811553955078,1.8071390390396118,-0.6442978382110596,0.09343110024929047,739,729,729,39.436,0,0
1739303336.7209074,-0.10736692746484901,1.061370638384923,-0.39555852644726963,-1.4247408842353544,1.5184012165404397,1.159818368253147,1.3639848825565841,-0.0015486890344353853,-0.0005962520016688304,-0.0007079699685963634,0.0003433375036334947,-0.001332976511699411,-0.0005136382300198355,-0.001565392601838263,-0.2071649730205536,-51.03543472290039,-7.436112403869629,18.04572296142578,1.8135477304458618,-0.6442978382110596,0.11265717446804047,739,727,726,39.436,1,0
1739303336.7318332,-0.10736523248206112,1.0613699407898378,-0.39555852644682515,-1.4247426482346304,1.5184022380398172,1.1598200310562405,1.3639919681614119,-0.00018796220400462638,-0.0006684008686578815,5.0082489573263344e-05,6.429447584136859e-05,0.000427884273362521,-0.00021449458379095625,0.0006539743090047553,-0.2309686839580536,-51.03543472290039,-7.436112403869629,18.06952667236328,1.8199564218521118,-0.6580307483673096,0.07969819009304047,739,727,728,39.436,1,0
1739303336.7428544,-0.10736695474612129,1.0613751313455642,-0.3955549960870092,-1.4247383140305094,1.5184032877052167,1.1598184074990037,1.3639935902891074,-0.0010163752821371335,0.0007895704571488344,0.0009258665307327429,0.0008942082772823932,0.0008604948588793245,-0.0008282024159842456,0.0010567023618746592,-0.2071649730205536,-51.11081314086914,-7.483719825744629,17.99811553955078,1.8199564218521118,-0.6442978382110596,0.06596527993679047,737,727,728,39.436,1,0
1739303336.7528658,-0.1073652412511232,1.0613699833995816,-0.3955549610933797,-1.4247353928353381,1.5184036934127065,1.159819273396236,1.3639902710472356,-2.6771652810451724e-06,-0.0007551449352414179,0.0002840845076957314,0.001740350894704847,-0.00048106752298926215,-0.00040492123574011713,0.0017846460856918184,-0.2309686839580536,-51.03543472290039,-7.483719825744629,17.99811553955078,1.8135477304458618,-0.6516220569610596,0.08610688149929047,738,728,728,39.436,1,0
1739303336.7638333,-0.10736145089422472,1.061376291278901,-0.3955606062366807,-1.42473543246405,1.5184029827701686,1.1598192748497864,1.3639891854223865,-0.0007301170811036179,0.0010639851263473377,-0.0007320028749309428,0.0004684157105352096,0.00027410179884267155,0.0004196586687826233,0.0008686817267135413,-0.2825433909893036,-51.11081314086914,-7.408341407775879,17.99811553955078,1.8135477304458618,-0.6516220569610596,0.10624848306179047,736,727,728,39.436,2,0
1739303336.7748163,-0.10736352840514687,1.0613743665084903,-0.39555852644682515,-1.4247391931701523,1.5184026685301277,1.1598168921788552,1.3639919710944577,0.0006724939650529838,0.0006342432061427563,0.00022814648039254707,0.0012405119077381222,-0.001318738590925353,-0.001513745601002408,-0.00014025889320072325,-0.2547723948955536,-51.08700942993164,-7.436112403869629,18.02191925048828,1.8135477304458618,-0.6314804553985596,0.07969819009304047,736,725,728,39.545,2,0
1739303336.7858243,-0.10736887279172061,1.0613723419708063,-0.3955574671327164,-1.4247419648427586,1.5184026293906097,1.1598192733962362,1.3639857064194811,-0.0014132469296732526,-0.0005631913911717706,-0.0005810502944948344,-0.0009313767006917394,0.000229695485294813,-0.0011498677167311566,-0.0010883152927462112,-0.1793939769268036,-51.05923843383789,-7.436112403869629,18.04572296142578,1.8135477304458618,-0.6516220569610596,0.13279877603054047,738,727,727,39.436,0,0
1739303336.7967896,-0.10736483163854836,1.061372115430514,-0.3955585176145141,-1.4247458263088972,1.5184041461636537,1.159818407499004,1.3639912133606298,-0.0008496067166298743,-0.0008851629354375933,-0.001247542576079026,-0.002105383105778726,-0.0007117679733441792,-0.00043517612789913086,0.001313507767464945,-0.2071649730205536,-51.05923843383789,-7.436112403869629,18.09729766845703,1.8007303476333618,-0.6442978382110596,0.08610688149929047,738,727,728,39.436,0,0
1739303336.8068423,-0.10736311027724045,1.0613739691313293,-0.3955500202795335,-1.4247419618070005,1.518401876090593,1.1598224523106242,1.3639887921780722,0.00048228151983631927,0.00030879438115624566,0.0015744095087409813,-0.00010635154094919456,-0.0006651617216978996,0.0009871391326567456,0.0009960475628629484,-0.2309686839580536,-51.08700942993164,-7.511490821838379,18.04572296142578,1.8199564218521118,-0.6516220569610596,0.07969819009304047,737,728,727,39.436,2,0
1739303336.8168623,-0.10736695278547559,1.0613743400140958,-0.39555651408363196,-1.4247400712765876,1.5184034001320021,1.159819626626891,1.3639919710745187,-0.0008077287841861985,0.0002411510337421821,-0.0004093984169409432,-1.2772194346366995e-05,0.0005902347723769808,0.0005590574390473889,0.0009429003727726771,-0.2071649730205536,-51.08700942993164,-7.459916114807129,18.02191925048828,1.8071390390396118,-0.6516220569610596,0.07969819009304047,730,728,727,39.328,2,0
1739303336.8268828,-0.10736281844167525,1.0613716538717841,-0.3955585264429354,-1.4247436020844326,1.5184026293901685,1.1598184075049858,1.363991512130986,0.00027370346420293556,-4.802074599217259e-05,-0.0008965463536003556,-0.001061207466354683,-0.001387995047200084,9.097806693036297e-05,-0.0005636803901633936,-0.2547723948955536,-51.05923843383789,-7.436112403869629,18.09729766845703,1.8135477304458618,-0.6442978382110596,0.07328949868679047,738,727,727,39.436,1,0
1739303336.8378289,-0.10736153077749365,1.0613705308832275,-0.39555852644682504,-1.4247378378589672,1.518402433806686,1.1598192740422586,1.363986801282613,0.0012127541085018739,-0.0011011819057231349,-0.0010055026768134546,0.000588989715260325,-0.0007779025236193656,0.00037376165803111366,-0.0010282709539230182,-0.2825433909893036,-51.03543472290039,-7.436112403869629,18.02191925048828,1.8135477304458618,-0.6516220569610596,0.12639008462429047,738,728,728,39.436,0,0
1739303336.8488555,-0.10736687480275782,1.0613706295544196,-0.39555497275752777,-1.4247437187033687,1.5184012324530143,1.1598200309845352,1.3639945860883298,-0.0005129548226856259,-0.0006498623742233801,-0.00034164093909798486,-0.0005707635108523341,0.0004730233234417091,0.00011743634662913008,0.002183510755981431,-0.2071649730205536,-51.03543472290039,-7.483719825744629,18.06952667236328,1.8263651132583618,-0.6580307483673096,0.09343110024929047,738,728,726,39.328,1,0
1739303336.860813,-0.10736523735332934,1.061374419489049,-0.3955549873385195,-1.4247447012106802,1.518400401524273,1.1598192792104367,1.3639903344771278,-0.0011270861927634415,0.0005187647178986992,0.00045735082422016817,-0.0016228683468991938,0.0007821529947549036,0.0005253222647830605,0.0006509728834337559,-0.2309686839580536,-51.08700942993164,-7.483719825744629,18.06952667236328,1.8327738046646118,-0.6516220569610596,0.09343110024929047,738,729,726,39.436,1,0
1739303336.8708506,-0.10736453092631473,1.061370323437372,-0.3955546098114922,-1.4247372120356006,1.5184034262961366,1.1598184074990365,1.3639895498380805,0.00019171169673277427,-0.001603253551047009,-0.000600017457716098,2.8532110385602233e-05,-0.0005189218453068566,-0.0008793979180701825,-0.00020542914389897892,-0.2309686839580536,-51.03543472290039,-7.459916114807129,18.02191925048828,1.8071390390396118,-0.6442978382110596,0.07328949868679047,738,729,726,39.219,1,0
1739303336.8808963,-0.10736595152776088,1.0613706560403744,-0.39556238582510544,-1.424741963452561,1.5184018316936123,1.159818407499004,1.3639931236456597,-0.001216516396069037,0.00029327874486166357,-0.0010769245432103618,-0.0004493810596421996,-0.0012212213685509447,-0.000486240486206551,0.0007626379728258165,-0.2309686839580536,-51.03543472290039,-7.384537696838379,18.04572296142578,1.7934061288833618,-0.6442978382110596,0.06596527993679047,737,726,725,39.545,0,0
1739303336.8918488,-0.1073652408220794,1.0613760535182166,-0.39555674376978867,-1.4247368539884826,1.5184041446921583,1.1598192865320234,1.3639923754833385,-3.842438687043853e-05,0.001070215837152196,-0.00037531098341359183,0.0016816148345018566,-0.0004907641237868337,0.0004390200326008857,0.000879515234592207,-0.2309686839580536,-51.11081314086914,-7.459916114807129,18.02191925048828,1.8007303476333618,-0.6516220569610596,0.07328949868679047,737,728,725,39.436,1,0
1739303336.9028103,-0.10736737211715501,1.061376485468471,-0.3955567437698061,-1.424738997853958,1.51840187630586,1.1598184074990778,1.3639903473178183,-0.000632241491597555,0.0013465852176825868,-0.0006598847051082566,7.307500404881448e-05,-0.00048015728957904926,-0.00031036226993615444,0.00025466749050313673,-0.2309686839580536,-51.08700942993164,-7.459916114807129,18.04572296142578,1.8199564218521118,-0.6442978382110596,0.09343110024929047,736,729,724,39.436,1,0
1739303336.9147873,-0.10736716427585934,1.0613658655924227,-0.3955541189578565,-1.424738984477951,1.5184021072050342,1.1598200310563145,1.3639903470506352,0.0001527923820584092,-0.00218419263349474,0.0003897828434029636,0.00029488073466396375,5.376818916989853e-05,0.0006100724713984872,0.0004729667201962885,-0.2071649730205536,-51.00766372680664,-7.459916114807129,18.04572296142578,1.8199564218521118,-0.6580307483673096,0.09343110024929047,737,730,725,39.436,0,0
1739303336.924792,-0.10736352873394042,1.0613760524900777,-0.3955566377615417,-1.424739934543957,1.5184041447140912,1.159818407014487,1.3639923126229105,0.0005583705266334535,0.0006649185674333636,-0.00039272721161283397,0.0004251306225254819,0.000346277076384196,-0.00040457649282413287,0.0003001123000772867,-0.2547723948955536,-51.11081314086914,-7.459916114807129,18.02191925048828,1.8007303476333618,-0.6442978382110596,0.11265717446804047,736,731,724,39.328,1,0
1739303336.9348612,-0.10736526755809501,1.061372368929677,-0.39555193208859896,-1.4247409794479464,1.518401237621561,1.159818407499001,1.363989550653142,-0.0009301838878657333,-0.0007391989767411936,0.0012990703083800305,-0.00023766084041959302,-0.0005127162169577811,-0.0002687898050786007,0.00041816310231262705,-0.2309686839580536,-51.05923843383789,-7.511490821838379,18.04572296142578,1.8263651132583618,-0.6442978382110596,0.09983979165554047,738,729,724,39.545,2,0
1739303336.944921,-0.10736513569882147,1.0613743439412298,-0.39555495704311006,-1.424743720047739,1.5184033870521176,1.1598200310563143,1.3639888322143323,0.0005452487164634183,0.0007304049773524691,0.0005569069677019652,-0.001412055787252337,-8.302512321242775e-05,0.00019336072080426722,-0.0012140315896301448,-0.2309686839580536,-51.08700942993164,-7.483719825744629,18.06952667236328,1.8071390390396118,-0.6580307483673096,0.10624848306179047,738,730,725,39.328,1,0
1739303336.9558277,-0.1073628184410961,1.0613725915783052,-0.3955567437697832,-1.4247401821823333,1.5184026032260425,1.159819273396236,1.3639864509976074,0.00019678310243408402,0.0003202077441034502,-0.00036064790092836757,0.00027533190338730894,-0.0005140940333153357,0.00033691648989037375,-0.0007552131517936983,-0.2547723948955536,-51.08700942993164,-7.459916114807129,18.02191925048828,1.8135477304458618,-0.6516220569610596,0.12639008462429047,735,729,724,39.436,0,0
