IITGN-Robotics/Franka_IITGN_ROBOTICS/franka_ros/franka_iitgn/data01/s_f_004.csv
time,fr3_joint1_pos,fr3_joint2_pos,fr3_joint3_pos,fr3_joint4_pos,fr3_joint5_pos,fr3_joint6_pos,fr3_joint7_pos,fr3_joint1_vel,fr3_joint2_vel,fr3_joint3_vel,fr3_joint4_vel,fr3_joint5_vel,fr3_joint6_vel,fr3_joint7_vel,fr3_joint1_eff,fr3_joint2_eff,fr3_joint3_eff,fr3_joint4_eff,fr3_joint5_eff,fr3_joint6_eff,fr3_joint7_eff,flexpin1,flexpin2,flexpin3,Force,ContactMic,ContactMic_gt
1739303096.7090461,-0.11405254018377935,1.0660563691684146,-0.3883823487849135,-1.41507066804027,1.5146352643958552,1.1563644921402516,1.3624296992328462,-0.00022436838484147476,0.0009545968625540549,0.0002956185229655854,-0.0009560288083757059,0.0011596411950554378,0.0005872399470106498,-0.000778308441152672,-0.9530145525932312,-51.44406509399414,-7.713822364807129,18.41864776611328,2.1339821815490723,-0.42090916633605957,0.06596527993679047,,,,,,,,,
1739303096.7190833,-0.1140549106140299,1.066058607164285,-0.38838055338977845,-1.4150696878751496,1.5146314373795051,1.1563644921402516,1.3624283795924383,-0.0009518934048642663,0.001044204945790056,0.0011650747288386423,0.00010333738695757181,0.0003326841196928203,0.00043248097029152145,0.0002852402737899023,-0.9292108416557312,-51.44406509399414,-7.737626075744629,18.41864776611328,2.1541237831115723,-0.42090916633605957,0.08610688149929047,,,,,,,,,
1739303096.7300735,-0.11405493760678564,1.066058489465969,-0.3883823428980277,-1.4150724516604016,1.5146325415734756,1.156364492212032,1.362426385433751,-5.745506453282888e-05,-0.0004075174917419073,0.0002029805081271775,-0.0004424821846672226,0.0009645788007752536,-0.00014075979385569078,-0.0017465610250836407,-0.9292108416557312,-51.44406509399414,-7.713822364807129,18.44245147705078,2.1211647987365723,-0.42090916633605957,0.09983979165554047,,,,,,,,,
1739303096.7410715,-0.11405322454356212,1.0660583410902849,-0.38838411388310917,-1.4150724536608936,1.5146346089714888,1.1563637344801745,1.3624252407626303,0.0008599920901290218,0.00016132900482090332,-0.0005204863570218577,-0.0002631842998312548,0.00033251484518420795,0.0006173613982613051,-0.0017594955379389824,-0.9530145525932312,-51.47183609008789,-7.690018653869629,18.44245147705078,2.1275734901428223,-0.41450047492980957,0.11265717446804047,,,,,,,,,
1739303096.7520454,-0.11405122616864871,1.0660584898977756,-0.3883862034025674,-1.4150706673863382,1.5146341005785402,1.1563629753665448,1.3624267175420326,0.0010835578229587905,0.0006107019756062872,-0.0010969612215904723,0.00027455011643782106,-0.0004774880788556966,-0.00012296730775689465,-3.416410680838494e-05,-0.9807855486869812,-51.44406509399414,-7.662247657775879,18.41864776611328,2.1339821815490723,-0.40809178352355957,0.07328949868679047,,,,,,,,,
1739303096.7629967,-0.11405315365319349,1.0660593296296044,-0.3883823360663507,-1.4150685794565834,1.5146306333825466,1.1563637344801705,1.362421993630362,-0.00010066672068009645,0.0005797822860588877,0.0009730058394892426,0.001166774779062222,0.0008605419070712438,-0.0007559553508721612,-0.002851468206143349,-0.9530145525932312,-51.47183609008789,-7.713822364807129,18.39087677001953,2.1339821815490723,-0.41450047492980957,0.14012299478054047,,,,,,,,,
1739303096.774048,-0.11405450699573552,1.066055918091523,-0.3883820534504676,-1.4150823591449864,1.514634209920329,1.1563359249295018,1.3624242566495879,-5.9199268429793814e-05,-0.000983943596835994,-0.0007886587487004617,-0.0027283487817484956,-0.00020874837330761477,-0.007581667559733474,-0.001175308333644148,-0.7308465838432312,-51.39249038696289,-7.563065528869629,18.26789093017578,1.9710184335708618,-0.5792953968048096,0.11998139321804047,,,,,,,,,
1739303096.7841072,-0.11405144765661285,1.0660443900509762,-0.3883695656656079,-1.415109835430692,1.5146320522964518,1.156231877118994,1.3624243694981386,0.0005130187608955446,-0.00047209776945576504,0.0015326019790179173,-0.0031760422053670593,-0.0008759199070478838,-0.009974725780446917,-0.0006566100719906942,-0.5047113299369812,-51.19015884399414,-7.459916114807129,18.12110137939453,1.8657327890396118,-0.6442978382110596,0.07969819009304047,,,,,,,,,
1739303096.79502,-0.11403542625684092,1.0660568549918634,-0.38836303377774495,-1.415143204934026,1.514627692847703,1.1561917662545653,1.36242087052805,0.0002960895994361843,0.0006634470879729543,0.0009074858905879245,-0.0013774657753698766,-0.001519103951804205,-0.003183412416560648,-0.0002349758570042305,-0.5047113299369812,-51.31711196899414,-7.459916114807129,18.16870880126953,1.8465067148208618,-0.6708481311798096,0.07328949868679047,,,,,,,,,
1739303096.8060393,-0.11402854039940351,1.066067041167697,-0.38835459136691364,-1.4151622569615712,1.5146303695807035,1.1561796342904764,1.3624198494315836,0.0012549167184517786,0.0035335292183161257,0.0014734038256729697,-0.00098490343137099,0.0012880982800599005,-0.00147336347949238,0.0009930140631917142,-0.4571039378643036,-51.42026138305664,-7.459916114807129,18.19647979736328,1.8465067148208618,-0.6708481311798096,0.05955658480525017,,,,,,,,,
1739303096.8170693,-0.11402873972706601,1.0660653871525572,-0.3883590485353663,-1.4151859411328682,1.5146277807840853,1.1561756056207688,1.3624176193253357,0.0002754054002879321,0.0008948968694292697,-0.0005404922293992952,-0.0015766318577033283,-0.0006474130677604324,-0.0015047249822673259,-0.0002148427068745189,-0.4055292308330536,-51.39249038696289,-7.384537696838379,18.26789093017578,1.8593240976333618,-0.6442978382110596,0.05314789339900017,,,,,,,,,
1739303096.8280232,-0.11402371331724262,1.066072197657875,-0.3883611942595327,-1.415193531515055,1.5146238435096806,1.1561713695502858,1.3624164557483558,0.0010172531000466473,-1.796981071883018e-05,-0.00013931562277747487,0.0004713376677426657,-0.0003238007588014216,0.0006997223425153794,9.709251105281314e-06,-0.4293329417705536,-51.44406509399414,-7.384537696838379,18.19647979736328,1.8657327890396118,-0.6516220569610596,0.06596527993679047,,,,,,,,,
1739303096.8400004,-0.11402633597607145,1.0660723062555766,-0.38836327693226325,-1.4152031313943494,1.51462612954794,1.1561649392530873,1.3624124509743178,0.0004332995625086954,0.0010722462074697165,-0.0006438275689677153,-0.0016379011611367756,0.00045501897693293457,1.252413390836983e-05,-0.00025907747919980454,-0.3539545238018036,-51.44406509399414,-7.356766700744629,18.26789093017578,1.8465067148208618,-0.6250717639923096,0.09983979165554047,,,,,,,,,
1739303096.8510807,-0.11402815074550446,1.066072329476655,-0.38835726669956144,-1.4152053958867832,1.5146268734801174,1.1561684614351497,1.3624072977782957,-0.0002214662322787674,0.0001896395003803187,0.0001406834019798792,0.00046143637435809353,0.00014745531311320486,0.001498429158876216,-0.0019730344638540596,-0.3539545238018036,-51.44406509399414,-7.408341407775879,18.26789093017578,1.8400980234146118,-0.6378891468048096,0.10624848306179047,,,,,,,,,
1739303096.861109,-0.11402636186852844,1.0660708543936315,-0.3883590483833211,-1.4152112537391384,1.514628245858773,1.1561679777273275,1.3624126846358466,-7.824047358987261e-05,-0.0012751084341914658,-0.000930442774502115,0.0003053368498917491,0.00028127465610371853,0.0001925806044354266,0.0016416512630555984,-0.3539545238018036,-51.42026138305664,-7.384537696838379,18.29169464111328,1.8327738046646118,-0.6644394397735596,0.09343110024929047,,,,,,,,,
1739303096.8711119,-0.11402601886918061,1.0660673987045617,-0.38835952674669016,-1.4152137587718976,1.5146250530786962,1.1561705791152173,1.3624084971905743,0.0006169966743491916,-0.0022084436958040524,-0.00061813551849792,-0.0008096122359232536,-0.00020811609362573273,0.0008941941194809994,0.0010670997339160134,-0.3539545238018036,-51.34091567993164,-7.384537696838379,18.24408721923828,1.8529154062271118,-0.6772568225860596,0.09343110024929047,,,,,,,,,
1739303096.8811848,-0.11402014246362505,1.0660642205010757,-0.3883611252923298,-1.4152081669998509,1.5146268741208884,1.1561696136855373,1.3624097180002472,0.0004183550834340996,0.0007225476826603755,7.628041975422517e-05,-0.00011630502772887392,0.0012560536160101464,0.00037451984946226395,-0.0003246861362136862,-0.4055292308330536,-51.31711196899414,-7.356766700744629,18.19647979736328,1.8400980234146118,-0.6772568225860596,0.08610688149929047,,,,,,,,,
1739303096.8920453,-0.11401772740056022,1.0660614356442655,-0.38836190929923975,-1.4152122151002096,1.5146250055931993,1.1561672200065807,1.3624150779621653,0.00019833045831720318,-0.000978922378300696,-0.0007164566526576961,-0.001146473677911858,0.0013867493768891738,0.0005020384438666156,0.0014959405256457054,-0.4293329417705536,-51.28934097290039,-7.384537696838379,18.22028350830078,1.8529154062271118,-0.6580307483673096,0.07328949868679047,,,,,,,,,
1739303096.9020474,-0.11401540165055134,1.0660649237110458,-0.38835728068996384,-1.4152091157064637,1.5146253587999274,1.1561679793214101,1.362410821713793,0.00021203934103148888,-0.0002533010783373653,5.674398079038841e-05,-4.663530576047418e-05,0.0011599671008668943,0.000777735715185686,0.0006151969907568644,-0.4571039378643036,-51.34091567993164,-7.408341407775879,18.22028350830078,1.8529154062271118,-0.6644394397735596,0.07328949868679047,,,,,,,,,
1739303096.9130027,-0.11401381281139056,1.066061224583072,-0.3883612207280563,-1.415209145960496,1.514623725586677,1.1561687353812464,1.362412445037956,0.00017942677427435535,-0.0011875281955755104,-0.00028637709075474355,0.0003901531437121165,0.0008807443380955477,-0.00023753265418036774,-0.0001174620055520364,-0.4055292308330536,-51.28934097290039,-7.356766700744629,18.22028350830078,1.8657327890396118,-0.6708481311798096,0.05955658480525017,,,,,,,,,
1739303096.9230094,-0.11401456940136295,1.0660679309209378,-0.38836301681555924,-1.4152112701430009,1.514623188292995,1.1561679781626084,1.3624045437252688,0.000580184686657583,0.0012112430589164326,-0.0008352282336638974,0.00010900462869251426,-0.0003078036479694518,-0.0006141508128506349,-0.0013894051495993514,-0.3817255198955536,-51.36868667602539,-7.332962989807129,18.22028350830078,1.8593240976333618,-0.6644394397735596,0.12639008462429047,,,,,,,,,
1739303096.9330318,-0.11401589953625421,1.066067930937838,-0.3883572657080797,-1.415216719595161,1.5146216727894026,1.1561679776659861,1.3624132089967504,-0.00029024868358102404,0.0011892506839496818,0.0006573125281975557,-0.0017589108988031428,0.00024611366806170964,-7.74815430774143e-05,0.0011967445817998865,-0.4055292308330536,-51.36868667602539,-7.408341407775879,18.29169464111328,1.8721414804458618,-0.6644394397735596,0.05314789339900017,,,,,,,,,
1739303096.944073,-0.11401659269514688,1.0660686092458593,-0.38836115597230825,-1.4152133749753135,1.5146230293116862,1.1561648432581773,1.3624124450379902,2.0098409480225846e-05,0.001111709207070698,-0.0008466740404173083,8.57004931656369e-05,-0.0017958561028915692,-0.000736928676592857,6.479848653218327e-05,-0.4055292308330536,-51.39249038696289,-7.356766700744629,18.24408721923828,1.8593240976333618,-0.6378891468048096,0.05955658480525017,,,,,,,,,
1739303096.9541085,-0.11401377750246594,1.0660686194512454,-0.3883629108506496,-1.4152123299315753,1.5146230530881994,1.1561655964486643,1.3624107820728413,0.0012013821585044448,-0.00024210694571613145,-0.000709909316307211,-0.00024531111545065404,-0.0002876732903098392,0.0002539911509866548,0.00032824004325595106,-0.4055292308330536,-51.39249038696289,-7.332962989807129,18.22028350830078,1.8593240976333618,-0.6442978382110596,0.07328949868679047,,,,,,,,,
1739303096.9650645,-0.11401565989000928,1.0660717096627534,-0.38835904265995014,-1.415212440159563,1.5146248816932322,1.1561655964485889,1.362413202051788,-2.136416021322426e-05,-0.00017038818576674654,0.000489568534351003,-2.6195562445413935e-05,-0.00034770354965262814,0.00039738465718330195,0.0006844275329976552,-0.4055292308330536,-51.39249038696289,-7.384537696838379,18.22028350830078,1.8465067148208618,-0.6442978382110596,0.05314789339900017,,,,,,,,,
1739303096.9760704,-0.11401562393208034,1.0660680339948034,-0.38836160942544456,-1.4152143906132413,1.514620590669615,1.1561645368104594,1.3624065673692936,-5.313691278105952e-05,-0.0015508873352348244,-0.00020954857182595073,-0.000740166028783366,-0.00017908943040012554,8.735882932670845e-05,-0.0015493606384269641,-0.4055292308330536,-51.34091567993164,-7.356766700744629,18.24408721923828,1.8529154062271118,-0.6442978382110596,0.10624848306179047,,,,,,,,,
1739303096.9870174,-0.11401297550503571,1.0660678641476535,-0.3883592871316488,-1.415215194239122,1.514621404782866,1.15616297999385,1.3624084388072457,-0.00017089246734505305,0.0002883765897674611,0.000956430875466968,-0.00036004721631799846,-0.0004923131653520711,-0.0013777054411367685,-0.0015359621819969254,-0.4055292308330536,-51.34091567993164,-7.384537696838379,18.22028350830078,1.8465067148208618,-0.6580307483673096,0.09343110024929047,,,,,,,,,
1739303096.9970438,-0.114014662645049,1.0660642967116287,-0.38835928584294954,-1.4152105516762066,1.5146263443079613,1.1561679775941727,1.3624159259299284,0.0007886638824823953,0.001168261325680763,-0.00044821152417211116,0.0006278047852091025,0.0016124557617708927,-0.000377822263182216,0.0022387561341911054,-0.3817255198955536,-51.28934097290039,-7.384537696838379,18.19647979736328,1.8400980234146118,-0.6644394397735596,0.06596527993679047,,,,,,,,,
1739303097.00709,-0.11401443627460892,1.0660678494290947,-0.3883613665957603,-1.4152138784542168,1.5146190753474562,1.1561738375024635,1.3624084403345946,-0.0005252606048040625,0.0018141299677826976,0.00038920937074494403,2.567232570414331e-05,0.00046801774496142625,0.001389997598496263,0.0008362552181750085,-0.3817255198955536,-51.34091567993164,-7.356766700744629,18.24408721923828,1.8657327890396118,-0.6772568225860596,0.09343110024929047,,,,,,,,,
1739303097.017092,-0.11400987752605335,1.0660609744405984,-0.3883611399509545,-1.4152123341917364,1.5146205904343308,1.1561702507197873,1.362406924942659,0.0014674888264009293,-0.00020357821711071438,0.0005144052185812697,0.00019716967820775566,0.0014661904699306335,0.0005884907652128181,0.000718619069763087,-0.4055292308330536,-51.28934097290039,-7.356766700744629,18.22028350830078,1.8529154062271118,-0.6836655139923096,0.10624848306179047,,,,,,,,,
1739303097.0281055,-0.11401641389922455,1.0660649312277388,-0.3883591281832792,-1.4152084717288995,1.5146221145665504,1.1561679718517772,1.3624084402628145,-0.0002499414729132553,1.1469018921000354e-05,0.0009078235347370927,0.001248251768426046,0.001768212133627369,0.0003118426120053712,0.0005321854870008562,-0.3539545238018036,-51.34091567993164,-7.384537696838379,18.16870880126953,1.8529154062271118,-0.6644394397735596,0.09343110024929047,,,,,,,,,
1739303097.0381289,-0.11401442847576806,1.0660669735400037,-0.38836210833978085,-1.4152124223899352,1.5146190746433519,1.1561672200058009,1.3624108214802035,0.00020926750605989997,-0.0018128241981903712,-0.0004223039960617838,0.000570562138059447,-0.00012931862760620495,0.0003799811113036085,0.0006672200259351047,-0.3817255198955536,-51.36868667602539,-7.356766700744629,18.22028350830078,1.8657327890396118,-0.6580307483673096,0.07328949868679047,,,,,,,,,
1739303097.0490847,-0.11401442457860445,1.0660696395532079,-0.38835973895238984,-1.415212697286465,1.5146190348871647,1.1561648387885102,1.3624053015468525,2.2454678141032355e-05,0.0005001767170052517,-0.0004935546535336283,-3.9936546535494994e-05,-0.000684207650653115,0.00015825442025815231,6.83000828265801e-05,-0.3817255198955536,-51.39249038696289,-7.384537696838379,18.19647979736328,1.8657327890396118,-0.6378891468048096,0.11998139321804047,,,,,,,,,
1739303097.0600193,-0.11401271202184896,1.0660657184412368,-0.38836113115683607,-1.4152141168849062,1.5146185366018405,1.1561645367566242,1.3624116859238866,0.000864849535701682,-0.0015540369170167101,-0.00021422430612787153,-0.00021365834627592393,-0.0011906929966449915,-0.00028199855214718864,0.0018416720442399734,-0.4055292308330536,-51.34091567993164,-7.356766700744629,18.24408721923828,1.8657327890396118,-0.6442978382110596,0.06596527993679047,,,,,,,,,
1739303097.0720017,-0.11401358798743932,1.0660677965444956,-0.3883597636390584,-1.4152180453170242,1.5146178683010387,1.1561602426566504,1.3624058252675995,0.0006129567325498227,-0.0018947733726681593,0.000758781868699769,3.299033852859583e-05,-0.0005056394472912837,-0.0012158178045700834,0.0005512613253905589,-0.3539545238018036,-51.34091567993164,-7.384537696838379,18.26789093017578,1.8657327890396118,-0.6378891468048096,0.07969819009304047,,,,,,,,,
1739303097.0821273,-0.11401642235942534,1.0660715747169136,-0.38835908697910093,-1.4152141179023912,1.5146194528457406,1.1561626267073415,1.3624026863123784,-0.0009358902328326896,-0.00040085372032919967,0.0006365325749514625,0.00025849126565325906,-0.0005647786109863492,-0.0013096832807965887,-0.0009075053584379509,-0.3539545238018036,-51.39249038696289,-7.384537696838379,18.24408721923828,1.8593240976333618,-0.6580307483673096,0.10624848306179047,,,,,,,,,
1739303097.09305,-0.11401639973907213,1.0660654217620469,-0.38835902227614466,-1.4152123341957799,1.5146205961912023,1.156163346144448,1.3624047544078128,-0.0013876920918137127,-0.0005555975867547196,0.001399963546158313,0.00022951279126802527,0.00197300568033672,-0.0009749350012234999,-0.0019428700626227193,-0.3539545238018036,-51.31711196899414,-7.384537696838379,18.22028350830078,1.8529154062271118,-0.6644394397735596,0.11265717446804047,,,,,,,,,
1739303097.1031423,-0.11401437214818505,1.066070072691792,-0.38836115466367094,-1.415212334195774,1.5146166343013185,1.1561626149187791,1.3624052215941258,-0.001181784007129117,0.0008661034001242454,0.0003740618575911863,0.0003760030383648664,-0.0012869687658779404,-0.0005616492885113765,-0.0026903439135828235,-0.3817255198955536,-51.36868667602539,-7.356766700744629,18.22028350830078,1.8858743906021118,-0.6580307483673096,0.09343110024929047,,,,,,,,,
1739303097.1140473,-0.11401004583567108,1.06606498840729,-0.3883608175747488,-1.4152158995498123,1.5146181962754437,1.1561687352480683,1.362408440208306,-0.0002708917103566605,-0.0006038785245933932,-0.0012916330311964757,-0.0007858944985386204,-0.00028773855696896693,-0.00029223847321457273,0.00048329112283733026,-0.4293329417705536,-51.34091567993164,-7.332962989807129,18.26789093017578,1.8721414804458618,-0.6708481311798096,0.09343110024929047,,,,,,,,,
1739303097.1240919,-0.11400953211453793,1.0660639015866265,-0.38836291966868003,-1.4152123355039692,1.5146182594507782,1.1561679775044718,1.3624116742954833,0.0005773569669092368,-0.00026528739052494106,-0.0011265204567574563,0.0007455392871573965,-0.00011221882653548331,0.0014272404592707078,0.0005079171361677774,-0.4055292308330536,-51.31711196899414,-7.332962989807129,18.22028350830078,1.8593240976333618,-0.6644394397735596,0.06596527993679047,,,,,,,,,
1739303097.1351454,-0.11401336166513651,1.0660659657246945,-0.3883650654477583,-1.415213156868882,1.514619832765367,1.156166820028197,1.3624136465357854,-0.0004034709525041945,0.0003447824263438691,-0.0012012846968676041,0.00033044638288450885,0.0012046619253741687,-0.00023688864547880635,0.0017546261687837973,-0.3817255198955536,-51.34091567993164,-7.332962989807129,18.22028350830078,1.8593240976333618,-0.6516220569610596,0.07328949868679047,,,,,,,,,
1739303097.1460745,-0.11401050320358672,1.0660681141102817,-0.38835726684494937,-1.4152187988421157,1.5146197120932392,1.1561671674647689,1.3624100638360725,-0.00010102238078476096,0.0014707071271453857,0.001727904526901503,-0.0011158424188325309,0.000725965722617816,0.000978149913521454,0.0010272158980005079,-0.4055292308330536,-51.34091567993164,-7.408341407775879,18.26789093017578,1.8593240976333618,-0.6580307483673096,0.07969819009304047,,,,,,,,,
1739303097.15701,-0.11401494619720332,1.0660717984200891,-0.38835903693660245,-1.415214144724647,1.5146139548928692,1.156166344446449,1.3624072116524564,-0.0017476739361668102,0.0023411174530873673,0.0007315069456510519,4.5612378988088684e-05,-0.0009562718262530127,0.000655158255584803,-0.0011097145037041007,-0.3301508128643036,-51.39249038696289,-7.384537696838379,18.24408721923828,1.8721414804458618,-0.6516220569610596,0.09983979165554047,,,,,,,,,
1739303097.1670735,-0.11401147194108674,1.066065252989997,-0.3883590493642568,-1.415217069578896,1.5146166409645376,1.1561661071930478,1.362404162456465,-0.0002243187540496661,0.0005654290135481346,-0.0002377330493773732,0.00048444770775779724,0.00011024891257044582,0.0013601205164091674,-0.0010790239290951048,-0.3817255198955536,-51.34091567993164,-7.384537696838379,18.24408721923828,1.8465067148208618,-0.6516220569610596,0.09343110024929047,,,,,,,,,
1739303097.1771204,-0.11401323378294714,1.0660736241757969,-0.3883590493644673,-1.4152144362314478,1.5146162443483921,1.1561654787050042,1.3624070955397636,-0.0007665045003367676,0.0010382366438526011,0.0005096307328013906,0.0004740638176328679,0.0006416610186761103,0.0003359577254086067,-0.0005021086218596504,-0.3539545238018036,-51.42026138305664,-7.384537696838379,18.24408721923828,1.8529154062271118,-0.6442978382110596,0.06596527993679047,,,,,,,,,
1739303097.188133,-0.11401124447864315,1.0660659418631244,-0.38835908403162955,-1.4152208125581052,1.5146171646031668,1.156167096238123,1.3624061149288493,-0.00044935560407060714,-0.0015138965083702739,0.0006389201807938244,-0.0023090521603560663,3.897493063736143e-05,0.0016967566056807488,-0.0008333327034322659,-0.3817255198955536,-51.34091567993164,-7.384537696838379,18.29169464111328,1.8529154062271118,-0.6580307483673096,0.11265717446804047,,,,,,,,,
1739303097.1990538,-0.11400781065258757,1.0660715026466905,-0.388361192866748,-1.4152155220671667,1.5146146748469622,1.1561640527775288,1.3624116742951882,0.0012718493294979513,0.0001517951279396989,-0.00045565208427859595,-0.00018268696059108147,-0.0023907281818283856,-0.00028173842577675594,0.0025660338834533987,-0.4293329417705536,-51.39249038696289,-7.384537696838379,18.22028350830078,1.8657327890396118,-0.6442978382110596,0.06596527993679047,,,,,,,,,
1739303097.209073,-0.11401494619167062,1.0660656853593387,-0.3883611399832338,-1.4152162981242793,1.5146145204802226,1.1561687352999137,1.3624084953808742,-0.0016779868972449416,-0.001982534380229111,-0.0006124329416885624,5.539770366711275e-05,0.00018624882283686117,0.001383618438768004,0.00018502008256961492,-0.3301508128643036,-51.31711196899414,-7.356766700744629,18.24408721923828,1.8721414804458618,-0.6708481311798096,0.06596527993679047,,,,,,,,,
1739303097.2191162,-0.11400736603631678,1.0660680836947372,-0.38836112817335977,-1.4152148110823328,1.5146139126157268,1.1561647595057327,1.3624057840296273,0.00029554531343066654,0.0006100165821891794,0.0010030695036661668,0.0009973125762761075,-9.339330909907613e-05,-0.0011280633716681879,0.0011501777066457509,-0.4055292308330536,-51.34091567993164,-7.356766700744629,18.22028350830078,1.8721414804458618,-0.6644394397735596,0.07969819009304047,,,,,,,,,
1739303097.2300236,-0.11400762810909057,1.0660700188181411,-0.3883554361451045,-1.4152169621817017,1.5146126722158673,1.1561664622738193,1.3624088457208592,0.0009785047862806999,0.0010962898661228777,0.0020459503172328324,-0.0014589683355118316,-0.0014573967331254138,-0.00022521239930342921,0.0006518879157441542,-0.4055292308330536,-51.34091567993164,-7.436112403869629,18.26789093017578,1.8785501718521118,-0.6516220569610596,0.07969819009304047,,,,,,,,,
1739303097.2400265,-0.11401194433099228,1.0660681022718885,-0.38836516356658773,-1.4152155523740144,1.5146154015375775,1.1561679770199542,1.3624015985262194,-0.0005519876361791285,0.0009389835229653268,-0.0015594250680437283,-0.0007852820706507496,8.677589320681448e-05,0.0015419118582497458,-0.003490257572716542,-0.3817255198955536,-51.34091567993164,-7.332962989807129,18.22028350830078,1.8465067148208618,-0.6644394397735596,0.11998139321804047,,,,,,,,,
1739303097.2500496,-0.11400739192226844,1.0660701080294561,-0.3883575037350245,-1.4152155579703485,1.514614174433413,1.156165243235868,1.3624132420257824,0.0015166832340212672,0.0015267890276852612,0.001998825473726158,0.0001421387210167631,-0.0009423067574241275,-0.00034357257812394016,0.0017229781156187075,-0.4055292308330536,-51.36868667602539,-7.408341407775879,18.22028350830078,1.8657327890396118,-0.6442978382110596,0.07969819009304047,,,,,,,,,
1739303097.2600636,-0.11401123569399343,1.0660671515086868,-0.38835904882340033,-1.4152116244024477,1.5146141868870546,1.1561644681272158,1.3624119290814405,-0.0010067176586935937,-0.0007387798736131923,0.0007839228477863901,0.0009712146577660675,-7.493990835699888e-05,0.00020370527672294598,0.0018899346807830953,-0.3817255198955536,-51.34091567993164,-7.384537696838379,18.19647979736328,1.8657327890396118,-0.6378891468048096,0.05955658480525017,,,,,,,,,
1739303097.270081,-0.11400794069733762,1.066067389365951,-0.38836112817316726,-1.4152137613029165,1.5146176068285477,1.156163603264524,1.3624032300091946,0.0018451153025163653,0.00023895605384882863,0.0001550617106086764,0.00045147909876129826,0.0011812248027029072,7.772479004719858e-05,-0.0015214014272738102,-0.4293329417705536,-51.34091567993164,-7.356766700744629,18.19647979736328,1.8657327890396118,-0.6378891468048096,0.10624848306179047,,,,,,,,,
1739303097.2810664,-0.11401146804448895,1.066067850371327,-0.3883611634944308,-1.415218024288345,1.5146102509781343,1.1561650444274991,1.3624107245190649,-0.00030983623698411806,-0.0010438727046822944,2.2080321639351463e-05,-0.0004164160693433662,-0.0007329993354332597,0.00019410197558816583,0.0009275788896349175,-0.3817255198955536,-51.36868667602539,-7.356766700744629,18.24408721923828,1.8721414804458618,-0.6516220569610596,0.04673920199275017,,,,,,,,,
1739303097.2920613,-0.1140083945766641,1.0660681136372383,-0.3883613675730847,-1.415213743355459,1.514614945121597,1.1561671618558853,1.3624112774041648,0.0010217522086060384,0.0004949322195401534,0.00020911636094411688,0.000266410949569056,0.0009311260726318092,-0.00010134926849955791,0.0017192529301396913,-0.3817255198955536,-51.34091567993164,-7.356766700744629,18.19647979736328,1.8593240976333618,-0.6580307483673096,0.06596527993679047,,,,,,,,,
1739303097.303063,-0.11401123567796217,1.06606440402421,-0.38836290218473696,-1.415219109370161,1.5146118063159093,1.1561633667889284,1.3624029273377094,-0.00038335786874084805,-0.0008785987616091025,-0.0005939965411930928,-0.0011916479317771915,-0.0013836310885771011,0.0005577989673052103,-0.00181327879082544,-0.3817255198955536,-51.28934097290039,-7.332962989807129,18.26789093017578,1.8858743906021118,-0.6644394397735596,0.09983979165554047,,,,,,,,,
1739303097.3130789,-0.1140095232093549,1.0660680261462832,-0.3883611941503694,-1.4152134070792304,1.514614227760302,1.1561648787054952,1.3624069117801747,0.0006228441822907144,0.001051187202760282,-0.00031512522831961737,0.0004496673265171947,0.0005057290937037265,-0.0010863023454237117,5.6578893574073296e-05,-0.4055292308330536,-51.34091567993164,-7.384537696838379,18.22028350830078,1.8657327890396118,-0.6516220569610596,0.10624848306179047,,,,,,,,,
1739303097.3240397,-0.11400878661368392,1.0660663989484522,-0.3883614490564895,-1.415215552834479,1.5146134298734475,1.1561649165131123,1.3624084519574027,0.0009014919408549295,0.0005895419236939479,0.0002872711288841056,0.0003693529421949156,0.00022932661749545545,-0.0022675452937190228,0.0015493663360772228,-0.4055292308330536,-51.31711196899414,-7.356766700744629,18.22028350830078,1.8721414804458618,-0.6516220569610596,0.05314789339900017,,,,,,,,,
1739303097.3341043,-0.11400735725484637,1.0660656823122903,-0.3883618434343313,-1.4152158324733204,1.514612525925586,1.1561639953592526,1.362400552556239,0.00035480745703831687,-0.0006129314089352788,0.000812518903932614,-0.00014744367589915666,2.376489815771889e-05,0.0005569842073529578,-0.0008809343504261795,-0.4055292308330536,-51.31711196899414,-7.356766700744629,18.22028350830078,1.8529154062271118,-0.6580307483673096,0.11998139321804047,,,,,,,,,
1739303097.3450897,-0.11401110279266242,1.0660681115019583,-0.38836137836953355,-1.415215553268085,1.5146149585844444,1.1561645230104465,1.3624076410316226,-0.000541615024508532,2.102448359240388e-05,0.0003120226395959854,-0.000401774323905465,0.0006019195022071806,-0.0005925243320877685,0.0004567679073909191,-0.3539545238018036,-51.34091567993164,-7.356766700744629,18.22028350830078,1.8593240976333618,-0.6442978382110596,0.07328949868679047,,,,,,,,,
1739303097.3550951,-0.11401123569400036,1.0660701094468237,-0.38835904980475283,-1.415215552846599,1.514613415337945,1.156166455867419,1.3624084932276619,-0.0003608485599796888,0.0010485446504391082,0.00046671002220679473,0.00010946978130681856,-0.0005054396168104302,-0.00023219002896364554,-0.00017786807156985944,-0.3817255198955536,-51.36868667602539,-7.384537696838379,18.22028350830078,1.8721414804458618,-0.6516220569610596,0.06596527993679047,,,,,,,,,
1739303097.366061,-0.11400910453925842,1.0660718219675882,-0.3883590837045833,-1.4152191180552751,1.5146149466831842,1.1561666965124335,1.3624070389057181,0.00021550467497890132,0.0005376728598858219,2.5264888580433125e-05,-0.0010781728294629836,-5.2290032335434815e-05,0.0014530580501862732,0.0010657312253591262,-0.3817255198955536,-51.39249038696289,-7.384537696838379,18.26789093017578,1.8593240976333618,-0.6580307483673096,0.06596527993679047,,,,,,,,,
1739303097.376088,-0.11401494604732011,1.0660683175467183,-0.3883613675734835,-1.4152155175253185,1.5146126722131674,1.1561620100467498,1.3624085062847529,-0.0008614889327695371,-0.0005038402540761276,0.0004679989771590401,0.0008073814848626853,-7.318040630030455e-05,0.00024624057135138656,0.001172564338002661,-0.3301508128643036,-51.34091567993164,-7.356766700744629,18.22028350830078,1.8785501718521118,-0.6442978382110596,0.06596527993679047,,,,,,,,,
1739303097.3870604,-0.11401038082421013,1.0660701123914593,-0.3883589821572726,-1.415217565111673,1.5146118058313929,1.1561664034837082,1.3624106847746877,0.0011468723247130893,0.0017929605953384982,0.0011815966278688598,-0.0006048166477983626,-0.0007561405072749332,8.645450012464913e-05,-0.00048991495085536,-0.3539545238018036,-51.36868667602539,-7.384537696838379,18.24408721923828,1.8858743906021118,-0.6516220569610596,0.07328949868679047,,,,,,,,,
1739303097.3970683,-0.11400928607337041,1.0660652524453644,-0.3883611281720383,-1.4152170972138987,1.5146149437398186,1.156163592573047,1.3624116285870886,0.0005737299635821046,-0.0007002539362253951,0.0010654695018074748,0.0005058650329966614,0.0009952749701867922,0.0006053084504909094,0.0015129877322238674,-0.4055292308330536,-51.34091567993164,-7.356766700744629,18.24408721923828,1.8593240976333618,-0.6314804553985596,0.06596527993679047,,,,,,,,,
1739303097.4081137,-0.11400918349143829,1.0660680305997934,-0.38836119447756495,-1.4152173355222657,1.5146150653898613,1.1561631597153987,1.362403627752016,-0.0008402652963623337,8.663600205572632e-05,0.0011948390394078611,-0.0007582565137559263,0.0004171370416818918,-0.0001764465157192402,0.00018966068149914317,-0.3817255198955536,-51.34091567993164,-7.384537696838379,18.24408721923828,1.8593240976333618,-0.6516220569610596,0.10624848306179047,,,,,,,,,
1739303097.4190397,-0.11400877783310288,1.066064383492344,-0.38835726869817794,-1.415215552846592,1.5146141874801422,1.1561654995430595,1.3624045953301283,0.0007577634788381464,-0.0018297366597928716,0.0006891340030961912,0.0005294228335812331,0.0010633048410648863,0.000713164677196162,-0.0006154732297498128,-0.4055292308330536,-51.28934097290039,-7.408341407775879,18.22028350830078,1.8657327890396118,-0.6708481311798096,0.11265717446804047,,,,,,,,,
1739303097.4291184,-0.11400749206914351,1.0660704201428917,-0.3883629108502295,-1.415215552846592,1.514612954562289,1.1561655376057582,1.3624042352603731,0.0005838088875807737,0.0013907184430667447,-5.282760998219526e-07,0.00018763691274873313,-0.0008986906293123146,0.001101016858354093,-2.8176857642129823e-05,-0.4293329417705536,-51.36868667602539,-7.332962989807129,18.22028350830078,1.8721414804458618,-0.6442978382110596,0.11998139321804047,,,,,,,,,
1739303097.440037,-0.11400941797960404,1.0660671504930128,-0.3883551626189423,-1.415213770169573,1.514611766276306,1.1561643733664773,1.3624077298057042,0.0008395395806809731,0.00035950722926752934,0.0014483576087063414,0.0005447379012197108,-0.001076087760740755,-0.0010763649747677888,-0.0007354834026800993,-0.4055292308330536,-51.34091567993164,-7.408341407775879,18.19647979736328,1.8593240976333618,-0.6442978382110596,0.08610688149929047,,,,,,,,,
1739303097.450063,-0.11400909652528551,1.066068104185606,-0.38836112813754387,-1.415215552846592,1.5146138211848017,1.1561637332785466,1.3624063551407295,0.00021636662336423692,-2.781230629108242e-05,0.00011777370672897731,8.47767384490447e-05,-0.0005359749136278594,-4.520941072119316e-05,-0.0008608783620270774,-0.3817255198955536,-51.34091567993164,-7.356766700744629,18.22028350830078,1.8657327890396118,-0.6644394397735596,0.07969819009304047,,,,,,,,,
1739303097.4609945,-0.11401099881077095,1.0660662100442084,-0.38836119415051595,-1.415217097105032,1.5146134296558118,1.1561654198451916,1.3624032731189875,0.00028370337133004517,0.0003057953035823429,0.00027709996732428496,-9.647742909916319e-05,-7.941274289242225e-05,0.00046087361284950854,-0.0018565046846994247,-0.3817255198955536,-51.34091567993164,-7.384537696838379,18.24408721923828,1.8721414804458618,-0.6442978382110596,0.10624848306179047,,,,,,,,,
1739303097.4721081,-0.11401296182804888,1.0660681143081925,-0.38835904852865927,-1.4152194021288615,1.514613259807838,1.1561611317478755,1.3624038834659908,-0.0005944859573331059,-0.000499097382578624,0.0004505259557040637,-0.0012086440643450712,-0.0006827099494325928,-0.00012999794089655486,-0.0009310224677251249,-0.3539545238018036,-51.34091567993164,-7.384537696838379,18.24408721923828,1.8721414804458618,-0.6378891468048096,0.11998139321804047,,,,,,,,,
1739303097.4830704,-0.11400900352381851,1.0660643990821435,-0.38836327394037196,-1.415219118216183,1.514613429711395,1.156158568180721,1.3624060595930942,0.0005968272100646032,-0.0016177388015010349,6.745781099863251e-05,-0.0009271815501576441,0.00032058428981609105,-0.0013906677124894168,-0.0008602322668494698,-0.3817255198955536,-51.28934097290039,-7.356766700744629,18.26789093017578,1.8721414804458618,-0.6250717639923096,0.07328949868679047,,,,,,,,,
1739303097.494074,-0.11401021849349871,1.0660697944988464,-0.38836327409783966,-1.415215561349861,1.5146107334343215,1.156161299188866,1.3624080198817785,0.0012962196953698255,-0.00045726768707407805,-0.001042741091050348,0.0014253645448618613,-0.0016513789938233524,0.0002903358603107358,0.0012415566319665195,-0.3817255198955536,-51.36868667602539,-7.356766700744629,18.22028350830078,1.8858743906021118,-0.6442978382110596,0.06596527993679047,,,,,,,,,
1739303097.504136,-0.1140112094058717,1.066067975339019,-0.3883572745729444,-1.415213770169717,1.5146126591130207,1.1561624516422957,1.362403691538779,7.765083754952305e-05,-0.00023876586425249183,0.0009050334855583647,0.0017042952004493017,0.0002944762014723485,0.00027192445592778624,0.0006001763405911142,-0.3817255198955536,-51.36868667602539,-7.408341407775879,18.19647979736328,1.8785501718521118,-0.6580307483673096,0.10624848306179047,,,,,,,,,
1739303097.5150788,-0.11400739234315646,1.066071003715769,-0.3883648255937986,-1.4152157824348532,1.5146140305497984,1.1561650436000284,1.3624054568012853,0.0016428396810641934,0.0006032166073219635,-0.001174990830823745,-0.0009277638722548837,0.001262903659885887,0.0007738935615584949,-0.0007369979241401494,-0.4055292308330536,-51.39249038696289,-7.332962989807129,18.22028350830078,1.8657327890396118,-0.6516220569610596,0.07969819009304047,,,,,,,,,
1739303097.5270448,-0.114011065117898,1.066066366602822,-0.38836299033384736,-1.4152155531628239,1.5146146386384485,1.1561625737514467,1.362410155094129,-0.0006431585899552747,-0.00028805626304441564,-0.001511430806256538,0.0002764013657695516,-0.0008473608113619491,-0.0012060797980229729,0.0015223697132450693,-0.3539545238018036,-51.31711196899414,-7.332962989807129,18.22028350830078,1.8529154062271118,-0.6580307483673096,0.06596527993679047,,,,,,,,,
1739303097.5380237,-0.11400735721512496,1.0660679625894327,-0.38835905230803947,-1.4152191182006306,1.5146140639795256,1.1561632885774027,1.362405453247068,0.00014591326756055798,0.0021881633331152046,0.0007920037555717827,-0.0011126724787337468,0.0009356257703812484,-0.001343306294181773,0.0006016064899201155,-0.4055292308330536,-51.36868667602539,-7.384537696838379,18.26789093017578,1.8657327890396118,-0.6378891468048096,0.10624848306179047,,,,,,,,,
1739303097.5480695,-0.1140094968656862,1.0660663713677665,-0.38836112850027504,-1.415217335838547,1.514611048653739,1.156164013021601,1.3624085979705314,0.0003899692853192849,-0.0005744281425330612,-0.0007622085105517207,0.0001521567202511676,0.0007063576578317937,0.0006907876374441984,0.0013092931687059854,-0.4055292308330536,-51.31711196899414,-7.356766700744629,18.24408721923828,1.8922830820083618,-0.6442978382110596,0.07969819009304047,,,,,,,,,
1739303097.559031,-0.11400944428794481,1.0660659421907774,-0.3883590483833098,-1.4152183304060821,1.5146086274015216,1.1561616998423774,1.3624076368718316,-0.0004607852713632418,0.0002959422175912662,0.0005282938395823636,-0.0007235873509040381,-0.00040382430675542694,-0.0007575268612459814,0.00026969480720666946,-0.4055292308330536,-51.34091567993164,-7.384537696838379,18.24408721923828,1.8858743906021118,-0.6516220569610596,0.09983979165554047,,,,,,,,,
1739303097.5690682,-0.11400878531412788,1.0660718247534267,-0.3883629108501789,-1.4152155557916095,1.5146141873538483,1.1561619051577723,1.362402158751143,-0.0006611323712852793,0.0005251838385617832,-0.001710419332606903,0.0006315770631651275,0.0004883955328719418,0.0005053446248942861,7.36113550570093e-05,-0.4055292308330536,-51.39249038696289,-7.332962989807129,18.22028350830078,1.8657327890396118,-0.6442978382110596,0.10624848306179047,,,,,,,,,
1739303097.5790715,-0.11400849722431652,1.066068432340896,-0.3883565636960245,-1.415217627644263,1.5146102911858323,1.1561617114350826,1.362402156732618,0.0016250576962309898,0.00024548529965578113,0.001699024111192153,-0.00027487129242705674,0.00036487358820960503,-0.0002646853283967099,0.0006556013366778256,-0.4055292308330536,-51.34091567993164,-7.408341407775879,18.22028350830078,1.8721414804458618,-0.6516220569610596,0.10624848306179047,,,,,,,,,
1739303097.5891094,-0.11401038362157528,1.0660717971172793,-0.3883621841358447,-1.4152180510930823,1.514612365659781,1.156164912296285,1.3624084866542623,1.7391644284583336e-05,0.00247870650680608,-0.0002228916433890647,-0.0013549087227316776,-0.0012864638931460162,-0.00011484417581819088,0.0014121627617238617,-0.3539545238018036,-51.39249038696289,-7.332962989807129,18.24408721923828,1.8721414804458618,-0.6516220569610596,0.05314789339900017,,,,,,,,,
1739303097.6010237,-0.11400927426925461,1.0660701123901561,-0.38835938987266283,-1.415219220243897,1.5146122125996346,1.1561640200915144,1.3624021609320218,0.0007773361690157232,0.0005054191156429794,-5.566140385923027e-06,-0.0004966644947094825,-8.975414195058923e-05,0.000358278317919943,-0.0032755744824071336,-0.4055292308330536,-51.36868667602539,-7.384537696838379,18.26789093017578,1.8721414804458618,-0.6442978382110596,0.10624848306179047,,,,,,,,,
1739303097.6110828,-0.11401311967258554,1.066068079128189,-0.38835908114462064,-1.415215630321396,1.5146118002794964,1.1561657483042942,1.3624092325075507,-0.000652618526080635,-0.0005948327612758914,0.00017784007176097956,0.0013526388582414642,-0.0004170517273283234,0.0014384196182582881,-0.00014845299786502334,-0.3539545238018036,-51.34091567993164,-7.384537696838379,18.22028350830078,1.8858743906021118,-0.6580307483673096,0.07328949868679047,,,,,,,,,
1739303097.6220717,-0.11401298510714798,1.0660664019285295,-0.3883572779162922,-1.415215858964711,1.514613311974111,1.1561616940466841,1.362408417601653,-0.0004599105407339432,-0.00041829255784504854,0.0008544586735498195,0.001128013257298141,0.0022045049603408966,-8.428448713080901e-07,-3.9586837841387506e-05,-0.3539545238018036,-51.31711196899414,-7.408341407775879,18.22028350830078,1.8721414804458618,-0.6516220569610596,0.05314789339900017,,,,,,,,,
1739303097.6330633,-0.11400682823488133,1.0660664016016799,-0.3883629376682498,-1.415217412474674,1.5146125150137093,1.1561624516343179,1.3624014048866093,-0.00020174608608845217,-0.0006975459271550229,-0.0011385772027164838,-0.0013099165361946633,-0.000840846321904573,-0.0008986409857738162,-0.0024520364826361605,-0.4293329417705536,-51.31711196899414,-7.332962989807129,18.24408721923828,1.8785501718521118,-0.6580307483673096,0.11265717446804047,,,,,,,,,
1739303097.6440747,-0.11400805247069984,1.0660643909059218,-0.3883594114736485,-1.41521555273801,1.514611568967618,1.1561650709901747,1.3624039782299677,0.0006074072703851007,-0.0004920195660890885,0.0005014062439155131,0.00026842021621799306,-0.00022006402631549496,-0.0013066071708375073,-9.886881429648533e-05,-0.3817255198955536,-51.28934097290039,-7.408341407775879,18.22028350830078,1.8785501718521118,-0.6442978382110596,0.09983979165554047,,,,,,,,,
1739303097.6540833,-0.11400918105634014,1.066066401819491,-0.38836110362633003,-1.4152137436786179,1.5146141857420916,1.1561616940460933,1.362405295466562,0.0005266911215873499,1.4624709431188953e-05,-0.00066062682204517,0.0017332714703400328,0.002073672007786265,-0.0013013813459976974,0.00013947442181071683,-0.4055292308330536,-51.31711196899414,-7.356766700744629,18.19647979736328,1.8657327890396118,-0.6516220569610596,0.07969819009304047,,,,,,,,,
1739303097.666029,-0.11400814568549505,1.066070259235525,-0.3883632739402332,-1.415218253876507,1.5146116492786377,1.1561624516343179,1.3624040257499646,0.0005825759434972387,0.0015195926477721581,-0.0005930164094673057,-0.0011287948302471321,-0.00010567056473154732,-0.0006964296082839085,4.240029518592795e-05,-0.3817255198955536,-51.34091567993164,-7.356766700744629,18.24408721923828,1.8858743906021118,-0.6580307483673096,0.09343110024929047,,,,,,,,,
1739303097.6761289,-0.11400839311445314,1.0660680801214428,-0.3883591281953257,-1.4152157824400373,1.5146133731838745,1.1561608280770068,1.362409232025007,4.185132611129604e-05,0.00017880436024524901,0.0005887181255703276,0.0009278689199149367,0.0001248341821945703,0.000807550711068059,0.00028463393792996683,-0.3817255198955536,-51.34091567993164,-7.384537696838379,18.22028350830078,1.8721414804458618,-0.6442978382110596,0.07328949868679047,,,,,,,,,
1739303097.687019,-0.11401036507449229,1.066070112390119,-0.38836121942022706,-1.415217335524907,1.5146126720513167,1.1561608673228634,1.3624046555978149,-0.001220084753495733,0.0003329128036774635,-0.0008433859398414284,0.0004554094444396385,0.0012526931427469712,-0.0007662624306924961,-0.0006006496727103998,-0.3539545238018036,-51.36868667602539,-7.356766700744629,18.24408721923828,1.8785501718521118,-0.6442978382110596,0.08610688149929047,,,,,,,,,
1739303097.6970696,-0.11400827652423273,1.0660678760308808,-0.3883628992959997,-1.4152257369863845,1.5146145919806646,1.1561650666301886,1.3623997753556818,7.492438374974826e-05,-0.0003487975834401724,-0.0006284613070254282,-0.0016585126509904727,0.0009641414217683265,9.432550830804851e-05,-0.0005493810956107882,-0.3817255198955536,-51.34091567993164,-7.332962989807129,18.31946563720703,1.8593240976333618,-0.6442978382110596,0.12639008462429047,,,,,,,,,
1739303097.7080178,-0.11400464950295769,1.066064282542108,-0.3883625874963506,-1.4152156591005238,1.5146110028027158,1.1561616939981658,1.3624084735723074,0.0017176908870206288,-0.0012263459206201988,-0.0012726596605603562,0.000812699694764432,0.0004079921717192386,0.0010773689662997043,0.0018526482520711666,-0.4293329417705536,-51.31711196899414,-7.309159278869629,18.22028350830078,1.8657327890396118,-0.6516220569610596,0.05314789339900017,,,,,,,,,
1739303097.7189934,-0.11400461731274542,1.0660659657268448,-0.3883629108382903,-1.4152173355242108,1.514611291579639,1.1561624516343174,1.3624084406792252,0.0023251106441268665,-0.00049849111994671,-0.0009197127481552106,-0.00019657055354752007,-0.00031726846691172386,0.00047270802540691427,0.0016253506749720286,-0.4293329417705536,-51.34091567993164,-7.332962989807129,18.24408721923828,1.8858743906021118,-0.6580307483673096,0.05314789339900017,,,,,,,,,
1739303097.729059,-0.11400664400155831,1.0660664107226576,-0.38836220883991796,-1.415217335523611,1.5146118043691257,1.1561632092943959,1.362401003964152,0.00022182751897435764,-0.0003115795268155186,-0.0006874748713810149,-0.0007857591495912936,8.280175975986502e-05,0.0004383063779180629,-0.0010430015993678826,-0.4055292308330536,-51.31711196899414,-7.332962989807129,18.24408721923828,1.8858743906021118,-0.6644394397735596,0.11998139321804047,,,,,,,,,
1739303097.7400165,-0.11401248522625453,1.0660665483380252,-0.3883615314124482,-1.415214076287255,1.5146122869403407,1.1561608280770068,1.362408473580283,-0.0020085379816330495,-0.000675587248202455,-0.0011953749386459135,0.0011699961023974399,0.000778851297389553,-0.0006088931886199156,0.0013479892295608785,-0.3539545238018036,-51.28934097290039,-7.356766700744629,18.19647979736328,1.8858743906021118,-0.6442978382110596,0.05314789339900017,,,,,,,,,
1739303097.750044,-0.11401287854041645,1.06606977783149,-0.3883609605854373,-1.415217630480364,1.514613272892507,1.1561624516343174,1.3624052954487647,-0.0015465847895150152,-0.0003601107089335286,-0.0006367759537827303,-0.0006600118096569212,7.842164503269033e-05,-0.0004820099337807485,-0.0004096712986118044,-0.3539545238018036,-51.36868667602539,-7.384537696838379,18.22028350830078,1.8721414804458618,-0.6580307483673096,0.07969819009304047,,,,,,,,,
1739303097.7600882,-0.11400632793272804,1.066066163504484,-0.3883590484156876,-1.4152164712348223,1.5146112587136222,1.1561656305487054,1.3624052960945654,0.0006234408919007148,-0.000787372879698643,4.3873267573188587e-05,-0.00028923697659043987,0.0003881112038830077,0.00047467395916742436,-0.00025357647492992876,-0.4055292308330536,-51.31711196899414,-7.384537696838379,18.22028350830078,1.8785501718521118,-0.6580307483673096,0.07969819009304047,,,,,,,,,
1739303097.7700887,-0.1140062216823439,1.0660700059863972,-0.3883631709199986,-1.4152175679618482,1.5146093188487868,1.1561600704707635,1.3624069190058647,0.0011884023407064872,0.0002998136872648411,-0.0005906987179628755,0.0005400890900712375,-0.0006666792449657354,-0.00047853335787413956,4.160155725773842e-05,-0.4055292308330536,-51.36868667602539,-7.356766700744629,18.24408721923828,1.8785501718521118,-0.6378891468048096,0.06596527993679047,,,,,,,,,
1739303097.782022,-0.11401178594231841,1.0660727319052883,-0.3883622119402438,-1.4152155910951179,1.5146125500959917,1.156160828077007,1.3624012151550329,-0.0004265104265352592,0.0015472126868226817,-0.0005068820474152455,-2.7891670833926976e-06,2.1742103529178336e-06,0.00013265163837128816,-0.00120069301604911,-0.3301508128643036,-51.36868667602539,-7.332962989807129,18.22028350830078,1.8785501718521118,-0.6442978382110596,0.10624848306179047,,,,,,,,,
1739303097.792027,-0.11401096080602406,1.0660700846422906,-0.38836106194183134,-1.415215860014276,1.5146130766598214,1.1561608280770068,1.3624087773047013,-0.0012247125102200081,0.0005209019983196755,-0.0009278879963880419,0.0003144701423030347,0.0010887146774090338,-0.00014449501392949327,0.0013064180149027656,-0.3817255198955536,-51.36868667602539,-7.356766700744629,18.22028350830078,1.8721414804458618,-0.6442978382110596,0.08610688149929047,,,,,,,,,
1739303097.80212,-0.1140128639610785,1.0660664019282589,-0.3883590748731358,-1.4152155528517938,1.5146157012324182,1.1561608280770068,1.3624021566428723,-0.0008569311787743529,-0.001337768056968217,-0.0004790341005258751,0.00148534640136886,0.0022968280366830987,-0.0003052669640781943,-0.00010058943969357538,-0.3539545238018036,-51.31711196899414,-7.384537696838379,18.22028350830078,1.8529154062271118,-0.6442978382110596,0.10624848306179047,,,,,,,,,
1739303097.8130646,-0.11401081198683335,1.066071824802028,-0.38836112803064604,-1.4152203201710087,1.514612501501732,1.1561608280770068,1.3623990177474439,-0.00040007512242743544,0.0009502494214849391,-0.0006317216564477152,0.0003516019726138762,0.0005728775854162988,-8.380242334825125e-05,-0.0007271711095334999,-0.3301508128643036,-51.39249038696289,-7.356766700744629,18.24408721923828,1.8785501718521118,-0.6442978382110596,0.13279877603054047,,,,,,,,,
1739303097.82409,-0.1140063298279839,1.0660701153337515,-0.3883590749105954,-1.4152155528634403,1.5146121600779752,1.1561616939742392,1.3623990178551142,0.0009456052101181186,0.0017957233861698317,0.00064123550429812,0.001208502461462409,4.793011628474779e-05,-0.0002569740246794325,-0.0015827901278852418,-0.4055292308330536,-51.36868667602539,-7.384537696838379,18.22028350830078,1.8785501718521118,-0.6516220569610596,0.13279877603054047,,,,,,,,,
1739303097.8341208,-0.1140080482000564,1.0660681043109967,-0.38836144606504786,-1.4152180511629242,1.514613416782595,1.1561616939742392,1.362404222728464,0.0002537804390231798,-0.0007708315600119092,-0.0003036789000603346,7.143650733116097e-06,0.00033484827467049474,0.00010798531426793243,-0.0003862022146546222,-0.3817255198955536,-51.34091567993164,-7.356766700744629,18.24408721923828,1.8721414804458618,-0.6516220569610596,0.07969819009304047,,,,,,,,,
1739303097.8450248,-0.11401017029711111,1.066068105619085,-0.3883629108519734,-1.4152175651159122,1.5146125151758065,1.1561616925206888,1.3624005286470586,0.00022065885727246993,0.00015364825154939014,-0.00118447774782501,0.00031835869673045515,-0.0007089981933019838,-0.0004543357933038713,-0.0013162195306205197,-0.3817255198955536,-51.34091567993164,-7.332962989807129,18.24408721923828,1.8785501718521118,-0.6516220569610596,0.11998139321804047,,,,,,,,,
1739303097.8570218,-0.11400632804098701,1.066064403987826,-0.3883621626285311,-1.4152176541001236,1.5146085736192758,1.156161693974231,1.3624052954485182,0.0009147744807198527,-0.0006960284281504669,-0.0009937657000761062,0.0001890697517596523,-0.0017520008625426628,0.0003305461378085079,0.0009247339560648,-0.4055292308330536,-51.28934097290039,-7.356766700744629,18.22028350830078,1.8858743906021118,-0.6516220569610596,0.07969819009304047,,,,,,,,,
1739303097.8670547,-0.11401088058575157,1.0660681147765088,-0.388359086653854,-1.415213846745848,1.5146123014857455,1.1561625693718873,1.3623994235945271,-0.0009372980005021824,3.7657346493677495e-05,0.00030844782061985256,0.0007990327522438487,-0.0012076024467325632,0.0007178762456251399,-0.0006917254542082377,-0.3817255198955536,-51.34091567993164,-7.384537696838379,18.19647979736328,1.8785501718521118,-0.6580307483673096,0.12639008462429047,,,,,,,,,
1739303097.8770764,-0.1140080394791261,1.0660681144494655,-0.38835928680253146,-1.4152156674845515,1.5146117496211717,1.156160827917495,1.3624052767079384,-0.0006880010293535241,0.0001542797095134544,0.00026145225517192863,0.00014073641860235217,0.0013955493965511934,-0.0009499294100579678,-0.00030644533806630783,-0.3817255198955536,-51.34091567993164,-7.384537696838379,18.22028350830078,1.8858743906021118,-0.6442978382110596,0.07969819009304047,,,,,,,,,
1739303097.8890154,-0.11400998475788766,1.0660703040048731,-0.38836116709936996,-1.4152203584188696,1.5146126662371155,1.156160828077006,1.3624067082992763,5.021546495878566e-05,-3.19689328895982e-05,-0.0005843716336672601,-0.001161925585692015,0.00036367106458323886,0.00024491181393801237,0.0019947311126689055,-0.3539545238018036,-51.34091567993164,-7.356766700744629,18.24408721923828,1.8785501718521118,-0.6442978382110596,0.07969819009304047,,,,,,,,,
1739303097.8990884,-0.11400772374685453,1.066067793517926,-0.38835941158273307,-1.415221502072399,1.514609775647868,1.1561608280770068,1.362407374696297,0.0008722289423370374,-0.0006088509253356596,0.0008100122894899496,-0.00100378870841173,0.0008809161023629642,-0.00021047940382614366,0.001421238653260683,-0.3817255198955536,-51.34091567993164,-7.408341407775879,18.26789093017578,1.8721414804458618,-0.6442978382110596,0.05314789339900017,,,,,,,,,
1739303097.910019,-0.11400804040356174,1.066066401926917,-0.3883631581111892,-1.4152215171157285,1.5146129181490704,1.1561624516343174,1.3623989819575215,0.0003667572933149728,-0.001874372024333512,-0.0011452661051556483,-0.00233634309499009,0.0016008359275003646,0.0008631945112324427,-0.0016987917663741374,-0.3817255198955536,-51.31711196899414,-7.332962989807129,18.26789093017578,1.8721414804458618,-0.6580307483673096,0.10624848306179047,,,,,,,,,
1739303097.9200754,-0.11400632691029616,1.0660700093699391,-0.3883572560807022,-1.4152185375346154,1.514608838099327,1.1561608280770068,1.3624021565173134,0.0013754955655342186,-0.00025253554413826485,0.0016820252635189599,-0.0008050227429353741,0.00048502981622070473,-0.00033014504661363266,-0.0009680473053653514,-0.4055292308330536,-51.36868667602539,-7.408341407775879,18.22028350830078,1.8721414804458618,-0.6442978382110596,0.10624848306179047,,,,,,,,,
1739303097.9310565,-0.11400811849632135,1.0660664017827923,-0.38836190940619914,-1.4152202024018357,1.514612501637326,1.1561593127568501,1.3624013974574467,2.7981605863421934e-05,-0.0010281187665699969,1.4205501933273852e-05,-0.0013296847995199568,-0.00046189110113558225,-0.00035380277130413017,-0.0007810025238499722,-0.3817255198955536,-51.31711196899414,-7.384537696838379,18.24408721923828,1.8785501718521118,-0.6314804553985596,0.11265717446804047,,,,,,,,,
1739303097.9420652,-0.11401287863530378,1.0660715854023017,-0.3883551079677789,-1.4152238866260096,1.5146110486548685,1.1561616765316363,1.3624046380834234,-0.001547828402262889,0.0004915672721489165,0.0011454761472927517,-0.0016818400416323098,0.0009228596643497601,-9.662086521289908e-05,0.0008172065734738897,-0.3539545238018036,-51.39249038696289,-7.436112403869629,18.29169464111328,1.8922830820083618,-0.6516220569610596,0.08610688149929047,,,,,,,,,
1739303097.952067,-0.11400803947912794,1.0660680339913977,-0.38835726570496515,-1.415220102915811,1.5146105770595295,1.1561632078405502,1.362406919492069,-0.0006124590732464218,0.00014931203878186256,0.001142019387468031,0.00025544344173674,0.0011788328847751296,0.0003883505299802243,0.0009985871297110438,-0.3817255198955536,-51.34091567993164,-7.408341407775879,18.24408721923828,1.8922830820083618,-0.6644394397735596,0.06596527993679047,,,,,,,,,
1739303097.9621494,-0.11400924698597965,1.0660681144480975,-0.38835832013211696,-1.4152158206939403,1.51461164883998,1.1561632485402278,1.3624030319687321,-0.0012720900239133104,-0.0001534547390109707,0.0007944482273156054,0.0004020694915678796,0.0011177937995097964,0.0008170501383035657,0.00018796340511302963,-0.4055292308330536,-51.34091567993164,-7.356766700744629,18.22028350830078,1.8858743906021118,-0.6644394397735596,0.09983979165554047,,,,,,,,,
1739303097.9730692,-0.11400803944749481,1.0660659558183285,-0.3883622273908571,-1.4152194786988244,1.5146141816643737,1.1561616939744608,1.3624083318573577,0.0005660279212764332,-0.0007068477940013412,-0.00025772956941524656,-0.00018286032546479348,0.0017903743375509993,-0.00013406415929170242,0.0003341697649491205,-0.3817255198955536,-51.34091567993164,-7.384537696838379,18.24408721923828,1.8657327890396118,-0.6516220569610596,0.06596527993679047,,,,,,,,,
1739303097.9830694,-0.114006323337726,1.0660663625372993,-0.38835904843714103,-1.4152192288843999,1.5146126194007172,1.1561608280770068,1.3624061183808036,0.0008204037916295148,-0.00036851956061992677,0.0005515213784981163,-0.00047947078943051457,0.0001857281713504266,-0.0005317405681769593,-0.0004757960134496279,-0.4055292308330536,-51.31711196899414,-7.384537696838379,18.26789093017578,1.8785501718521118,-0.6442978382110596,0.07328949868679047,,,,,,,,,
1739303097.9940267,-0.1140097479949727,1.0660718249108219,-0.38835693383108416,-1.4152144715324173,1.5146126546087355,1.1561600704169284,1.3624094939649487,-0.0015684441132980849,0.001125184220827317,0.0009656699662620906,0.0025624110473565624,0.00036219167275127926,-0.00034028080397335993,0.0015961714204225544,-0.3539545238018036,-51.39249038696289,-7.384537696838379,18.19647979736328,1.8785501718521118,-0.6378891468048096,0.05314789339900017,,,,,,,,,
1739303098.0050628,-0.1140100373702304,1.0660696791074935,-0.3883590484077063,-1.4152184226863216,1.5146099489806821,1.1561616939742392,1.3624021565770574,-0.001063640001982281,-0.0006975214418545054,0.0011544026917343758,-0.00019507628028751106,-0.000810637948115582,0.0009321280516182094,-0.0005518652885574652,-0.3539545238018036,-51.39249038696289,-7.384537696838379,18.22028350830078,1.8657327890396118,-0.6516220569610596,0.10624848306179047,,,,,,,,,
1739303098.0160847,-0.11401040803428902,1.066068114437347,-0.3883604271440457,-1.4152182916851632,1.514611448018765,1.1561616939742392,1.3624069194903705,-0.0006663487134883668,-0.0002936044049154517,1.2481301401833672e-05,-0.00012436444101523216,0.00027641194704088555,-4.861015056879564e-06,0.0007012987173764636,-0.3817255198955536,-51.34091567993164,-7.356766700744629,18.24408721923828,1.8858743906021118,-0.6516220569610596,0.06596527993679047,,,,,,,,,
1739303098.0270016,-0.11400803850613524,1.066070112390313,-0.3883611294773977,-1.4152219624969984,1.5146086809610384,1.1561659320422397,1.3624060531086242,0.0006957461411156874,0.0011378334136544898,-0.00025340958516360704,-0.0008913796053788217,-0.0007659189381228988,0.001597527030872599,0.0004172241328246842,-0.3817255198955536,-51.36868667602539,-7.356766700744629,18.26789093017578,1.8721414804458618,-0.6516220569610596,0.07328949868679047,,,,,,,,,
1739303098.0370665,-0.11400269536964464,1.0660698739717338,-0.38836291085020097,-1.415220332921591,1.5146073930954338,1.1561608281487787,1.3624084343264509,0.001167519700868133,0.0008816309475678403,9.593406520795903e-05,-0.0002976501791008315,-0.0007353782584139005,-8.577189440255998e-05,9.392935221129016e-05,-0.4571039378643036,-51.36868667602539,-7.332962989807129,18.24408721923828,1.8858743906021118,-0.6442978382110596,0.05314789339900017,,,,,,,,,
1739303098.047095,-0.11400635278556767,1.0660661370151587,-0.38836191028040246,-1.4152156407644654,1.5146130586586526,1.1561628560816872,1.3624060531086215,0.0012197338941422175,-1.9665262398371188e-05,6.916411287645176e-05,0.0009103532256430001,-0.00034534930273228895,0.0003926349591626283,0.00038655474321969786,-0.4055292308330536,-51.31711196899414,-7.384537696838379,18.22028350830078,1.8721414804458618,-0.6644394397735596,0.07328949868679047,,,,,,,,,
1739303098.0581727,-0.11400803066216086,1.0660641500871921,-0.38836386454065075,-1.4152210067315962,1.51461261139822,1.1561608280750129,1.3624021565710758,-3.3122070993230025e-05,-0.0014809208103716332,-0.001241088061234923,-0.0010749407604762316,0.00013111761209216562,-0.00015145074700977407,-0.0019137220071946525,-0.3817255198955536,-51.31711196899414,-7.332962989807129,18.29169464111328,1.8657327890396118,-0.6442978382110596,0.10624848306179047,,,,,,,,,
1739303098.0690634,-0.1140080394309614,1.066071819011454,-0.3883618434342807,-1.4152183447888174,1.5146111022084736,1.1561624514728117,1.3624032009409528,0.00033050374941591545,0.0023020072922253433,-6.784845837291857e-05,0.0004954395068688379,-0.0006602111645167173,0.0003300361224729875,-0.0012732351459979491,-0.3817255198955536,-51.39249038696289,-7.356766700744629,18.22028350830078,1.8785501718521118,-0.6580307483673096,0.09343110024929047,,,,,,,,,
1739303098.0800288,-0.11400993214391082,1.0660681144857653,-0.3883646935312356,-1.4152166399861112,1.5146106416693637,1.1561616939742383,1.3624005330111064,-0.00021327815673957053,-0.0003345261435413478,-0.0010629849804094438,0.00034308163015698645,-0.0004062092817739702,0.0006874222989016248,-0.0007094809118257069,-0.3539545238018036,-51.34091567993164,-7.309159278869629,18.19647979736328,1.8657327890396118,-0.6516220569610596,0.11998139321804047,,,,,,,,,
1739303098.0909946,-0.11401193147442613,1.066066401928729,-0.38835905132674353,-1.4152211389182272,1.5146133564429416,1.1561608280770068,1.362406040817733,-0.0006680590470438867,-0.0003731683540338702,0.0009119095244145366,-0.0008199439416805392,-0.001056280017806761,-0.00038140340683837434,0.0010008283687139873,-0.3539545238018036,-51.31711196899414,-7.384537696838379,18.24408721923828,1.8593240976333618,-0.6442978382110596,0.09983979165554047,,,,,,,,,
1739303098.1010647,-0.11401027427509448,1.0660718249110444,-0.3883598431119511,-1.4152197462122766,1.5146079084175634,1.1561656305487054,1.3624013991254518,-0.001318734723619188,0.001357615074294897,0.0006748782839059572,0.0002841121105405816,-0.0010464286336799619,0.0012488703597929676,-0.00023097912709927834,-0.3539545238018036,-51.39249038696289,-7.384537696838379,18.24408721923828,1.8785501718521118,-0.6580307483673096,0.11265717446804047,,,,,,,,,
1739303098.111091,-0.11400717097963198,1.0660664460803175,-0.38836191040085866,-1.415220202215855,1.5146094191617943,1.156162705860551,1.3624021165341584,0.0002940017705366322,-0.0007210183037560966,0.00012034674375735905,-0.0007430742702541161,-0.0008926310145575267,0.001111010851779837,-0.0007344364115521928,-0.3817255198955536,-51.31711196899414,-7.384537696838379,18.24408721923828,1.8657327890396118,-0.6516220569610596,0.07969819009304047,,,,,,,,,
1739303098.1220326,-0.11401003736696151,1.0660650944810406,-0.3883613660083056,-1.4152176789598816,1.5146126133443574,1.1561624516400295,1.3624069189340735,-0.0010917737710887943,-0.0006297863914528027,-0.000570439782254846,-0.0003334111950417354,0.0012276758474250365,1.3505181946221571e-05,5.6476322642243346e-05,-0.3539545238018036,-51.34091567993164,-7.356766700744629,18.24408721923828,1.8785501718521118,-0.6580307483673096,0.06596527993679047,,,,,,,,,
1739303098.132057,-0.11400632691027962,1.0660681140712678,-0.38836190908928886,-1.415217438513462,1.514609475929932,1.1561600704169284,1.3624068012682826,0.0018606275024175244,-0.000836954050951199,-0.00010604885094784168,0.0011380867011038616,0.0017899422362163018,-0.00029569610939512124,0.00042959276332205543,-0.4055292308330536,-51.34091567993164,-7.384537696838379,18.24408721923828,1.8657327890396118,-0.6378891468048096,0.06596527993679047,,,,,,,,,
1739303098.1429908,-0.11400177323481421,1.0660700868804998,-0.38836115471255933,-1.4152222163316697,1.5146137756142712,1.1561616938127335,1.362408434324457,0.001838963497607015,0.0004423852946211928,-0.0008400754995381167,0.00022431925153366939,0.0014166565880952672,0.00025263241087363256,0.0017985874670650422,-0.4293329417705536,-51.36868667602539,-7.356766700744629,18.26789093017578,1.8657327890396118,-0.6516220569610596,0.05314789339900017,,,,,,,,,
1739303098.153015,-0.11400803941497249,1.0660642787277406,-0.38835904874684163,-1.4152221836290753,1.514608701256604,1.1561600704169275,1.3624021565710758,-0.0006138757344114245,-0.0010033017229910382,-0.000797730035632101,-0.0008810993113352526,0.00021005349121540898,-0.00028194775622413285,-0.0007905218207660007,-0.3817255198955536,-51.31711196899414,-7.384537696838379,18.26789093017578,1.8721414804458618,-0.6378891468048096,0.10624848306179047,,,,,,,,,
1739303098.1630251,-0.11400803055375532,1.0660670125857792,-0.38836327394037784,-1.4152186485083136,1.5146079495483133,1.1561616808922868,1.3624069190058539,0.000498845502908684,-0.0006385191918636225,-0.0006656914302411154,0.00019255696139533097,-0.0003934476649438289,-0.00014681229154399743,0.00149838802429182,-0.3817255198955536,-51.36868667602539,-7.356766700744629,18.22028350830078,1.8785501718521118,-0.6516220569610596,0.06596527993679047,,,,,,,,,
1739303098.1730769,-0.1140090863145447,1.0660681143969646,-0.38835734521548365,-1.415218635935616,1.5146100801674525,1.1561616939740176,1.3624021165341549,0.0004043675025678068,0.0004610577002998741,0.0016077621750947091,-0.00011471202765629901,0.0013226510660124197,0.0002479555397723495,0.00014348169175575195,-0.3539545238018036,-51.34091567993164,-7.408341407775879,18.22028350830078,1.8721414804458618,-0.6516220569610596,0.07969819009304047,,,,,,,,,
1739303098.1830835,-0.11400803941490466,1.0660718248020271,-0.3883632743777833,-1.4152204349648623,1.5146055231327127,1.1561592727199292,1.3624012273965473,-0.0013367814134213176,0.0010287047971666548,-0.0016939442305141078,-0.0008612583667943284,-0.0012409262314607827,-0.00019483020882077236,-0.0008307295758864339,-0.3817255198955536,-51.39249038696289,-7.356766700744629,18.24408721923828,1.8986917734146118,-0.6580307483673096,0.12639008462429047,,,,,,,,,
1739303098.1931043,-0.1140070920546549,1.0660717188382132,-0.388362910886525,-1.4152165094643476,1.514612534691147,1.156161693920404,1.3624036719158228,0.0005849946069772214,0.0015863578672360708,-9.06347032981307e-05,0.0005747346720265586,0.0015311676184934923,-2.982209828017687e-05,-0.00010713181274531414,-0.3817255198955536,-51.39249038696289,-7.332962989807129,18.22028350830078,1.8785501718521118,-0.6516220569610596,0.09343110024929047,,,,,,,,,
1739303098.204056,-0.1140059085596122,1.0660626872149113,-0.38836115466411325,-1.4152204348480644,1.5146087007736362,1.1561608280770064,1.3623990132791224,0.0006338644265589197,-0.001997788548789442,0.00020643596760073013,1.9494517317722215e-05,0.0011585889840710333,-0.0008859652002951144,-0.00130672291259789,-0.3817255198955536,-51.26553726196289,-7.356766700744629,18.24408721923828,1.8721414804458618,-0.6442978382110596,0.13279877603054047,,,,,,,,,
1739303098.2140818,-0.11400702219137755,1.0660701122812248,-0.3883590483837529,-1.4152204363217842,1.514609132452583,1.156161887715136,1.3624036718911576,0.001387380597536514,0.0006189674397161023,0.0009660798766749146,0.0004927329419146232,-0.0006035907116014318,0.0008065105181513697,1.4583504354653931e-06,-0.3817255198955536,-51.36868667602539,-7.384537696838379,18.24408721923828,1.8721414804458618,-0.6442978382110596,0.09343110024929047,,,,,,,,,
1739303098.225021,-0.11400709237369044,1.0660680172796253,-0.3883572666874316,-1.4152205712166401,1.5146079038980538,1.1561600710689324,1.3624069190058539,0.0007334698578822176,-0.0011783187419743696,0.0007437868159081353,-0.0011044400845346939,-0.00046007246560889135,5.002517100215849e-05,0.0011697364096196917,-0.3817255198955536,-51.34091567993164,-7.408341407775879,18.24408721923828,1.8785501718521118,-0.6378891468048096,0.06596527993679047,,,,,,,,,
1739303098.235042,-0.11401002956116225,1.0660622582190182,-0.38835737167011475,-1.415220434547532,1.5146091171836666,1.1561624516343285,1.3624060545621717,-0.0008181787675843673,-0.0021154697525469744,0.0011829088058206254,-0.0002665250711228802,0.00027640862491810285,0.0008365743327590844,0.000295572678615569,-0.3539545238018036,-51.28934097290039,-7.408341407775879,18.24408721923828,1.8593240976333618,-0.6580307483673096,0.07328949868679047,,,,,,,,,
1739303098.246026,-0.11400561369855333,1.0660718247535763,-0.3883590487109512,-1.4152186522881178,1.5146098388713558,1.1561616939742392,1.3623981474357334,0.0012825927247886839,-2.0244194279510222e-05,-0.0002664988793816137,-0.0005529544954895419,-0.0011219676617920335,-0.00011797050948424407,-0.0027368513128464625,-0.4055292308330536,-51.39249038696289,-7.384537696838379,18.22028350830078,1.8721414804458618,-0.6516220569610596,0.14012299478054047,,,,,,,,,
1739303098.256093,-0.11400732913024902,1.0660701123903102,-0.38835925213471556,-1.4152208775281918,1.514608661521577,1.1561624516343174,1.3624021565710018,8.61786282651144e-05,0.0014189129475841407,0.00028026723451319007,-0.0005213929618867394,0.0004031934444527687,0.0005978653266033266,-0.0003633125381366178,-0.3817255198955536,-51.36868667602539,-7.384537696838379,18.22028350830078,1.8721414804458618,-0.6580307483673096,0.10624848306179047,,,,,,,,,
1739303098.2661548,-0.11400874970766546,1.0660661635101496,-0.38835901925689714,-1.4152168694469038,1.5146086619861554,1.1561616939742392,1.362402914231154,-0.000663655860358382,-0.0007428456528574357,0.0005645297887275125,0.0007726659293586356,-0.0007490083152966757,0.00015897546872572723,-0.0014875660224827098,-0.3817255198955536,-51.31711196899414,-7.356766700744629,18.19647979736328,1.8721414804458618,-0.6516220569610596,0.09983979165554047,,,,,,,,,
1739303098.2770555,-0.11400780169779301,1.0660661370178506,-0.38835904833573354,-1.415220358435718,1.5146090151988674,1.1561632092943959,1.362400533013765,0.001284182994938678,-0.0005828064242259651,0.00025996853625613744,-9.3662896351288e-05,-0.0007802517216281858,0.00047999981636306905,-0.0010350221497264407,-0.3817255198955536,-51.31711196899414,-7.384537696838379,18.24408721923828,1.8721414804458618,-0.6644394397735596,0.11998139321804047,,,,,,,,,
1739303098.2870965,-0.11401027413073243,1.0660698739672476,-0.38835896941918635,-1.4152222176408624,1.5146094193292121,1.1561616939742392,1.3624045377884648,-0.0005908957623773666,0.001282487976908005,7.969563360708446e-05,-0.0004965690237488629,-0.0009236922024380066,0.00011103855269823492,-0.00023537516442776786,-0.3539545238018036,-51.36868667602539,-7.384537696838379,18.26789093017578,1.8657327890396118,-0.6516220569610596,0.08610688149929047,,,,,,,,,
1739303098.298023,-0.11400632691161622,1.0660662959272311,-0.38835800836765744,-1.41522444288223,1.514609419000212,1.1561608280770068,1.3624077159122292,0.0005763670217138434,-5.701910421618923e-05,-0.00022319694039591174,-0.0010818845738812916,0.0003215878010526292,0.00022099461925749605,0.0016962185310949738,-0.4055292308330536,-51.31711196899414,-7.384537696838379,18.26789093017578,1.8657327890396118,-0.6442978382110596,0.05955658480525017,,,,,,,,,
1739303098.308992,-0.1140058793349732,1.066067784783666,-0.38836327393450076,-1.415220434977701,1.5146086285544984,1.1561616938127335,1.362406919167581,0.0008635951733179899,-0.0006434238520193362,-0.000625915808881398,-0.00011054757214141068,0.0005454677506261628,0.0001418690836532307,-0.00016425790156713362,-0.3817255198955536,-51.34091567993164,-7.356766700744629,18.24408721923828,1.8721414804458618,-0.6516220569610596,0.06596527993679047,,,,,,,,,
1739303098.3190055,-0.11401003733528253,1.0660701035544122,-0.38835904852865916,-1.4152204349651394,1.5146104786377825,1.1561608280770042,1.3624076745668028,-0.0003905329801036058,0.0014434029681109747,-0.00047960298908534556,-0.0001445769453152035,0.0002811239003059448,0.0004589625212384234,0.001234920746582162,-0.3539545238018036,-51.36868667602539,-7.384537696838379,18.24408721923828,1.8657327890396118,-0.6442978382110596,0.05955658480525017,,,,,,,,,
1739303098.329057,-0.11400803943101027,1.0660679666229516,-0.38836112817316226,-1.4152168697241552,1.5146094235403098,1.1561608279155011,1.3623990176935727,-0.0006102053911621816,0.00042668347034374406,-0.0006876958751743312,0.0011803259905696327,-0.0007042924002193748,0.00017709653538297,-0.0022181213104190143,-0.3817255198955536,-51.36868667602539,-7.356766700744629,18.19647979736328,1.8657327890396118,-0.6442978382110596,0.13279877603054047,,,,,,,,,
1739303098.3400764,-0.11400780169378347,1.0660673977643982,-0.38835824237152344,-1.4152186522531278,1.5146088184850897,1.1561604748642962,1.3624021434891234,1.1557199055342289e-05,-0.0003858353542760469,0.0007536749159157942,6.71875715568151e-05,-0.000703553648244868,-0.0004447353046544917,-0.000751050040708072,-0.3817255198955536,-51.34091567993164,-7.384537696838379,18.22028350830078,1.8721414804458618,-0.6442978382110596,0.10624848306179047,,,,,,,,,
1739303098.3509848,-0.11401045207983128,1.066070257269187,-0.3883665046419099,-1.41521865228812,1.514607904057787,1.1561599541309147,1.362404731529288,-0.0015215546120567048,-0.00016924063598879518,-0.0019650422892590444,-0.0006773919279541908,-0.0007053629307495549,-0.00018450121208300814,0.0005000188173096023,-0.3301508128643036,-51.34091567993164,-7.281388282775879,18.22028350830078,1.8785501718521118,-0.6378891468048096,0.09343110024929047,,,,,,,,,
1739303098.36103,-0.11400609099148029,1.0660701115544717,-0.38835723103456177,-1.4152204349651394,1.5146080980669772,1.1561616939722696,1.3624069190237988,0.0010041908642522324,0.0004157689300223411,0.0008694297830789664,-0.0007987299422203109,0.0002447938997954844,0.0002970405206964958,0.0019831060254956573,-0.4055292308330536,-51.36868667602539,-7.408341407775879,18.24408721923828,1.8858743906021118,-0.6516220569610596,0.06596527993679047,,,,,,,,,
1739303098.3710532,-0.11400965117553478,1.0660651700290513,-0.3883611281725726,-1.4152148399462152,1.5146085838189423,1.1561627531278516,1.3624013989109975,-0.0011792150633205614,-0.0009555516766664955,-0.0005007667487822824,0.0016840591218627626,-0.00031265267744689195,0.0005993726119048451,-0.00043526856471723233,-0.3301508128643036,-51.34091567993164,-7.356766700744629,18.19647979736328,1.8986917734146118,-0.6516220569610596,0.11265717446804047,,,,,,,,,
1739303098.381054,-0.11400632286914694,1.0660652522864842,-0.38835904838330426,-1.4152204348257882,1.5146112007068653,1.1561608280949436,1.362405243120734,0.0004549887182775698,-0.001075941953598444,-1.9644650008700595e-05,0.0002901855674758731,0.0002452604778757102,-0.0005516622817363569,0.0002689865133126812,-0.4055292308330536,-51.34091567993164,-7.384537696838379,18.24408721923828,1.8785501718521118,-0.6442978382110596,0.07969819009304047,,,,,,,,,
1739303098.3919854,-0.11400624766451442,1.0660717993487416,-0.3883611281731598,-1.4152216196140432,1.5146073912294833,1.156160474864297,1.3624052948022254,0.0004097902097627346,0.0003707836634941253,-0.0012976253542706922,-0.0007008930266513272,-0.000975069757580101,-0.00020200270272659258,-0.0003713319638570592,-0.4055292308330536,-51.39249038696289,-7.356766700744629,18.22028350830078,1.8858743906021118,-0.6442978382110596,0.07969819009304047,,,,,,,,,
1739303098.4021475,-0.11400645844387906,1.0660678757033992,-0.38835904838330426,-1.4152168696613532,1.514608661507621,1.156160828071025,1.3624069188443373,0.0007095302751784988,0.0007001241062523489,0.00016346324695390576,0.000821600284236999,0.0004912480100458374,-0.00018075704390298376,0.0007245715788653884,-0.4055292308330536,-51.34091567993164,-7.384537696838379,18.19647979736328,1.8721414804458618,-0.6442978382110596,0.06596527993679047,,,,,,,,,
1739303098.4129958,-0.11400804787597187,1.0660681144481123,-0.38835904795531445,-1.4152186437848515,1.514609432243669,1.1561616938127335,1.3624044977519836,7.030660264159896e-05,0.00047753681750819263,-0.00032623537265041933,0.0007990363771324548,-4.5018284514689106e-05,0.00021232416189944652,0.00025234315126698297,-0.3817255198955536,-51.34091567993164,-7.384537696838379,18.22028350830078,1.8657327890396118,-0.6516220569610596,0.05955658480525017,,,,,,,,,
1739303098.4230015,-0.11400811867689639,1.0660719081994734,-0.38836019183847925,-1.4152204349649953,1.514610940296296,1.1561600704169257,1.3624060530547863,-0.0007518630811865766,6.0493070934418826e-05,-0.00022593887031549986,0.0004174245954768124,0.0011524659370388507,0.0002660039558898309,0.0001808422182006869,-0.3817255198955536,-51.39249038696289,-7.356766700744629,18.24408721923828,1.8529154062271118,-0.6378891468048096,0.07328949868679047,,,,,,,,,
1739303098.4330966,-0.11401001009456888,1.0660681026799346,-0.38835904833573354,-1.4152206832315213,1.5146094181929786,1.1561624516343174,1.3624091919865267,-0.0013557231019807896,0.0002183057717779086,0.00016133507670161134,0.0009600765431630585,0.0010842610519778816,0.00032939693839163016,0.00028235596522391314,-0.3539545238018036,-51.34091567993164,-7.384537696838379,18.24408721923828,1.8657327890396118,-0.6580307483673096,0.04673920199275017,,,,,,,,,
1739303098.4440908,-0.114004196044075,1.0660681144493935,-0.38836112817315954,-1.4152195166134953,1.5146086615016328,1.1561608280770068,1.362406040026669,0.0010833489480758646,0.0005794289434816108,-0.0013039333040224801,-0.0002002296287292384,4.576794621774476e-06,-0.00016641297116781184,0.00026888372168922203,-0.4055292308330536,-51.34091567993164,-7.356766700744629,18.24408721923828,1.8721414804458618,-0.6442978382110596,0.07328949868679047,,,,,,,,,
1739303098.4560504,-0.1140100369348175,1.0660725313243509,-0.3883610241716397,-1.4152204349634112,1.5146101774678171,1.1561585550967717,1.3623973540993521,-0.001727026938932327,0.0020183145134841027,-0.0005081291367653153,-0.0009091631846748509,0.0003062098808929815,-0.0011408084080443673,-0.001967704180157985,-0.3539545238018036,-51.39249038696289,-7.356766700744629,18.24408721923828,1.8593240976333618,-0.6250717639923096,0.11998139321804047,,,,,,,,,
1739303098.4660656,-0.11400800421067844,1.0660688326526242,-0.38836477299947053,-1.4152168696111014,1.5146086615016419,1.156160074777579,1.3624045900983286,0.0007473075927425246,0.0012695531865066882,-0.0024953586983710654,0.0009355227684104504,-0.00019469807372894565,-0.00023690501902969775,0.0008536121906331069,-0.3817255198955536,-51.34091567993164,-7.309159278869629,18.19647979736328,1.8721414804458618,-0.6378891468048096,0.08610688149929047,,,,,,,,,
1739303098.4769793,-0.11401019423926191,1.0660701123943672,-0.3883590483837529,-1.4152204349651394,1.51460790384156,1.1561616939742636,1.3624084328731958,-0.0009491914960005172,-0.0004939521986764198,0.0009163738196926259,-0.0007241224626733044,-0.0004121084866307729,0.0002853758870238282,0.0003870176938763391,-0.3539545238018036,-51.36868667602539,-7.384537696838379,18.24408721923828,1.8785501718521118,-0.6516220569610596,0.05314789339900017,,,,,,,,,
1739303098.486983,-0.11400632593860337,1.0660718239298979,-0.3883629108501789,-1.4152171168599983,1.514610531488055,1.1561623338967475,1.3624005330137403,-0.00027751487460085645,-0.0005098492733643728,0.00017792239530280108,0.0016726665173013122,-0.00019620263119047362,0.00012322304010244323,-0.0012397323290633836,-0.4055292308330536,-51.39249038696289,-7.332962989807129,18.19647979736328,1.8593240976333618,-0.6580307483673096,0.11998139321804047,742,712,705,39.545,0,0
1739303098.4970467,-0.11400801214967327,1.0660678760308642,-0.38835726559928774,-1.4152186522923074,1.514612900544679,1.1561608280750129,1.3624013814683944,0.0007974456499296279,2.2252647204742073e-05,0.0015339322072679899,0.00037948393564343525,0.0026787052568255035,-0.0003135663957969205,-0.0004475011508318647,-0.3817255198955536,-51.34091567993164,-7.408341407775879,18.22028350830078,1.8721414804458618,-0.6442978382110596,0.11265717446804047,742,711,705,39.436,0,0
1739303098.5080404,-0.11401002470538225,1.0660680261449367,-0.38835909318899,-1.4152240827354765,1.5146108383890384,1.1561600704169284,1.3624069190057553,-0.0007744310782622944,-0.00039966486727350593,0.000688050329752014,-0.001438082583564376,0.0021320012661011356,-0.00026507753736703017,0.002705927270570589,-0.3539545238018036,-51.34091567993164,-7.384537696838379,18.29169464111328,1.8657327890396118,-0.6378891468048096,0.06596527993679047,743,712,704,39.654,0,0
1739303098.5180442,-0.1140090899952937,1.0660665144323214,-0.3883610501727785,-1.415218652289516,1.5146079038655949,1.1561608280770068,1.3624068014297894,-0.0005815006119672498,-0.0017680484551897632,-0.0010210936228513458,0.00015207346293753934,-0.000419837014072054,-0.00020349133813582967,0.00038983531384741946,-0.3539545238018036,-51.28934097290039,-7.356766700744629,18.22028350830078,1.8785501718521118,-0.6442978382110596,0.06596527993679047,743,713,706,39.436,0,0
1739303098.5281088,-0.11400709236338889,1.0660644000990307,-0.3883611281718389,-1.4152244425672942,1.5146062411998986,1.1561600704169284,1.3624055056685067,0.0005777767288296131,-0.002614881125989524,-0.0008641383233152539,-0.0008788397101948647,-0.0011577944627805896,0.000154066224733965,-0.0004318149086790832,-0.3817255198955536,-51.28934097290039,-7.356766700744629,18.26789093017578,1.8922830820083618,-0.6378891468048096,0.06596527993679047,742,708,705,39.545,0,0
1739303098.5390558,-0.11400632690493348,1.0660664035639509,-0.38836110217277975,-1.4152204321809607,1.514605528131604,1.1561616547283824,1.3624000220185863,-0.0002886124139576764,-0.000339423987038026,-0.00022546152161861645,-3.99804349516248e-05,0.0003639699053436707,0.0006971240972684181,-0.0012328063136905524,-0.4055292308330536,-51.31711196899414,-7.356766700744629,18.24408721923828,1.8721414804458618,-0.6516220569610596,0.09343110024929047,740,712,705,39.545,0,0
1739303098.5490575,-0.11400769744016316,1.0660642561615445,-0.3883611281727195,-1.4152165859937207,1.514607901850429,1.1561592727192647,1.3624021565092648,0.0005117350361400271,-0.00018689077844090407,0.0001908198533246695,0.0005774697186304411,0.001161199072063311,-0.00033528420078453183,-6.273809031086817e-05,-0.3817255198955536,-51.31711196899414,-7.356766700744629,18.22028350830078,1.8785501718521118,-0.6580307483673096,0.10624848306179047,742,714,706,39.545,1,0
1739303098.5600245,-0.11400609014545462,1.0660658597992216,-0.3883629108501789,-1.4152168710691377,1.5146103338052104,1.1561589551117093,1.3624058637283747,0.0005988308220527406,0.00027807278112311224,-0.00022423650560025573,0.0010151919294569941,0.002494749744629858,-0.0005001745130064744,0.000776917331720774,-0.4055292308330536,-51.34091567993164,-7.332962989807129,18.19647979736328,1.8593240976333618,-0.6314804553985596,0.06596527993679047,743,713,705,39.436,0,0
1739303098.5700495,-0.11400803942700126,1.06606739915554,-0.3883629108501789,-1.4152204359826492,1.5146047249298307,1.1561616939681822,1.3624084343085796,-0.0011662932237901727,-0.0014521775764168444,-0.0010385956475682289,-0.0002125218766760884,-0.0013643450019339164,0.00034570533493559263,0.0008831175688508158,-0.3817255198955536,-51.34091567993164,-7.332962989807129,18.24408721923828,1.8785501718521118,-0.6516220569610596,0.05314789339900017,742,714,706,39.436,0,0
1739303098.5800517,-0.11400732914232725,1.0660701123781995,-0.3883572682217346,-1.4152171168600154,1.5146094205614318,1.1561592996748977,1.3624069190058534,2.3904176958663465e-05,0.000955425309442914,0.0007445271381199008,0.000801783222677882,0.0010104294924907493,-0.000672903619583735,0.001405888024475218,-0.3817255198955536,-51.36868667602539,-7.408341407775879,18.19647979736328,1.8657327890396118,-0.6314804553985596,0.06596527993679047,741,713,704,39.545,1,0
1739303098.5900877,-0.11400779096409278,1.0660656115449525,-0.3883611281732024,-1.4152166400270272,1.514608661501662,1.1561593127566285,1.3624044983980068,0.0006498870307483517,-0.001078054332707422,-0.00047088952512585496,0.0012180817616139782,0.0003734145655432463,-0.000779681343999247,0.0003804906015298803,-0.3817255198955536,-51.34091567993164,-7.356766700744629,18.19647979736328,1.8721414804458618,-0.6314804553985596,0.05955658480525017,743,715,706,39.436,1,0
1739303098.601049,-0.11400561225373868,1.0660698739576049,-0.38835904852865927,-1.4152226602039149,1.5146061654537797,1.1561600704169284,1.3624045377705234,0.0014607963663045452,0.0011436592942975065,0.00052932768289369,-0.0012803219231259156,-0.0006806307624980842,-0.00039946568868848775,-0.0001401105686521624,-0.4055292308330536,-51.36868667602539,-7.384537696838379,18.24408721923828,1.8922830820083618,-0.6378891468048096,0.08610688149929047,743,714,706,39.545,0,0
1739303098.6110957,-0.11400796049794329,1.0660681115019828,-0.38835902214238016,-1.415220435115878,1.5146072475557046,1.1561616939742392,1.3624052954485426,-0.0002768997618778615,-0.0001847624449755821,5.163955702065803e-05,-0.0002092244894323653,0.00015371943570657848,0.0005295535917988155,0.00012610242390249796,-0.3817255198955536,-51.34091567993164,-7.356766700744629,18.24408721923828,1.8657327890396118,-0.6516220569610596,0.07969819009304047,744,713,708,39.436,0,0
1739303098.622023,-0.11400795953526757,1.0660672405747367,-0.3883590601095068,-1.4152204349651403,1.5146094578569627,1.156160474864297,1.3623996571316,-0.00017353693037445775,-0.000640182228875373,0.0002775258081638978,9.639022882407464e-05,0.001439442762284758,-0.0003863634484948588,-0.002241867387146733,-0.3817255198955536,-51.36868667602539,-7.384537696838379,18.24408721923828,1.8657327890396118,-0.6442978382110596,0.12639008462429047,741,711,711,39.545,0,0
1739303098.6320436,-0.11400344764695008,1.0660664008989478,-0.38836120764621807,-1.4152206822140363,1.5146079038422153,1.1561616939682573,1.3623973941342953,0.0015326845898826645,-0.0006541868038789345,-5.3302652390894425e-05,0.0003003227306236188,-0.00031471203026774966,0.0007043313159109965,-0.00040880418430157056,-0.4055292308330536,-51.31711196899414,-7.356766700744629,18.24408721923828,1.8785501718521118,-0.6516220569610596,0.14653168618679047,742,711,713,39.436,1,0
1739303098.6421041,-0.11400995829387932,1.0660664019287114,-0.3883611281745057,-1.4152158481758503,1.5146109339973566,1.1561565720818863,1.3623990176936083,0.0006500346248065382,-2.0576424289544404e-05,-0.0001515288488382576,0.0012406009162623862,0.0016085320455300669,-0.0011962115613958946,0.000427004606557863,-0.3539545238018036,-51.31711196899414,-7.356766700744629,18.22028350830078,1.8529154062271118,-0.6442978382110596,0.13279877603054047,743,711,717,39.545,1,0
1739303098.6530168,-0.11400780169244427,1.0660633023781843,-0.38835852099459167,-1.4152204346027155,1.514608560883652,1.1561608280049311,1.3624044811000051,0.00017408615968830105,-0.0009625817842773389,0.0010591892376166081,-0.0006482488100318835,-0.00015908377184332837,0.0010325610621643,-6.982822541592548e-05,-0.3817255198955536,-51.31711196899414,-7.356766700744629,18.24408721923828,1.8721414804458618,-0.6442978382110596,0.08610688149929047,744,711,721,39.545,0,0
1739303098.6630597,-0.11400706607110248,1.0660623111850733,-0.3883593854583995,-1.4152204624372369,1.5146079038409919,1.1561616939742387,1.3624006102295776,0.0005558888643681342,-0.0018697308377681407,0.0013674826233925923,-0.00042931966732375425,-0.00029186101139690884,-4.051246733853897e-05,0.0014781601351031783,-0.3817255198955536,-51.28934097290039,-7.408341407775879,18.24408721923828,1.8785501718521118,-0.6516220569610596,0.09343110024929047,744,713,719,39.436,1,0
1739303098.6730733,-0.11400803053727165,1.0660663976416525,-0.3883534031683113,-1.4152186522885855,1.5146079038415599,1.1561616938127335,1.3623999801941076,-0.00023723783968445863,-0.0006046571830863061,0.003172238594165277,0.0007419052297822495,0.0005104963666746434,0.0007023831940865773,-0.0021356698295377785,-0.3817255198955536,-51.31711196899414,-7.459916114807129,18.22028350830078,1.8785501718521118,-0.6516220569610596,0.11265717446804047,742,713,719,39.436,1,0
1739303098.6840549,-0.1140080306619646,1.066066372494312,-0.38836109928384827,-1.4152176085233688,1.514606997907407,1.15616002681042,1.3624013989568238,-0.001249005638059022,-0.0005130191323935076,0.0005369253553608687,0.000662651451936174,-0.00041265653989809527,-0.0004699796517821205,-0.0012675044428982108,-0.3817255198955536,-51.31711196899414,-7.356766700744629,18.19647979736328,1.8593240976333618,-0.6378891468048096,0.11265717446804047,742,714,716,39.436,1,0
1739303098.6949835,-0.11400793128000958,1.066064256125012,-0.3883590221422146,-1.4152204359867957,1.5146081015064483,1.156161693973993,1.3624060531086217,-0.0004970357641887724,-0.0011162729481227836,-0.00015168341609957917,-3.1574465258493874e-05,0.00033669833447657564,0.0004938575036469016,0.0005993334543723957,-0.3817255198955536,-51.31711196899414,-7.356766700744629,18.24408721923828,1.8785501718521118,-0.6516220569610596,0.07328949868679047,743,712,718,39.654,0,0
1739303098.7050118,-0.11400779250703247,1.0660663930620717,-0.38835904791964865,-1.415218422699876,1.514607746861481,1.1561608280770068,1.3624058946716446,-0.0008466696096906882,-0.0005726331853965408,8.615991406868184e-05,0.0008304820742081079,-0.0013201698338998365,0.0002274449062010364,0.00034772618484444273,-0.3539545238018036,-51.31711196899414,-7.384537696838379,18.22028350830078,1.8785501718521118,-0.6442978382110596,0.07328949868679047,742,712,716,39.545,0,0
1739303098.7150571,-0.11401003733384697,1.0660664019285786,-0.3883611272101749,-1.4152204349612512,1.5146099293551947,1.1561600704169284,1.3624057129751808,-0.0014092338351283996,0.00013740534829544923,-0.0009426985191980965,-0.00033231336617492435,0.00046572938363109587,-0.001001559400879114,0.0002993176627018456,-0.3539545238018036,-51.31711196899414,-7.356766700744629,18.24408721923828,1.8657327890396118,-0.6378891468048096,0.07328949868679047,742,713,713,39.545,1,0
1739303098.7260435,-0.11401003592840758,1.0660681134683136,-0.3883544615898226,-1.4152186522881203,1.514610176824675,1.1561616939742392,1.3624045377865446,-0.0012954798780950196,0.00022467727076795719,0.002433492650787136,0.0007388840323078588,-0.0003163803303615167,0.00023832025412800337,0.0001788219766956199,-0.3539545238018036,-51.34091567993164,-7.408341407775879,18.22028350830078,1.8593240976333618,-0.6516220569610596,0.08610688149929047,742,711,712,39.436,0,0
1739303098.736116,-0.11400803943098645,1.066070076087879,-0.3883572649158716,-1.4152222176421585,1.5146077861039902,1.1561608280770068,1.362403676251883,-0.00039730433987165373,-0.00011338661173890881,0.0013302778443785445,-0.00045564255574548633,-0.0009998555118234773,-0.00010854683666803688,0.0008322043526413098,-0.3817255198955536,-51.36868667602539,-7.408341407775879,18.26789093017578,1.8785501718521118,-0.6442978382110596,0.09343110024929047,742,711,712,39.436,1,0
1739303098.7469895,-0.1140063269102797,1.0660663221286153,-0.38835726603332954,-1.4152186533056055,1.5146079036793898,1.1561565880709392,1.3624002992359718,0.0004586729930297716,-0.001058357947502371,0.0009725312514146932,0.0002701903451080266,-0.0007101768644637624,-0.0006936564427961197,-0.00031650818619851316,-0.4055292308330536,-51.31711196899414,-7.408341407775879,18.22028350830078,1.8785501718521118,-0.6442978382110596,0.08610688149929047,743,713,708,39.545,2,0
1739303098.7579765,-0.11400372154410704,1.0660701123889615,-0.3883611282821816,-1.4152221411127552,1.5146086629551856,1.1561600703451234,1.3623994332669347,0.001063271898834692,0.0005534461982609725,-0.001071738410558779,-3.8791387282309183e-05,-6.250082534470134e-05,-6.732875993004862e-05,-0.0011886268721915318,-0.4055292308330536,-51.36868667602539,-7.356766700744629,18.26789093017578,1.8721414804458618,-0.6378891468048096,0.09343110024929047,744,710,708,39.328,1,0
1739303098.768003,-0.11400803941630352,1.0660634503135593,-0.3883611370398169,-1.415214713291393,1.5146070379443357,1.1561616939742387,1.3624037400675386,-0.00017675015894448668,-0.0018242260694884302,-0.0003694640798572169,0.0017637963259598387,-0.0004974691790732987,0.0005635041137847759,0.0012361194219242986,-0.3817255198955536,-51.28934097290039,-7.356766700744629,18.16870880126953,1.8858743906021118,-0.6516220569610596,0.06596527993679047,742,710,709,39.436,0,0
1739303098.778051,-0.1140070134584677,1.0660664019125783,-0.38836000195077336,-1.4152205173801422,1.5146064846920033,1.1561585543057078,1.3624052953947074,0.0008041477224233025,-0.0005946328794916053,0.0008561331840904903,-0.00016486279793193471,-0.0007216806166618668,4.434309242939623e-05,0.0005124709230625841,-0.3817255198955536,-51.31711196899414,-7.384537696838379,18.24408721923828,1.8785501718521118,-0.6516220569610596,0.07969819009304047,743,709,709,39.436,0,0
1739303098.788059,-0.11400632678464556,1.0660664018197121,-0.38835941148964587,-1.4152214239621224,1.5146094191376833,1.1561608280238362,1.3624031249376247,0.0002808432645146142,-0.0009676902509874719,0.00184326890743156,-0.0012731932127245575,0.0017374324755817382,0.00017691185206093898,-0.00047544829429132596,-0.4055292308330536,-51.31711196899414,-7.408341407775879,18.24408721923828,1.8657327890396118,-0.6442978382110596,0.08610688149929047,744,711,709,39.436,1,0
1739303098.7990148,-0.11400732914232661,1.06606154460017,-0.3883611281852728,-1.4152204624428217,1.5146101768217948,1.1561616939742387,1.3624013943808653,-0.0007174801811370909,-0.0023348766910926146,-0.0003899486886544806,-0.0007187060275779959,0.0005176771069690152,0.0005060213230628961,-0.0005752353288305062,-0.3817255198955536,-51.28934097290039,-7.356766700744629,18.24408721923828,1.8593240976333618,-0.6516220569610596,0.11265717446804047,742,711,709,39.545,1,0
1739303098.8100471,-0.11400790649378442,1.0660693895640292,-0.38835663034796203,-1.4152168696115668,1.5146078626576365,1.1561608280770068,1.3623987268593658,-0.0008008357432363423,-1.8711713022492643e-06,0.0009746527408578826,0.0004980528346736264,-0.0005949858503804097,0.000410682534417657,-0.001571304300495274,-0.3539545238018036,-51.36868667602539,-7.384537696838379,18.19647979736328,1.8785501718521118,-0.6442978382110596,0.12639008462429047,742,710,709,39.545,1,0
1739303098.8200822,-0.11400931830215541,1.0660660746419808,-0.38836280683500884,-1.4152204349301465,1.514608006310645,1.1561600704169284,1.3624012419216518,-0.0013930808783385895,-0.0005152445946720536,-0.0006628209139449298,0.00015442527634081625,-0.0019611242618071656,-0.0004774262575612506,-0.00126730219284602,-0.3539545238018036,-51.34091567993164,-7.332962989807129,18.24408721923828,1.8657327890396118,-0.6378891468048096,0.11265717446804047,741,711,708,39.436,1,0
1739303098.8319972,-0.11400795920687636,1.0660681173813844,-0.3883611281725726,-1.4152222176421583,1.5146056003168447,1.156161391780847,1.3624053398452283,7.479169168862899e-05,-0.00010632624366365833,-0.000340483418170777,-0.0007367710384286568,-0.000774166007917714,-0.0011743773252015214,-0.00046302853473740896,-0.3817255198955536,-51.34091567993164,-7.356766700744629,18.26789093017578,1.8721414804458618,-0.6580307483673096,0.10624848306179047,742,711,707,39.545,0,0
1739303098.8420503,-0.11400496140467,1.0660663901549883,-0.388358814379884,-1.4152186522881203,1.5146128985294898,1.1561607888251673,1.3624021566428806,0.0018545050435161933,-0.0001758541456273812,0.0002548112975563697,-0.0003226763230606715,0.0012825715192184637,-0.00013191462590974478,-0.00014843591854510292,-0.3817255198955536,-51.31711196899414,-7.384537696838379,18.22028350830078,1.8721414804458618,-0.6442978382110596,0.10624848306179047,743,711,705,39.436,1,0
1739303098.8530133,-0.11400631433483567,1.0660701915360573,-0.38836291084885793,-1.4152186563580609,1.5146084508190847,1.1561616934895007,1.3624005330137654,0.0009587115934357657,0.0005737825917131583,-0.0009815159188933534,0.0011848732688127077,0.0018483664044800815,0.00031360568831749534,-0.0007259908713476396,-0.4055292308330536,-51.36868667602539,-7.332962989807129,18.22028350830078,1.8858743906021118,-0.6516220569610596,0.11998139321804047,744,711,707,39.545,0,0
1739303098.8630538,-0.11400537985848863,1.0660717225461085,-0.3883590483833042,-1.41522269174732,1.514610832036483,1.1561600704169201,1.3624021565710758,-0.0003404288303286985,0.0017308699963713581,0.000389101291451485,-0.0008126252367557307,0.001397354632338291,-0.00034590322157664033,-0.0003634414744432918,-0.4055292308330536,-51.39249038696289,-7.384537696838379,18.24408721923828,1.8657327890396118,-0.6378891468048096,0.10624848306179047,743,712,707,39.545,1,0
1739303098.8730628,-0.11401000682672803,1.0660691423621218,-0.38835904838330426,-1.4152204390732988,1.5146094190241381,1.156161688160038,1.3624011882045257,0.0007316640477878053,0.0001394847573096456,5.564799161337186e-05,-0.00041359776994643677,0.0011218135690031954,0.0001696185906356261,-0.000445923802590715,-0.3539545238018036,-51.34091567993164,-7.384537696838379,18.24408721923828,1.8657327890396118,-0.6516220569610596,0.12639008462429047,743,712,706,39.436,1,0
1739303098.8840415,-0.1140073262191562,1.066063650436892,-0.38835904838330426,-1.4152171993543814,1.5146083595235866,1.1561597684388447,1.362406053116597,-0.00013979105096577368,-0.0015528321515277436,0.00028861940445980733,0.0006832959151710937,0.0004052201013288604,-0.0006953856344075337,0.001364011954089517,-0.3817255198955536,-51.28934097290039,-7.384537696838379,18.19647979736328,1.8657327890396118,-0.6442978382110596,0.07328949868679047,742,711,707,39.436,0,0
1739303098.894063,-0.1140034828204684,1.0660642561487554,-0.3883572657062852,-1.4152191104230618,1.5146125999962268,1.1561624516163722,1.3623982199966094,0.0010340530463999163,-0.0006725183625576296,0.0014037457025802122,-0.0002756003779644683,0.0015146233119631765,0.001065832439660999,-0.0013486138020826848,-0.4055292308330536,-51.31711196899414,-7.408341407775879,18.24408721923828,1.8657327890396118,-0.6580307483673096,0.11265717446804047,743,712,707,39.436,0,0
1739303098.9049816,-0.11400600814699752,1.0660664241317086,-0.38836115466411303,-1.4152186522656889,1.5146097168329846,1.156162451634317,1.3624036718373973,0.0003513338140430352,-0.001965288074522817,-0.0005479508401981766,0.0009392251140508939,-0.0006150895913065975,0.000984851552005654,0.0002675800138851798,-0.4055292308330536,-51.31711196899414,-7.356766700744629,18.22028350830078,1.8721414804458618,-0.6580307483673096,0.09343110024929047,744,711,707,39.545,1,0
1739303098.9150205,-0.11400409038143958,1.066066163510275,-0.3883597626762141,-1.4152204349651392,1.5146086609154084,1.1561600689095428,1.362403738637915,0.0015056848018891976,-0.00031458353368371236,-0.00029180642787194906,0.000267280528107206,-0.00042638200576308646,-0.0007636389642787324,0.00041798200421842076,-0.4055292308330536,-51.31711196899414,-7.384537696838379,18.24408721923828,1.8721414804458618,-0.6378891468048096,0.06596527993679047,743,712,708,39.545,1,0
1739303098.925046,-0.1140100281319552,1.0660642473271615,-0.3883613666038355,-1.415222660205211,1.514608665862279,1.1561600566889283,1.3624069183059717,-0.0011086802531331563,-0.0015496615801110511,-0.0008941212855714089,-0.0015093712401635507,0.0002238785423995408,-0.0004742188109622732,0.0002559781639379942,-0.3539545238018036,-51.31711196899414,-7.356766700744629,18.24408721923828,1.8721414804458618,-0.6378891468048096,0.06596527993679047,741,713,705,39.436,0,0
1739303098.9360478,-0.11400515980811812,1.0660663989731267,-0.38836290988854777,-1.415220434977701,1.5146101782753698,1.1561593122722558,1.3624052429053894,0.0017134568857765774,-0.0006279034366229016,-0.0007828241939984216,-0.0005915020101883348,0.0007931735695255148,-0.0006711434584444575,-0.00040181965109146485,-0.3817255198955536,-51.31711196899414,-7.332962989807129,18.24408721923828,1.8593240976333618,-0.6314804553985596,0.07969819009304047,743,712,706,39.436,0,0
1739303098.9460583,-0.11400415788822003,1.066064324514966,-0.3883590493644344,-1.4152186533056055,1.514606162546704,1.1561624516343092,1.362404472377814,0.0008312298253335906,-0.001191483809621479,0.0003802268505620301,0.00048751236025408465,-0.0009164405567673298,0.0004059796684113688,0.0003165969516664199,-0.4055292308330536,-51.28934097290039,-7.384537696838379,18.22028350830078,1.8922830820083618,-0.6580307483673096,0.08610688149929047,743,714,706,39.436,1,0
1739303098.9570582,-0.11400461424455671,1.0660701110807718,-0.3883603471987986,-1.415220438017612,1.5146052206441258,1.1561616939742392,1.3623988594334933,0.0013064913902378257,0.0006633452938888402,-0.00022439899467465222,-0.0008280115555491009,-0.000979980402600441,-4.0819729747335615e-05,-0.0013197184222160446,-0.4293329417705536,-51.36868667602539,-7.356766700744629,18.24408721923828,1.8922830820083618,-0.6516220569610596,0.10624848306179047,742,714,703,39.328,1,0
1739303098.9680855,-0.11400632658550179,1.0660681406133619,-0.3883601796393078,-1.4152231389507617,1.514609432241675,1.1561608280770068,1.3624029142070047,0.0004609040351387379,0.0001459848877273216,1.4896411665507727e-05,-0.0007459007993093215,0.0011086646511129408,-6.896631898489856e-06,-0.0007556458245800553,-0.4055292308330536,-51.34091567993164,-7.356766700744629,18.26789093017578,1.8657327890396118,-0.6442978382110596,0.09983979165554047,742,713,707,39.436,0,0
1739303098.978978,-0.11400803033723167,1.0660672363238608,-0.3883572570234283,-1.4152165604995637,1.5146085379500889,1.1561576433484178,1.3624021567325808,-0.0010076289305353597,-0.00038099977770228156,0.0011899478789201708,0.0012925068172472732,5.99367665729681e-05,-0.0003319859073752661,0.000648354639791525,-0.3817255198955536,-51.34091567993164,-7.408341407775879,18.22028350830078,1.8721414804458618,-0.6442978382110596,0.10624848306179047,743,713,707,39.436,1,0
