IITGN-Robotics/Franka_IITGN_ROBOTICS/franka_ros/franka_iitgn/data01/s_f_015.csv
time,fr3_joint1_pos,fr3_joint2_pos,fr3_joint3_pos,fr3_joint4_pos,fr3_joint5_pos,fr3_joint6_pos,fr3_joint7_pos,fr3_joint1_vel,fr3_joint2_vel,fr3_joint3_vel,fr3_joint4_vel,fr3_joint5_vel,fr3_joint6_vel,fr3_joint7_vel,fr3_joint1_eff,fr3_joint2_eff,fr3_joint3_eff,fr3_joint4_eff,fr3_joint5_eff,fr3_joint6_eff,fr3_joint7_eff,flexpin1,flexpin2,flexpin3,Force,ContactMic,ContactMic_gt
1739305260.437563,-0.04765847849873952,1.1008569364877985,-0.4867024718356378,-1.4242782690174067,1.6269006269855693,1.0733288412206023,1.3558156048508818,0.0007813965224046053,0.0003711482309792279,-0.00015190744030949005,-0.0002756888991473875,0.0004082844588013839,-0.00047673511988742393,-0.0005114216390090206,-0.4809076488018036,-51.21396255493164,-9.641922950744629,17.40302276611328,2.1999001502990723,-0.9931137561798096,0.10624848306179047,,,,,,,,,
1739305260.4485638,-0.04766113676665814,1.100857650547146,-0.4867010545816393,-1.4242768029512953,1.6269057529785855,1.073331693388271,1.355819448323929,-0.0003579597545698911,0.00040867955423287456,-0.000594225737965531,1.3361526386637115e-05,0.0009815770706837735,0.0014664814238314022,0.00015657641432727265,-0.4571039378643036,-51.21396255493164,-9.641922950744629,17.37921905517578,2.1870827674865723,-1.0132553577423096,0.04673920199275017,,,,,,,,,
1739305260.4586108,-0.047657721800770506,1.1008559137768803,-0.48670105447363265,-1.4242743976392775,1.6269010587517958,1.0733277550994953,1.355814376240401,0.001371417789717368,-0.0016311692491567486,-0.000327226411271154,0.0020189162813796457,4.858215484921653e-05,-0.0006440569949186209,-0.0008400390911363314,-0.5047113299369812,-51.19015884399414,-9.641922950744629,17.35541534423828,2.1999001502990723,-0.9931137561798096,0.11265717446804047,,,,,,,,,
1739305260.4695404,-0.0476611104651645,1.1008511850265434,-0.4867003271554453,-1.424278260488168,1.626901332325807,1.0733288431402757,1.355822635951642,0.0004092284063999614,-0.001421385972785415,-0.0005157816668695847,0.000660071774815485,-1.9756670722027565e-05,-0.00023922619477495473,0.001659819835406775,-0.4571039378643036,-51.16238784790039,-9.641922950744629,17.40302276611328,2.1934914588928223,-0.9931137561798096,0.04673920199275017,,,,,,,,,
1739305260.4805746,-0.04766113807095897,1.1008577222010352,-0.48669897380761523,-1.4242781776184241,1.6269007883295645,1.0733280835605346,1.355821125000088,-0.0004623718175016017,0.00034095592305861353,0.0007474740872625088,0.00047502241657258466,-0.000583049515150696,-0.0005817205464411725,-0.00012044625554666441,-0.4571039378643036,-51.21396255493164,-9.669693946838379,17.43079376220703,2.1999001502990723,-0.9867050647735596,0.05955658480525017,,,,,,,,,
1739305260.4906476,-0.04766020807814932,1.1008544552695625,-0.4867039103226107,-1.4242897709463607,1.6269015474863735,1.0733212844085205,1.355816781431137,-0.0006255354637332959,-0.00055624162884603,-0.00016966397604246876,-0.0015912949895923402,0.0004436877781616004,-7.6742405471804e-05,0.0020383824315416393,-0.3817255198955536,-51.03543472290039,-9.594315528869629,17.23242950439453,2.0030617713928223,-1.0782577991485596,0.06596527993679047,,,,,,,,,
1739305260.5015948,-0.04765612243930547,1.1008541603188513,-0.48669928144485475,-1.4243122570802655,1.6268972279929668,1.0733061767550045,1.3558186986067382,0.0012344895711458462,0.0011380825918116781,0.0013574541379728485,-0.0012183192700614557,0.0003418220834394452,-0.0007864061622879395,0.0014474287675349832,-0.3063471019268036,-50.98386001586914,-9.618119239807129,17.18085479736328,1.9444681406021118,-1.0855820178985596,0.03941498324275017,,,,,,,,,
1739305260.5116284,-0.04765281023906876,1.1008601353380951,-0.48670010967742283,-1.424330427395707,1.6268971688729386,1.0732999377177252,1.3558119927844055,-0.000283768651651438,0.0013723408941422011,0.00019123368666616888,-0.0016635650387623777,-0.000306142399996269,6.754343425623046e-05,0.00039226895176005595,-0.3063471019268036,-50.98386001586914,-9.641922950744629,17.20862579345703,1.9444681406021118,-1.1176254749298096,0.05314789339900017,,,,,,,,,
1739305260.522609,-0.047651326639316205,1.1008627013079397,-0.4866972624114987,-1.4243436610525424,1.626901065409483,1.0732901314836392,1.3558005426932676,-0.00029830957946710133,-0.00037754184840958945,0.00036133564211422866,0.0008280967143438761,-9.709087661305676e-05,0.0004878545695196422,-0.0015791271325229716,-0.2825433909893036,-50.98386001586914,-9.641922950744629,17.20862579345703,1.9115091562271118,-1.1112167835235596,0.11265717446804047,,,,,,,,,
1739305260.5335727,-0.04764427822055462,1.1008605405101335,-0.4866989398749537,-1.4243483706817994,1.6268994282857034,1.0732852998659854,1.3558027041185283,0.0005630258253894008,-0.0027238321273061823,0.0002107372638436349,0.00013061478011859882,0.00014497532366659105,-0.00042369526279790727,-0.0004975990465587297,-0.3063471019268036,-50.90848159790039,-9.618119239807129,17.15705108642578,1.9252420663833618,-1.0983994007110596,0.05314789339900017,,,,,,,,,
1739305260.5436132,-0.047647996951885326,1.1008616217645038,-0.4866989398011661,-1.4243458088175056,1.6268989709556512,1.0732797934369818,1.3558043135219642,-0.0012010133506549145,0.00019227730937653841,0.0005348776333796418,0.0009336884580703267,-0.0008068610000694043,-0.001039743097883637,0.0012813369924042004,-0.2547723948955536,-50.90848159790039,-9.618119239807129,17.10944366455078,1.9252420663833618,-1.0919907093048096,0.03941498324275017,,,,,,,,,
1739305260.5545769,-0.047643327277651616,1.1008603042366245,-0.48670072244218243,-1.424347955062786,1.6268983178409384,1.0732829527285521,1.3557928786285502,0.0005779933140712582,-0.0016160460737754297,-0.00022618073982310022,0.0021238571147362524,0.0005026692822977978,0.0005523974659687286,-0.0017314113384735627,-0.3063471019268036,-50.88071060180664,-9.594315528869629,17.10944366455078,1.9316507577896118,-1.0919907093048096,0.10624848306179047,,,,,,,,,
1739305260.564642,-0.04764280272583039,1.1008561435333182,-0.48670072535836745,-1.4243505619028025,1.6268983865684896,1.0732824425502498,1.3557916488652004,0.00047704592028768617,-0.0019848116639807466,0.000142556614015643,-0.0004768477475013919,0.00020454486384829742,0.0010207768159820787,-0.0018988788704259393,-0.2825433909893036,-50.82913589477539,-9.594315528869629,17.13324737548828,1.9252420663833618,-1.0919907093048096,0.10624848306179047,,,,,,,,,
1739305260.5746465,-0.04764322096109214,1.1008701328567174,-0.4866992829872892,-1.4243518775596766,1.6268962498022181,1.0732813678661808,1.3557955403754174,0.0009476225077702483,0.001904972286895319,-0.0006712366034283473,-0.0003600954668108065,-0.000558241301056552,0.0004024992627198338,-0.001388743439465562,-0.3063471019268036,-50.98386001586914,-9.641922950744629,17.15705108642578,1.9252420663833618,-1.0919907093048096,0.07328949868679047,,,,,,,,,
1739305260.5846813,-0.047643221033264245,1.1008620176452517,-0.4866990447598305,-1.4243543755010077,1.6268986841740747,1.0732824229452926,1.3557947827150836,0.0007527130096674348,-0.00036790894994485554,-0.0003438216922915292,-0.0004179778564440746,-0.00039778587781618676,0.0005932286244453286,0.00019916846893662006,-0.3063471019268036,-50.88071060180664,-9.618119239807129,17.18085479736328,1.9316507577896118,-1.0919907093048096,0.07969819009304047,,,,,,,,,
1739305260.5956535,-0.0476431390810419,1.1008627149093855,-0.4866989397657559,-1.4243512095436175,1.626898566454524,1.0732800545092647,1.3558019249141409,-0.000542826558924908,0.0004976533819175248,0.00038628152940571776,0.001051937841378096,-0.00019918396002614394,0.00023479493696374932,0.0021123156164129056,-0.3063471019268036,-50.88071060180664,-9.618119239807129,17.10944366455078,1.9316507577896118,-1.0983994007110596,0.019273381680250168,,,,,,,,,
1739305260.6076396,-0.047644011346514345,1.1008627149133217,-0.4866989397651632,-1.4243554926004074,1.62690030774874,1.073278981771536,1.3557900201187916,-0.0012098974405085469,-0.000563035210976888,0.0014089138378880965,-0.001821437615178363,0.0017231389305406985,-0.0006180257520446807,0.0018612749372932803,-0.2547723948955536,-50.88071060180664,-9.618119239807129,17.15705108642578,1.9179178476333618,-1.0983994007110596,0.11998139321804047,,,,,,,,,
1739305260.618625,-0.04764003790624568,1.1008658967832616,-0.4867049281310348,-1.42435541891732,1.6268976114181772,1.073280607567256,1.3557986249692484,0.0004409997250075573,0.0008623532281453804,-0.00031711306672637464,-0.0015252643674596078,0.00014848243983975632,-0.00026288937138080305,0.0028048463855089257,-0.3063471019268036,-50.88071060180664,-9.566544532775879,17.18085479736328,1.9316507577896118,-1.0855820178985596,0.04673920199275017,,,,,,,,,
1739305260.6296015,-0.04764373523193359,1.100863374588425,-0.48670107442471644,-1.4243550869081059,1.6268999501699883,1.073279699712917,1.3557896630416169,-0.0003208286804099543,-0.0015640279143270752,0.0005827552045803283,-0.0003234132647107874,0.0002181798726165229,0.0008188162375890065,-0.0012901137901018605,-0.2547723948955536,-50.90848159790039,-9.618119239807129,17.15705108642578,1.9179178476333618,-1.1048080921173096,0.11265717446804047,,,,,,,,,
1739305260.6396139,-0.04764586707224305,1.1008664257883074,-0.48669893980131385,-1.4243522461125355,1.6268971244683101,1.0732789420348832,1.3557948364174146,-0.00035004114753753215,-0.0003155035998561515,0.00026301920362908573,0.0007147054007217622,0.0006055553981070341,0.0005026444420703199,-0.001029851382537135,-0.2547723948955536,-50.93228530883789,-9.618119239807129,17.10944366455078,1.9179178476333618,-1.0983994007110596,0.06596527993679047,,,,,,,,,
1739305260.6506362,-0.047645211734783276,1.1008672564059274,-0.48670106566416077,-1.4243533135460875,1.6269000057174445,1.0732781843748045,1.3557977494014544,-0.0012546765181890949,0.0008888268167963698,-0.00020838029061907073,0.0006531926160012868,0.001326756206898704,-0.0002966279447274341,0.0016010595572816264,-0.2309686839580536,-50.93228530883789,-9.618119239807129,17.13324737548828,1.9115091562271118,-1.0919907093048096,0.05314789339900017,,,,,,,,,
1739305260.661599,-0.047643735231415324,1.1008628341181184,-0.4866989136022308,-1.4243501779862322,1.6268985644426828,1.073273945822287,1.3557870123416917,-0.00025416432260163944,0.0005820077246379206,0.0009920180526051328,0.0010140161520984308,-0.0002736868377002429,-0.0007441456976857485,-0.00134552866047988,-0.2547723948955536,-50.88071060180664,-9.618119239807129,17.08167266845703,1.9316507577896118,-1.0919907093048096,0.10624848306179047,,,,,,,,,
1739305260.6716745,-0.0476382597275499,1.1008679196787463,-0.4867028401420021,-1.42435701344942,1.626899087022379,1.0732765607457135,1.355791638387647,0.0011911728680012194,-0.00018646271309773638,-0.0018182779781027198,-0.0008450966658047059,9.420030398165169e-05,-0.0008687052920785108,-0.0005690516597221886,-0.3301508128643036,-50.90848159790039,-9.566544532775879,17.13324737548828,1.9252420663833618,-1.0782577991485596,0.06596527993679047,,,,,,,,,
1739305260.6826434,-0.047643726364654096,1.1008659247337549,-0.48669895251018647,-1.4243522461416545,1.6268994418501694,1.0732750049758992,1.3557899407552725,-0.0007457716985859125,0.001139048999056637,0.0003297065027101318,0.0014472036299253198,0.001090611190362375,-0.00011614367057883058,0.001690212864829598,-0.2547723948955536,-50.88071060180664,-9.618119239807129,17.10944366455078,1.9252420663833618,-1.0919907093048096,0.09343110024929047,,,,,,,,,
1739305260.6946537,-0.047645129517019165,1.1008652183083523,-0.4867017460232527,-1.4243501691693734,1.626897906741607,1.073278457984703,1.3557948693132642,-0.00037860177240389985,-0.0001259292261143745,9.41655757620211e-05,0.0017847888865918184,-0.001487237109259938,-1.1969394211121015e-06,0.00016133099849631347,-0.2309686839580536,-50.88071060180664,-9.594315528869629,17.08167266845703,1.9252420663833618,-1.0983994007110596,0.06596527993679047,,,,,,,,,
1739305260.7055724,-0.04764137036178967,1.1008659334053257,-0.48669894282728354,-1.4243525522424934,1.6268994418313387,1.0732785888212621,1.3557881041004176,-0.00041660462592290205,0.0003997698323109656,0.0010669506336806465,0.0005964700534666382,0.00020411778039076855,0.0005869275112380477,-0.001932651950411581,-0.2547723948955536,-50.88071060180664,-9.618119239807129,17.10944366455078,1.9252420663833618,-1.0983994007110596,0.09983979165554047,,,,,,,,,
1739305260.715626,-0.047639945793110504,1.1008703598423697,-0.48670114440121187,-1.4243542933531539,1.6269003077494044,1.0732734748660255,1.3557883907941668,0.0002275419865821047,0.0015032555271727538,-0.0003880496673231145,-0.0002463257742523032,0.0002261411612157395,-0.00014464318656260734,-0.0004594065794962158,-0.3063471019268036,-50.90848159790039,-9.618119239807129,17.13324737548828,1.9179178476333618,-1.0919907093048096,0.09343110024929047,,,,,,,,,
1739305260.726601,-0.047643708955086156,1.1008613601795223,-0.48670358326829233,-1.4243589095046543,1.626901418137676,1.0732780273109572,1.3557955349233153,-0.001251474424867718,-0.0007679248261730849,-0.0017141972216274705,-0.001657085664314714,0.0021945651994202207,0.0006487266131895865,0.0005919392340825945,-0.2547723948955536,-50.85690689086914,-9.594315528869629,17.15705108642578,1.9115091562271118,-1.0919907093048096,0.03300629183650017,,,,,,,,,
1739305260.736654,-0.0476452111570655,1.1008707934606394,-0.4866991763486318,-1.424358669994395,1.6269002888592252,1.0732769551157642,1.3557868754660423,-0.00029367527779023826,0.000901144953499867,0.0005856538538976581,-0.00013838572358762847,0.0009565355826904842,0.0006270545985540528,-0.0005533693788035085,-0.2309686839580536,-50.90848159790039,-9.618119239807129,17.15705108642578,1.9179178476333618,-1.0855820178985596,0.10624848306179047,,,,,,,,,
1739305260.7476199,-0.047643644720502545,1.1008659081028,-0.486702564789527,-1.4243570402671821,1.6268936495408495,1.0732734572599123,1.3557907705500296,-0.0015020900975114024,-0.0006722398028979553,-0.00024897205527904607,-0.0011219158093623888,0.00024272210024149562,-0.0012798703446183597,-0.0009339169308609516,-0.2547723948955536,-50.88071060180664,-9.566544532775879,17.13324737548828,1.9380594491958618,-1.0919907093048096,0.07328949868679047,,,,,,,,,
1739305260.7586646,-0.04764128857759952,1.1008637877968797,-0.48670072373781775,-1.424350196049569,1.626899387416743,1.0732734160212452,1.3557939108814852,0.0007679717311128893,-0.0008419815440398249,3.219938323778022e-05,0.002455378330542831,0.0001516546161746164,-0.0010171261256708122,0.0009221329886825319,-0.2547723948955536,-50.88071060180664,-9.594315528869629,17.08167266845703,1.9252420663833618,-1.0919907093048096,0.04673920199275017,,,,,,,,,
1739305260.769611,-0.04764077961499446,1.1008643299385477,-0.4867014320472503,-1.4243542669285159,1.6268983421229797,1.0732737194348239,1.355795574475719,-0.0001376147578785615,-0.00034761039094286504,0.0008171159359601987,0.0016095032898251476,0.0014932312263338627,-0.0008319882038919748,0.0013453952767504282,-0.2825433909893036,-50.85690689086914,-9.594315528869629,17.13324737548828,1.8986917734146118,-1.0855820178985596,0.05955658480525017,,,,,,,,,
1739305260.779614,-0.04764372645686529,1.1008659340020488,-0.48669928971940213,-1.4243547213498724,1.6268977694768079,1.0732737692339018,1.3557868755198694,-0.0029265826774510736,-0.000764440360525031,-0.0003818158656052601,0.0015394526421730484,-0.0015004270904977284,-0.0009605786653879537,-0.00040731451915173574,-0.2547723948955536,-50.88071060180664,-9.618119239807129,17.13324737548828,1.9380594491958618,-1.0919907093048096,0.10624848306179047,,,,,,,,,
1739305260.7906926,-0.04764361747493501,1.100865933564142,-0.4867007585544508,-1.4243570512454384,1.626900895127877,1.0732734160052164,1.3557868354291138,-0.00134391976938131,-7.168363246029205e-05,0.0005709548002424166,-0.0007065392417725518,-0.0003851727664932946,-0.0009299024028408725,-0.0013777143608600753,-0.2547723948955536,-50.88071060180664,-9.594315528869629,17.13324737548828,1.9115091562271118,-1.0919907093048096,0.07969819009304047,,,,,,,,,
1739305260.8015993,-0.04763862359960473,1.100867957995946,-0.4866989661190405,-1.4243571282429186,1.6268975257280505,1.0732727765652308,1.3557900142717212,0.0006588076618110773,0.0013095802882745929,0.0001195047299304613,-0.00013903123278024502,-0.001087831114606473,-0.0009465298442462287,0.0005172950722296796,-0.2825433909893036,-50.90848159790039,-9.618119239807129,17.13324737548828,1.9051004648208618,-1.0855820178985596,0.07969819009304047,,,,,,,,,
1739305260.8116653,-0.04763714859508508,1.100864221043857,-0.48669894019763693,-1.4243589096606288,1.6268986665152096,1.073274528331563,1.3557906353698557,0.0011940308884939685,-0.00042821858407328053,0.0009947807118160755,-0.00130269134731177,-0.0001743160614726194,0.0006085596287772489,-0.00037862807323214506,-0.3063471019268036,-50.85690689086914,-9.618119239807129,17.15705108642578,1.9316507577896118,-1.0983994007110596,0.07328949868679047,,,,,,,,,
1739305260.8226254,-0.04764067342592963,1.1008663669559753,-0.4866989660108323,-1.424358834355952,1.6268972254900333,1.0732749858933253,1.355790001260778,0.0006375479090909108,-0.0006676438716647522,0.0003812729243504664,-0.0010127117685700278,-0.0004493271634854571,0.0008008041544317055,-0.0011475897220694917,-0.2825433909893036,-50.85690689086914,-9.618119239807129,17.15705108642578,1.9051004648208618,-1.0919907093048096,0.07969819009304047,,,,,,,,,
1739305260.8335745,-0.04763683101601441,1.1008642504899147,-0.48670074883200615,-1.4243588995822483,1.626897906823324,1.073277065876752,1.3557923957227629,0.001399097745797581,-0.00048585940986944594,-0.0008694680750255101,-0.0008481681670176237,-0.0007954638957507274,0.0005796149561690018,0.0012145292205108047,-0.3063471019268036,-50.85690689086914,-9.594315528869629,17.15705108642578,1.9252420663833618,-1.0919907093048096,0.05955658480525017,,,,,,,,,
1739305260.8436112,-0.0476405455776456,1.1008642475348602,-0.48670072244262913,-1.4243564394783772,1.6269002902808058,1.0732734180031003,1.3557861047240063,-0.0006464425912936924,-0.001435196449253088,-0.0005699434697534638,0.00014864587971167437,0.0011258146368054952,-0.0003887459848594798,-0.0014414248247046155,-0.2547723948955536,-50.85690689086914,-9.594315528869629,17.13324737548828,1.9179178476333618,-1.0919907093048096,0.11265717446804047,,,,,,,,,
1739305260.8546493,-0.04763707744222879,1.10086794033546,-0.48669917889234804,-1.424356155857348,1.62689423532182,1.073271047921632,1.3557916379007384,0.0005406720162435111,-0.0006744716258051062,0.0005042252900179527,0.00028403702187255206,-0.0023353793119770543,-0.0017184060657373084,0.0007429143590924727,-0.3063471019268036,-50.90848159790039,-9.618119239807129,17.15705108642578,1.9380594491958618,-1.0718491077423096,0.06596527993679047,,,,,,,,,
1739305260.865583,-0.04764054298385717,1.1008642207164094,-0.4867015449517623,-1.424358624453064,1.626898684171257,1.0732734160032966,1.3557861178059558,-0.0008329764464702264,-0.0011674856153029445,-0.0021099396068345413,-0.0015810926536063488,0.0004977031965424368,-0.00029772254159963167,-0.0011510147834575494,-0.2547723948955536,-50.85690689086914,-9.594315528869629,17.18085479736328,1.9316507577896118,-1.0919907093048096,0.11265717446804047,,,,,,,,,
1739305260.8756485,-0.04763683316969223,1.1008708321008418,-0.4867009596391729,-1.4243573753522303,1.6269003019352035,1.0732734160032225,1.355790767642929,0.0002237909178216469,0.0007453560856737931,-0.0004647513349128961,9.1147746532606e-05,0.0012640805292254299,0.00032518791331857095,-0.00012538706708874333,-0.3063471019268036,-50.90848159790039,-9.594315528869629,17.13324737548828,1.9179178476333618,-1.0919907093048096,0.07328949868679047,,,,,,,,,
1739305260.8866575,-0.04764054265807914,1.1008710314352987,-0.48670281400612436,-1.4243542966561915,1.6269003075878665,1.0732726583431442,1.3557907545609522,-0.0001701241981997806,0.0003539031566906603,-0.0007590240628792362,0.0014897285954523277,0.00033809501840177593,4.282779141570088e-05,0.0024412087295510713,-0.2547723948955536,-50.90848159790039,-9.566544532775879,17.13324737548828,1.9179178476333618,-1.0855820178985596,0.07328949868679047,,,,,,,,,
1739305260.8975804,-0.04763861476698659,1.1008691125323655,-0.48669893976522965,-1.42435534555035,1.6269009475104066,1.0732734160032225,1.3557868754659357,-8.318229626792795e-05,0.0003762935935137779,0.0008993715427500588,0.001362013863829459,9.305158457555745e-05,0.00020495966515050203,-0.00038266225870084024,-0.2825433909893036,-50.88071060180664,-9.618119239807129,17.10944366455078,1.9115091562271118,-1.0919907093048096,0.10624848306179047,,,,,,,,,
1739305260.9076095,-0.04764225550439024,1.1008652545714694,-0.4867028285857113,-1.4243606935973911,1.6268986310712243,1.073271245492305,1.3557916379008124,-0.0010785192717043676,-0.0006873896574440474,0.00014428188244669217,-0.0009133055367637067,0.00029722394837136863,-0.0011089427363902423,-0.0002623324771472038,-0.2309686839580536,-50.85690689086914,-9.566544532775879,17.18085479736328,1.9051004648208618,-1.0855820178985596,0.06596527993679047,,,,,,,,,
1739305260.918576,-0.04763682793333267,1.1008659690002611,-0.48669894257248086,-1.4243589109203723,1.6268957856169326,1.0732733767493903,1.3557832220317796,0.0008017342294517855,-0.0007239315408101598,0.001055493654414423,-0.0007556091240512648,-0.0011731164786671175,-0.0004040346456213326,-0.0026115647395380205,-0.3063471019268036,-50.88071060180664,-9.618119239807129,17.15705108642578,1.9252420663833618,-1.0919907093048096,0.13279877603054047,,,,,,,,,
1739305260.9285834,-0.0476368321964172,1.10087011684571,-0.4866992867639932,-1.4243588854105655,1.6268954638703579,1.0732726190966226,1.3557908518822557,0.0009361210106230245,0.0018039396830542833,0.0006281786655541166,0.00046433552649162755,-0.000737117375493405,-0.0003771178855071412,0.0002393603815984618,-0.3063471019268036,-50.90848159790039,-9.618119239807129,17.15705108642578,1.9316507577896118,-1.0855820178985596,0.05955658480525017,,,,,,,,,
1739305260.9386344,-0.047640570231997525,1.100868117742087,-0.48670138061803614,-1.4243532657760467,1.6269000057168173,1.0732726583424794,1.3557892111127066,-0.0014537041384917022,0.0001965520833619062,0.00046581145283819387,0.00040642973062997995,0.0014073002118538942,-0.0008734545997807011,-0.0011182414522541157,-0.2547723948955536,-50.88071060180664,-9.618119239807129,17.08167266845703,1.9115091562271118,-1.0855820178985596,0.08610688149929047,,,,,,,,,
1739305260.948637,-0.0476426622618481,1.1008684061991134,-0.4866971600456654,-1.4243571040901932,1.626897089571214,1.0732726583431442,1.3557919246102796,-0.0006953909749264839,-0.0005677145311130739,0.001545493499812394,-0.0001478245913177818,-0.0014777782072834338,-0.0001914565146614394,-0.0013574253168157269,-0.2547723948955536,-50.88071060180664,-9.641922950744629,17.13324737548828,1.9179178476333618,-1.0855820178985596,0.05955658480525017,,,,,,,,,
1739305260.958648,-0.04763853889349184,1.1008659366584692,-0.48670072244223234,-1.4243589109199633,1.6268971287805165,1.0732717924459119,1.3557876331181369,0.0008294258789729079,-0.000925386828002472,0.00017796939715472652,-0.0011223802387880992,0.0013800331159358897,0.0004734886454414224,0.0005698455182728132,-0.2825433909893036,-50.88071060180664,-9.594315528869629,17.15705108642578,1.9179178476333618,-1.0782577991485596,0.09983979165554047,,,,,,,,,
1739305260.9686666,-0.04763851837947286,1.1008688300174283,-0.48670285708973476,-1.4243571281383747,1.6268989837685033,1.0732717924459119,1.355792395561331,0.0006445785665113866,0.00037609698670356995,-0.0005951718707517307,-0.00016016125081053556,-0.0007393863729321268,-0.0001975657816110624,0.002509523150322959,-0.2825433909893036,-50.88071060180664,-9.594315528869629,17.13324737548828,1.9252420663833618,-1.0782577991485596,0.05955658480525017,,,,,,,,,
1739305260.9796128,-0.04764267104044883,1.1008670064459265,-0.48669893977721335,-1.4243589109203716,1.6269010654068972,1.0732738204505912,1.3557892566834233,-0.0009280599165753945,0.0015884337287692088,0.0009388035010099035,-0.0005047249010667678,0.00040060011523797897,0.00040938490250710393,0.0007002106310583149,-0.2547723948955536,-50.88071060180664,-9.618119239807129,17.15705108642578,1.9115091562271118,-1.0983994007110596,0.08610688149929047,,,,,,,,,
1739305260.9906623,-0.047636832208504176,1.1008671659422633,-0.48669928395920287,-1.424358911259534,1.626900301719863,1.0732702327261898,1.3557890866180444,0.0005941221008729765,-5.186587826287953e-05,0.0009799992857161713,-0.0004723112594947148,0.0004099038726430214,-0.0002907933867670098,0.0006009008979098945,-0.3063471019268036,-50.85690689086914,-9.641922950744629,17.15705108642578,1.9179178476333618,-1.0919907093048096,0.08610688149929047,,,,,,,,,
1739305261.0026164,-0.04763546321227526,1.1008690599856488,-0.48670072249019075,-1.424358681332113,1.6268989709018586,1.0732726582713392,1.3557861802373927,0.0015983042605791646,-0.0016845975436349109,4.9668659689465556e-05,-1.5968563150176198e-05,-0.001728664938043425,0.00020258919659815446,-0.0007736029586014833,-0.2825433909893036,-50.88071060180664,-9.594315528869629,17.15705108642578,1.9252420663833618,-1.0855820178985596,0.07328949868679047,,,,,,,,,
1739305261.0135882,-0.04763854330241216,1.1008647251529284,-0.4867052781812634,-1.424358910957625,1.6268966578479607,1.073272658343144,1.3557892435928307,0.0005277198926103568,-0.0017559689618788336,-0.0021821358863114166,0.00011258190546248607,-0.001781243779323483,0.00017104109666850255,0.00046250973204997424,-0.2825433909893036,-50.82913589477539,-9.566544532775879,17.15705108642578,1.9179178476333618,-1.0855820178985596,0.08610688149929047,,,,,,,,,
1739305261.023691,-0.04764267104057355,1.1008688048769903,-0.4867007312326682,-1.424358910920373,1.6269003033269427,1.0732717924459119,1.3557902836104756,-0.0013281236267508548,0.0007638602556865004,0.00034850197887343373,-0.0012420734425218458,5.1965115408693054e-05,0.00020876839667560655,0.00033020465119517044,-0.2547723948955536,-50.88071060180664,-9.594315528869629,17.15705108642578,1.9179178476333618,-1.0782577991485596,0.07328949868679047,,,,,,,,,
1739305261.0346525,-0.04764325269315101,1.1008690433057444,-0.4866989485137684,-1.4243606935973916,1.6269006565476036,1.0732717924459119,1.3557890996972397,-0.002283372417650271,-0.0004019347140372376,0.0006712151209426439,-0.0011930973162777086,-0.00023064417480240563,-0.000551082442555751,-0.00015208110517955396,-0.2071649730205536,-50.88071060180664,-9.618119239807129,17.18085479736328,1.9179178476333618,-1.0782577991485596,0.08610688149929047,,,,,,,,,
1739305261.0455992,-0.04764266811015582,1.1008687277046945,-0.4867028809690871,-1.4243589487180623,1.626899952600597,1.0732710391464841,1.3557931517669728,-0.0009752295847863207,0.000592880710759617,-0.0006246188050312864,-0.0008586724133260836,-4.072667125159401e-05,-2.9206547130997346e-05,0.0004115114200196723,-0.2547723948955536,-50.90848159790039,-9.566544532775879,17.15705108642578,1.9179178476333618,-1.0718491077423096,0.05314789339900017,,,,,,,,,
1739305261.0556147,-0.04764057783730467,1.1008711500057697,-0.4867028022333712,-1.4243571316356105,1.6268986426956085,1.0732741736633746,1.3557860000683613,-0.000597149313754797,0.0006042220917550702,0.00023958847111611086,0.000577521080726072,0.0007102863936955029,0.00032121762190056175,-0.0009521137022299432,-0.2547723948955536,-50.90848159790039,-9.566544532775879,17.13324737548828,1.9051004648208618,-1.0983994007110596,0.11265717446804047,,,,,,,,,
1739305261.0666692,-0.04764051632062313,1.100869125614987,-0.48669878040760456,-1.4243571404531945,1.6268993235582974,1.0732726583431442,1.3557857583477164,-0.0008671154917908686,-0.0006825880723155156,0.000811096617243588,0.0002664795579301669,0.0008502387829792798,0.0005696592333692054,-0.0020851318356619707,-0.2547723948955536,-50.88071060180664,-9.618119239807129,17.13324737548828,1.9252420663833618,-1.0855820178985596,0.07969819009304047,,,,,,,,,
1739305261.07758,-0.04764053875605103,1.10086648601976,-0.4867007229093124,-1.4243589479267538,1.6268972713405871,1.0732717924459119,1.355790049092533,-0.0006504851449120734,-0.001972142567695622,-0.000742994763311342,-0.0012449229985768567,0.00033434286979494284,0.0007303128472121087,-0.0010343155690390694,-0.2547723948955536,-50.85690689086914,-9.594315528869629,17.15705108642578,1.9316507577896118,-1.0782577991485596,0.06596527993679047,,,,,,,,,
1739305261.0875995,-0.047638544825287545,1.1008684263846202,-0.48669894851372664,-1.424359900255748,1.626897122512372,1.0732726583431442,1.3557805491622543,-0.00013161523739065915,-0.0011477443350367412,0.000333750760870166,-0.0005290969543968063,0.0007167368615015278,3.2158463051092735e-06,-0.0021791376090070863,-0.2825433909893036,-50.82913589477539,-9.618119239807129,17.15705108642578,1.9179178476333618,-1.0855820178985596,0.11998139321804047,,,,,,,,,
1739305261.098577,-0.047640543919542214,1.100869456932276,-0.4867007312267895,-1.4243560903710653,1.6268986310552402,1.0732713214956322,1.3557923824528317,-0.0002947936086119585,0.0007029603258014384,0.00036452486482123076,0.0008904080527271142,0.0008894792959844113,-0.0009177142956969528,-0.0005993661571824503,-0.2547723948955536,-50.88071060180664,-9.594315528869629,17.10944366455078,1.9051004648208618,-1.0782577991485596,0.05955658480525017,,,,,,,,,
1739305261.1086383,-0.04763854471724196,1.100869149167662,-0.4866996483983109,-1.424357579976386,1.6268975866492872,1.073272614728661,1.3557861158676667,-0.00021811682660421338,0.0012566329571164034,0.0010289921825749945,8.450430092021778e-05,0.0005050081264633964,0.00022984624892149433,-0.0015111957106032435,-0.2825433909893036,-50.88071060180664,-9.618119239807129,17.10944366455078,1.9179178476333618,-1.0855820178985596,0.11265717446804047,,,,,,,,,
1739305261.1196103,-0.047640542621945184,1.1008728626765245,-0.48669929177569915,-1.4243555938830144,1.6269006990994603,1.073272658342898,1.3557904035554993,-0.0004874393554167277,0.0016348410884994696,0.000759115378357073,0.0011242987891120519,0.0014852140632989307,0.0004784673609904725,7.70546173033726e-05,-0.2547723948955536,-50.93228530883789,-9.641922950744629,17.10944366455078,1.9115091562271118,-1.0855820178985596,0.07328949868679047,,,,,,,,,
1739305261.130621,-0.04763637578110732,1.100867517308426,-0.4867056367760841,-1.4243560873144268,1.6268970110953789,1.0732734160032225,1.3557857117788403,0.0011739367597881686,-0.000374760170216852,-0.0009265547894732529,0.0007771164917745088,-0.0013213319525364048,0.0008860169404999723,-0.0021823693499171256,-0.2825433909893036,-50.85690689086914,-9.566544532775879,17.10944366455078,1.9179178476333618,-1.0919907093048096,0.11265717446804047,,,,,,,,,
1739305261.140641,-0.04764054251295714,1.1008691522162717,-0.4867048929657739,-1.4243579924399876,1.6268950838912,1.0732717924459119,1.3557900143366253,7.293447609114278e-05,-5.409066304626537e-05,-0.0007704474327727416,-0.0008995295607247308,-0.0010595074413263282,0.0005268540253949938,0.0013805003657174797,-0.2547723948955536,-50.88071060180664,-9.566544532775879,17.13324737548828,1.9252420663833618,-1.0782577991485596,0.07969819009304047,,,,,,,,,
1739305261.1506653,-0.04764198269793879,1.1008698409797413,-0.4867009617127807,-1.424358948581959,1.6268986419817983,1.0732715938598474,1.3557868735279672,-0.0004698717558014752,-0.001404391188486778,1.012251589727444e-05,0.00041000414415162136,0.0008497334113286766,3.554724448823601e-05,0.0001423731252128827,-0.2309686839580536,-50.88071060180664,-9.594315528869629,17.15705108642578,1.9051004648208618,-1.0855820178985596,0.10624848306179047,,,,,,,,,
1739305261.1615722,-0.04764226963958692,1.1008693821220428,-0.4866989397665139,-1.4243592542653036,1.6269007121249806,1.073271792439903,1.3557931530598928,-0.0015856624409138708,0.0004171353673722216,6.249616707288558e-05,-0.0010395150247957548,0.0011029392285586109,0.00023324570763462975,0.0015197511468903798,-0.2309686839580536,-50.88071060180664,-9.618119239807129,17.15705108642578,1.9115091562271118,-1.0782577991485596,0.05314789339900017,,,,,,,,,
1739305261.171651,-0.04764022563106079,1.1008674396981197,-0.48670072244218227,-1.4243603546946488,1.6268963166548462,1.073272638962474,1.3557944216279407,0.0006398205893389608,-0.00041901263211090883,-6.583206785761296e-05,-0.0005271493990585075,-0.00295892483920363,-0.00032735247920456914,0.001134261237682462,-0.2547723948955536,-50.85690689086914,-9.594315528869629,17.13324737548828,1.9115091562271118,-1.0855820178985596,0.03941498324275017,,,,,,,,,
1739305261.1826777,-0.04763854471543096,1.1008674396578875,-0.48670072244218227,-1.424359463390037,1.6268971281621873,1.07326947894413,1.3557931008915955,0.0005605731331138043,-0.0010596863738204121,-0.0006692153255475142,-0.0005798845057087337,-0.0011853565170508419,0.00021830602274143984,0.0013147423183508108,-0.2825433909893036,-50.85690689086914,-9.594315528869629,17.13324737548828,1.9179178476333618,-1.0855820178985596,0.05314789339900017,,,,,,,,,
1739305261.1926928,-0.04764127667552856,1.1008654417533725,-0.4867019535403879,-1.424359904364608,1.6269003075340527,1.0732726582893006,1.3557861023753117,-0.0009528460028741392,-0.0010740287261615906,-0.00015346286438267832,-0.00028835246961599244,-0.0008328117539527513,0.00011040733541592426,-0.0012024000983426638,-0.2309686839580536,-50.82913589477539,-9.566544532775879,17.15705108642578,1.9179178476333618,-1.0855820178985596,0.09983979165554047,,,,,,,,,
1739305261.2036288,-0.047635768569032004,1.1008664365268226,-0.4867052519308058,-1.4243571587735164,1.6268971536036836,1.073272174310912,1.3557883906160442,0.0015915422164779222,-0.000898856838251597,-0.0017209182719038392,0.0003546120520094685,-0.0014507454207260562,0.0004667210297843529,0.0012986084480765098,-0.3063471019268036,-50.82913589477539,-9.566544532775879,17.13324737548828,1.9316507577896118,-1.0855820178985596,0.09343110024929047,,,,,,,,,
1739305261.2146378,-0.047640187581540754,1.100867439699842,-0.4866989417140306,-1.42435831605794,1.6268986841834538,1.0732726452584596,1.3557850538071747,-0.00068860663053685,-0.001391848170842405,-0.0001322461716949595,0.0005572599861922828,0.0015608162624754355,-1.2310051641691597e-05,-0.0010253586537669035,-0.2547723948955536,-50.85690689086914,-9.618119239807129,17.10944366455078,1.9316507577896118,-1.0855820178985596,0.11265717446804047,,,,,,,,,
1739305261.2246544,-0.04763783316113993,1.100865442698181,-0.4866989494858135,-1.4243600103068796,1.6268982121486641,1.0732717924456903,1.3557915812695522,0.00020142245985374187,-0.0009605171102025857,0.0011181949035144736,-0.00026648492975680897,0.00039093731573576295,-0.0005878256246690014,0.0006337692117613867,-0.2825433909893036,-50.82913589477539,-9.618119239807129,17.15705108642578,1.9252420663833618,-1.0782577991485596,0.05314789339900017,,,,,,,,,
1739305261.2365992,-0.04763947989920628,1.1008691531597703,-0.486700758408521,-1.4243581552312599,1.6268962089341428,1.073272001698833,1.3557916860958206,0.000594739930084173,0.0008292725849771703,0.000584332052970582,4.102794469219776e-05,-0.0007659407336666139,-0.00010173067449413867,-2.8947383887410012e-05,-0.2547723948955536,-50.88071060180664,-9.594315528869629,17.13324737548828,1.9252420663833618,-1.0919907093048096,0.05314789339900017,,,,,,,,,
1739305261.2466514,-0.04764046320558548,1.1008691522149627,-0.4866992556854275,-1.4243603291848248,1.626896787054507,1.0732680476737801,1.3557815260324466,3.274833912664981e-05,0.0006305593466514968,0.00015585750653713187,0.0004787172954876073,0.00029175503144912736,-0.0020348952687448832,-0.001223097554765422,-0.2547723948955536,-50.88071060180664,-9.618119239807129,17.13324737548828,1.9115091562271118,-1.0855820178985596,0.11265717446804047,,,,,,,,,
1739305261.256652,-0.047640425166968314,1.1008690979248557,-0.48670355795159004,-1.424359240978938,1.6268990711244053,1.0732674186351394,1.3557885221325634,-0.0005087125950152422,-0.0006919624189251819,0.0002898617347436834,0.0005617861021878029,0.00029477737928964974,-0.0011567012158042755,-0.0020374744458266612,-0.2547723948955536,-50.88071060180664,-9.594315528869629,17.15705108642578,1.9252420663833618,-1.0782577991485596,0.05314789339900017,,,,,,,,,
1739305261.2676468,-0.04763909419057887,1.1008679251154203,-0.4867028851973117,-1.424357211113731,1.6268977627258903,1.0732702769395592,1.3557835596764396,-0.0014443780693747176,-0.0011563298996294393,-0.0012492399139998381,0.00079762947118504,-0.00023984566893814845,-0.001042383310135299,-0.002230165093033048,-0.2309686839580536,-50.88071060180664,-9.566544532775879,17.13324737548828,1.9115091562271118,-1.0654404163360596,0.10624848306179047,,,,,,,,,
1739305261.278587,-0.04764053082622256,1.1008674410520216,-0.48670284963772986,-1.424357488433572,1.626898206709112,1.0732726146828004,1.3557901070783447,-0.001581228060448038,0.00014985648764218477,-0.0006664093380648749,-0.0009796159164907289,-0.0018377648072879214,6.305550998161892e-05,0.001985277730491958,-0.2547723948955536,-50.85690689086914,-9.594315528869629,17.13324737548828,1.9316507577896118,-1.0855820178985596,0.06596527993679047,,,,,,,,,
1739305261.2895877,-0.047640538756132916,1.100867738580802,-0.48670319246303867,-1.4243574950299487,1.6268961037982546,1.0732723549112964,1.3557913352147026,-4.405746262533915e-06,-0.001139939346166124,-0.0005006455619475511,0.00019657855337303738,-0.0014681789504418724,0.00048605310840702984,0.001038967904142533,-0.2547723948955536,-50.82913589477539,-9.594315528869629,17.13324737548828,1.9252420663833618,-1.0919907093048096,0.05955658480525017,,,,,,,,,
1739305261.2996376,-0.04763981983585988,1.1008681996858294,-0.48670107834279264,-1.4243609510273516,1.6269001500634257,1.0732707321437904,1.3557836776375358,-0.0016970456891110396,-0.0007190980348737348,-0.0009714258690168563,-0.0009778259627794194,-0.0009503803755804045,0.00012242781821460898,-0.0011542693343248671,-0.2547723948955536,-50.82913589477539,-9.618119239807129,17.18085479736328,1.9179178476333618,-1.0782577991485596,0.10624848306179047,,,,,,,,,
1739305261.3096366,-0.047639480360651985,1.100869155096086,-0.48670130288343855,-1.424357981352503,1.6268958945408794,1.0732688221204665,1.355785081789189,-0.000432674031216337,-0.0005214762669688912,0.0004250543741851413,0.0005828231821470351,-0.0011646694266456768,-0.000340756378254898,-0.0017891604792579976,-0.2547723948955536,-50.88071060180664,-9.618119239807129,17.13324737548828,1.9252420663833618,-1.0919907093048096,0.11998139321804047,,,,,,,,,
1739305261.3206546,-0.04764022269841374,1.1008693847776294,-0.48670083910292933,-1.424358948722878,1.6269003075140394,1.0732713868794606,1.3557872244367883,-0.0004193511054389683,-0.0012051949377849442,6.22637735293453e-05,6.377106677704473e-05,0.0010459294456138465,-0.0008373783212538916,-0.00020722927715730353,-0.2547723948955536,-50.88071060180664,-9.594315528869629,17.15705108642578,1.9179178476333618,-1.0782577991485596,0.06596527993679047,,,,,,,,,
1739305261.3316083,-0.04764221572471769,1.1008692179167414,-0.4867028809696962,-1.4243571409056042,1.6268999146448146,1.073268245362308,1.355790653702744,-0.0018555004113504304,0.0006313585809430282,0.0002909134757675953,0.00040029325768435657,-1.5559365773297655e-05,-0.0021311522167008837,0.0008890052724411361,-0.2309686839580536,-50.88071060180664,-9.566544532775879,17.13324737548828,1.9179178476333618,-1.0855820178985596,0.07328949868679047,,,,,,,,,
1739305261.342667,-0.04763630164527991,1.1008728664561434,-0.48669988471761316,-1.4243576028007334,1.626898836592831,1.0732726445902583,1.3557860831025306,0.00025262973819737593,0.0011340983969142311,0.00019627819026713845,0.0011518828403272543,0.0004577283945870461,0.00017321569078301965,-9.387402636875394e-05,-0.2825433909893036,-50.93228530883789,-9.618119239807129,17.10944366455078,1.9179178476333618,-1.0855820178985596,0.09983979165554047,,,,,,,,,
1739305261.3526778,-0.047633715428306515,1.1008711586591435,-0.4866990272667215,-1.424357132803736,1.6269001769049685,1.0732709364451645,1.3557845284032648,0.0016012735501393749,-0.0006066770573045173,0.00042089393897144724,0.0005579575450746633,-0.00030581524642482133,0.00037195317806624584,-0.003862065482714387,-0.3063471019268036,-50.90848159790039,-9.618119239807129,17.13324737548828,1.9179178476333618,-1.0983994007110596,0.11265717446804047,,,,,,,,,
1739305261.362724,-0.047636384977211156,1.1008654543509526,-0.4866998845016274,-1.4243621526282084,1.6268985532088502,1.0732725211700818,1.3557836226299504,0.0008870543856504789,-0.0020408774115608153,0.0010132737302225912,-0.00015754394896658783,0.000308714677157861,0.0012999925907206508,-0.00283066157992021,-0.2825433909893036,-50.82913589477539,-9.618119239807129,17.15705108642578,1.9316507577896118,-1.0855820178985596,0.09343110024929047,,,,,,,,,
1739305261.3740313,-0.04763980374656839,1.1008738404593545,-0.48670000037402866,-1.4243566023157352,1.626899401760677,1.0732718266260068,1.3557845283487628,-0.0005678965585955253,0.00242444287264809,0.0007136874237044259,0.0009429339926844972,0.0012282911064931284,0.0002995474174932691,-0.0004762383739321187,-0.2547723948955536,-50.90848159790039,-9.641922950744629,17.08167266845703,1.8986917734146118,-1.0919907093048096,0.11265717446804047,,,,,,,,,
1739305261.3845701,-0.04763758633332673,1.1008698409949282,-0.48669893938115083,-1.424360347057688,1.6268994229380738,1.0732700620078104,1.3557900505611358,-0.00010045369673832938,0.0005081091927802378,0.0006723315417248007,0.0005693561306084628,0.0003874809235406133,-0.00028374476616230255,0.0007786918200988869,-0.2825433909893036,-50.88071060180664,-9.618119239807129,17.13324737548828,1.9252420663833618,-1.0919907093048096,0.06596527993679047,,,,,,,,,
1739305261.3946662,-0.047636820474637256,1.100868196824174,-0.4866991847247119,-1.424360463048989,1.626899077399554,1.0732697079397446,1.3557887511983602,-0.00018367583905128158,-0.0013151728724506925,0.0010972138550287935,-0.0004335137999970132,0.0005396805821360018,-0.00038730925314092073,0.0010181385405801844,-0.3063471019268036,-50.82913589477539,-9.618119239807129,17.13324737548828,1.9179178476333618,-1.0919907093048096,0.05314789339900017,,,,,,,,,
1739305261.4055765,-0.04763808888509667,1.1008712953692184,-0.4867017464925933,-1.4243615039813164,1.6268984999446676,1.0732691754917059,1.3557919180721434,-0.0004984548963354995,0.00021638664023554356,-0.0005433782192861802,-0.0004964983549439533,0.0001417571396376772,0.0013954955886177978,0.001985054676320433,-0.2547723948955536,-50.88071060180664,-9.594315528869629,17.15705108642578,1.9252420663833618,-1.0919907093048096,0.05955658480525017,,,,,,,,,
1739305261.4156232,-0.04764046317002992,1.1008714485537798,-0.4866991759935052,-1.4243602538240598,1.6268988406167384,1.0732690008532895,1.355788662012831,-0.002126840815502601,0.0008253982845004492,0.00011626718448689606,-0.0004323195510133208,-0.0004337482165042455,0.0004922450377203948,0.0005840815257794831,-0.2547723948955536,-50.88071060180664,-9.618119239807129,17.13324737548828,1.9179178476333618,-1.0919907093048096,0.07969819009304047,,,,,,,,,
1739305261.4256284,-0.047636118149519666,1.100869047627554,-0.48670154187496567,-1.4243579375990256,1.62689908669266,1.0732703745255923,1.3557813500924434,0.0005627990066353335,-0.0014553774262674219,-0.00017473061214169297,0.0007310823747842956,0.00025395541733352835,0.001062325453310183,-0.002439838860082811,-0.3063471019268036,-50.88071060180664,-9.594315528869629,17.10944366455078,1.9179178476333618,-1.0782577991485596,0.11265717446804047,,,,,,,,,
1739305261.4365969,-0.04763538278897424,1.1008681982236919,-0.48669916528401636,-1.4243622487790764,1.6268987464606877,1.073268649091495,1.3557847996804129,0.000860764545884348,0.0003786258031227447,0.00034331004969509525,-0.0005042020753716999,-0.0008983226420000804,-0.0012363128157015855,-0.0010996699448050508,-0.2825433909893036,-50.82913589477539,-9.618119239807129,17.15705108642578,1.8922830820083618,-1.0919907093048096,0.04673920199275017,,,,,,,,,
1739305261.446628,-0.047635356832662755,1.1008691536263606,-0.486700178503976,-1.4243604661034608,1.6269010246323115,1.0732673777715809,1.3557869091860575,0.0003202525538012084,-0.0007185575910623945,0.0006834936815445243,-0.0007375240791769129,0.0013356877188081232,0.0006675561671579878,0.0005176478480807299,-0.2825433909893036,-50.88071060180664,-9.566544532775879,17.13324737548828,1.9115091562271118,-1.0782577991485596,0.06596527993679047,,,,,,,,,
1739305261.4566376,-0.047640199889492,1.1008714935409296,-0.4866971570437111,-1.4243622364576038,1.626895714368431,1.073266619632951,1.355785245972591,-0.001011818924814105,0.00015697351755498176,0.0014194507396811133,-0.0011284984990867753,-0.002665792683887612,-0.0011505701435237069,-0.0009338738874095705,-0.2547723948955536,-50.90848159790039,-9.641922950744629,17.15705108642578,1.9179178476333618,-1.0718491077423096,0.07969819009304047,,,,,,,,,
1739305261.467579,-0.04763745201069232,1.1008705046872063,-0.4867008016112093,-1.4243621660612884,1.6268994955492875,1.0732684899009939,1.3557827622852128,-0.0005317290857577379,-0.00037050821615988467,0.0005862388317709109,-0.0008362975550501381,0.0005774241533694893,0.0016433886608355323,-0.0005254949802440441,-0.2547723948955536,-50.85690689086914,-9.594315528869629,17.15705108642578,1.9115091562271118,-1.0782577991485596,0.11265717446804047,,,,,,,,,
1739305261.4775941,-0.04763916083204336,1.1008705135203858,-0.4866989437627577,-1.4243594495213188,1.6268996523705526,1.0732709110166279,1.3557876136391316,-0.0005494196357070827,0.0013369426927351646,0.0010669010948124848,0.0003248631855358368,0.0003579707330784129,0.0012941288641697378,-0.0008768242744155524,-0.2309686839580536,-50.85690689086914,-9.618119239807129,17.13324737548828,1.9115091562271118,-1.0718491077423096,0.05955658480525017,,,,,,,,,
1739305261.487635,-0.04763955510640722,1.100871248270317,-0.4866989660108975,-1.4243594404611912,1.626900888859951,1.0732726518808247,1.3557883848495977,-0.00154890135784103,0.0014602836254160746,0.0005171866810917264,0.0007896016130441653,-0.001225656874917152,0.002126896153065704,0.0008757647919557872,-0.2547723948955536,-50.88071060180664,-9.618119239807129,17.13324737548828,1.9115091562271118,-1.0855820178985596,0.05314789339900017,,,,,,,,,
1739305261.4986463,-0.04763850655998952,1.1008749302774625,-0.48670106566430826,-1.424362248661636,1.6269015015483381,1.0732689496365726,1.3557820712281,0.0005097475937156132,0.0014088555434592406,0.0009203972007251311,-0.0005563637269281698,0.0007048924271863035,0.0002660334256170255,-0.0008086512404572755,-0.2825433909893036,-50.93228530883789,-9.618119239807129,17.15705108642578,1.8986917734146118,-1.0855820178985596,0.10624848306179047,,,,,,,,,
1739305261.5095644,-0.04763916052288372,1.1008677386274588,-0.48670072342624476,-1.4243615059786188,1.6268951901577755,1.0732680852258263,1.3557854284404283,-0.00023005203735655894,-0.002225706170070874,0.000203410201051575,-0.0014808799400868723,0.00012488711633698894,-0.0011219671581441707,0.000543431133377894,-0.2309686839580536,-50.82913589477539,-9.594315528869629,17.15705108642578,1.9252420663833618,-1.0782577991485596,0.05955658480525017,,,,,,,,,
1739305261.519573,-0.04763535347385501,1.1008721458244362,-0.48670564151291673,-1.424360456481299,1.6268987313829129,1.073273043185555,1.3557900484063823,0.0007997458246319887,9.148936358033937e-05,-0.002478867613168739,0.00053899048823161,-0.0005905690919808628,0.0009251651610734286,0.0018782529139947917,-0.2825433909893036,-50.88071060180664,-9.542740821838379,17.13324737548828,1.9179178476333618,-1.0919907093048096,0.06596527993679047,,,,,,,,,
1739305261.5296276,-0.04763976529791572,1.1008695145425444,-0.4867035201674827,-1.4243559678535456,1.6268963101739098,1.0732690009187893,1.3557866980979276,-0.00044865243437892813,-0.00186663784478748,-0.0008442386798239487,0.0007528128505487168,-0.0009146857027047323,0.0006037334664065943,-0.00030287046702498586,-0.2309686839580536,-50.85690689086914,-9.566544532775879,17.08167266845703,1.9115091562271118,-1.0919907093048096,0.05955658480525017,,,,,,,,,
1739305261.5406284,-0.047639480214323744,1.1008701510283379,-0.4867009586572347,-1.4243584321040152,1.6268959094828903,1.073267141813894,1.3557868695239856,0.0003526059357940966,0.00043731937728684,-8.759427906779635e-05,0.0009333641053747083,-0.0010793211187338134,-0.0008506794780722998,-0.0004216533416429364,-0.2547723948955536,-50.88071060180664,-9.594315528869629,17.10944366455078,1.9252420663833618,-1.0782577991485596,0.06596527993679047,,,,,,,,,
1739305261.5516403,-0.0476364770115778,1.1008711608251318,-0.4867006437236758,-1.4243639487006194,1.6269016868465795,1.0732674964788245,1.355786867873798,0.0003561650753983414,0.0009052036769747697,0.0013375863678126462,-0.0005232567308287467,0.0005076923867076971,-6.448421528623395e-05,0.001239138012881076,-0.3063471019268036,-50.82913589477539,-9.594315528869629,17.18085479736328,1.9051004648208618,-1.0782577991485596,0.06596527993679047,,,,,,,,,
1739305261.562622,-0.04763913450860115,1.1008721408138413,-0.4866981845569452,-1.4243604661029936,1.6268994280695936,1.0732670371589488,1.355786869529221,-0.00018861298097348842,0.00010600532467756711,0.00161058347887123,-0.0018300555157821146,0.0006492583330094134,-0.0007338667563908481,0.0006817140481505814,-0.2309686839580536,-50.88071060180664,-9.641922950744629,17.13324737548828,1.9252420663833618,-1.0782577991485596,0.06596527993679047,,,,,,,,,
1739305261.5735872,-0.04763538284495849,1.100869518742856,-0.4866989426871485,-1.424360136325211,1.62689982366326,1.073268686877571,1.355787627189749,0.0007866298442997177,-0.0010906731588519033,-3.197085148369614e-05,-0.0004719239288319213,0.001390869816621534,0.000515386139035187,0.0004559539918426118,-0.2825433909893036,-50.85690689086914,-9.618119239807129,17.13324737548828,1.9179178476333618,-1.0919907093048096,0.05955658480525017,,,,,,,,,
1739305261.5836716,-0.04763949356280425,1.1008719876176332,-0.48670143107523073,-1.4243632897052236,1.6268987316082233,1.073271066355015,1.3557868695292303,-0.0008882722488866235,0.00023075660680341685,-0.00040549090168163213,-0.00046541421115347593,0.0003394244885803225,0.00010993189766473648,0.0003167421101222511,-0.2547723948955536,-50.85690689086914,-9.594315528869629,17.18085479736328,1.9179178476333618,-1.0855820178985596,0.06596527993679047,,,,,,,,,
1739305261.5945945,-0.047639582321491826,1.1008665962596627,-0.4867007234182442,-1.4243597243148982,1.626897566365686,1.0732689496814574,1.355787026566492,-0.0008058618345096798,-0.0015411845916632365,0.0004579199851063488,0.00012901785004768278,0.0011884286254626934,7.92923716622869e-05,0.0009633285265442292,-0.2547723948955536,-50.80533218383789,-9.594315528869629,17.13324737548828,1.9051004648208618,-1.0855820178985596,0.06596527993679047,,,,,,,,,
1739305261.605603,-0.047635379822362794,1.1008701855061764,-0.4867030846961935,-1.4243622487762924,1.6268987764371088,1.073267890462061,1.3557883848507137,0.00044039309903207374,-0.0009642135858655063,-0.0001779856729144598,-0.0010029982156582824,-0.0012555333370116955,-0.0004867650003326624,0.0009941806256471594,-0.2825433909893036,-50.88071060180664,-9.594315528869629,17.15705108642578,1.9179178476333618,-1.0855820178985596,0.05314789339900017,,,,,,,,,
1739305261.615705,-0.047633632173907786,1.100870300624317,-0.4866972625148462,-1.4243602188545637,1.6268973631392074,1.073271422098685,1.3557865074862028,0.000968768131602419,-0.0007922460816232297,0.0010050030027451578,0.00020250276183096248,-0.0007641621773028786,0.0012513775850819249,0.0008419996037770468,-0.3063471019268036,-50.85690689086914,-9.641922950744629,17.13324737548828,1.9115091562271118,-1.0855820178985596,0.06596527993679047,,,,,,,,,
1739305261.6257844,-0.04763734263370729,1.100868619866962,-0.486700798236338,-1.424360218853168,1.626896707160429,1.073271068905889,1.3557838048808357,-0.00021785787777785717,-0.0014004528937900502,0.0009564571323468563,-0.00091110351712725,-0.001105508620105985,9.809314528114058e-05,0.0004336371766709862,-0.2547723948955536,-50.82913589477539,-9.594315528869629,17.13324737548828,1.9115091562271118,-1.0855820178985596,0.07328949868679047,,,,,,,,,
1739305261.636628,-0.04763805375023314,1.100868544139673,-0.48669893976644674,-1.4243564581821828,1.6269008946242745,1.0732671425117575,1.3557860034292186,-0.00013136668354723428,-0.0009698803367889921,0.0009416393555680266,0.0021715681041283947,-0.0006240063155334005,0.0009071884454051122,0.0005659103757256951,-0.2547723948955536,-50.82913589477539,-9.618119239807129,17.10944366455078,1.9115091562271118,-1.0782577991485596,0.07328949868679047,,,,,,,,,
1739305261.6475973,-0.047637255047287184,1.1008704626063397,-0.48669999358808214,-1.424357685256739,1.6268964285300413,1.0732663847980664,1.3557868695292299,-0.0003275794214307987,-0.0005311070875035062,0.00013929957972450067,0.0014712519018363823,0.00020444025438432086,-0.0015180487889901364,-0.00027703496586737935,-0.2547723948955536,-50.85690689086914,-9.618119239807129,17.10944366455078,1.9115091562271118,-1.0718491077423096,0.06596527993679047,,,,,,,,,
1739305261.6586063,-0.04763905515394404,1.1008719455383718,-0.4867052964641899,-1.4243604647411792,1.6268966035926857,1.0732686476323086,1.3557844883118413,-0.0012108186959557206,-9.241591270693286e-05,-0.0013532855010984358,-9.222570759831868e-06,-0.001670291920594686,-0.00014608426996197215,0.000629232722812463,-0.2309686839580536,-50.88071060180664,-9.542740821838379,17.13324737548828,1.9179178476333618,-1.0919907093048096,0.08610688149929047,,,,,,,,,
1739305261.6695654,-0.047635345126395764,1.1008715662694777,-0.48669787447371543,-1.424360466103453,1.6268979737081422,1.0732678899715622,1.3557891418477328,0.001237079385130666,0.0005362538390921608,0.002279022283236388,0.00036558460242344974,0.00013868486875584263,-0.00029449638489560556,0.0011743241937671781,-0.2825433909893036,-50.88071060180664,-9.641922950744629,17.13324737548828,1.8986917734146118,-1.0855820178985596,0.04673920199275017,,,,,,,,,
1739305261.679644,-0.0476381591008369,1.100868311595033,-0.4867007228863587,-1.4243574991166985,1.6269011540728058,1.0732678899715622,1.3557813494343625,-6.719689197225793e-05,-0.0009215690223437518,0.0004350138054728803,9.911827661580319e-05,4.3311135801256395e-05,7.482636363126838e-05,-0.0009626195437622653,-0.2547723948955536,-50.82913589477539,-9.594315528869629,17.13324737548828,1.8986917734146118,-1.0855820178985596,0.11265717446804047,,,,,,,,,
1739305261.6906595,-0.04763931865840791,1.1008678521138853,-0.48670378498644634,-1.424360466086712,1.6269007094266787,1.0732712669874978,1.3557804835371414,-0.0005725703767583361,-0.0009776319615028256,-0.001342951757180778,-0.0007862082114594568,0.0010312338219019034,0.0010891235688692145,-0.0005064857550251961,-0.2547723948955536,-50.82913589477539,-9.566544532775879,17.13324737548828,1.9051004648208618,-1.0782577991485596,0.11998139321804047,,,,,,,,,
1739305261.7015672,-0.047635581454580245,1.1008721637854832,-0.48670072244772994,-1.4243586824089567,1.6269014698505653,1.0732682437465753,1.3557868682008467,0.000218290008787362,9.9485574517094e-05,0.0003675466058778664,0.0010560971451037547,-0.00010361097422144092,-0.0002918577217205289,1.2951908485845558e-05,-0.2825433909893036,-50.88071060180664,-9.594315528869629,17.10944366455078,1.9051004648208618,-1.0855820178985596,0.06596527993679047,,,,,,,,,
1739305261.7116072,-0.04763734166451954,1.1008685838187742,-0.48669740593594635,-1.4243604661034435,1.6268981670990885,1.0732690008503414,1.3557840050911525,3.960365772836776e-05,-0.0008221629938824401,0.0007096696569810952,-0.0004639791768947847,0.0006771828895217365,0.0006726104003638234,-0.0011033285815055143,-0.2547723948955536,-50.82913589477539,-9.641922950744629,17.13324737548828,1.8986917734146118,-1.0919907093048096,0.08610688149929047,,,,,,,,,
1739305261.7226014,-0.047637342633701805,1.1008743974239381,-0.4866989400905885,-1.4243605454632666,1.626896316582079,1.073269420561965,1.3557837405787867,-0.0007841759140021715,0.0013389055090347165,0.0007649107236668645,-2.4465385507777275e-06,-0.0013139175110487202,0.0015158305476292116,-0.00012351178279513023,-0.2547723948955536,-50.88071060180664,-9.618119239807129,17.13324737548828,1.9115091562271118,-1.0855820178985596,0.09343110024929047,,,,,,,,,
1739305261.733572,-0.04763565944704707,1.1008722516685985,-0.486700722550191,-1.4243586833892052,1.6269017901703933,1.0732686868861372,1.3557883714414933,-0.0006089545815908877,0.0006473746067961932,6.493035260258151e-05,0.00029716718411154945,0.00041282403243549895,-4.245405612754053e-05,0.002014721852715203,-0.2825433909893036,-50.88071060180664,-9.594315528869629,17.10944366455078,1.8922830820083618,-1.0919907093048096,0.05314789339900017,,,,,,,,,
1739305261.7436118,-0.04763905515976886,1.1008718807831406,-0.4867031434257058,-1.4243586833133872,1.626900264116678,1.0732670240749946,1.3557808622404428,-0.0012773600198684545,-0.00031203013446393763,-0.0013223385691088824,0.001331095975639843,-0.0007703303152191675,-0.00017749627182481008,-0.0008061349530250481,-0.2309686839580536,-50.88071060180664,-9.566544532775879,17.10944366455078,1.9179178476333618,-1.0782577991485596,0.11265717446804047,,,,,,,,,
1739305261.755622,-0.047637339750243826,1.1008711523865098,-0.4866990544340343,-1.4243536361976077,1.6268955452186948,1.0732687880395062,1.3557894444852063,-7.969344243618845e-05,0.0005831459314277504,0.0002749073680669632,0.0027345727196769467,-0.0011258299123821018,-0.0010099160756695544,0.0019538282903110264,-0.2547723948955536,-50.85690689086914,-9.618119239807129,17.08167266845703,1.9179178476333618,-1.0855820178985596,0.05314789339900017,,,,,,,,,
1739305261.7666318,-0.04763913514284884,1.1008705391369085,-0.48670458588133436,-1.4243619889770154,1.626900906802039,1.073267889973252,1.3557883848518213,-0.001215695424041658,0.00022132187065457954,-0.00123132375500266,8.183805045845863e-05,0.001940874717433636,-1.6457933291195644e-05,0.0008681817079659552,-0.2309686839580536,-50.85690689086914,-9.542740821838379,17.15705108642578,1.9115091562271118,-1.0855820178985596,0.05314789339900017,,,,,,,,,
1739305261.7775857,-0.04763534469330575,1.1008722516564857,-0.4867028110886057,-1.4243622447090725,1.6268955394038447,1.0732662853104045,1.3557914030462856,0.001278919129958525,0.00027810038819425147,-0.001032901694673622,-0.0006543366453182218,-0.0011387371612654829,0.0008107569571472698,0.002131022237923483,-0.2825433909893036,-50.88071060180664,-9.566544532775879,17.15705108642578,1.9179178476333618,-1.0718491077423096,0.026597600430250168,,,,,,,,,
1739305261.787626,-0.047635344692854235,1.10086862099481,-0.4867009848992985,-1.424360136438058,1.6268915878045769,1.0732694052926788,1.3557910504544621,-0.00026206284282878796,-0.0006201929114505123,-0.0008225123518204508,0.00033639831251865685,-0.0008910053794975615,0.0008538695463213462,0.00040366684259067877,-0.2825433909893036,-50.82913589477539,-9.594315528869629,17.13324737548828,1.9179178476333618,-1.0983994007110596,0.06596527993679047,,,,,,,,,
1739305261.7986598,-0.04763534470489704,1.1008715628918517,-0.4866992576298418,-1.42435868341326,1.6268996708506984,1.0732678899715622,1.3557852057527835,0.0008318689172953,0.0002124024932639415,0.0005315475649309278,0.0002488752431184858,0.0005845782741814944,0.00039219611154401766,0.0003373383093156014,-0.2825433909893036,-50.88071060180664,-9.618119239807129,17.10944366455078,1.8922830820083618,-1.0855820178985596,0.07969819009304047,,,,,,,,,
1739305261.8095632,-0.04763558075849893,1.100870309543605,-0.48670315217605387,-1.4243604569460941,1.6268985715317357,1.0732690008443502,1.355787612290632,0.0004784328906001598,-0.0008573412388746148,-0.0011357671794826841,0.000269339756019222,0.0007202152696154476,0.00031180874271034646,0.00016950557405266068,-0.2825433909893036,-50.85690689086914,-9.566544532775879,17.13324737548828,1.8922830820083618,-1.0919907093048096,0.05955658480525017,,,,,,,,,
1739305261.8196394,-0.047637587298899955,1.100868303535548,-0.48670211549675163,-1.4243622576106425,1.6268978799541445,1.0732670240803115,1.3557813494341213,-0.0004329414818602538,-0.0027053844159919604,9.74056711134329e-05,-0.0013371289273236202,0.0010119192179300223,-0.0002662607193967752,-0.0006276625718368404,-0.2825433909893036,-50.82913589477539,-9.618119239807129,17.15705108642578,1.9115091562271118,-1.0782577991485596,0.11265717446804047,,,,,,,,,
1739305261.8305795,-0.04763953860121233,1.100874249593314,-0.4867007224959635,-1.4243604661036102,1.6268964714907372,1.0732686469694674,1.3557815064178003,-0.0007947969486727052,-7.234574123931778e-05,0.0005703886270586524,0.0001751901058972468,0.0004805678602327103,0.00050403632615715,0.00023562770408470327,-0.2309686839580536,-50.90848159790039,-9.594315528869629,17.13324737548828,1.9115091562271118,-1.0919907093048096,0.11265717446804047,,,,,,,,,
1739305261.840583,-0.04763734263643635,1.1008706215520534,-0.48669939671836343,-1.4243564581863701,1.6268982883698302,1.073267022584437,1.3557794809967685,-0.0003773041441660982,-0.00011818417533615902,0.0007879452599297416,0.00094834511592755,6.748065986519159e-05,-0.0004840434309733395,-0.000959418480995073,-0.2547723948955536,-50.85690689086914,-9.641922950744629,17.10944366455078,1.8986917734146118,-1.0782577991485596,0.09983979165554047,,,,,,,,,
1739305261.850601,-0.04763905515443851,1.100868541196297,-0.48670311732597255,-1.4243640313067605,1.6268993233958886,1.0732678899715369,1.355784367089765,-0.0007287463724858259,-0.0007237568569128475,-0.0011818893633767525,-0.0018899477074888582,0.0007392945555790491,-0.00022377713111632877,-0.0003373969773553812,-0.2309686839580536,-50.82913589477539,-9.566544532775879,17.18085479736328,1.9252420663833618,-1.0855820178985596,0.05955658480525017,,,,,,,,,
1739305261.8615751,-0.04763734263370728,1.1008668285691916,-0.4867009466621617,-1.424358601010142,1.626896297117985,1.0732686471350106,1.3557860033928701,-0.0008365755418604683,-0.0012159349057937557,0.0013792421057420557,0.0009792746740914552,0.0008512386880375957,0.0001276667903924245,0.0006760700367227334,-0.2547723948955536,-50.80533218383789,-9.594315528869629,17.10944366455078,1.9115091562271118,-1.0919907093048096,0.07328949868679047,,,,,,,,,
1739305261.8716657,-0.047630768052430425,1.1008742240875302,-0.4867036619606419,-1.4243586019898935,1.6269024041232862,1.073268647631632,1.3557844868219482,0.0011315058496768813,0.00036228237862959606,-0.0009436452585946002,0.00012142488697454681,0.00010028226466504177,0.00011700087114099346,0.000983560169130444,-0.3063471019268036,-50.90848159790039,-9.594315528869629,17.10944366455078,1.8986917734146118,-1.0919907093048096,0.08610688149929047,,,,,,,,,
1739305261.8836246,-0.04763521419897103,1.1008722516563416,-0.4867007224587759,-1.424358683425982,1.6269019059957064,1.0732671994595302,1.355783791840245,0.00016371213134980353,-0.0005867490349427117,-0.00010162008204427553,0.000587740910730552,0.001843622976186739,-0.0002804650065830383,-0.002950816215776729,-0.2547723948955536,-50.88071060180664,-9.594315528869629,17.10944366455078,1.8922830820083618,-1.0919907093048096,0.07969819009304047,,,,,,,,,
1739305261.8946116,-0.04763734262970225,1.1008758605149078,-0.48670072244218227,-1.424364031457499,1.626897580153698,1.0732678899688373,1.3557841306083345,-0.0002661278011385913,0.0005331177194408242,0.00016117288310947968,-0.00105681386677565,0.0011153586565921612,0.0007874576589769538,-1.6949693285401787e-06,-0.2547723948955536,-50.93228530883789,-9.594315528869629,17.18085479736328,1.9051004648208618,-1.0855820178985596,0.08610688149929047,,,,,,,,,
1739305261.9046829,-0.047637341660509896,1.1008708835164258,-0.4867020912965749,-1.4243597233392848,1.6268996442006665,1.0732686476316404,1.355781349428316,0.00010675825983522282,0.0002775892015825914,-0.00039807353782339615,0.0003312685466694314,0.0013857759300165268,0.0003743438564345706,-0.0016719174876132577,-0.2547723948955536,-50.85690689086914,-9.566544532775879,17.13324737548828,1.8922830820083618,-1.0919907093048096,0.11265717446804047,,,,,,,,,
1739305261.9156232,-0.04763542370579604,1.1008749677984593,-0.4867009586491687,-1.4243604660992677,1.6268974139462946,1.0732670240743298,1.355780209669287,7.965233185688963e-05,0.00029053587842190723,-0.000466541905266726,-0.00024383739141016627,0.0002342431915790602,-0.000404704090170977,-0.0029059835674928357,-0.2825433909893036,-50.90848159790039,-9.594315528869629,17.13324737548828,1.9051004648208618,-1.0782577991485596,0.11265717446804047,,,,,,,,,
1739305261.9266362,-0.04763534469330025,1.100874249601393,-0.48670080215257727,-1.42436224878048,1.6268975650576492,1.0732670240743298,1.3557858814546657,0.0003998931420868309,-0.00040287446247593743,-2.9767093903812123e-05,-0.0009713801191924148,-0.0005293630354398605,-0.000374223118627138,0.0011701062465643884,-0.2825433909893036,-50.90848159790039,-9.594315528869629,17.15705108642578,1.9051004648208618,-1.0782577991485596,0.07328949868679047,,,,,,,,,
1739305261.9366615,-0.047637106146760186,1.1008722637572914,-0.4867028138981284,-1.4243603836871617,1.6268978530661073,1.0732712626268472,1.3557883848477583,-0.0005101178305501161,7.691891572090545e-05,-0.0008738434565758333,-0.00032398123908882284,-0.0022743676076055672,0.0005381945783773818,0.0014223213208675593,-0.2547723948955536,-50.88071060180664,-9.566544532775879,17.13324737548828,1.8986917734146118,-1.0782577991485596,0.05314789339900017,,,,,,,,,
1739305261.9476142,-0.0476373426323723,1.100870513626016,-0.4867010957981395,-1.424360438291734,1.6269002466945495,1.0732670240982565,1.355785962908365,-0.0003531824159596494,-0.0004902020275502267,0.0005877716528780469,0.0002527939002018256,-0.001254916876532592,-0.0002980301303684445,-0.001095282824330995,-0.2547723948955536,-50.85690689086914,-9.618119239807129,17.13324737548828,1.9051004648208618,-1.0782577991485596,0.07328949868679047,,,,,,,,,
1739305261.957635,-0.04763902887811099,1.100875962117638,-0.4867045142212653,-1.4243626118702015,1.626897762432111,1.0732686476316409,1.355781309206681,-0.0014191988465433463,0.0007984182411922446,-0.000590103333042981,-0.0006429166651396463,0.0009549405841008622,0.00036099792861146425,0.00031760082830222224,-0.2309686839580536,-50.93228530883789,-9.542740821838379,17.13324737548828,1.9115091562271118,-1.0919907093048096,0.11265717446804047,,,,,,,,,
1739305261.9685516,-0.047637661503620636,1.1008742849186097,-0.48670280363572793,-1.424360136559394,1.6268994761220668,1.0732681649076037,1.3557796087411875,-0.0005576906087304562,0.0019399498572845592,-0.0006307320686556377,0.0010865850340016814,0.0004853384896771549,-0.0003993413590445358,-0.0013115838503626122,-0.2547723948955536,-50.90848159790039,-9.566544532775879,17.13324737548828,1.9115091562271118,-1.0919907093048096,0.09983979165554047,,,,,,,,,
1739305261.9786818,-0.04763947588055191,1.1008705391363527,-0.4867049324513329,-1.424362248774899,1.6269009974594582,1.0732678899633872,1.3557825317607184,-0.001238566815342486,-0.0002676738119377247,-0.0011997336871756336,-0.000757901509150677,-4.361363688013643e-05,7.378889825159683e-05,0.0003235925207479692,-0.2547723948955536,-50.85690689086914,-9.566544532775879,17.15705108642578,1.8986917734146118,-1.0855820178985596,0.09343110024929047,,,,,,,,,
1739305261.9895637,-0.047637241567526946,1.10087235903751,-0.48670072299020406,-1.4243604661034608,1.6268970684439337,1.0732670240743298,1.3557841291334187,5.7936125790368975e-05,0.0016282875519188001,5.25483028565052e-05,0.0005449534399293055,-0.0024256047540174522,0.00010917550328785517,-0.000504025493569782,-0.2825433909893036,-50.88071060180664,-9.594315528869629,17.13324737548828,1.9051004648208618,-1.0782577991485596,0.08610688149929047,,,,,,,,,
1739305261.999631,-0.047634342888240484,1.100874020010896,-0.4867035225297868,-1.4243586824089567,1.626895892590765,1.0732682387146049,1.3557897184790828,8.088348046963718e-05,0.0008531578751921661,-0.0009450230581132892,0.0004052265146673896,-0.0017691498844124172,-1.3058657400451658e-05,0.0012829466482342051,-0.3063471019268036,-50.90848159790039,-9.566544532775879,17.10944366455078,1.9179178476333618,-1.0855820178985596,0.05955658480525017,,,,,,,,,
1739305262.010604,-0.04763856046767545,1.1008722536538211,-0.4867006874489979,-1.4243622487804741,1.6268962975244114,1.07326626641622,1.3557787935931167,-0.0006313332116688869,9.688614454300419e-05,0.0007720011709782461,-0.0006325366923524539,-0.00123441868810818,-3.061564350123841e-05,-0.001115786218023788,-0.2071649730205536,-50.88071060180664,-9.594315528869629,17.15705108642578,1.9115091562271118,-1.0718491077423096,0.10624848306179047,,,,,,,,,
1739305262.021555,-0.047630794172120745,1.1008705400119336,-0.4867007224419847,-1.4243604661034608,1.6268970548594877,1.0732678899715622,1.3557817025731977,0.0010662657146339974,-0.0005527550410445886,0.00010269307162085928,0.0005529817134024525,-0.0013277818540424111,0.00030189763030595367,-0.0009774417950200892,-0.3063471019268036,-50.85690689086914,-9.594315528869629,17.13324737548828,1.9051004648208618,-1.0855820178985596,0.11265717446804047,,,,,,,,,
1739305262.031652,-0.0476373425856455,1.1008705509095265,-0.48669891457029224,-1.42436224878048,1.6268978517654225,1.0732712626268472,1.3557828245335077,-0.00025346582543979787,-0.00019707585079465945,0.0008844769221720003,4.8877860718890326e-05,-0.0013882221079312875,0.0016412791211322898,-0.000294153933857699,-0.2547723948955536,-50.85690689086914,-9.618119239807129,17.15705108642578,1.8986917734146118,-1.0782577991485596,0.09983979165554047,,,,,,,,,
1739305262.0425644,-0.04763829078907482,1.1008744201354865,-0.4867038297371433,-1.4243644741295676,1.6268978649014296,1.07326776881785,1.3557836221936574,-0.0009282406911431829,0.0005759852897259774,-0.0017456565402203502,-0.002251025238793716,-0.0004337695095852546,-0.00012462993038887886,-0.00011057294131264998,-0.2547723948955536,-50.88071060180664,-9.566544532775879,17.15705108642578,1.8986917734146118,-1.0855820178985596,0.09343110024929047,,,,,,,,,
1739305262.0535538,-0.04763534470891131,1.1008713688835048,-0.4867007227836037,-1.4243618062551138,1.6268977157038307,1.0732670240722781,1.3557883446228205,0.0006383527150602106,-0.0008121929794982962,0.0002457717382932388,-0.0004982111959122171,0.002165520679565128,0.000524265740669786,0.0027810935824392653,-0.2825433909893036,-50.88071060180664,-9.594315528869629,17.18085479736328,1.9115091562271118,-1.0782577991485596,0.05314789339900017,,,,,,,,,
1739305262.063651,-0.04763908149208766,1.1008705390257927,-0.4866986231698086,-1.4243640314449375,1.626898153643809,1.073272582219588,1.3557828627677846,-0.0017059645528542484,-0.0006543419283905862,0.0015597686613868273,-0.0009498784700766064,-0.00071272709874924,0.0010460326447839215,5.2245095604433575e-05,-0.2309686839580536,-50.85690689086914,-9.618119239807129,17.18085479736328,1.9051004648208618,-1.0983994007110596,0.09983979165554047,,,,,,,,,
1739305262.0745838,-0.04763800410148894,1.1008705391357538,-0.48669904474604253,-1.4243661741722553,1.6268990758717747,1.073266266432185,1.3557919387945312,0.0005146385612892404,-0.00013563292557850068,-0.00023089659536532764,-0.0008617207412750177,-0.0003711286022910065,-0.000321476347985571,0.0030654972019938925,-0.2309686839580536,-50.85690689086914,-9.618119239807129,17.18085479736328,1.9179178476333618,-1.0718491077423096,0.03941498324275017,,,,,,,,,
1739305262.0845873,-0.047633725826552016,1.1008743974236974,-0.4867008274266266,-1.424358921881308,1.6268994774657302,1.0732678899715624,1.3557834615392879,0.0011837701987539163,-0.0001359680532426976,-0.0009288728504335665,-0.000340768710829048,-0.0014099045154671438,0.00018577444489219143,-0.00026763483414926766,-0.3063471019268036,-50.88071060180664,-9.594315528869629,17.10944366455078,1.9115091562271118,-1.0855820178985596,0.09343110024929047,,,,,,,,,
1739305262.0946429,-0.0476407676767557,1.1008744053455464,-0.48670083131487357,-1.424360704526078,1.6268978269474208,1.0732670240743298,1.3557813494316493,-0.0008015532146914442,0.0006317198426978205,-0.00027856241496863865,0.00043108843137978036,0.0013362004680825647,-0.00060451139954385,0.00046001830649177963,-0.2071649730205536,-50.88071060180664,-9.594315528869629,17.13324737548828,1.8986917734146118,-1.0782577991485596,0.11265717446804047,,,,,,,,,
1739305262.1055925,-0.04763463537652679,1.100874253534082,-0.4867046636466713,-1.4243626118720185,1.6268978690465994,1.0732710673960613,1.355781348937744,0.0006498870417820383,0.0011933414170165759,-0.0011932429501008046,-7.94985075093979e-06,0.0004404197631189868,0.000769804590906752,-0.0011858973448686282,-0.2825433909893036,-50.90848159790039,-9.542740821838379,17.13324737548828,1.8986917734146118,-1.0855820178985596,0.11265717446804047,,,,,,,,,
1739305262.1165714,-0.04763921335228572,1.1008722516565523,-0.48669893682305737,-1.4243623283986946,1.626898585771865,1.0732645111186208,1.355784883432254,-0.0016430596497992622,0.0005867316135175313,0.0018201621128456926,-0.001185653559890537,-4.8355513593205325e-05,-0.0008723439047892877,0.0010837218215700166,-0.2309686839580536,-50.88071060180664,-9.618119239807129,17.15705108642578,1.9051004648208618,-1.0855820178985596,0.07969819009304047,,,,,,,,,
1739305262.1275754,-0.04763731603327839,1.1008722519835343,-0.4867007227661973,-1.4243622487806296,1.6268977161903386,1.0732686476068887,1.3557868695285482,-0.0011621475280629476,0.0007617770891086003,4.6320314202972536e-05,-0.00023456984325283096,0.0006325649751639241,-0.0004911365273970565,0.0008154168721822975,-0.2547723948955536,-50.88071060180664,-9.594315528869629,17.15705108642578,1.9115091562271118,-1.0919907093048096,0.06596527993679047,,,,,,,,,
1739305262.1375782,-0.047637263696141394,1.1008704627153558,-0.4866992869834003,-1.4243604661034608,1.6269002400966242,1.0732702029887173,1.3557795659747363,0.0015679763862276933,-0.0008111399026085749,-0.0005318555456807734,0.0004474324085188141,-0.00019497846903117978,0.00021301711024125793,-0.0005784176590826036,-0.2547723948955536,-50.85690689086914,-9.641922950744629,17.13324737548828,1.9051004648208618,-1.0782577991485596,0.09983979165554047,,,,,,,,,
1739305262.147586,-0.04763810920531327,1.100872335161653,-0.4867008012152521,-1.42436224878048,1.6268954300684257,1.073267024128165,1.3557860034105895,-0.00036282429761991686,-0.0001555755763443078,0.0008752205002500482,-0.0015131952173932117,-0.00027577828678007973,-0.00048382574197283203,0.0010079218731987832,-0.2309686839580536,-50.88071060180664,-9.594315528869629,17.15705108642578,1.8922830820083618,-1.0782577991485596,0.07328949868679047,,,,,,,,,
1739305262.1586297,-0.047635344687514306,1.1008705391725648,-0.4866989485141634,-1.4243582133912893,1.6268970548417596,1.0732662664142516,1.355790001950951,0.00026622087549403573,0.0005812946506948238,0.0002088594351788003,0.0010545860009762407,0.0002175393674865999,-0.00041517105928017917,0.002782378958063518,-0.2825433909893036,-50.85690689086914,-9.618119239807129,17.13324737548828,1.9051004648208618,-1.0718491077423096,0.03941498324275017,,,,,,,,,
1739305262.1686444,-0.04763490771447024,1.100875991552463,-0.48669679399809945,-1.4243622456898744,1.6268982833083396,1.0732678765625612,1.3557891425097963,-7.586781160494544e-06,0.0015470146475760668,0.0014749902125806697,-0.0005807657610613218,0.00045985516922042766,0.00021391003943441064,0.0018145950345197265,-0.2547723948955536,-50.93228530883789,-9.618119239807129,17.15705108642578,1.8986917734146118,-1.0855820178985596,0.04673920199275017,,,,,,,,,
1739305262.1786487,-0.04763363213088745,1.1008705420796923,-0.4867028745505071,-1.4243604659903544,1.626897829808636,1.073267889971335,1.3557835370116569,0.0007419740902914667,-3.972061843517271e-05,-0.0007384985289854884,0.00012857193282871029,-0.00016443882236739829,-0.0008979428490233206,-0.003750472160730275,-0.3063471019268036,-50.85690689086914,-9.594315528869629,17.13324737548828,1.8986917734146118,-1.0855820178985596,0.08610688149929047,,,,,,,,,
1739305262.188673,-0.047638286896283744,1.1008722516566352,-0.4866971571974826,-1.4243607464381873,1.626901646464093,1.0732670240743298,1.3557868766032954,9.750075872412615e-05,0.0009766403824140308,0.0005030338574397665,0.001337049735677971,0.0003048295382033576,-0.0002645203811691924,0.0012759494752929588,-0.2547723948955536,-50.88071060180664,-9.641922950744629,17.10944366455078,1.9051004648208618,-1.0782577991485596,0.06596527993679047,,,,,,,,,
1739305262.1996274,-0.04763363217389982,1.1008705391478675,-0.48669893883202003,-1.4243604690507818,1.6269014546570495,1.0732678899715622,1.355788067954506,0.0012326382305499245,-7.2701941552304094e-06,0.000988226933105387,-0.0003332974444540751,0.0019368268427770324,0.0005417819090472859,0.001133048470327354,-0.3063471019268036,-50.85690689086914,-9.618119239807129,17.13324737548828,1.9051004648208618,-1.0855820178985596,0.04673920199275017,,,,,,,,,
1739305262.210557,-0.047631210190550555,1.1008742195088488,-0.4867007227661975,-1.4243604661034772,1.626897059083468,1.0732662664142514,1.3557865015205808,0.002680421207284889,0.0011324788357038938,0.00043989605845305246,-1.670967684678224e-05,-0.00035704131037845476,-0.00014800247378140825,0.0023616998620791803,-0.3301508128643036,-50.90848159790039,-9.594315528869629,17.13324737548828,1.9051004648208618,-1.0718491077423096,0.06596527993679047,750,760,731,43.237,0,0
1739305262.22162,-0.047635423377397505,1.1008707127985002,-0.48670282847770624,-1.42436332712641,1.6268985889143137,1.0732678899715622,1.3557867309674756,0.0008068234174962945,-0.001078041457013688,2.4162072417189368e-05,-0.000511219821536293,-0.0005373524671944757,-0.0008845881682651596,0.0015506273735604267,-0.2825433909893036,-50.85690689086914,-9.566544532775879,17.13324737548828,1.8922830820083618,-1.0855820178985596,0.06596527993679047,751,765,730,43.129,0,0
1739305262.2316284,-0.04763905515577099,1.1008722403217346,-0.4867045849095013,-1.4243622488289314,1.6269001718427767,1.0732662664142514,1.3557813092050242,-0.0001179478842229958,0.00034885047898599805,-0.0016526373613150126,-0.00012342223982650434,0.0007632395996307713,0.00030225603433641206,-0.0013185750189659362,-0.2309686839580536,-50.88071060180664,-9.542740821838379,17.15705108642578,1.9179178476333618,-1.0718491077423096,0.11265717446804047,748,763,731,43.020,0,0
1739305262.242617,-0.04763431995221194,1.100872255617346,-0.48669897868363454,-1.4243622487804801,1.6269039717974008,1.0732679030535144,1.3557811825665784,0.0013698704363076933,0.0009130433150962747,0.0007625842295984043,-0.0005929005847620961,0.0026868549219277818,0.0005419132900017393,-0.0011342855099697928,-0.2825433909893036,-50.88071060180664,-9.618119239807129,17.15705108642578,1.8858743906021118,-1.0855820178985596,0.11265717446804047,747,765,730,42.912,0,0
1739305262.2546043,-0.04763450474851309,1.100876395364573,-0.4867017460234005,-1.42436224878048,1.6268967680682318,1.0732686476317141,1.3557847632469409,0.00017271904609930715,0.0007785277935860674,-0.00017142349660509014,9.866028057129702e-05,7.141708316736947e-05,0.0005493841569812678,0.000542332769215172,-0.2547723948955536,-50.90848159790039,-9.594315528869629,17.15705108642578,1.9115091562271118,-1.0919907093048096,0.07969819009304047,750,764,731,43.020,0,0
1739305262.2655492,-0.04764076766982968,1.100868541211052,-0.48669921129633165,-1.424358683426442,1.6268964145130131,1.0732675615025578,1.355782864514504,-0.0010837114123769475,-0.0011255314755470114,-0.00037833873231477776,0.0003604454518406178,-0.00073496328066964,-0.0003672471859380752,-0.00015430994222467083,-0.2071649730205536,-50.82913589477539,-9.618119239807129,17.10944366455078,1.9115091562271118,-1.0919907093048096,0.09983979165554047,749,765,730,43.020,0,0
1739305262.2756362,-0.04763734393433183,1.1008705391357547,-0.4867010627253193,-1.4243622457280243,1.6268989291711526,1.0732662663958576,1.355783138200679,-0.00030586284503043436,-0.0001145160023114352,0.0002493845496029563,-0.0002878061554853671,0.001331498052948655,-0.000347738766897328,-0.0013096147958129613,-0.2547723948955536,-50.85690689086914,-9.618119239807129,17.15705108642578,1.8986917734146118,-1.0718491077423096,0.09343110024929047,748,763,730,43.020,0,0
1739305262.2875636,-0.047635371030510666,1.1008714945382025,-0.4866991760241493,-1.4243604649729045,1.6268985705089571,1.073267889971562,1.3557852459691861,-0.0009865144385981716,0.0012437846220482382,0.0003358256871373095,-8.012226757331275e-05,-2.4512862868176892e-05,5.496753799587958e-05,0.0007288744983348281,-0.2825433909893036,-50.90848159790039,-9.618119239807129,17.13324737548828,1.8922830820083618,-1.0855820178985596,0.07969819009304047,749,762,731,43.129,0,0
1739305262.2986248,-0.04763734556016229,1.1008705391305704,-0.48670280226848467,-1.4243604749337764,1.6268978125733993,1.0732686476316404,1.3557824915152814,-0.0009445768306592221,-0.0011980581034879494,5.598009780443053e-06,0.0003457716158625155,-7.586147814152828e-05,0.0003017249911856836,-0.0012901543033315343,-0.2547723948955536,-50.85690689086914,-9.566544532775879,17.13324737548828,1.8986917734146118,-1.0919907093048096,0.09343110024929047,750,764,730,43.020,1,0
1739305262.3095565,-0.04763734166052648,1.1008705391357545,-0.4866985766749706,-1.4243586834264916,1.6268966676932146,1.0732678899715622,1.355787608642524,0.00020489964889392953,0.00021388026759198634,0.0010648883101951941,0.0004991825349162487,0.0009161506643767661,-0.00020365337617193137,0.0016150055993177448,-0.2547723948955536,-50.85690689086914,-9.594315528869629,17.10944366455078,1.9115091562271118,-1.0855820178985596,0.05955658480525017,751,764,731,43.020,1,0
1739305262.3195934,-0.04763757967253275,1.1008705391357545,-0.48670280554391165,-1.4243607045220399,1.6268955408376498,1.0732636047790698,1.3557880228064856,-0.0010141480500675672,-0.0009755396216947654,-0.0004378373227362789,-0.0003333472189603199,-0.0014950947287163067,-0.002065993706692671,0.0017334135664316772,-0.2547723948955536,-50.85690689086914,-9.566544532775879,17.13324737548828,1.9179178476333618,-1.0782577991485596,0.05314789339900017,746,764,730,43.129,1,0
1739305262.3306215,-0.047635344694192304,1.1008721025222303,-0.48670056276062174,-1.4243548564275388,1.6269002350659258,1.073267885482593,1.3557855877301983,0.00023408540064041291,0.0005943507241855081,-0.0005478667108768316,0.0018496426533508613,-0.001109578548985331,0.00014291586386083868,4.570360758602806e-05,-0.2825433909893036,-50.88071060180664,-9.594315528869629,17.05786895751953,1.9051004648208618,-1.0855820178985596,0.07328949868679047,746,763,731,43.020,0,0
1739305262.3407252,-0.04763757967254925,1.1008734001561782,-0.4867006564621217,-1.424362249762227,1.6268981668792828,1.0732655759021437,1.3557819339416244,-0.0005154041294995587,-0.00038699571443807316,-0.0005963428157450526,-0.0009245777056402231,0.0013958433095009784,-0.0009792544309789315,0.0006490379055780491,-0.2547723948955536,-50.85690689086914,-9.566544532775879,17.15705108642578,1.9051004648208618,-1.0782577991485596,0.07969819009304047,748,764,729,43.129,0,0
1739305262.3515985,-0.047640767676507746,1.1008685415744395,-0.48670280229159296,-1.4243604386313666,1.6268955398686176,1.0732617609817339,1.3557844882379635,-0.0007210222885426615,-0.0010820180758922863,0.0002196184579831425,1.719419454092654e-05,-0.0014191755423128764,-0.001365418027371236,0.0011267531145873987,-0.2071649730205536,-50.82913589477539,-9.566544532775879,17.13324737548828,1.9179178476333618,-1.0718491077423096,0.08610688149929047,749,764,731,43.129,1,0
1739305262.36263,-0.04763905515443847,1.100876395473569,-0.48670064307732974,-1.4243586834262867,1.6268985126088789,1.073266266388818,1.35578356855788,-0.002422517066691942,3.7384012222708475e-05,0.0008152596179669103,0.0009668940528294638,-2.082964253629746e-05,-0.0004609308105753519,-0.0009383753598163639,-0.2309686839580536,-50.90848159790039,-9.594315528869629,17.10944366455078,1.9051004648208618,-1.0718491077423096,0.09343110024929047,747,765,730,43.020,1,0
1739305262.3735535,-0.04763734263370728,1.1008712897248762,-0.4866989397647152,-1.4243604661034608,1.6268993623353665,1.0732670240743296,1.3557828491379824,-0.0006242350230391713,6.390143800356495e-05,0.0010413065689450541,0.0006984256570287955,0.001103841711528358,0.0002623253352593538,-0.00038976072896242586,-0.2547723948955536,-50.85690689086914,-9.618119239807129,17.13324737548828,1.8986917734146118,-1.0782577991485596,0.09983979165554047,746,765,731,43.346,1,0
1739305262.3836572,-0.04763765868549655,1.1008743987446041,-0.48670280352812006,-1.4243597256649654,1.6268975387564601,1.0732678477580404,1.3557844479190304,-0.001616121596054029,0.001142631388923624,-0.0012224523856719804,0.00036139251770763136,-0.0008991195611688968,-0.0005425268064609575,0.0008805138152711674,-0.2547723948955536,-50.88071060180664,-9.566544532775879,17.13324737548828,1.9051004648208618,-1.0855820178985596,0.08610688149929047,748,766,732,42.912,0,0
1739305262.3946009,-0.04763905512017824,1.100873084698252,-0.48670285168939914,-1.4243624871948792,1.626895383479216,1.0732668580342393,1.3557836224143809,-0.0007133931095111533,0.0024917250588440843,-0.0006253494806401183,-0.0014289552996122209,-0.0019184048232529771,-0.0011927567844744365,0.0002223508357742196,-0.2309686839580536,-50.88071060180664,-9.594315528869629,17.15705108642578,1.9179178476333618,-1.0782577991485596,0.09343110024929047,748,764,731,43.129,0,0
1739305262.4046159,-0.047635230828768,1.100872252231825,-0.48669964940628285,-1.424356493752225,1.6269001355010604,1.0732670240715179,1.3557868650595633,0.0012890131983555554,5.9344548164228655e-05,0.0007182306623704209,0.0011780825670117704,-0.0004028444342114094,5.9240139013695285e-05,0.0010638463333668875,-0.2825433909893036,-50.88071060180664,-9.618119239807129,17.08167266845703,1.9179178476333618,-1.0782577991485596,0.06596527993679047,748,763,731,43.129,0,0
1739305262.4146485,-0.0476374479823754,1.1008705391357643,-0.4867007253703853,-1.4243604630491444,1.6269006064450884,1.0732670106653288,1.3557850686387136,-0.0007743514183073963,-0.0015181830203745265,4.8485771573214236e-05,3.0486558014144473e-05,0.0005729677257707528,-0.0006627649139319042,-0.001421668907469331,-0.2547723948955536,-50.85690689086914,-9.594315528869629,17.13324737548828,1.9051004648208618,-1.0782577991485596,0.07969819009304047,749,765,730,43.020,1,0
1739305262.4255624,-0.04763663317346069,1.1008706186086143,-0.4866991763002,-1.4243587847250518,1.6268989276115462,1.0732658840884433,1.3557843671332013,-0.0007021880589474237,-0.00034859482496823135,0.00027641824518212786,0.0010962268858114637,0.0017026074133749771,-0.0011471409010777012,0.0008687688974765667,-0.2547723948955536,-50.85690689086914,-9.618119239807129,17.08167266845703,1.8922830820083618,-1.0782577991485596,0.08610688149929047,748,765,730,43.020,0,0
1739305262.4366407,-0.04763534468884929,1.1008706195902094,-0.48670072244351753,-1.4243604661521116,1.6268970567995704,1.073267889965127,1.3557858829503047,0.0002697998624175338,-0.000236933261221922,0.000603679010676062,0.0006033499387161769,-0.0016254294296569561,0.000192778545141479,0.0006000015846461095,-0.2825433909893036,-50.85690689086914,-9.594315528869629,17.13324737548828,1.9051004648208618,-1.0855820178985596,0.07328949868679047,749,764,730,43.129,0,0
1739305262.44756,-0.047637351738079786,1.1008722604872574,-0.48669989335771735,-1.4243604922175679,1.6269001311430618,1.0732670240743298,1.3557874928783333,-0.0011906299191476555,0.000841881011553671,-0.00028804686851273474,0.0006970938301391027,-0.001336755250623396,-0.000680481657330993,0.0016433761269681007,-0.2547723948955536,-50.88071060180664,-9.618119239807129,17.13324737548828,1.9179178476333618,-1.0782577991485596,0.05955658480525017,747,763,730,43.129,1,0
1739305262.4596312,-0.047637339606033696,1.100874248337645,-0.4866974820861646,-1.4243604662126244,1.6268953160174597,1.0732646315843144,1.3557849153500952,0.0003751501266487891,0.0004104702410511757,0.0005268793961915485,-0.0006316650549717102,-0.0013950597058336976,0.00010599387091787609,-0.0007533659886680643,-0.2547723948955536,-50.90848159790039,-9.641922950744629,17.13324737548828,1.8922830820083618,-1.0855820178985596,0.07328949868679047,748,765,730,43.020,1,0
1739305262.4706569,-0.04763510820590142,1.1008727996970948,-0.4866970787319668,-1.4243624510541097,1.626896416240843,1.0732666615101476,1.3557854163887757,0.0006037235305074919,-0.0007369703544593902,0.0016487509806636525,-0.0012320505429649921,0.000928044195317422,0.0001299596561425314,0.00026107387070478444,-0.2825433909893036,-50.85690689086914,-9.641922950744629,17.15705108642578,1.9115091562271118,-1.0782577991485596,0.06596527993679047,748,763,730,43.020,1,0
1739305262.4815848,-0.047637342307973195,1.100870883894295,-0.4867031184756773,-1.4243621663653228,1.6268955568210983,1.073267022582394,1.3557792360076402,-0.0005211101048813636,0.00026611086583961264,-0.0004333856411332258,0.0003785050691680032,-0.00012504777540799057,-1.1769553930548039e-05,-0.0013946666575750696,-0.2547723948955536,-50.85690689086914,-9.566544532775879,17.15705108642578,1.9179178476333618,-1.0782577991485596,0.09343110024929047,744,764,729,43.020,1,0
1739305262.4926429,-0.047637263804719394,1.100881059615306,-0.4867007225555447,-1.4243588397543752,1.6268990690168297,1.0732669019034062,1.3557867070570448,0.0006300617360473298,0.002801374003714914,-0.0002331063761816773,-2.5525328202318984e-05,-0.0006249129431039272,-0.00011694406309226236,0.000988271800562397,-0.2547723948955536,-50.96005630493164,-9.594315528869629,17.10944366455078,1.9252420663833618,-1.0782577991485596,0.06596527993679047,750,764,735,43.346,1,0
1739305262.5036156,-0.04763534465666154,1.1008668375103203,-0.4867010686883524,-1.4243596938755065,1.6268970547062502,1.073266541350063,1.3557870997503427,0.0010677150525605994,-0.001965253449815871,0.0007301876923838556,0.0009515102021713698,0.00016331319850516332,-0.0005117794030178571,0.0007553437677063773,-0.2825433909893036,-50.80533218383789,-9.618119239807129,17.15705108642578,1.9051004648208618,-1.0782577991485596,0.05955658480525017,750,765,731,42.912,1,0
1739305262.5145497,-0.04763734263370707,1.100870892384853,-0.4866951822929729,-1.4243600235259857,1.6268982844014874,1.0732686475737343,1.355785226600385,-0.0006268300704054066,-0.0007165579234301416,0.001997447872191599,0.0006985804728698731,0.0001244537573953083,-0.000120724933802328,0.0011508417264944415,-0.2547723948955536,-50.85690689086914,-9.669693946838379,17.15705108642578,1.9051004648208618,-1.0919907093048096,0.07969819009304047,747,763,730,43.129,1,0
1739305262.524577,-0.047637027317777816,1.1008722647563847,-0.48670282848303875,-1.424360465990406,1.6268971070882636,1.0732662707748992,1.3557825228755411,0.0005188145049732924,0.0006265822227635592,-0.0006556572664376811,0.00020749861738322017,5.7984332101012115e-05,1.2678637782440267e-05,-5.5747459982962615e-05,-0.2547723948955536,-50.88071060180664,-9.566544532775879,17.13324737548828,1.9051004648208618,-1.0718491077423096,0.09343110024929047,744,764,730,43.129,0,0
1739305262.5346427,-0.047635344222497766,1.1008726858841869,-0.4867007224423304,-1.424362354744292,1.6268970684800848,1.0732659379452718,1.3557847215247838,0.0012807630582803136,0.00029701540983864986,0.0008079064362119769,-0.0002991467119780162,-0.00026756858099968536,-0.0010147673670007876,0.0006046329316388779,-0.2825433909893036,-50.85690689086914,-9.594315528869629,17.15705108642578,1.9051004648208618,-1.0782577991485596,0.07969819009304047,749,764,731,43.020,1,0
1739305262.545556,-0.047635344692851564,1.1008744370087213,-0.4867009586531819,-1.4243604659102522,1.6269012947041248,1.0732678899654309,1.3557821063741378,-1.7063343546251176e-05,-0.0005316165261710492,-0.0007424407681502663,-0.0005963666091321123,0.0011139951344279354,0.0005289599811834909,-0.0008480871971045489,-0.2825433909893036,-50.88071060180664,-9.594315528869629,17.13324737548828,1.9051004648208618,-1.0855820178985596,0.10624848306179047,748,764,731,43.020,0,0
1739305262.5556214,-0.047632506849489074,1.1008684769120136,-0.4867008011831824,-1.4243623635746072,1.6268989250418229,1.0732686476316402,1.3557876222234402,0.0010950083856599473,-0.002009509936942862,-0.0003928946064406499,-0.0002247232784276635,0.0004551078523850588,0.0008354709721665531,0.001736266666870925,-0.2825433909893036,-50.85690689086914,-9.594315528869629,17.15705108642578,1.8986917734146118,-1.0919907093048096,0.05955658480525017,749,763,728,43.020,1,0
1739305262.5666585,-0.047635344316391055,1.1008724900284306,-0.4866971574126092,-1.424360492595062,1.6269013111838975,1.0732670240743298,1.3557890213322388,0.0005254283456734191,-0.0002948351930300548,0.0017727895310522502,0.00011736192021521077,0.001102555518526708,0.00017628931096000763,0.003084025124147877,-0.2825433909893036,-50.88071060180664,-9.641922950744629,17.13324737548828,1.9051004648208618,-1.0782577991485596,0.04673920199275017,749,764,729,43.129,1,0
1739305262.5775623,-0.047637316357377696,1.1008754394388758,-0.48669896989907857,-1.4243597165737674,1.6268984682188687,1.0732678899715622,1.355788204572574,-0.000303311937391759,0.0018211329482647547,0.0013643198228662449,0.00012424013644781286,0.0003974158607056685,1.569966360933781e-05,0.0020108632822798114,-0.2547723948955536,-50.88071060180664,-9.618119239807129,17.10944366455078,1.9051004648208618,-1.0855820178985596,0.05314789339900017,747,764,730,43.129,1,0
1739305262.5875888,-0.04763905472146133,1.1008726937872697,-0.48670169353235787,-1.424360466120957,1.6268978125435012,1.0732686342226394,1.3557868823764871,-0.0019148113481138836,-0.0009101148899551925,-0.00029498227267398566,-0.00033115579310340887,0.0007525595674297495,0.0006455289329278296,-0.0004028118783690987,-0.2309686839580536,-50.85690689086914,-9.594315528869629,17.13324737548828,1.8986917734146118,-1.0919907093048096,0.05314789339900017,749,763,730,43.020,0,0
1739305262.5986102,-0.04763726369658454,1.1008744240601562,-0.4866998846256073,-1.4243622487804801,1.6269017624989963,1.0732646256245313,1.3557859901975524,-0.0005127626732081029,-2.5454982986739373e-05,9.885132501709034e-05,-0.00028568517122222535,0.0009780447198114676,-0.0006853828459845539,0.0005993625547125436,-0.2547723948955536,-50.88071060180664,-9.618119239807129,17.15705108642578,1.8922830820083618,-1.0855820178985596,0.07328949868679047,746,764,731,43.129,1,0
1739305262.6086605,-0.047639055478257815,1.100866976537319,-0.4867037509802847,-1.424360492594414,1.626897178303815,1.0732686411201726,1.3557900022818112,-0.00010135463669281761,-0.0029007595001595667,-0.0012111376816945937,9.97917927834756e-06,-0.0011317978784204732,0.000816252028136284,0.0030579792657665058,-0.2309686839580536,-50.77756118774414,-9.566544532775879,17.13324737548828,1.9051004648208618,-1.0919907093048096,0.03941498324275017,745,763,730,43.020,1,0
1739305262.619588,-0.047635344692854825,1.1008763983120278,-0.48670492816882227,-1.4243604661035105,1.626899161211492,1.0732678899715498,1.3557850716548947,0.0006512545119396567,0.0015500087033466477,-0.0008174791393550377,0.0003892768750291449,-0.00017583297314755286,6.214626548404136e-05,0.0008485829346673848,-0.2825433909893036,-50.90848159790039,-9.566544532775879,17.13324737548828,1.9051004648208618,-1.0855820178985596,0.07969819009304047,749,766,731,43.020,0,0
1739305262.6306343,-0.04763733874091802,1.100870722440869,-0.48669964841016317,-1.4243603838325167,1.6269005053295973,1.0732678899715622,1.3557881994124663,-0.0002684458039070864,-0.0010426856411530725,0.000612012978879875,0.0002566712076326347,0.00037688381951188604,0.0007608131482156226,0.0009732503908558123,-0.2547723948955536,-50.82913589477539,-9.618119239807129,17.13324737548828,1.8858743906021118,-1.0855820178985596,0.05955658480525017,749,763,730,43.129,1,0
1739305262.6416109,-0.04763450479032016,1.100864312082265,-0.48670072244618257,-1.4243586835349937,1.626897409370887,1.0732686461417513,1.355782404335121,6.260187401213954e-05,-0.0019053848193439655,0.0003748641084898822,0.0005944779520340978,-0.0013594898277437184,0.0002473609902742029,6.665510488895943e-05,-0.2547723948955536,-50.80533218383789,-9.594315528869629,17.10944366455078,1.9051004648208618,-1.0919907093048096,0.06596527993679047,747,763,730,43.129,1,0
1739305262.6525636,-0.0476332124015214,1.1008736389264642,-0.4867028522654284,-1.4243640314574995,1.6268941367522889,1.0732678899715538,1.355778277017574,0.00019631107506926283,0.0003882422458498906,-0.0006742798713543787,-0.00018512349790712366,-0.001825128261061564,0.0010995308522952002,-0.0012694739506277724,-0.2825433909893036,-50.85690689086914,-9.594315528869629,17.18085479736328,1.9179178476333618,-1.0855820178985596,0.12639008462429047,748,763,731,43.129,1,0
1739305262.6626496,-0.047635135386090516,1.100866864374985,-0.4867045976899349,-1.4243623282533395,1.6269000017413748,1.0732670240743298,1.3557830334934657,-0.00029244372417769977,-0.001789173437984295,-0.002016714829948207,-0.001006349609313705,0.0022866905055657313,0.0005952028432907543,-0.0012405143161332657,-0.2547723948955536,-50.80533218383789,-9.542740821838379,17.15705108642578,1.8922830820083618,-1.0782577991485596,0.08610688149929047,751,763,729,43.020,0,0
1739305262.6726558,-0.04763268618695471,1.1008753638535218,-0.4867028851815216,-1.4243582411917837,1.6268978123823037,1.0732670240743298,1.3557883250640865,0.0014784215554878733,0.0021766187432689806,-0.00171498105590985,0.00014493821471405307,-0.00010769559184655992,-0.00010816439873136448,0.0007359835098282279,-0.3063471019268036,-50.88071060180664,-9.566544532775879,17.13324737548828,1.8986917734146118,-1.0782577991485596,0.05314789339900017,755,762,730,43.237,1,0
1739305262.6836326,-0.04763734262836716,1.1008722781650073,-0.4867010374986569,-1.4243604661272398,1.6268962970379008,1.0732670240743298,1.3557841596769562,-4.9315810190162326e-05,0.0006235153413992263,-0.0012424290748418298,-0.00012266510780717084,-0.0009705457659140537,-5.269634548774277e-06,0.0015148741479202093,-0.2547723948955536,-50.88071060180664,-9.594315528869629,17.13324737548828,1.9115091562271118,-1.0782577991485596,0.07969819009304047,746,764,729,43.129,1,0
1739305262.6946485,-0.047637342633707246,1.100875963099366,-0.48670072244396073,-1.4243584395570494,1.6268946923767433,1.0732675279285346,1.3557865410545342,-0.0004659203993835745,0.0007148935215506646,0.00037580589691328116,0.001520377300639665,-0.0006936568255143843,-2.8742510828501468e-05,0.0007059092304496596,-0.2547723948955536,-50.93228530883789,-9.594315528869629,17.10944366455078,1.9252420663833618,-1.0855820178985596,0.05955658480525017,748,762,731,43.237,1,0
1739305262.7055576,-0.04763250652508997,1.1008683474003202,-0.4867067461262966,-1.4243605455749437,1.6268971086947857,1.0732670240722861,1.355786864336078,0.0017231217946392845,-0.0011415324155656364,-0.0009881993106813868,8.226506543488737e-05,-1.9000282413092126e-05,-0.00039354405117502457,0.0009232918954822614,-0.2825433909893036,-50.82913589477539,-9.542740821838379,17.13324737548828,1.9051004648208618,-1.0782577991485596,0.06596527993679047,751,764,732,43.020,1,0
1739305262.7165432,-0.04763730744240635,1.1008722507083961,-0.48670291610786715,-1.4243621663655268,1.6268977522939956,1.0732669704383258,1.3557887745072343,-0.0008849880587672663,-0.0011645051615648723,-0.0015393422741458228,0.00011003863367552827,-0.0005698386352303115,-0.0012262247025444284,0.0018278112788170453,-0.2547723948955536,-50.88071060180664,-9.566544532775879,17.15705108642578,1.9051004648208618,-1.0782577991485596,0.04673920199275017,747,764,730,43.020,1,0
1739305262.7265491,-0.04763534469265556,1.1008736398854728,-0.4866982039096243,-1.4243604661029954,1.6268985701835794,1.0732678884813702,1.3557804820451749,-0.0006000913279507117,-0.0011999999321821307,0.00030643215983632027,7.065757635090083e-05,-0.0010556309421343338,-0.00035244849098800844,0.00030105933915851703,-0.2825433909893036,-50.85690689086914,-9.594315528869629,17.13324737548828,1.8922830820083618,-1.0855820178985596,0.11998139321804047,748,763,731,43.020,1,0
