IITGN-Robotics/Franka_IITGN_ROBOTICS/franka_ros/franka_iitgn/data01/s_f_009.csv
time,fr3_joint1_pos,fr3_joint2_pos,fr3_joint3_pos,fr3_joint4_pos,fr3_joint5_pos,fr3_joint6_pos,fr3_joint7_pos,fr3_joint1_vel,fr3_joint2_vel,fr3_joint3_vel,fr3_joint4_vel,fr3_joint5_vel,fr3_joint6_vel,fr3_joint7_vel,fr3_joint1_eff,fr3_joint2_eff,fr3_joint3_eff,fr3_joint4_eff,fr3_joint5_eff,fr3_joint6_eff,fr3_joint7_eff,flexpin1,flexpin2,flexpin3,Force,ContactMic,ContactMic_gt
1739304748.6805,-0.05799962915086675,1.1098190091868705,-0.47958501126951975,-1.4056064457662876,1.620607211184978,1.0646268600845301,1.3602840824630344,0.0006028853405829629,0.001487256341886354,0.0017559940471012633,-0.00019296578624318278,-0.00011957285836186095,0.0015885607871269055,0.0009177452407907044,-0.3817255198955536,-51.00766372680664,-9.491166114807129,17.13324737548828,1.8721414804458618,-1.2558701038360596,0.05955658480525017,,,,,,,,,
1739304748.6905487,-0.05800076151232509,1.109829472733444,-0.4795868693490083,-1.4056247286991757,1.6206059431130984,1.0646250464743658,1.3602775644361544,-0.00021670766414008305,0.0011328806944791942,4.7144175854714574e-05,-0.0025295839595070174,-0.00044816732072045526,0.00019347481733859515,-0.0008055131897265015,-0.3063471019268036,-51.00766372680664,-9.467362403869629,17.20862579345703,1.8785501718521118,-1.2494614124298096,0.08610688149929047,,,,,,,,,
1739304748.7025282,-0.05799718557341701,1.1098388860199293,-0.4795860260583306,-1.4056295720816363,1.6206020466034547,1.0646250406062299,1.36027995101081,0.0007261610391594126,0.0012544873431916946,-0.0007221343270679456,0.00035788741514570176,-0.001104122385319126,-0.0005486724471475644,0.00025321862069369906,-0.2825433909893036,-51.00766372680664,-9.439591407775879,17.13324737548828,1.9115091562271118,-1.2494614124298096,0.05314789339900017,,,,,,,,,
1739304748.713542,-0.05799795185077106,1.1098537344106616,-0.4795898592018432,-1.4056528327881839,1.620597807835597,1.064625040606219,1.3602799127311453,-0.0005345285816334606,0.001550052844897063,0.0005176592399918777,-0.0018802700064996423,-0.0011620500567236013,-3.451784089727474e-05,0.0013557173803539955,-0.2547723948955536,-51.03543472290039,-9.388016700744629,17.28003692626953,1.9115091562271118,-1.2494614124298096,0.05314789339900017,,,,,,,,,
1739304748.7245104,-0.05799982135399129,1.1098707184772996,-0.4795895439345285,-1.4056580706945085,1.6205966578066746,1.0646249228686488,1.360269024636731,-0.0016597603019755216,0.0014456582371405024,0.0010013095494416453,-0.0002503498549699505,-0.0013095095835306755,-0.0009555697880919094,-0.0008636873616499333,-0.2309686839580536,-51.13858413696289,-9.388016700744629,17.25623321533203,1.9179178476333618,-1.2494614124298096,0.10624848306179047,,,,,,,,,
1739304748.7345488,-0.057998860158907074,1.1098806009761235,-0.4795913298824055,-1.4056685813306222,1.6205994492280822,1.0646211440680085,1.3602704218168946,-0.0013080055091318332,-5.282097415582412e-05,0.0014530398486030129,0.0002627649875581109,-0.00047800982534675274,-0.000335027280343353,-0.0012642425077799236,-0.2309686839580536,-51.13858413696289,-9.364212989807129,17.28003692626953,1.9051004648208618,-1.2165024280548096,0.09343110024929047,,,,,,,,,
1739304748.7455144,-0.05799696384274547,1.1098911201758725,-0.4795927054339559,-1.405672762698868,1.620599605895701,1.0646156529281934,1.3602689063345654,-0.0002686799259842745,0.00012075346000962661,0.000927121121092926,-0.0007773335480091544,0.00015819330208813057,-0.001394564476573404,-0.0020693770011284,-0.2309686839580536,-51.19015884399414,-9.388016700744629,17.28003692626953,1.9051004648208618,-1.1972763538360596,0.10624848306179047,,,,,,,,,
1739304748.7564766,-0.05800064795984282,1.1099033931130198,-0.4795920202559758,-1.4056784521549617,1.6206000285953648,1.0646177658512346,1.3602733915599599,-0.00126615450457376,0.0004745776884680419,-0.00040082799626270425,0.00018037908515441438,-2.6560424199960955e-05,-0.0005395351501075029,-4.370827966019287e-05,-0.1793939769268036,-51.23776626586914,-9.388016700744629,17.28003692626953,1.8922830820083618,-1.1972763538360596,0.07328949868679047,,,,,,,,,
1739304748.766495,-0.058002755436479064,1.1099088778989477,-0.4795948310659319,-1.4056830532169042,1.620599551327864,1.0646151667776715,1.3602723319318,-0.0016629039765186507,-0.0011450719484240983,-0.0015072738965880364,-0.00045626530350067595,0.0010603316434985245,0.0005016228837370944,-9.840028701717356e-05,-0.1555902659893036,-51.19015884399414,-9.364212989807129,17.30384063720703,1.8922830820083618,-1.1972763538360596,0.07328949868679047,,,,,,,,,
1739304748.7775443,-0.05799490924910813,1.1099151328340646,-0.4795919181917282,-1.4056840893144245,1.620600308818352,1.0646141027228626,1.3602709324528115,0.0010943239679985313,0.0012569475934122774,0.0009121004196007167,0.00048799281022119127,0.0005255543665494827,-0.0003331964249519572,0.00041976155036193793,-0.2547723948955536,-51.19015884399414,-9.388016700744629,17.30384063720703,1.8858743906021118,-1.1972763538360596,0.05314789339900017,,,,,,,,,
1739304748.7875555,-0.0579949117379602,1.1099127106775586,-0.4795942781230239,-1.4056855220054145,1.6205971827162886,1.0646190588925313,1.360276755295441,0.00036556887980746915,-0.00043367306847170745,-0.0006602651208536833,0.0008113277723416344,-0.000963117387399254,0.000940931830219384,0.0006734338382596184,-0.2547723948955536,-51.11081314086914,-9.364212989807129,17.28003692626953,1.8858743906021118,-1.2302353382110596,0.03941498324275017,,,,,,,,,
1739304748.7984653,-0.057994908811568796,1.109913755793353,-0.4795927054505988,-1.4056855223506142,1.6206011925712211,1.0646156180429944,1.3602695457722604,1.3252639589321773e-06,0.0004054893769721194,-0.00031358803741058776,-0.000677114502018399,0.00047934906126972964,-9.75771289546321e-05,0.0006376537390017155,-0.2547723948955536,-51.11081314086914,-9.388016700744629,17.28003692626953,1.8785501718521118,-1.2100937366485596,0.09983979165554047,,,,,,,,,
1739304748.8084671,-0.058000332119023876,1.1099072108053574,-0.47959270523547304,-1.4056819573357398,1.6205996519380588,1.0646187569144803,1.360273492726255,-0.0012553599930054883,-0.00047380173170129736,0.0006124557902991435,0.0002635486390206036,0.00014106819938171367,6.730315806508156e-05,0.0014286734397648162,-0.1793939769268036,-51.05923843383789,-9.388016700744629,17.23242950439453,1.8922830820083618,-1.2366440296173096,0.06596527993679047,,,,,,,,,
1739304748.818532,-0.057990073027339585,1.109908042458296,-0.4795962971591947,-1.4056819187318736,1.6206002303283444,1.064617999254402,1.3602628870768227,0.0019370398472236105,-0.00024368743905436207,0.0006855024725862682,0.001149506800557473,6.478201867769743e-05,-0.0008363636093972304,-0.0013808463298318687,-0.2825433909893036,-51.03543472290039,-9.340409278869629,17.23242950439453,1.8858743906021118,-1.2302353382110596,0.11998139321804047,,,,,,,,,
1739304748.8295376,-0.057997309060224204,1.1099082773260174,-0.4795944357456257,-1.4056854957504306,1.620600308817908,1.0646179994159075,1.3602680950462827,-0.0003424678890985162,-0.0012300653686872624,0.0008601676778719036,-0.0005075867203111018,-0.000584063945846598,2.162791971925755e-05,1.827074495646449e-06,-0.2071649730205536,-51.03543472290039,-9.364212989807129,17.28003692626953,1.8858743906021118,-1.2302353382110596,0.08610688149929047,,,,,,,,,
1739304748.8395872,-0.0580003278837235,1.1099137837061626,-0.47959829853821573,-1.4056841822361992,1.6206019267229663,1.0646171726030287,1.3602722557029325,-0.0015244838975598117,0.0011721013688417734,-0.0010141443054313306,0.0011330302494294486,-0.0002605043460419261,-0.00016579292372821856,0.0005713036687592489,-0.1793939769268036,-51.11081314086914,-9.312638282775879,17.23242950439453,1.8721414804458618,-1.2229111194610596,0.06596527993679047,,,,,,,,,
1739304748.8505487,-0.05800032173747341,1.1099137925378928,-0.47959344706090123,-1.4056837396861588,1.6205990946851496,1.064617643387984,1.3602646527002158,-0.0009441548195418328,-0.0002035736889020961,-0.0002138619099299068,-2.03142323431649e-05,0.00020625162947801153,0.0007457487316719406,-0.002025574102716627,-0.1793939769268036,-51.11081314086914,-9.388016700744629,17.25623321533203,1.8785501718521118,-1.2229111194610596,0.10624848306179047,,,,,,,,,
1739304748.8615499,-0.057998330933252414,1.1099120711869932,-0.47959662821116755,-1.4056855237072632,1.6206011877623103,1.0646148605470775,1.360275941516477,-0.0004634932588324614,-0.0013483635457173927,-0.0006093810051939915,0.00032280484837781504,-0.0002634453570437674,0.00016414761956660645,0.0020095387554547057,-0.2071649730205536,-51.08700942993164,-9.364212989807129,17.28003692626953,1.8785501718521118,-1.2036850452423096,0.04673920199275017,,,,,,,,,
1739304748.8724673,-0.057998330933417226,1.1099224357067285,-0.4795906518878321,-1.4056895333201649,1.6206026861596308,1.0646148067409307,1.3602750641989614,0.0004174121379392308,0.0016892425014338288,0.0009356616769321817,-0.0010526275092480786,0.0006600144793284352,-1.5160090896906359e-05,0.0019555401563943154,-0.2071649730205536,-51.19015884399414,-9.415787696838379,17.30384063720703,1.8657327890396118,-1.2036850452423096,0.05314789339900017,,,,,,,,,
1739304748.8834856,-0.0579966203590367,1.1099226996368114,-0.47959425073350526,-1.4056873051784253,1.6206006631241452,1.0646148603760262,1.3602660653626035,-8.39949151439785e-05,9.779076735291683e-05,-0.0005811344712707344,-0.0005933996990347349,0.00018563955425104976,0.0007176722508155791,-0.0013172242015845686,-0.2309686839580536,-51.16238784790039,-9.340409278869629,17.30384063720703,1.8922830820083618,-1.2036850452423096,0.09343110024929047,,,,,,,,,
1739304748.8945389,-0.05799207064378254,1.1099190271150048,-0.47959629711209023,-1.40568551057686,1.6206028470254439,1.0646172510947394,1.3602693729654223,0.0012729358576235145,-0.00044416404048929213,-0.0010133433331180192,2.511296083054139e-05,-0.0007113679711232201,0.0006040660532457217,-5.627363535216581e-05,-0.2547723948955536,-51.13858413696289,-9.340409278869629,17.28003692626953,1.8657327890396118,-1.2229111194610596,0.06596527993679047,,,,,,,,,
1739304748.9055443,-0.057998310533880604,1.1099160470286729,-0.47959666024983744,-1.4056819570342405,1.6205979958014909,1.0646156180372344,1.3602678064719804,-9.6838772072356e-05,-0.0005152543141402076,0.00042211731864144836,0.0007136044221669486,-0.0007252799936114699,-0.00039518032800352085,-0.0014043201044513232,-0.2071649730205536,-51.05923843383789,-9.364212989807129,17.23242950439453,1.8785501718521118,-1.2100937366485596,0.07969819009304047,,,,,,,,,
1739304748.9155514,-0.057998333852619745,1.1099132961426121,-0.4795945145189644,-1.4056819569965786,1.6206011746617484,1.0646187569144803,1.3602704951711693,-0.0008449330514844059,-0.000550374265754161,0.0008312224825189763,-6.81165460844668e-05,-0.0013011554711811332,0.0011867488042860102,-0.0011136937586646376,-0.2071649730205536,-51.05923843383789,-9.364212989807129,17.23242950439453,1.8785501718521118,-1.2366440296173096,0.07969819009304047,,,,,,,,,
1739304748.9255555,-0.05799487377644899,1.109913304494316,-0.47959452331294394,-1.4056837131826438,1.6205980314774644,1.0646171333571695,1.3602680389156816,-0.0003359476818891549,-0.00023202388965817323,0.0003835417189628779,0.0005400073502191935,-0.0009114432202462405,-0.0006020251935350577,-0.0016227864825251678,-0.2547723948955536,-51.05923843383789,-9.364212989807129,17.25623321533203,1.9051004648208618,-1.2229111194610596,0.07328949868679047,,,,,,,,,
1739304748.93646,-0.057994900052183135,1.1099126112112339,-0.4795945144827751,-1.4056837396731485,1.6206003199621624,1.06461955897213,1.3602678022181856,-4.362148970709891e-05,0.00038347979304040276,0.00041018504293825113,0.0003006945117067002,-0.0006819314575821175,0.0012684871146909616,0.0008318299463575063,-0.2547723948955536,-51.03543472290039,-9.364212989807129,17.25623321533203,1.8858743906021118,-1.2165024280548096,0.07969819009304047,,,,,,,,,
1739304748.946515,-0.0579966203590367,1.1099177941130365,-0.47959065158372355,-1.4056803202219907,1.620598793498257,1.0646179992723717,1.3602711871093762,-0.0003820839558011529,0.00013235899144067436,0.0014425996459382219,0.0016568751984626614,-0.0009180752279665959,0.0005348361775431977,0.00037896437772745313,-0.2309686839580536,-51.11081314086914,-9.415787696838379,17.18085479736328,1.8986917734146118,-1.2302353382110596,0.04673920199275017,,,,,,,,,
1739304748.9565208,-0.05799662133226698,1.10992129755999,-0.4795927260004829,-1.4056819570342705,1.6206001150774543,1.064615618037013,1.3602656684648964,9.698309526932447e-06,-0.00024918128674252156,0.000845985406468912,0.0006803519665632892,-3.651238018453491e-05,-0.00022870628578228362,-0.0021486622466561234,-0.2309686839580536,-51.13858413696289,-9.388016700744629,17.23242950439453,1.8785501718521118,-1.2100937366485596,0.09343110024929047,,,,,,,,,
1739304748.9665687,-0.05799651622697364,1.1099163229712528,-0.4795945144825273,-1.4056830239817955,1.6206025875484775,1.064612873286707,1.3602689003980175,0.0007666364486025103,-0.0015052424470194561,-0.00026874228136116287,0.0007462587741596877,0.0004184130155269807,-0.0006409035808117637,0.00047311759225441966,-0.2309686839580536,-51.08700942993164,-9.364212989807129,17.25623321533203,1.8785501718521118,-1.1899521350860596,0.06596527993679047,,,,,,,,,
1739304748.9775465,-0.05800246514285198,1.109920348897182,-0.47959273540617164,-1.4056837400087188,1.6206022401758895,1.0646148603748824,1.3602679152730692,-0.0017381152705432685,-0.00020333392484759433,0.0004032600390521295,0.00030934495660153765,0.000337920062444678,-0.00014970855447734438,-0.00035300266880260406,-0.1793939769268036,-51.11081314086914,-9.388016700744629,17.25623321533203,1.8785501718521118,-1.2036850452423096,0.07328949868679047,,,,,,,,,
1739304748.9875512,-0.05799549647931952,1.1099163913425216,-0.4795962997791243,-1.4056837396736028,1.6205995511763165,1.0646148559072675,1.3602665196628692,0.0007548793734299888,-0.0027799621170259093,-0.0005356095471205281,0.000965714299165478,-0.0009938224009224228,-0.0006059125797315709,-0.0018764713025707794,-0.2071649730205536,-51.05923843383789,-9.340409278869629,17.25623321533203,1.8922830820083618,-1.2036850452423096,0.08610688149929047,,,,,,,,,
1739304748.998563,-0.057998333800953254,1.1099184168643434,-0.47959451546378684,-1.4056819569965782,1.6206002317801882,1.0646179813757088,1.3602689003977633,-0.0009648672318617051,-0.0002926253284963039,0.0005498197479323758,0.0008312453795297631,-0.0003543057522308316,-0.0008141304830702519,6.6396013029129675e-06,-0.2071649730205536,-51.08700942993164,-9.364212989807129,17.23242950439453,1.8858743906021118,-1.2302353382110596,0.06596527993679047,,,,,,,,,
1739304749.009541,-0.05799482965817051,1.1099174750339256,-0.4795945409735844,-1.4056819569965782,1.620598895967077,1.0646186754792266,1.3602661876273474,0.001464501286000884,0.00019509976204455767,0.000608983006237684,0.0007466361811037936,-0.0009868534169658403,0.00037113107304575447,9.175852453415748e-05,-0.2547723948955536,-51.08700942993164,-9.364212989807129,17.23242950439453,1.8858743906021118,-1.2366440296173096,0.09983979165554047,,,,,,,,,
1739304749.0195463,-0.05799662100654389,1.1099207245052312,-0.4795945144830742,-1.4056827900692215,1.6206043928519014,1.0646138749685425,1.360264018475082,2.3826345267859725e-05,0.000525830868746742,0.00039615134621388923,0.0004718970829670689,0.000488537525344632,-0.0006989786863259838,-0.0008091419261171058,-0.2309686839580536,-51.08700942993164,-9.364212989807129,17.25623321533203,1.8785501718521118,-1.2229111194610596,0.07969819009304047,,,,,,,,,
1739304749.0305545,-0.0579976242840385,1.1099146910406101,-0.47959451448262563,-1.4056830154731652,1.6206011897537693,1.0646179992360083,1.3602669501255757,-0.0002885674480730467,-0.0011341160941864448,0.00024843806228059726,0.0012227199571750807,0.00044859749631374814,0.00026201264371857643,-0.000869518308350411,-0.2071649730205536,-51.03543472290039,-9.364212989807129,17.25623321533203,1.8785501718521118,-1.2302353382110596,0.07328949868679047,,,,,,,,,
1739304749.0426066,-0.05799833384900912,1.10991948918073,-0.4795963001030839,-1.4056873040424007,1.6206019323757468,1.0646141027168559,1.3602672759904617,-0.0007930968735433576,0.0006637718673940247,-0.0002988135297014529,-0.002154671107856555,6.742822603734377e-05,-0.0007999663736258415,-0.00019721124382441978,-0.2071649730205536,-51.08700942993164,-9.340409278869629,17.30384063720703,1.8721414804458618,-1.1972763538360596,0.07969819009304047,,,,,,,,,
1739304749.0535853,-0.05800030551754025,1.1099250952191906,-0.47959274353136605,-1.405683960431539,1.620596071719384,1.0646156955475796,1.3602641379629807,-0.0014239610419146786,0.0005988303946923431,-0.0010298939777801674,0.00043014191846360637,-0.0015904937297143995,-0.00030678055565524354,-0.00047201267313603005,-0.1793939769268036,-51.13858413696289,-9.388016700744629,17.25623321533203,1.8858743906021118,-1.2100937366485596,0.10624848306179047,,,,,,,,,
1739304749.0644736,-0.05799821962833724,1.1099233160524897,-0.479592723384166,-1.4056837440839458,1.6206043536060528,1.064614846968371,1.3602641244988003,0.0004714316240542472,-0.00034120720247345874,6.794637466079771e-05,9.62476168096239e-05,0.0007030987397088345,-0.00020018601837642455,-0.0018816449664300818,-0.2071649730205536,-51.11081314086914,-9.388016700744629,17.25623321533203,1.8785501718521118,-1.2036850452423096,0.10624848306179047,,,,,,,,,
1739304749.0745065,-0.05800046298346948,1.1099234076636793,-0.47959274063578167,-1.405685558980157,1.6206048610850092,1.0646156180367856,1.3602696580580511,-0.0004880777227982181,0.0002857736000085281,0.0007785673527666351,-0.0006499955549091742,0.0011421267104275244,-6.121815772511268e-05,0.0008141409196576035,-0.2071649730205536,-51.11081314086914,-9.388016700744629,17.28003692626953,1.8593240976333618,-1.2100937366485596,0.05955658480525017,,,,,,,,,
1739304749.0855355,-0.05799242998188166,1.109920957882642,-0.4795970124154318,-1.4056819570344696,1.6206011684248445,1.0646148603769345,1.360269329589275,0.001456466607152045,-0.0017794649132766276,-0.0019935488629245993,0.001181617495156615,-0.00044583036443433805,0.0001452255868669732,0.001392414852074458,-0.2547723948955536,-51.08700942993164,-9.340409278869629,17.23242950439453,1.8785501718521118,-1.2036850452423096,0.05314789339900017,,,,,,,,,
1739304749.0956063,-0.05799786177710775,1.1099245906811617,-0.479594542293887,-1.4056837671456974,1.6206011747154772,1.06461453190793,1.360267157312716,0.0002714724035426517,0.0007310215954922858,-0.0005739218497942793,7.639355634934258e-05,-0.00037359091019348463,-0.000434956626658753,0.0018384039603616105,-0.1793939769268036,-51.16238784790039,-9.364212989807129,17.25623321533203,1.8785501718521118,-1.2100937366485596,0.05314789339900017,,,,,,,,,
1739304749.1065333,-0.05799997850929972,1.1099217179674825,-0.47959273224182863,-1.4056855194450166,1.6206043521764213,1.0646160472219557,1.3602680329922454,-0.0009597664440616231,-9.469781564222148e-05,0.0003528162923021652,-0.00023740103137076795,0.0005993593849018752,4.9317691407620124e-05,0.001343457081213928,-0.1793939769268036,-51.08700942993164,-9.388016700744629,17.28003692626953,1.8785501718521118,-1.2229111194610596,0.07328949868679047,,,,,,,,,
1739304749.117529,-0.057995751007279675,1.1099157347077067,-0.479596297015638,-1.4056794590638053,1.6206011747335205,1.064616320565067,1.3602676298324266,0.00043940184202453816,-0.001774910711569286,0.0005666549953184194,0.0012123566941504012,0.0005532252307157335,-0.0010276171080427052,-2.9795533973974624e-05,-0.2309686839580536,-51.00766372680664,-9.340409278869629,17.20862579345703,1.8785501718521118,-1.2165024280548096,0.07969819009304047,,,,,,,,,
1739304749.1284792,-0.05799346816807586,1.1099180044662877,-0.4795947525771833,-1.4056836601966998,1.6205987934981945,1.0646179992540907,1.3602704534763177,0.0015023577530434646,0.0005571685125118662,0.0001863267734493911,0.0002353374119369444,-0.00147392572756224,-5.412856712449257e-05,0.00047356308894838027,-0.2309686839580536,-51.03543472290039,-9.364212989807129,17.25623321533203,1.8986917734146118,-1.2302353382110596,0.05314789339900017,,,,,,,,,
1739304749.1385343,-0.05799487069532491,1.1099197288590759,-0.47959656207320916,-1.4056855220222213,1.6205995119124161,1.0646178785733929,1.3602591530281534,0.00032219885100478107,-0.0001261906282928603,-0.0001709261526518483,-0.00017003836634742512,-0.0010483783445660395,-9.967337883373139e-05,-0.0021411157732064193,-0.2547723948955536,-51.05923843383789,-9.340409278869629,17.28003692626953,1.8922830820083618,-1.2302353382110596,0.11265717446804047,,,,,,,,,
1739304749.1494927,-0.05799541468440743,1.1099196925689763,-0.47959057998948723,-1.4056836602007357,1.6205971305497637,1.0646171333564882,1.3602704156944945,-0.0005145756302559149,-0.0010801515562911413,0.0007750066558962628,0.0009632893332559399,-0.001234530157078532,0.0006888798410007913,0.001013991872643409,-0.2309686839580536,-51.05923843383789,-9.388016700744629,17.25623321533203,1.8858743906021118,-1.2229111194610596,0.05314789339900017,,,,,,,,,
1739304749.1595707,-0.057995255501345454,1.1099244211325743,-0.47959238465894055,-1.4056837396722512,1.6206019323218375,1.0646148598803047,1.3602656532831388,-0.0010861509742338374,0.0008455507434946191,0.0004380044084475271,0.000943693050673585,0.0006333965532535326,0.000104103689145678,-0.0007134998501112515,-0.2071649730205536,-51.13858413696289,-9.364212989807129,17.25623321533203,1.8721414804458618,-1.2036850452423096,0.09343110024929047,,,,,,,,,
1739304749.1714976,-0.057995482908174925,1.109921214414219,-0.47959344704932094,-1.4056837396735973,1.6206026899819048,1.0646163756419074,1.3602641380168177,-0.0002726662305026984,-0.0009435147251492402,-0.00016184410348755123,0.0009579707089839543,0.0006763532100451408,0.0006681677802413335,0.0005906800298787945,-0.2071649730205536,-51.11081314086914,-9.388016700744629,17.25623321533203,1.8657327890396118,-1.2165024280548096,0.10624848306179047,,,,,,,,,
1739304749.181513,-0.05799785160630068,1.1099234662223134,-0.4795920202685351,-1.4056855511793627,1.6205995111213514,1.0646181929952978,1.3602680345005291,-0.0008131688634258963,-0.000944227714985566,8.49109153947163e-05,-0.0002143041983642868,-0.000545090570960065,0.0013640991530089637,0.0015854935721433018,-0.1793939769268036,-51.11081314086914,-9.388016700744629,17.28003692626953,1.8657327890396118,-1.2229111194610596,0.07328949868679047,,,,,,,,,
1739304749.1935353,-0.0579999115660424,1.109922442201278,-0.47959451448128676,-1.4056839869225484,1.6206011747096019,1.0646156180390067,1.36026553260213,-0.0025696170725035532,-0.0001170771050786966,-0.00013145028271812246,0.0004835807859172414,0.0003177839441882715,0.0004901056387581937,0.00019707782912534914,-0.1555902659893036,-51.08700942993164,-9.364212989807129,17.25623321533203,1.8785501718521118,-1.2100937366485596,0.09343110024929047,,,,,,,,,
1739304749.2035437,-0.0579974559477236,1.1099217271433337,-0.47959627091397805,-1.405687317238853,1.6205995511582727,1.0646171333571695,1.360258303578944,-0.0003559638830578672,-0.0001931766255651813,-7.315069310105036e-05,-0.0002932597265355942,-0.0011153353261457856,0.0005388144977556348,-0.0015298509682628689,-0.1793939769268036,-51.08700942993164,-9.340409278869629,17.30384063720703,1.8922830820083618,-1.2229111194610596,0.11998139321804047,,,,,,,,,
1739304749.2145386,-0.05799487830180222,1.1099197380287622,-0.4795983769493521,-1.4056841955017105,1.620601174769419,1.0646163756970912,1.3602640978185336,0.0008707980739823093,0.0005393456969396023,-0.0010037590475039733,0.0002491877937967177,0.0017263126281052608,-4.041353960868096e-05,-0.0003035170995431618,-0.2547723948955536,-51.05923843383789,-9.312638282775879,17.23242950439453,1.8785501718521118,-1.2165024280548096,0.10624848306179047,,,,,,,,,
1739304749.2255495,-0.05799545805478208,1.1099197200411277,-0.4795945144826256,-1.4056837396862336,1.6206022362917802,1.064617999254402,1.3602677477905027,4.057402598385619e-05,-0.00046135260421333827,0.0006857317524044592,0.0009258415941914807,0.0008293397545291099,0.00024054882266393214,0.001496384794951235,-0.2071649730205536,-51.05923843383789,-9.364212989807129,17.25623321533203,1.8785501718521118,-1.2302353382110596,0.07969819009304047,,,,,,,,,
1739304749.2355733,-0.058000016321103326,1.1099224057654133,-0.4795948587570108,-1.4056837397866513,1.620601174895067,1.0646163737105725,1.360268571771629,-0.0015123070834326684,0.00028775563802802494,0.0004934773950551459,8.340768628665735e-05,-8.786996193573093e-05,-0.0006998886676348084,0.000756689301894457,-0.1793939769268036,-51.08700942993164,-9.364212989807129,17.25623321533203,1.8785501718521118,-1.2165024280548096,0.05955658480525017,,,,,,,,,
1739304749.246511,-0.057995389929361534,1.1099172832752708,-0.4795928261066222,-1.4056837386924514,1.6206022855883726,1.06461637569708,1.3602630182537443,1.357855999624554e-05,-0.0013723004327141912,4.1667151995344594e-05,-0.00011820395792254881,0.0005178519683990337,0.00012567251094721223,-0.0016927882566637874,-0.2071649730205536,-51.03543472290039,-9.388016700744629,17.25623321533203,1.8721414804458618,-1.2165024280548096,0.11265717446804047,,,,,,,,,
1739304749.2575283,-0.05800009204631104,1.1099217240827017,-0.47959451448315793,-1.4056837406910767,1.6206019847054647,1.0646156180370128,1.3602661907093234,-0.001786168495612086,-7.433213328496505e-05,-5.656481139900148e-05,0.00024321968078837232,0.0012066785002849674,-0.00016283142363479418,0.00027863521191694076,-0.1793939769268036,-51.08700942993164,-9.364212989807129,17.25623321533203,1.8721414804458618,-1.2100937366485596,0.07969819009304047,,,,,,,,,
1739304749.2675405,-0.05799785791411726,1.1099224423948792,-0.479594278271626,-1.4056841852891568,1.6206011747182423,1.0646171348107196,1.3602704156631764,-0.00044596525127394375,-0.000526586735115971,0.0005035299376209647,0.0008188491701078001,0.0001290925814751762,0.00013056186454862064,0.002313828730447309,-0.1793939769268036,-51.08700942993164,-9.364212989807129,17.23242950439453,1.8785501718521118,-1.2229111194610596,0.05314789339900017,,,,,,,,,
1739304749.2775476,-0.05799734993656594,1.1099192262014195,-0.4795954744700696,-1.4056859649262474,1.6206003088183512,1.0646163752004698,1.3602656537676556,0.0011854225407173739,-0.0014824378584903208,-0.00016959221939022982,0.0003005474109429987,-0.0003815048255545384,-4.7430714843826275e-05,-3.752059334641175e-05,-0.2071649730205536,-51.05923843383789,-9.340409278869629,17.25623321533203,1.8858743906021118,-1.2165024280548096,0.09343110024929047,,,,,,,,,
1739304749.289579,-0.057996529521782685,1.1099263006801383,-0.4795945144779815,-1.4056873760595852,1.6206020893590884,1.0646163756970883,1.3602696176657356,0.0006394287885116461,0.00040935202380402053,0.0002819772831963276,-5.366837521911293e-05,0.0006599741074848205,-0.00024322662518621514,0.0006631906558035459,-0.2309686839580536,-51.11081314086914,-9.364212989807129,17.30384063720703,1.8721414804458618,-1.2165024280548096,0.05955658480525017,,,,,,,,,
1739304749.3015394,-0.05799416875473376,1.109923784047804,-0.4795927316615974,-1.4056837410182648,1.6206019323759573,1.0646171333571695,1.360264897722557,0.000675710603794113,0.001010427429295228,0.0003931774895194192,0.0012584879634308837,1.742939085787288e-05,-0.00018819049789591414,-0.0018736202868182457,-0.2309686839580536,-51.11081314086914,-9.388016700744629,17.25623321533203,1.8721414804458618,-1.2229111194610596,0.09983979165554047,,,,,,,,,
1739304749.3124917,-0.05799538115573683,1.109918016678361,-0.47959451462798036,-1.4056839893455289,1.6206022355919225,1.064616771314142,1.360266523541026,-0.0004628782322101129,-0.0009349786458736564,-0.0005963116611215663,-0.00017639931055762572,0.00041713228268211054,-4.724813448181111e-05,0.000452307741355944,-0.2071649730205536,-51.03543472290039,-9.364212989807129,17.25623321533203,1.8785501718521118,-1.2229111194610596,0.08610688149929047,,,,,,,,,
1739304749.322499,-0.05799514258088763,1.1099220038225865,-0.4795945144826281,-1.405683740016987,1.6206019323936278,1.0646215313753684,1.3602718649587289,0.0004495531533732488,0.001301504368992575,0.00027507682350348846,0.0006251473191455911,0.00025361946135574236,0.0012829587386165111,7.0308809590869e-05,-0.2071649730205536,-51.08700942993164,-9.364212989807129,17.25623321533203,1.8721414804458618,-1.2302353382110596,0.03941498324275017,,,,,,,,,
1739304749.332505,-0.057993668165058763,1.1099255887024142,-0.4795962971596447,-1.4056837427260587,1.6206003625997105,1.0646171335784917,1.3602641379600302,0.0014213372710813461,0.0009608717839997649,-0.0005380712279576894,-0.00034582930048578347,-0.0005733358493770423,-0.0001895792430276344,-0.0005258332463602164,-0.2309686839580536,-51.11081314086914,-9.340409278869629,17.25623321533203,1.8858743906021118,-1.2229111194610596,0.10624848306179047,,,,,,,,,
1739304749.3425686,-0.057995557145075906,1.1099182591662884,-0.47959393504964803,-1.4056817185780506,1.6206011761700447,1.0646171328605436,1.3602675045534591,0.0009613671378996387,-0.0005162264489379455,-0.00027843900276677304,0.00014366639060196855,0.0002770680502124135,-0.0001777538008102024,0.001710764208101791,-0.2309686839580536,-51.03543472290039,-9.340409278869629,17.23242950439453,1.8785501718521118,-1.2229111194610596,0.06596527993679047,,,,,,,,,
1739304749.3534882,-0.05799369243476949,1.1099231937206957,-0.47959287977310855,-1.4056867066590133,1.6206012924531616,1.0646172510947365,1.3602688825112128,0.001035467447100841,-0.000202956640729395,0.00027657575608877697,-0.0008918586486051678,0.00019117029621831529,0.0014245751580322695,0.0014701658377911935,-0.2309686839580536,-51.11081314086914,-9.388016700744629,17.25623321533203,1.8785501718521118,-1.2229111194610596,0.06596527993679047,,,,,,,,,
1739304749.3635519,-0.05799523287237473,1.109924679731747,-0.47959452625888843,-1.4056820669352228,1.6206011745560718,1.0646148603789285,1.3602672366131436,0.00017310893876766636,0.0006234276559401606,-0.00035642532656515323,0.000961822647719649,0.0004171327516610638,-0.0011463846767652503,-0.0007983445112861655,-0.2071649730205536,-51.08700942993164,-9.364212989807129,17.23242950439453,1.8785501718521118,-1.2036850452423096,0.07969819009304047,,,,,,,,,
1739304749.3744888,-0.05799266222211627,1.1099255170904085,-0.47959632365066435,-1.4056865480139749,1.620598753461273,1.064614102716856,1.3602672768402224,0.0007670953610099064,8.908474326724703e-05,-0.0008619193463850711,-0.000540625441612527,-0.0013691746319877943,-1.6067200918784086e-05,0.0005918522530763959,-0.2547723948955536,-51.13858413696289,-9.340409278869629,17.28003692626953,1.8721414804458618,-1.1972763538360596,0.07969819009304047,,,,,,,,,
1739304749.3855758,-0.057997269703137184,1.1099254641286223,-0.4795927331139513,-1.405687305033425,1.6206022362738348,1.0646156180370128,1.3602700872493534,-0.00048405734054141406,0.00044955873490896286,0.00018342475122717057,-0.0006258300365232222,0.0008430533252911183,0.0001365246448376049,0.001251031257502542,-0.2071649730205536,-51.13858413696289,-9.388016700744629,17.30384063720703,1.8785501718521118,-1.2100937366485596,0.04673920199275017,,,,,,,,,
1739304749.3964837,-0.057996515788434344,1.1099228122554028,-0.4795945203607633,-1.4056826987432687,1.6206034877925666,1.0646163756970912,1.360262294112509,-0.0006332363392253401,0.0003935288245491065,-0.0004950803848255499,0.00019556749115963532,0.001154794620726026,0.0006051219883295753,-0.001322518659955447,-0.2309686839580536,-51.11081314086914,-9.364212989807129,17.23242950439453,1.8858743906021118,-1.2165024280548096,0.11265717446804047,,,,,,,,,
1739304749.4074621,-0.057997542174426785,1.109920444595995,-0.4795966602498707,-1.4056839869266813,1.6206019731303851,1.0646156180370128,1.3602671034682499,-0.0004774493306747832,-0.0005782224138570161,-0.0007765816408018639,-0.0003695373135822189,0.0006729551856452674,-3.614433542131388e-05,0.0008009484336672543,-0.2071649730205536,-51.05923843383789,-9.364212989807129,17.25623321533203,1.8986917734146118,-1.2100937366485596,0.05314789339900017,,,,,,,,,
1739304749.4175117,-0.057995459663542685,1.1099198099916145,-0.4795962973049997,-1.4056820368127867,1.6206011749309366,1.0646171333571695,1.3602636550173093,-0.00038675626668869384,-0.0006530735621880643,-0.0002691851928628925,-0.0001556433505607618,1.1530112745699244e-05,0.00018119659240003474,-0.0009144333592538906,-0.2071649730205536,-51.05923843383789,-9.340409278869629,17.23242950439453,1.8785501718521118,-1.2229111194610596,0.10624848306179047,,,,,,,,,
1739304749.4275856,-0.0579989338191784,1.1099218782375124,-0.47959844292685905,-1.4056877475920393,1.6206022881350757,1.0646171333571695,1.360268571921018,-0.0004538757423285841,0.00029648288434509914,-0.0011190790561675062,-0.0014516772591783166,0.0018294431835979641,0.0003103231479445545,0.0006800064637489842,-0.1555902659893036,-51.05923843383789,-9.340409278869629,17.28003692626953,1.8785501718521118,-1.2229111194610596,0.05955658480525017,,,,,,,,,
1739304749.438538,-0.057998085201564485,1.1099199676654936,-0.47959630898185335,-1.405681956065678,1.620600191571583,1.064617999254402,1.36026651917424,-0.0005374278071545531,-0.0006178873666267048,0.0005912390601540659,0.0004802908921720972,-0.00047867234110070646,8.624972928615181e-05,0.0004098392553368929,-0.2071649730205536,-51.05923843383789,-9.340409278869629,17.23242950439453,1.8858743906021118,-1.2302353382110596,0.08610688149929047,,,,,,,,,
1739304749.4495542,-0.05799722714885776,1.1099228286413187,-0.479598376949567,-1.4056837397112765,1.6206050182128158,1.0646171333571695,1.3602641379629823,-0.0008963235818594976,0.0009344477310668477,9.391414691070686e-05,0.000756880548338568,0.0016154436493030194,8.502787252110669e-05,-0.0021984921270373596,-0.1793939769268036,-51.05923843383789,-9.312638282775879,17.25623321533203,1.8858743906021118,-1.2229111194610596,0.10624848306179047,,,,,,,,,
1739304749.460458,-0.057997297236172966,1.1099226181470547,-0.47959666024983755,-1.40568418223665,1.6206007449100095,1.0646176043074491,1.3602696177760951,-0.0008089490874634574,0.00010836249943034471,0.0004853114609217666,9.824579282629263e-06,0.00046669547137945954,0.0011010140386231602,0.001829364958424248,-0.2071649730205536,-51.05923843383789,-9.364212989807129,17.23242950439453,1.8858743906021118,-1.2229111194610596,0.05955658480525017,,,,,,,,,
1739304749.4705362,-0.057999268936713526,1.109924230419778,-0.47959629719598346,-1.4056855223883007,1.6206019323830472,1.064614806686404,1.360264895456835,-0.0012454853605934537,0.0010244216486890076,0.00042779934285951045,-0.001401546057129224,0.0005566955172969295,-0.0011091402928075026,-0.0011756665097146233,-0.1793939769268036,-51.08700942993164,-9.340409278869629,17.28003692626953,1.8721414804458618,-1.2165024280548096,0.09983979165554047,,,,,,,,,
1739304749.4824667,-0.05799726970981939,1.1099254376150125,-0.4795945115664406,-1.4056848041891243,1.620601932375662,1.064614102707999,1.3602663516506295,-4.148099218574615e-05,0.00035055404223661166,-0.00019402680456436744,0.000872137224047351,6.448461909201993e-05,-0.00022055065131212296,-0.002192647275881172,-0.2071649730205536,-51.13858413696289,-9.364212989807129,17.28003692626953,1.8721414804458618,-1.1972763538360596,0.08610688149929047,,,,,,,,,
1739304749.4924705,-0.05799413823135402,1.109922680619807,-0.4795927318055901,-1.405683822085842,1.6206051112900497,1.0646156180370128,1.3602594314026788,-1.9775778220358794e-05,0.0012024658778064653,0.0007602879611802943,-0.0002579649176226009,0.00031775299309761687,0.0003662900723019803,-0.0036534864717993553,-0.2309686839580536,-51.08700942993164,-9.388016700744629,17.25623321533203,1.8721414804458618,-1.2100937366485596,0.10624848306179047,,,,,,,,,
1739304749.5025196,-0.05800272769118643,1.109922523192237,-0.4795906510436893,-1.4056819569979737,1.620603493277764,1.0646171333571695,1.3602665189351222,-0.002118599104808829,0.0012613488762321392,0.0017371308987332394,0.0008084622903498956,0.0013014951882892678,0.0007087992503901485,-0.00032874944656376864,-0.1317865550518036,-51.08700942993164,-9.415787696838379,17.23242950439453,1.8858743906021118,-1.2229111194610596,0.08610688149929047,,,,,,,,,
1739304749.513506,-0.057995142408816196,1.1099248530762726,-0.47959837694949475,-1.405682039412877,1.6206003074366124,1.0646163756970912,1.3602688999011294,0.0002696417536350936,0.0001008270714972035,-0.0010430894289744795,0.0006823620880181315,0.0003364597134435782,0.000425134609111944,-0.00011200586725995676,-0.2071649730205536,-51.08700942993164,-9.312638282775879,17.23242950439453,1.8858743906021118,-1.2165024280548096,0.06596527993679047,,,,,,,,,
1739304749.5255432,-0.057996096021843795,1.109921841951074,-0.4795927318056065,-1.405681957034728,1.6206019324294891,1.0646163756970912,1.3602704157183547,-0.00028288152420979126,0.0006199983684276434,0.0012503243649618675,5.657146240888618e-06,9.695187145913904e-05,5.8687604989658985e-05,0.0011452325124974992,-0.2071649730205536,-51.08700942993164,-9.388016700744629,17.23242950439453,1.8721414804458618,-1.2165024280548096,0.05314789339900017,,,,,,,,,
1739304749.5356243,-0.05799242570399733,1.109924200937109,-0.47959419953462606,-1.4056819583532252,1.6205998378680715,1.0646163737105725,1.3602700871941722,-0.0001718855042933036,0.002073674227639948,0.0010335056319812246,0.0002965329570051452,-0.0016149946874714433,-0.00038622220755627954,0.0019907436757008734,-0.2547723948955536,-51.08700942993164,-9.364212989807129,17.23242950439453,1.8858743906021118,-1.2165024280548096,0.04673920199275017,,,,,,,,,
1739304749.5475354,-0.05799619233633204,1.1099220720645848,-0.47959666024805964,-1.4056877475906953,1.6206019236517017,1.0646171333571581,1.360264882207928,-0.000592176107430219,0.0005807258796381419,-0.0011383953474208125,-0.0001848150666533482,-0.0003735184622382805,0.0005788968429677173,-1.2936327302649894e-05,-0.2071649730205536,-51.08700942993164,-9.364212989807129,17.28003692626953,1.8721414804458618,-1.2229111194610596,0.09983979165554047,,,,,,,,,
1739304749.5584621,-0.05799514225440394,1.1099200058823828,-0.479596034707016,-1.4056855234853423,1.6206026727546265,1.0646148603769345,1.3602642557005271,0.0005262170589536185,-0.0005070839336715821,-0.0003597968979054347,-0.00029071484413932666,0.0013194240068751606,-0.0008169279294002105,0.0004273930214390557,-0.2071649730205536,-51.05923843383789,-9.340409278869629,17.28003692626953,1.8657327890396118,-1.2036850452423096,0.10624848306179047,,,,,,,,,
1739304749.5685153,-0.057997150898466215,1.1099246954389403,-0.47959551408711126,-1.4056835013680913,1.6206003088180583,1.0646171333571695,1.3602641379649762,-0.0009199829823414549,0.000919526998492072,-0.0004209504739179477,0.0006185117962303621,-0.0008209971291298608,0.0005744010638467576,-0.0012344922720289237,-0.1793939769268036,-51.08700942993164,-9.388016700744629,17.25623321533203,1.8858743906021118,-1.2229111194610596,0.10624848306179047,,,,,,,,,
1739304749.5805151,-0.05799522014432151,1.1099181090312487,-0.47959629750239957,-1.4056847286678393,1.620601945457614,1.0646148603769345,1.3602648822140597,0.0009253809287550843,-0.0014406491101100643,-0.0001720118096582155,6.341198163697297e-05,0.00211200828904065,-0.0005811158266327576,-0.00033837347028431507,-0.2071649730205536,-51.03543472290039,-9.340409278869629,17.25623321533203,1.8721414804458618,-1.2036850452423096,0.09983979165554047,,,,,,,,,
1739304749.5915232,-0.05799714797900615,1.1099264096025165,-0.4795945149186913,-1.4056898855185938,1.620599955623611,1.0646156223976635,1.360266900726223,0.0002488594322420083,0.0005214292983007736,-0.00014142941202114514,-0.0015397540890853614,-0.0016359274530847638,0.000449864336075165,-0.000689239930276211,-0.1793939769268036,-51.11081314086914,-9.364212989807129,17.30384063720703,1.8858743906021118,-1.2100937366485596,0.07969819009304047,,,,,,,,,
1739304749.6015794,-0.057999267602754125,1.1099234485406426,-0.479590605906617,-1.4056855315516836,1.6206011703489513,1.0646112735207562,1.3602680344941587,-0.0012326690201589796,0.00012104360368510628,0.0010740551270081117,-0.0008653439837692358,0.0005623051086797784,-0.001306899084503631,0.0005558966194122294,-0.1793939769268036,-51.11081314086914,-9.388016700744629,17.28003692626953,1.8785501718521118,-1.2100937366485596,0.07328949868679047,,,,,,,,,
1739304749.6124554,-0.05799395268123646,1.1099205596845279,-0.47959451542776976,-1.4056820668851324,1.6206040516518465,1.0646171332835945,1.3602648956230605,0.0011825244194474784,-0.0005720207651844513,0.0003981338728076537,0.0005396118070705466,0.0001767833277033065,0.0009510135557426502,-0.001627425105300092,-0.2547723948955536,-51.05923843383789,-9.364212989807129,17.23242950439453,1.8721414804458618,-1.2229111194610596,0.09983979165554047,,,,,,,,,
1739304749.6225126,-0.05799354393280453,1.109923476294183,-0.4795938057056228,-1.4056819569971986,1.6206033955953139,1.0646170126761598,1.3602688989078715,0.0006354705620611377,-0.00038140494948019424,-0.00011655889247977745,0.0012406436362325621,0.0006758901028664519,-0.0005527188784448179,0.0009154618337354824,-0.2309686839580536,-51.11081314086914,-9.364212989807129,17.23242950439453,1.8593240976333618,-1.2229111194610596,0.06596527993679047,,,,,,,,,
1739304749.6334598,-0.057998227612958135,1.1099219923760852,-0.4795935417724868,-1.4056807991777882,1.620599955605347,1.0646171333564882,1.3602672768404414,-0.001151835873102134,0.000594562624715934,0.0007761306063388975,0.0010146927898036285,-0.0005022583344657456,0.00033898260468144206,0.000908139856885252,-0.2071649730205536,-51.08700942993164,-9.340409278869629,17.25623321533203,1.8858743906021118,-1.2229111194610596,0.07969819009304047,,,,,,,,,
1739304749.6435027,-0.05799516760782367,1.1099217663896457,-0.47959273175894385,-1.4056837396237998,1.6206003089738747,1.064617999254402,1.3602672361168169,0.0009902780739227952,-0.0007906945411112079,1.0282475161650336e-05,0.0001842006987350262,0.00036931336442511754,0.0006880158421727866,0.00020409686807339013,-0.2071649730205536,-51.08700942993164,-9.388016700744629,17.25623321533203,1.8858743906021118,-1.2302353382110596,0.07969819009304047,,,,,,,,,
1739304749.6544876,-0.05799342875864631,1.109929375507261,-0.4795962971596444,-1.405682946105219,1.6206005196863291,1.0646156180370128,1.3602624950368847,0.0011099280029892402,0.0012057396073693353,-0.0005635859206591302,-0.00012435643064256441,-0.0009092643289699678,-0.0005614386603882563,-0.0021600050076143657,-0.2309686839580536,-51.16238784790039,-9.340409278869629,17.23242950439453,1.8721414804458618,-1.2100937366485596,0.11998139321804047,,,,,,,,,
1739304749.665523,-0.057995145172018134,1.109919741991035,-0.47959451942469644,-1.4056855223673668,1.6206019265375369,1.0646134122048243,1.3602655326018018,-0.0005412071306719413,-0.0009955841459242162,0.0006784987000466622,-1.425040469238512e-05,-0.0002213693952078009,-0.0009003608488415083,0.00012734378234557038,-0.2071649730205536,-51.05923843383789,-9.364212989807129,17.28003692626953,1.8721414804458618,-1.2036850452423096,0.09343110024929047,,,,,,,,,
1739304749.6755838,-0.05799816788970786,1.109926648990172,-0.4795944360727582,-1.4056837397866513,1.6206011747154847,1.0646156180124877,1.3602696638704364,-0.0006439098256262704,0.0015289587339059045,0.00015961488472397798,0.00033965329609513597,-0.0007118612488779081,-0.00012195658129080254,0.0023122860940712003,-0.1793939769268036,-51.11081314086914,-9.364212989807129,17.25623321533203,1.8785501718521118,-1.2100937366485596,0.05955658480525017,,,,,,,,,
1739304749.6865127,-0.05799809392858176,1.1099241563511293,-0.47959273185391066,-1.405683731860765,1.6206019323756617,1.0646152559939852,1.3602680345543743,-0.00023687381233553485,-0.0008412179577520801,0.0007335052225171922,0.00039083921766963506,-0.0007397619575907472,-0.00024707489865974846,0.0006859425089528942,-0.1793939769268036,-51.11081314086914,-9.388016700744629,17.25623321533203,1.8721414804458618,-1.2100937366485596,0.07328949868679047,,,,,,,,,
1739304749.6975594,-0.05799514128461824,1.109924431748456,-0.4795913643553034,-1.4056844814202436,1.6206009904751024,1.0646163756950475,1.3602644464730476,0.0005689673176594601,-0.0007904033530122619,0.0004458281020793531,-2.5121563532751136e-05,-0.0003752268121166709,0.00023717557857145635,0.0005462395353478185,-0.2071649730205536,-51.11081314086914,-9.415787696838379,17.25623321533203,1.8721414804458618,-1.2165024280548096,0.09343110024929047,,,,,,,,,
1739304749.7084706,-0.05799195304911273,1.1099249060592857,-0.4795945144866468,-1.4056819570007653,1.620600308813034,1.0646163756970912,1.3602703976673338,0.0013097520340562639,-0.0005525116276653225,-0.0005242721648324735,-0.00010935357357028894,-0.0002669414759944713,-1.8039668626382974e-05,0.000327386384715687,-0.2547723948955536,-51.08700942993164,-9.364212989807129,17.23242950439453,1.8858743906021118,-1.2165024280548096,0.05314789339900017,,,,,,,,,
1739304749.7185237,-0.05799340245551982,1.1099200593535405,-0.479596296187583,-1.4056838495619959,1.620598451483223,1.0646163756970912,1.360263380302598,0.0011530638583248961,-0.0020718606554983804,-0.0002187881502095575,-0.0003400533116756704,-7.390414247406782e-05,-0.00030863104211185065,-0.00027146063886125953,-0.2309686839580536,-51.05923843383789,-9.340409278869629,17.25623321533203,1.8657327890396118,-1.2165024280548096,0.11265717446804047,,,,,,,,,
1739304749.7295434,-0.0579951412790804,1.1099294150454697,-0.47959368940450314,-1.4056855223512366,1.6205997618946528,1.064617999254402,1.3602672708808936,0.00010241862636768787,0.002446902394706636,0.0002914823489724777,-0.0003371788624154938,-0.0014050725850570335,0.0003095625373571827,-0.00017534356600859108,-0.2071649730205536,-51.16238784790039,-9.388016700744629,17.28003692626953,1.8785501718521118,-1.2302353382110596,0.07969819009304047,,,,,,,,,
1739304749.739552,-0.057996087227017254,1.1099239880660454,-0.47959629717586166,-1.4056855960496513,1.6206020496047888,1.0646164934346611,1.3602626897907715,-5.934803805299896e-05,0.000741965031723206,-6.572335215954601e-05,-0.000994646220103733,-0.00032424994880007543,0.0004769711208823493,-2.8148440004411625e-05,-0.2071649730205536,-51.08700942993164,-9.340409278869629,17.28003692626953,1.8721414804458618,-1.2165024280548096,0.10624848306179047,,,,,,,,,
1739304749.7505233,-0.057995141284568785,1.1099249368453747,-0.47959844292685666,-1.405680174319975,1.6206019323763237,1.064617133357834,1.3602632586328869,0.0009793108895615426,0.0004083623868520231,-0.0006205072390813684,0.00037444408047072626,-6.231841925064723e-05,0.0002978918201232565,-0.001090802725074172,-0.2071649730205536,-51.08700942993164,-9.340409278869629,17.20862579345703,1.8721414804458618,-1.2229111194610596,0.08610688149929047,,,,,,,,,
1739304749.7614663,-0.057994146978114815,1.1099212343473341,-0.47959451445873624,-1.4056836332737193,1.620601017732157,1.0646163756970912,1.360267812760383,0.00027480656278222344,-0.0005643039138097596,-0.0001425086723431959,0.0005839665362590335,-0.0016621885632350424,-5.3493064252415126e-05,0.0007260993354808349,-0.2309686839580536,-51.03543472290039,-9.364212989807129,17.25623321533203,1.8785501718521118,-1.2165024280548096,0.06596527993679047,,,,,,,,,
1739304749.7715054,-0.05799548385684622,1.109919977482979,-0.4795984429268562,-1.405681954051337,1.6206038009058696,1.0646156180370128,1.3602672761598575,-0.0008174035186346508,-0.0021231918999786315,-0.00032678232056379764,0.0011037446937959953,0.0014985645995507346,0.00019471351357788094,0.0006142620182952015,-0.2071649730205536,-51.05923843383789,-9.340409278869629,17.23242950439453,1.8593240976333618,-1.2100937366485596,0.07969819009304047,,,,,,,,,
1739304749.7834558,-0.0579955561686225,1.10992490947093,-0.4795926884019906,-1.4056837398243192,1.6206006672715147,1.0646171333571695,1.3602622939530933,0.0011617124578851882,0.0005030700686773381,0.00023079699923819942,0.0005685175239346894,-0.00035195107124370417,0.00023507624209540104,-0.001638122004007708,-0.2309686839580536,-51.08700942993164,-9.388016700744629,17.25623321533203,1.8922830820083618,-1.2229111194610596,0.11265717446804047,,,,,,,,,
1739304749.7935266,-0.058003638639910184,1.1099254641625655,-0.47959629715939966,-1.40568398793998,1.620601174721884,1.0646156180370128,1.3602711733723034,-0.0026111659223871557,-1.86825674790728e-05,-0.00033243619185114145,0.0005334531175428463,2.1870682129177076e-05,-0.00033358919670838213,0.0007486461038403643,-0.1317865550518036,-51.05923843383789,-9.340409278869629,17.25623321533203,1.8785501718521118,-1.2100937366485596,0.04673920199275017,,,,,,,,,
1739304749.8055367,-0.05799713934556993,1.109924839840507,-0.4796005003956312,-1.4056855228042333,1.6206026958499413,1.064616255016082,1.3602704023093564,-0.0008302841659959761,-0.0003893096176024926,-0.001184395097243917,-0.0005166217397555713,0.0009716574651059095,-0.00021493369485907877,0.0024087223797878447,-0.1793939769268036,-51.08700942993164,-9.312638282775879,17.28003692626953,1.8657327890396118,-1.2165024280548096,0.05314789339900017,,,,,,,,,
1739304749.8155608,-0.057995850740070874,1.1099208020814522,-0.4795927319266097,-1.4056837701981548,1.6206011747694515,1.0646166506324515,1.3602704549641385,-0.0003496347260174305,-0.00068612591215918,0.00042215234040412895,-0.0005078369773666288,-0.00032888017830665274,-0.0002796300941361841,0.0025997605261309014,-0.2071649730205536,-51.05923843383789,-9.388016700744629,17.25623321533203,1.8785501718521118,-1.2229111194610596,0.05314789339900017,,,,,,,,,
1739304749.8264723,-0.05799713922408686,1.1099222316002655,-0.47959427733590365,-1.405685526420729,1.620603486279189,1.0646163712246992,1.360262886456442,-0.0007383893166742095,0.0002735873455752392,0.0005071764369473424,3.909524464294889e-05,3.165787947373845e-05,-0.00010333541175104484,-0.0015944264665436944,-0.1793939769268036,-51.05923843383789,-9.364212989807129,17.28003692626953,1.8858743906021118,-1.2165024280548096,0.10624848306179047,,,,,,,,,
1739304749.8375368,-0.05799710414409759,1.1099266913387325,-0.47959451742472614,-1.4056837398243587,1.6206008220053274,1.0646166776751167,1.3602641379559175,-0.001171117032471006,0.002218070113133894,0.000347752220167883,0.0007699017245897792,0.0004592326814313239,-0.0009578158049516859,-0.0007386685916230657,-0.1793939769268036,-51.11081314086914,-9.364212989807129,17.25623321533203,1.8785501718521118,-1.2100937366485596,0.10624848306179047,,,,,,,,,
1739304749.848466,-0.05799514160342998,1.1099226816317211,-0.47959463222021215,-1.405684923983341,1.6205996690553572,1.0646171333631511,1.3602680161252303,0.0004140774006857641,-0.0005590715448353389,-0.0008896125858557488,0.0005079259264805746,-0.00027355868261086993,-0.0003360952487398758,0.001430614681417009,-0.2071649730205536,-51.05923843383789,-9.364212989807129,17.23242950439453,1.8922830820083618,-1.2229111194610596,0.07328949868679047,,,,,,,,,
1739304749.8585188,-0.05799514127923437,1.1099249448044604,-0.4795991319389212,-1.4056837519336653,1.6206061533260672,1.0646148602113914,1.3602648956227494,0.00036509120262994473,0.000894465510512217,-0.001489999548524077,-0.0002846638846876446,0.002736986640853947,0.00017897438260812366,-0.00034163253050072725,-0.2071649730205536,-51.08700942993164,-9.340409278869629,17.25623321533203,1.8721414804458618,-1.2036850452423096,0.09983979165554047,,,,,,,,,
1739304749.8695488,-0.05799714311287119,1.1099264310116221,-0.47959060559859146,-1.4056883764395907,1.620601815452983,1.0646163756970903,1.3602679002449747,-0.0001568466381612404,0.0005222084309731407,0.001415345416547095,-0.0020927722299138064,0.000296786096953974,8.637382077034337e-05,0.00034703733462306604,-0.1793939769268036,-51.13858413696289,-9.388016700744629,17.30384063720703,1.8986917734146118,-1.2165024280548096,0.07328949868679047,,,,,,,,,
1739304749.8795614,-0.05799345503489107,1.1099229392961956,-0.4795962419419197,-1.4056873051588334,1.6206027288482572,1.0646156046280117,1.3602641379607088,9.954829416442326e-05,-0.000685697078911914,-0.0011310598633581658,-0.0008867274504865529,0.001044407116098659,-0.0005545610429546932,-0.0011092634053668777,-0.2309686839580536,-51.05923843383789,-9.312638282775879,17.30384063720703,1.8657327890396118,-1.2100937366485596,0.10624848306179047,,,,,,,,,
1739304749.890532,-0.057994724216823175,1.1099266598006872,-0.4795945145069122,-1.4056837642022584,1.620601932375881,1.064615618036937,1.3602664522384078,0.0002736428038391423,0.0005028617363699353,0.0004179157749797217,0.0003888684910997958,-0.0002732971588893571,-8.891037872293744e-05,-0.0007756105123859216,-0.2071649730205536,-51.11081314086914,-9.364212989807129,17.25623321533203,1.8721414804458618,-1.2100937366485596,0.07328949868679047,,,,,,,,,
1739304749.901538,-0.057997235554041335,1.1099259430551176,-0.4795961921769783,-1.4056877397779934,1.6206016297515886,1.0646169724491572,1.3602636564012425,0.00036519951775455095,0.00011224406584990453,-0.001128263187413669,-0.0013185483150463821,-0.0007648630616985208,0.0004388721059491127,-0.0004891089104195625,-0.1793939769268036,-51.11081314086914,-9.340409278869629,17.28003692626953,1.8657327890396118,-1.2229111194610596,0.07969819009304047,,,,,,,,,
1739304749.9124763,-0.05799342875904149,1.1099226741053745,-0.47959629715905205,-1.4056858554199465,1.6206003088123657,1.0646163756961828,1.3602669130663714,-0.00036262781223098106,-0.0008258246469361181,-4.688168593517978e-05,-0.00039206150283797674,0.000672603015932603,-0.0001945328631784881,0.00038483296761942045,-0.2309686839580536,-51.05923843383789,-9.340409278869629,17.28003692626953,1.8858743906021118,-1.2165024280548096,0.07969819009304047,,,,,,,,,
1739304749.9225295,-0.0579981443717215,1.109920996905316,-0.47959289148718576,-1.4056830278151176,1.6206019323756617,1.0646156180370128,1.3602672768342892,-0.0011735242722032797,-0.0009390269806936883,0.0004167529708087744,0.0008366564459279496,-7.438381959594582e-05,-0.00017576931039304638,0.0005104627199941927,-0.1555902659893036,-51.03543472290039,-9.388016700744629,17.25623321533203,1.8721414804458618,-1.2100937366485596,0.07969819009304047,,,,,,,,,
1739304749.933522,-0.057995140409035896,1.1099249457887692,-0.4795982982134018,-1.4056818775197,1.6206005436474686,1.0646199748116165,1.3602648548994278,0.0006578876118237471,0.0008541141388230291,-0.00047926608431831145,0.0006049490769118629,-0.0004738817872023428,0.0015755995889047728,0.0008138653260317899,-0.2071649730205536,-51.08700942993164,-9.312638282775879,17.23242950439453,1.8858743906021118,-1.2100937366485596,0.09983979165554047,,,,,,,,,
1739304749.944465,-0.05799437470628115,1.1099212350014822,-0.47959627087753126,-1.4056855589796338,1.6206003088196768,1.0646171333817636,1.3602640912795636,0.00016505321780163227,-0.0004109599819405337,-6.18447305303648e-05,-0.0001452443206560938,-0.0003738784898631575,0.0005822840161670063,-0.0018965021082372087,-0.2309686839580536,-51.03543472290039,-9.340409278869629,17.28003692626953,1.8858743906021118,-1.2229111194610596,0.10624848306179047,,,,,,,,,
1739304749.9545057,-0.058000971370360595,1.1099249333501422,-0.47959449706683166,-1.405684462713107,1.620601932375662,1.06461713335717,1.360265064551285,-0.0018589466180654085,0.0005189874662252839,0.0003516788830560905,0.0004202670671040118,0.0003961840864471951,6.196090029164798e-05,-0.0016913444383375397,-0.1555902659893036,-51.08700942993164,-9.364212989807129,17.28003692626953,1.8721414804458618,-1.2229111194610596,0.08610688149929047,,,,,,,,,
1739304749.965485,-0.057995141291194256,1.109919089561249,-0.47959451742596654,-1.4056862946859368,1.620601928015011,1.0646166506331327,1.360265584058136,-0.00013359675886538854,-0.0010279234615797948,0.0002121728463677129,-0.0005182982476514507,-0.0005024914432538186,-0.0008423156164759562,-0.0005424193741434301,-0.2071649730205536,-51.03543472290039,-9.364212989807129,17.25623321533203,1.8721414804458618,-1.2229111194610596,0.06596527993679047,,,,,,,,,
1739304749.9765408,-0.057995558114218915,1.109926274634146,-0.47960029263042103,-1.405689531299615,1.6206029920137666,1.0646163756943663,1.3602667867825395,0.00022061675384142524,0.0013342937875660214,-0.001478493537163884,-0.0006305354098428933,0.0016811629383942342,8.817902791647403e-05,-0.0007326416133568113,-0.2309686839580536,-51.11081314086914,-9.288834571838379,17.30384063720703,1.8721414804458618,-1.2165024280548096,0.07328949868679047,,,,,,,,,
1739304749.987498,-0.05799129790446724,1.1099249457879494,-0.4795924955953577,-1.4056822907442819,1.6206027339547764,1.0646171333571695,1.360268032506966,0.0026039226831510286,-0.0004059308894102897,-0.00035182343571699126,0.0004462160590561862,0.0007269996077043461,0.0006489727470326225,0.001090004265940307,-0.2309686839580536,-51.08700942993164,-9.388016700744629,17.23242950439453,1.8922830820083618,-1.2229111194610596,0.07328949868679047,,,,,,,,,
1739304749.997519,-0.05799514081010584,1.1099266583108465,-0.4795945115624402,-1.4056819600546857,1.6206001152928609,1.0646171288875024,1.360263375833203,0.0010080253284740176,0.00023756965965653114,0.00040883279738996426,0.0006992600940250949,-0.0006293194768664293,0.000706771407325512,-0.0006591733636044457,-0.2071649730205536,-51.11081314086914,-9.364212989807129,17.23242950439453,1.8785501718521118,-1.2229111194610596,0.11265717446804047,,,,,,,,,
1739304750.0075228,-0.057997139220074,1.109926689380483,-0.47959459395543586,-1.405683822089948,1.6206011703369916,1.0646179992543263,1.3602652361141427,-0.0003748948446224585,0.0019926198021182097,0.0005900125776540544,-0.00033300207760484475,-0.0008384082159553321,0.0006681960927970066,-0.001463899876907869,-0.1793939769268036,-51.11081314086914,-9.364212989807129,17.25623321533203,1.8785501718521118,-1.2302353382110596,0.09343110024929047,,,,,,,,,
1739304750.0175433,-0.05799342908289679,1.1099207991391373,-0.479592498539392,-1.405687747931245,1.6206023768598767,1.064617999254402,1.36025903428962,0.0011850491307530667,-0.00030871875435249153,0.001340267485166536,-0.0016097487806774492,-0.0011687263581444832,0.0001679899160486397,-0.003357137387309925,-0.2309686839580536,-51.05923843383789,-9.388016700744629,17.28003692626953,1.8922830820083618,-1.2302353382110596,0.11265717446804047,,,,,,,,,
1739304750.0295284,-0.05799342875849952,1.109922947800794,-0.47959477939084116,-1.40568727858693,1.6206049011378811,1.0646156180370128,1.3602678733472582,0.0007519571952982384,-0.0005904625391586531,-0.0012161396540695906,-0.00032764455995447323,0.0014099344640084671,-0.00032197176110757535,-0.0003747839510939677,-0.2309686839580536,-51.05923843383789,-9.364212989807129,17.30384063720703,1.8858743906021118,-1.2100937366485596,0.07328949868679047,,,,,,,,,
1739304750.0404675,-0.05799417170519255,1.1099229516284925,-0.47959443574712113,-1.405687305027486,1.6205995511841966,1.0646170519220168,1.360265628600602,0.0002349585531256655,0.0003904922165121705,0.0004973571077846403,-0.0017296389286145975,-0.0008463234761633392,1.1035631464950206e-05,-0.0005108401496589704,-0.2071649730205536,-51.05923843383789,-9.364212989807129,17.30384063720703,1.8922830820083618,-1.2229111194610596,0.06596527993679047,,,,,,,,,
1739304750.0505035,-0.0579968235307493,1.1099266583108678,-0.479598403440009,-1.4056859649136688,1.6206003088183512,1.064615174558373,1.360268428695507,-3.8976813211425744e-05,0.0007581683794953592,-0.0013137931147908129,-0.00015089216655078902,-0.0009169238521857365,-0.0007251074838432905,0.000294851323926677,-0.1793939769268036,-51.11081314086914,-9.312638282775879,17.25623321533203,1.8858743906021118,-1.2100937366485596,0.06596527993679047,,,,,,,,,
1739304750.0614974,-0.05799515000013622,1.1099229478492623,-0.4795927406360739,-1.4056855233806629,1.620599551158273,1.064617133354666,1.3602633145295067,0.00034740320272011005,-0.000705883084096449,0.0009336579237449189,-0.0006618439103815568,0.0007790970994053381,-2.683905634531683e-06,8.636986664444548e-05,-0.2071649730205536,-51.05923843383789,-9.388016700744629,17.28003692626953,1.8922830820083618,-1.2229111194610596,0.07328949868679047,,,,,,,,,
1739304750.07246,-0.0579972725813939,1.1099277008492514,-0.479599124169568,-1.405685522350622,1.6206028121339608,1.0646156180370128,1.3602594298870911,-0.000689032656358663,0.0010197632351445346,-0.0012887090884077194,-0.0005169804013767891,0.0015842671147959337,1.4844413898028016e-05,-0.002585138571506827,-0.2071649730205536,-51.08700942993164,-9.340409278869629,17.28003692626953,1.8657327890396118,-1.2100937366485596,0.10624848306179047,,,,,,,,,
1739304750.0824997,-0.05799585088429699,1.109926658462482,-0.4795962973165366,-1.4056849239833402,1.6206034476978863,1.0646152895680085,1.3602663962675687,0.00010025905252253632,0.0010559779776690176,-0.0004043582270852682,-8.336324951524124e-05,0.00033859191807819405,-0.0006538211955855933,-0.0008491731580466379,-0.2071649730205536,-51.11081314086914,-9.340409278869629,17.23242950439453,1.8593240976333618,-1.2165024280548096,0.08610688149929047,,,,,,,,,
1739304750.093493,-0.057993651594027314,1.109925676417446,-0.4795962971596455,-1.4056855224050495,1.6206026512744005,1.06461637569096,1.3602669147967283,-0.0002556070628914075,0.0013504044556691508,0.00029359797862538075,-0.0003471024057692675,-1.687122812457569e-05,-0.000772657138889781,0.00022519553404841137,-0.2309686839580536,-51.05923843383789,-9.340409278869629,17.28003692626953,1.8657327890396118,-1.2165024280548096,0.07969819009304047,,,,,,,,,
1739304750.104461,-0.057991717214737545,1.1099229482104067,-0.4795983652847595,-1.405687344709558,1.6206019498176083,1.0646156354796157,1.3602645537232372,0.0009574423239310247,-0.001091327061187319,-0.00036012529227628703,-0.0005623091179743961,0.0019163668716148247,0.0003195781452221085,0.0006438791605756021,-0.2547723948955536,-51.05923843383789,-9.312638282775879,17.30384063720703,1.8721414804458618,-1.2100937366485596,0.06596527993679047,,,,,,,,,
1739304750.1145222,-0.057995071117045376,1.1099219187962546,-0.47959451448255974,-1.4056837671836055,1.6206042358925001,1.064614860377033,1.3602634280578563,-0.00041410863369881147,-0.0003500061752803852,0.0007379601013862427,-0.0008456567728587481,0.0002979147364432535,-0.0008192072449119277,-0.0017804868163913642,-0.2071649730205536,-51.05923843383789,-9.364212989807129,17.25623321533203,1.8785501718521118,-1.2036850452423096,0.09983979165554047,,,,,,,,,
1739304750.1255095,-0.057993430055698035,1.1099266318140841,-0.4795924181658022,-1.4056815939065406,1.6206010816024568,1.0646171333571695,1.3602636105339911,0.0014545694396177937,0.00026396315838596204,0.0018415686799121665,0.0020533836064385645,0.00026458737040258463,0.0010458927075513399,-0.00041453491901627116,-0.2309686839580536,-51.11081314086914,-9.388016700744629,17.25623321533203,1.8922830820083618,-1.2229111194610596,0.10624848306179047,,,,,,,,,
1739304750.1374638,-0.05799566224633868,1.109925038998875,-0.47959629715787416,-1.4056865113340904,1.620601174670388,1.0646179991992208,1.3602702533174789,0.00020653744646905635,0.00015257382807057568,-0.00028549336289068565,-0.0009048766891970542,-9.589921023641906e-05,0.0010407341506782036,0.0015542915488065483,-0.2309686839580536,-51.08700942993164,-9.340409278869629,17.28003692626953,1.8785501718521118,-1.2302353382110596,0.05314789339900017,,,,,,,,,
1739304750.147522,-0.05799790021423728,1.109919090506653,-0.47959272888942134,-1.405687305033218,1.620599145617754,1.0646163756970908,1.3602709926315335,-0.00023831702271778044,-0.0008512816920145142,0.0004099068283388242,-0.000786106286592855,-0.0014236294873572926,0.0006626862509763985,0.002501601416570993,-0.2071649730205536,-51.03543472290039,-9.388016700744629,17.30384063720703,1.8922830820083618,-1.2165024280548096,0.05314789339900017,,,,,,,,,
1739304750.1585188,-0.05799800545054008,1.1099249447605224,-0.4795945145916254,-1.4056867066603593,1.6206003480619182,1.064616728909801,1.360266876027226,-0.0005961490183183957,-0.0005144010113891228,-0.0005647972695514735,-0.00212035775785609,-0.0003116653933628495,0.000475739087552864,-0.0006593973686987848,-0.2071649730205536,-51.08700942993164,-9.364212989807129,17.25623321533203,1.8858743906021118,-1.2165024280548096,0.07969819009304047,,,,,,,,,
1739304750.1695313,-0.05799672089093074,1.109924945716086,-0.4795962971596453,-1.4056819844140949,1.6206020501672884,1.064617999256396,1.3602649027431941,-0.00018018003557133955,3.201972973496955e-05,0.0006834986364066995,0.0007188391518444985,0.00017260569728383646,0.000494487882280925,-0.00014818218236827257,-0.1555902659893036,-51.08700942993164,-9.340409278869629,17.23242950439453,1.8721414804458618,-1.2302353382110596,0.09983979165554047,,,,,,,,,
1739304750.1805313,-0.05799514548438853,1.109926658310846,-0.47959834195527806,-1.4056867097129695,1.620598449545821,1.064617999254402,1.3602656130009951,-0.0007647742954030557,0.0006821041568692561,-0.0008582578632628082,-0.0004371981001513657,-0.0009107405049719288,0.0001733072729302249,0.002239981232191418,-0.2071649730205536,-51.11081314086914,-9.312638282775879,17.25623321533203,1.8657327890396118,-1.2302353382110596,0.09343110024929047,,,,,,,,,
1739304750.1914961,-0.05799242573467586,1.1099306165822387,-0.4795945223406841,-1.4056860256954935,1.6206032895534186,1.0646121987417527,1.3602669132521246,0.001505678366430548,0.00048773781694368655,0.00023894346334422261,-0.0005052744268023053,-0.00019282310162428392,-0.0012555769523686516,-0.00029573406485072556,-0.2547723948955536,-51.13858413696289,-9.364212989807129,17.28003692626953,1.8785501718521118,-1.2100937366485596,0.07969819009304047,,,,,,,,,
1739304750.2015305,-0.057993011830923,1.1099250151216205,-0.4795934558917947,-1.4056862641058308,1.6206011732978483,1.064618595948562,1.3602623948897339,0.0003448951280059487,0.0005507224080492845,0.0005559222445971311,-0.00045688715052563433,0.0009339652699527077,-0.0005136375191824613,-0.000926495542938148,-0.2071649730205536,-51.05923843383789,-9.388016700744629,17.28003692626953,1.8785501718521118,-1.2366440296173096,0.09343110024929047,,,,,,,,,
1739304750.2124212,-0.05799514124316649,1.1099250478643519,-0.4795945233252058,-1.4056837396861588,1.620601919939708,1.0646148476112298,1.3602665057161893,-0.0007690942069270049,0.00034711360332617236,-0.0005567821462749009,0.000286902026403234,-0.000524581567834724,-0.0017648196717956572,-9.004475783336226e-05,-0.2071649730205536,-51.08700942993164,-9.364212989807129,17.25623321533203,1.8721414804458618,-1.2036850452423096,0.08610688149929047,,,,,,,,,
1739304750.2225223,-0.05799642893139816,1.1099257030489462,-0.479596296835674,-1.4056859660818926,1.620603483372018,1.064616375697019,1.3602638960615034,0.0002769908666128313,0.0007862570614048394,-0.0014623614515674298,0.00012113031684449099,0.0004872384195448767,0.00023537519141282124,-0.0010147674808699703,-0.1793939769268036,-51.05923843383789,-9.340409278869629,17.25623321533203,1.8858743906021118,-1.2165024280548096,0.07969819009304047,,,,,,,,,
1739304750.2325604,-0.057995140942422446,1.1099250146101884,-0.4795948778998618,-1.405684182387408,1.6206003075800677,1.0646163756970912,1.3602676925500223,-0.0009538619415147749,0.0002805400542548696,0.00019322992109430223,0.0008850325478362276,0.0001426578438209509,0.0004619475392570088,0.0011152358500777313,-0.2071649730205536,-51.05923843383789,-9.388016700744629,17.23242950439453,1.8858743906021118,-1.2165024280548096,0.03941498324275017,,,,,,,,,
1739304750.243595,-0.05799366524544288,1.109923177589162,-0.47959451453107915,-1.4056837397238442,1.6205995516427825,1.0646170126761603,1.3602661168306225,0.00011902494517889635,0.0005189225935699453,-5.3590886602691214e-05,-0.0002570450412877627,-0.0006629296897066408,-0.0001043318361260956,-0.0012762067648306166,-0.2309686839580536,-51.05923843383789,-9.364212989807129,17.25623321533203,1.8922830820083618,-1.2229111194610596,0.08610688149929047,,,,,,,,,
1739304750.2545166,-0.057995008355366195,1.109924945791412,-0.4795945144826259,-1.4056837488309641,1.6206033452803388,1.0646163761809266,1.360268900395489,-0.000401257830041749,0.0005896794853072865,0.0005562720518109657,0.0006980381730827899,0.00030450748871433374,-6.30076187849385e-05,0.00046371442202123073,-0.1793939769268036,-51.08700942993164,-9.364212989807129,17.25623321533203,1.8721414804458618,-1.2165024280548096,0.06596527993679047,,,,,,,,,
1739304750.2654839,-0.05799513253424834,1.109924945895094,-0.47959241689394577,-1.4056840693388448,1.6206019304455708,1.0646168466473735,1.3602693248988835,0.00012042656928988181,0.0003985489021099861,0.000883203848442913,0.00035953375153181745,0.00014081520832413252,0.001567006952988319,0.0004860350803572067,-0.2071649730205536,-51.08700942993164,-9.388016700744629,17.25623321533203,1.8721414804458618,-1.2165024280548096,0.05314789339900017,,,,,,,,,
1739304750.2755764,-0.05799416004420474,1.1099249470498604,-0.4795945143692857,-1.4056837396791801,1.6206019724125496,1.0646171333651449,1.3602641379445093,0.00099740170917848,-0.0002681766857366138,-0.0007320593062498961,0.001198382252434265,0.0004215244937407032,0.0009261230287771561,-0.0009586107569155585,-0.2547723948955536,-51.08700942993164,-9.364212989807129,17.25623321533203,1.8986917734146118,-1.2229111194610596,0.10624848306179047,,,,,,,,,
1739304750.2864776,-0.05799301918574934,1.109925635534707,-0.47959249559460626,-1.4056820760423434,1.6206003088362961,1.0646148454780444,1.360269478609426,-0.0003729225933052059,0.0003793118079311106,0.001018644899655161,0.0005644548151405375,-0.0008502087110896183,-0.00019582669227353238,0.0006807369836492096,-0.2071649730205536,-51.08700942993164,-9.388016700744629,17.23242950439453,1.8858743906021118,-1.2036850452423096,0.05955658480525017,,,,,,,,,
1739304750.2975357,-0.05799342874651841,1.10992665831474,-0.479594511565107,-1.4056843941649475,1.6206008210183571,1.0646160472280026,1.360264707759067,0.001542422950315309,0.0006936191694942337,7.52527658729937e-05,0.0009628004537120821,0.00012100135448989911,-0.00021095855567926676,0.0011598648576002896,-0.2309686839580536,-51.11081314086914,-9.364212989807129,17.23242950439453,1.8785501718521118,-1.2229111194610596,0.07328949868679047,,,,,,,,,
1739304750.308461,-0.057995141062584216,1.1099229475222134,-0.4795962194037747,-1.4056856049314115,1.6206035655928974,1.0646171333510381,1.3602711726423025,-0.00027626025685398655,-0.00013980473771859025,-0.00011235490173350937,-0.000947237023535925,0.0008953088259037619,-0.0004383778435845338,0.003200588776924799,-0.2071649730205536,-51.05923843383789,-9.340409278869629,17.28003692626953,1.8593240976333618,-1.2229111194610596,0.04673920199275017,,,,,,,,,
1739304750.3185258,-0.05799706029911343,1.1099223143554218,-0.479597375504258,-1.4056855223520146,1.6206003088203476,1.0646171326949965,1.3602581294967826,-0.00037648692523823877,-0.0008207530343690779,-0.0013812191176183052,-9.591132417565204e-05,0.0001108151069495684,0.00018598684079219348,-0.00015123728146536754,-0.1793939769268036,-51.08700942993164,-9.364212989807129,17.28003692626953,1.8858743906021118,-1.2229111194610596,0.11998139321804047,,,,,,,,,
1739304750.3295147,-0.05799713954314451,1.1099294899598182,-0.4795962972080963,-1.405681957109632,1.6206061709281792,1.0646148603769232,1.3602645150835386,-0.0005687959744055517,0.0015243041277384485,-0.0004453017108111409,0.0005796317527633224,0.0018482073057709417,-0.00023939247181598022,-0.0006123967055448097,-0.1793939769268036,-51.11081314086914,-9.340409278869629,17.23242950439453,1.8721414804458618,-1.2036850452423096,0.06596527993679047,,,,,,,,,
1739304750.339537,-0.057993432687333105,1.1099254432638042,-0.4795974322145181,-1.4056878352397681,1.6206026898981616,1.0646163755315479,1.3602710467131156,-8.20391771077846e-05,0.0014671274337527086,0.0001246701184479135,-0.0012241135920830367,0.000812222139270665,8.63736181919585e-05,0.00028091096855669534,-0.2309686839580536,-51.11081314086914,-9.312638282775879,17.28003692626953,1.8657327890396118,-1.2165024280548096,0.04673920199275017,,,,,,,,,
1739304750.3505518,-0.05799877281991482,1.109926658710184,-0.4795962971436455,-1.4056829461443883,1.6206019323756595,1.0646156185215265,1.3602674268752042,-0.0016848735821756978,0.0005139768837657303,0.000627644261662578,-0.0003380720769477902,-0.00016990606392544046,9.79352247184478e-06,0.00014606417324259367,-0.1555902659893036,-51.11081314086914,-9.340409278869629,17.23242950439453,1.8721414804458618,-1.2100937366485596,0.06596527993679047,,,,,,,,,
1739304750.3615918,-0.057995386921249024,1.1099268888439162,-0.47959452331294333,-1.4056839864882902,1.6206001518349245,1.064616375697092,1.3602661862205336,0.0006778015010169572,0.0014370072404245888,-0.00033360417550360133,0.0003790778042051249,-0.0015337808522835484,-1.6723905097383688e-05,0.0012306628477521263,-0.2071649730205536,-51.11081314086914,-9.364212989807129,17.25623321533203,1.8858743906021118,-1.2165024280548096,0.07969819009304047,,,,,,,,,
1739304750.3724675,-0.05799342875988434,1.1099250141449157,-0.47959420723909435,-1.4056865113475967,1.6206011747146973,1.0646163756970912,1.3602720392695116,0.0010882587121791463,-0.0005572402529103498,-0.00034459714684888644,-0.0003646522267719902,1.5762113504808677e-05,0.00024446141332689974,0.002796332495234847,-0.2309686839580536,-51.05923843383789,-9.340409278869629,17.28003692626953,1.8785501718521118,-1.2165024280548096,0.03941498324275017,,,,,,,,,
1739304750.3824797,-0.05799686738120306,1.109926661285241,-0.4795945143392258,-1.4056839910091834,1.6206037496738697,1.064612788840839,1.3602604974707262,-8.454779003532652e-05,0.000566588801082807,0.002241312611036628,0.0006195153679480612,-0.0004888149547548965,-0.0006436694325844579,-0.0005705635437325174,-0.1793939769268036,-51.11081314086914,-9.364212989807129,17.25623321533203,1.8657327890396118,-1.2229111194610596,0.09983979165554047,,,,,,,,,
1739304750.3934448,-0.05799342875696315,1.1099269760811727,-0.4795945410825943,-1.4056837682776546,1.6206003088243326,1.064610515780898,1.3602672588817728,0.00012825691094051187,0.0011680442956397028,8.209106323117474e-05,-0.0009476963235379028,-0.0014084430528546097,-0.001621523695179177,0.00014604372312551576,-0.2309686839580536,-51.11081314086914,-9.364212989807129,17.25623321533203,1.8858743906021118,-1.2036850452423096,0.07969819009304047,,,,,,,,,
1739304750.4044716,-0.057995141279228855,1.1099277132421113,-0.4795973755060253,-1.4056820129224084,1.620599169412928,1.064616375623515,1.3602710119734898,-0.0008826797360374586,0.0009424166162090485,-0.00011832760413672838,0.0008561825626845939,-0.0011569704285389322,0.0001857212551700386,0.0018340231887336179,-0.2071649730205536,-51.08700942993164,-9.364212989807129,17.23242950439453,1.8593240976333618,-1.2165024280548096,0.04673920199275017,676,700,672,46.278,0,0
1739304750.414512,-0.057996087551416366,1.1099249458407303,-0.4795935657665306,-1.4056829551498478,1.62060192653731,1.0646171396558866,1.3602688997346764,-0.00023706811254436895,0.00042376207244698043,0.0010317858708018943,0.00045416264125441364,-0.0006391410322669044,0.0006410689369617511,0.002622742143232955,-0.2071649730205536,-51.08700942993164,-9.364212989807129,17.23242950439453,1.8721414804458618,-1.2229111194610596,0.06596527993679047,674,699,671,46.278,0,0
1739304750.425521,-0.05799714214501561,1.1099256345548996,-0.4795938045481888,-1.4056794865792406,1.620603213313796,1.064617133357205,1.3602628657909863,1.1114955734443032e-05,0.0006484500961643754,0.001047769463853043,0.00034945616684193046,0.001590164534184108,-0.0003845507839831007,-1.4616827814594498e-05,-0.1793939769268036,-51.08700942993164,-9.364212989807129,17.20862579345703,1.8657327890396118,-1.2229111194610596,0.09343110024929047,675,700,670,46.170,0,0
1739304750.4355605,-0.05799713922013147,1.1099222344218063,-0.47959448692885387,-1.4056824283767302,1.6206019323845235,1.0646156180370128,1.3602611096023565,-0.0010808361676770397,-0.0006448204042726406,-0.00042769507650137426,0.0001766391376906768,-0.000548122682098713,-0.00025468352399964377,-0.0014285668508495727,-0.1793939769268036,-51.03543472290039,-9.364212989807129,17.20862579345703,1.8721414804458618,-1.2100937366485596,0.09983979165554047,677,701,670,46.170,0,0
1739304750.4455752,-0.05799714051767836,1.109927020604656,-0.4795941712601811,-1.40568450893056,1.620600100600266,1.0646163622880902,1.3602606660827272,-0.0003743398126061984,0.0006836337822227511,-0.0007144269028412377,-1.9440572349810846e-05,-0.0021330780212941935,-0.0004675835143386402,-0.0033214079801966944,-0.1793939769268036,-51.08700942993164,-9.340409278869629,17.25623321533203,1.8922830820083618,-1.2165024280548096,0.12639008462429047,679,701,670,46.170,1,0
1739304750.45647,-0.05799713922008926,1.109923637080666,-0.4795906549835282,-1.405680916070592,1.6206022343029793,1.0646163756970155,1.3602700716821337,-0.00034054727411935077,-0.0003571246077542125,0.0018730285578482022,0.0015970991143542915,0.0008440079538230513,-3.6270502011694804e-05,0.0018830294961410384,-0.1793939769268036,-51.05923843383789,-9.415787696838379,17.20862579345703,1.8785501718521118,-1.2165024280548096,0.04673920199275017,682,699,670,46.061,0,0
1739304750.467478,-0.05799342875849769,1.1099229847006518,-0.47959701256075377,-1.4056844815752134,1.6206019323816432,1.0646131175251843,1.360269531411495,0.00042155616337911147,-0.0008471215064143464,-0.0010809092407136484,0.0002767392706700071,0.0007010133826605166,-0.0005291262564387358,0.0023163427968538983,-0.2309686839580536,-51.05923843383789,-9.340409278869629,17.25623321533203,1.8721414804458618,-1.2165024280548096,0.05955658480525017,679,701,671,46.278,0,0
1739304750.4775443,-0.05799713922008194,1.1099192742358008,-0.479594514494741,-1.4056822052755242,1.6206004221952703,1.0646152118790346,1.3602588939732516,-0.001184553216852251,-0.0018917316907245,0.00013554380003921105,0.0005664225875042475,0.00015753374324228153,-0.00024128952803526775,-0.0018707946964713457,-0.1793939769268036,-51.00766372680664,-9.364212989807129,17.23242950439453,1.8858743906021118,-1.2036850452423096,0.11998139321804047,680,701,670,46.278,0,0
1739304750.4884617,-0.05799514160362799,1.109926009131267,-0.4795906520157511,-1.4056855345618398,1.620601932376302,1.064615618038997,1.3602696399384495,0.0007987975301156244,-0.0003352530172249672,0.0012291365879830997,0.00046564565360763556,-7.170985075075225e-05,-0.0005335346362251107,0.0029655583496262625,-0.2071649730205536,-51.05923843383789,-9.415787696838379,17.28003692626953,1.8721414804458618,-1.2100937366485596,0.05955658480525017,676,701,668,46.278,0,0
1739304750.4984634,-0.05799342843372555,1.1099249462618728,-0.4795962067579041,-1.4056829370663553,1.620601931891145,1.0646154973560036,1.3602672351232508,0.0006722421741280446,-0.0006355280444963607,0.0005765737927220032,-0.0004929793698895256,-0.000399367057161498,-0.0005597656029019874,-0.0006629801580255314,-0.2309686839580536,-51.08700942993164,-9.340409278869629,17.28003692626953,1.8721414804458618,-1.2100937366485596,0.07969819009304047,678,701,669,46.170,0,0
1739304750.5084867,-0.05799514138735642,1.1099249457901232,-0.47958964939633925,-1.4056819847640576,1.6206054132680927,1.0646170126741166,1.3602573928599997,0.0001213914102685737,-0.000194206716985092,0.0026214883768459225,0.00017797252800444164,0.0008105403184153092,-7.082533405947464e-05,-0.0020266699474234358,-0.2071649730205536,-51.08700942993164,-9.388016700744629,17.23242950439453,1.8785501718521118,-1.2229111194610596,0.12639008462429047,679,703,670,46.278,0,0
1739304750.5184999,-0.057996981177912396,1.1099277376967502,-0.4795945144304248,-1.4056822174732524,1.6206026901075206,1.064617132858496,1.3602635111236148,-0.0006908684967365126,0.0006067435269667245,-0.0003442950354138251,0.0001854979001244926,-0.0005029230390630254,-0.00017737236699250417,-0.002355507802795507,-0.1793939769268036,-51.08700942993164,-9.364212989807129,17.23242950439453,1.8657327890396118,-1.2229111194610596,0.07328949868679047,679,703,669,46.170,1,0
1739304750.5295014,-0.05799419422675863,1.1099270070841336,-0.47959452331294306,-1.4056820394143474,1.62060191929371,1.0646163752004587,1.3602640177654945,0.0007091917737713125,0.00014266733195577983,0.0005237945745527377,0.00031185333279193725,0.0007458738996094941,3.823761944097477e-05,-0.0010789023703714987,-0.2071649730205536,-51.08700942993164,-9.364212989807129,17.23242950439453,1.8721414804458618,-1.2165024280548096,0.07969819009304047,684,702,668,46.170,1,0
1739304750.5404766,-0.05799926759725965,1.109921243843436,-0.4795962971596945,-1.4056823995600958,1.620604353468392,1.0646171333571666,1.3602699128900122,-0.0004920820472450799,-0.0005888669989110081,6.946779666296425e-05,0.0019463591004926315,6.480444016976722e-05,0.00013320571165061537,-0.00015610251824647295,-0.1793939769268036,-51.03543472290039,-9.340409278869629,17.20862579345703,1.8785501718521118,-1.2229111194610596,0.05314789339900017,683,702,669,46.170,1,0
1739304750.5504932,-0.05799342919102955,1.109926936391271,-0.4795905732787511,-1.4056837533531201,1.62060258772792,1.0646163756970912,1.360267325559539,0.00023767852493652747,0.0003295994420481428,0.002133836209623767,0.00028101461117070384,0.00038054258805095287,0.00023752474789979,-0.000940123191698939,-0.2309686839580536,-51.08700942993164,-9.415787696838379,17.25623321533203,1.8785501718521118,-1.2165024280548096,0.06596527993679047,683,702,671,46.170,0,0
1739304750.5615208,-0.05799898397300523,1.1099229482729225,-0.4795962961514325,-1.4056837371702864,1.6206041966492037,1.0646156173748398,1.3602672627111312,-0.0003752187657910912,-0.0009254265842081324,6.086414074962523e-05,7.839345366681026e-05,-0.0007916511388393342,0.00011062801956601042,0.0027760475594234835,-0.1555902659893036,-51.05923843383789,-9.340409278869629,17.25623321533203,1.8785501718521118,-1.2100937366485596,0.07969819009304047,678,702,669,46.170,0,0
1739304750.5715299,-0.05799485983502023,1.1099266941930501,-0.4795959792954087,-1.405685522350489,1.6206031611395502,1.0646163756970575,1.3602635357284474,-0.00036992041880446695,0.0002586901776824524,-0.00018014975357320611,-0.0004553815605884133,0.001959279522099273,-0.0001617544872239855,-0.0015176275784043402,-0.2309686839580536,-51.08700942993164,-9.340409278869629,17.28003692626953,1.8657327890396118,-1.2165024280548096,0.07969819009304047,678,700,670,46.278,0,0
1739304750.5815356,-0.05799343165008169,1.1099277008941142,-0.47959452625458826,-1.4056839873747098,1.6206026893923773,1.0646156180370128,1.360266995684625,0.0003052535615873,0.0008631313192052987,0.0007078473053653715,0.0005161812960018521,0.0011627336245488883,-0.00014344145494769625,-0.0004048592853676111,-0.2309686839580536,-51.08700942993164,-9.364212989807129,17.25623321533203,1.8657327890396118,-1.2100937366485596,0.05314789339900017,681,701,670,46.278,0,0
1739304750.5924954,-0.057997978689606135,1.109928894809802,-0.4795963059901618,-1.4056838495661905,1.6206011747155726,1.0646163756970912,1.3602601755967834,-0.0011097133770976973,0.0020661750579583026,0.00011217719160397518,-0.0006867957948988399,0.0010458512675387342,0.00038549499737793535,-0.0015003571505010967,-0.2071649730205536,-51.13858413696289,-9.340409278869629,17.25623321533203,1.8785501718521118,-1.2165024280548096,0.09983979165554047,682,700,671,46.278,0,0
1739304750.6025043,-0.057997060315134366,1.1099303716082003,-0.4795934909016769,-1.4056862125023477,1.6206008727375325,1.0646167668444748,1.3602669481240766,0.00019770482317856106,0.0016771936530659997,0.0007804688580351792,-0.001015320220800728,-0.00031252456982775687,-0.00016842285724218354,3.5105461962512416e-05,-0.1793939769268036,-51.16238784790039,-9.364212989807129,17.25623321533203,1.8721414804458618,-1.2229111194610596,0.07328949868679047,681,700,671,46.387,0,0
1739304750.613498,-0.057993428758052266,1.1099229488990645,-0.47959451350478577,-1.4056801869201867,1.6206053740162625,1.0646163756950222,1.3602656128844601,0.0006959566401631072,-0.0008281526005956012,0.0002618517673656353,0.0016877651865825263,0.0008587824541131719,0.00031125106197048773,0.0013045475216250108,-0.2309686839580536,-51.05923843383789,-9.364212989807129,17.20862579345703,1.8785501718521118,-1.2165024280548096,0.09343110024929047,680,702,668,46.387,0,0
1739304750.6244512,-0.057997269661752726,1.1099228003378452,-0.47959454097357335,-1.405684728342207,1.6206011747392888,1.0646163622880902,1.3602570099038234,7.006588623345751e-06,0.00034931775437460876,-0.0008571658017977855,-6.827062170147336e-05,8.835628295421772e-05,-0.0005015016481552559,-0.004589904663891477,-0.2071649730205536,-51.08700942993164,-9.364212989807129,17.25623321533203,1.8785501718521118,-1.2165024280548096,0.12639008462429047,683,700,670,46.061,1,0
1739304750.6345203,-0.05799516759160068,1.109923891675781,-0.4795917908866422,-1.4056859648213957,1.6206011748770897,1.0646171333569423,1.3602679077795747,7.32565172941986e-05,-0.0006274963319651461,0.0011451114337500744,0.0001383011684578773,-0.00023609546861545506,-6.832961593925194e-05,0.0005788036796137016,-0.2071649730205536,-51.05923843383789,-9.388016700744629,17.25623321533203,1.8785501718521118,-1.2229111194610596,0.07328949868679047,679,700,671,46.170,1,0
1739304750.6455235,-0.05799514127937742,1.1099249799134976,-0.47959665149597047,-1.4056873417827165,1.620601972412583,1.064617999254402,1.3602651548160938,0.0018162523779148743,1.276659580719253e-05,-0.0008966015688403033,-0.0012979570777361075,0.0004077940798290149,0.00026038411457404514,0.00045112572250145865,-0.2071649730205536,-51.08700942993164,-9.364212989807129,17.30384063720703,1.8986917734146118,-1.2302353382110596,0.06596527993679047,681,702,669,46.278,1,0
1739304750.6564603,-0.05799713824574904,1.1099232826949421,-0.47959837696156377,-1.405683739637466,1.620604507405728,1.0646163756970912,1.3602646002300531,-0.001217937229056569,-0.0002614592305650274,-0.0009667224769952774,0.0005199231227875059,0.0007558508390190655,0.00018148492015347375,-0.00010551681251690537,-0.1793939769268036,-51.05923843383789,-9.312638282775879,17.25623321533203,1.8593240976333618,-1.2165024280548096,0.07328949868679047,682,702,668,46.387,1,0
1739304750.6675203,-0.05799432478824278,1.1099202662888903,-0.47959273180560674,-1.4056857695995122,1.6205999687055397,1.0646156180370128,1.3602625228651444,0.0007543691020084509,-0.0003520384146878481,0.0005534525662490702,-0.0011433385927244644,-0.0005543476842605298,-0.0002105854377798998,-0.0005864410645116936,-0.2071649730205536,-51.00766372680664,-9.388016700744629,17.28003692626953,1.8858743906021118,-1.2100937366485596,0.10624848306179047,681,702,668,46.387,1,0
1739304750.6784725,-0.05799522010667487,1.1099279682317553,-0.4795945262563826,-1.4056819692068654,1.6206002695718544,1.0646156180370128,1.3602678554716907,-0.0008097491219219499,0.0007791538801783904,0.00053872842674431,0.0011890864505309678,-0.00046456293532145165,-0.000748172126308401,0.001001540652999104,-0.2071649730205536,-51.08700942993164,-9.364212989807129,17.23242950439453,1.8858743906021118,-1.2100937366485596,0.07328949868679047,679,702,668,46.278,0,0
1739304750.6904504,-0.057995114972685585,1.1099275773229382,-0.47959281124253045,-1.405682950062175,1.6206005193630955,1.0646163756970912,1.3602600087309418,0.0004493317004647628,0.0019144721557347894,0.0009077937446449319,-4.338942452976661e-05,0.0005745504523735488,0.0005722685694873339,-0.0020462156645592354,-0.2071649730205536,-51.11081314086914,-9.388016700744629,17.23242950439453,1.8721414804458618,-1.2165024280548096,0.09983979165554047,677,699,671,46.278,0,0
1739304750.700455,-0.057991724996393816,1.109923256806555,-0.47959837694994867,-1.4056830245365197,1.6206019149250823,1.0646181929952987,1.3602640439547058,0.0006063404242363429,0.00032453458731237985,-0.001334810571915314,0.0006790046990492826,-0.0009347863374054393,0.0008451182735209927,-0.0013253551833783401,-0.2547723948955536,-51.05923843383789,-9.312638282775879,17.25623321533203,1.8721414804458618,-1.2229111194610596,0.09343110024929047,680,701,671,46.170,0,0
1739304750.7104964,-0.05799713911197106,1.109921541451445,-0.47959270566895623,-1.4056844814081768,1.6206026900354447,1.0646171333751144,1.3602676793365642,-8.394977642074794e-05,-0.0018167046259571205,0.00138105453335187,0.000373252213118998,0.00019314133409635353,0.00044862481299136857,0.0031178615412815486,-0.1793939769268036,-51.03543472290039,-9.388016700744629,17.25623321533203,1.8657327890396118,-1.2229111194610596,0.03941498324275017,681,700,670,46.387,0,0
1739304750.7215228,-0.057997139652613466,1.1099268879008357,-0.47959391181329203,-1.405686265118979,1.6206040004172617,1.0646163756970912,1.36026271922145,-8.476210291371851e-05,0.0010637545577753592,-5.776401051066368e-05,-0.0011510470030996337,0.0001841150736801689,0.0006202403397877614,-0.0006702609470941555,-0.1793939769268036,-51.11081314086914,-9.364212989807129,17.28003692626953,1.8785501718521118,-1.2165024280548096,0.08610688149929047,679,701,673,46.170,0,0
1739304750.7315595,-0.05799561397718297,1.10992724451104,-0.47959628883694794,-1.4056855254156504,1.6206015323367977,1.0646163756970912,1.3602544901178133,0.0005738448136237017,0.0008715801277453663,0.00011319357278905483,-0.0008381847093742708,0.0006653269381706812,-0.0014621321596708023,-0.005039395416221393,-0.2071649730205536,-51.08700942993164,-9.340409278869629,17.28003692626953,1.8785501718521118,-1.2165024280548096,0.14653168618679047,681,699,672,46.278,1,0
1739304750.7424724,-0.057995144206826006,1.109925026465043,-0.47959036677928385,-1.4056838526145032,1.62060117472164,1.0646163756970912,1.3602605018889093,0.0002754603144335481,-0.0003517440782617188,0.002682007642140543,0.0001875497678802333,-0.0007710202867769495,6.354337648932021e-06,-0.001255724369733258,-0.2071649730205536,-51.05923843383789,-9.388016700744629,17.25623321533203,1.8785501718521118,-1.2165024280548096,0.10624848306179047,681,700,670,46.170,1,0
1739304750.7535145,-0.057997138895309816,1.1099257030172884,-0.4795962971551945,-1.4056840145078602,1.6206001925343314,1.0646163756970912,1.3602699133798037,-0.0002186447515731215,0.0005618517776881806,-0.00016687944426117753,-0.00016977671184113455,-0.0017606077102976692,8.615909862054001e-05,0.0009988001451877754,-0.1793939769268036,-51.05923843383789,-9.340409278869629,17.25623321533203,1.8858743906021118,-1.2165024280548096,0.05314789339900017,680,701,671,46.278,0,0
1739304750.7644465,-0.057991689930776386,1.1099229769317824,-0.4795936854799229,-1.4056869671381147,1.6206026962799664,1.0646163354700882,1.3602641372427928,0.0021037779625012634,-0.00019604825158800443,-0.00023946792496252166,-0.0005776442865078901,0.0007386207050320735,-0.0008984632458242373,0.00036130246866323277,-0.2547723948955536,-51.05923843383789,-9.388016700744629,17.25623321533203,1.8657327890396118,-1.2165024280548096,0.10624848306179047,680,701,671,46.170,1,0
1739304750.7745094,-0.057994185458209176,1.1099250948726724,-0.47959451449877616,-1.40568383130192,1.6206011747156894,1.0646156180363315,1.3602688595085723,0.0010424998860262694,0.0005491265807061425,0.00025144565959006636,-0.0009852263265307892,9.977408566587612e-05,-0.0008415696693675489,0.0001503228984466271,-0.2071649730205536,-51.05923843383789,-9.364212989807129,17.25623321533203,1.8785501718521118,-1.2100937366485596,0.06596527993679047,682,704,671,46.170,0,0
1739304750.7855067,-0.057993428789146394,1.1099229491561187,-0.47959452331294344,-1.405683767259268,1.6205976894624938,1.064614858444251,1.3602648127182893,0.0009225720141078674,-0.001258072576985303,-0.0004011599655699045,-0.00035751662811823906,-0.0015161180976711497,-0.0002611779203522478,0.0011774081567693206,-0.2309686839580536,-51.05923843383789,-9.364212989807129,17.25623321533203,1.8721414804458618,-1.2036850452423096,0.05955658480525017,681,700,670,46.170,0,0
1739304750.7955084,-0.057993011710775096,1.1099195447651256,-0.47959628841123864,-1.4056837671461642,1.6206019323038077,1.06461561803698,1.3602623892602934,0.0009927024042857507,-0.0010315372437331456,-0.0003389861332342882,0.0008404369324576378,-0.0001440116177817273,0.0003778084407911463,-0.0011575235205985462,-0.2071649730205536,-51.00766372680664,-9.340409278869629,17.25623321533203,1.8721414804458618,-1.2100937366485596,0.07969819009304047,681,698,670,46.278,0,0
1739304750.8055468,-0.057996952642718404,1.109923288090204,-0.47959629715949653,-1.4056837701986176,1.6206029920137899,1.0646163756970912,1.3602673268266594,0.0007872660579184743,-0.0004752372462294197,-0.0006098406117765434,-0.0013326630030461289,0.0005782038290503827,-0.00036645293183160945,0.0007414051907037613,-0.2071649730205536,-51.05923843383789,-9.340409278869629,17.25623321533203,1.8721414804458618,-1.2165024280548096,0.06596527993679047,684,700,671,46.170,0,0
1739304750.816505,-0.05799443100077051,1.109921337404672,-0.4795945144826256,-1.405685521952408,1.6206030389476163,1.0646163756970912,1.3602660246074512,0.0008043512413491818,-0.0009999055944990062,-0.0005640088992992427,-0.0007354420115859772,0.0007201602972061789,5.502093388096271e-05,0.0009773685428355785,-0.2071649730205536,-51.03543472290039,-9.364212989807129,17.28003692626953,1.8657327890396118,-1.2165024280548096,0.07969819009304047,683,700,669,46.170,0,0
1739304750.8265388,-0.05799342539043351,1.1099250478310712,-0.4795945144826256,-1.405686265114785,1.6206030007410015,1.064616380703764,1.3602651162397188,0.00169629198885321,0.0007432446370959085,-4.8052115734608176e-05,-0.000986025591538779,0.0008735355755861633,-0.00015544854813165186,0.00024074555355130972,-0.2309686839580536,-51.08700942993164,-9.364212989807129,17.28003692626953,1.8721414804458618,-1.2165024280548096,0.09343110024929047,681,700,669,46.278,1,0
1739304750.838471,-0.05799522010819223,1.1099212693421827,-0.47959861831151857,-1.4056837437477308,1.6206003075861724,1.0646171333571977,1.36026915526923,-0.0006647529118523406,-0.0013720670840320862,-0.0018086993775134875,0.00018998256765769486,-0.0008193294640087643,0.0007414054205008006,0.0027449023545881267,-0.2071649730205536,-51.03543472290039,-9.312638282775879,17.25623321533203,1.8858743906021118,-1.2229111194610596,0.05314789339900017,684,700,671,46.278,0,0
1739304750.8495083,-0.057992931816760754,1.1099212390714868,-0.4795923885840828,-1.4056837400504512,1.6206003218464657,1.0646187569144803,1.3602639583586404,-0.0002329082901504978,-0.0012110523594165389,0.0008954752532127806,0.00037601937741351294,0.00020594267091005893,0.0007151081580501826,0.0008579471256543869,-0.2071649730205536,-51.03543472290039,-9.364212989807129,17.25623321533203,1.8858743906021118,-1.2366440296173096,0.07969819009304047,684,700,670,46.278,1,0
1739304750.8595488,-0.05799342839630261,1.1099249712999855,-0.4795962971236424,-1.4056856047669215,1.620598793498415,1.0646163752004614,1.3602640530704648,0.0014241557663379257,-6.478429237551873e-05,-0.0007474900216773192,-0.00015707760816728892,-0.0005795199571817649,5.2391435236213843e-05,-0.0012526890540668382,-0.2309686839580536,-51.08700942993164,-9.340409278869629,17.28003692626953,1.8986917734146118,-1.2165024280548096,0.06596527993679047,683,699,670,46.170,1,0
1739304750.8704717,-0.05799642600839762,1.109924974134489,-0.4795906236490071,-1.4056826987814184,1.6205987578219245,1.0646171333571666,1.3602704279609397,-0.0007359698580088865,-0.00014046528705802372,0.0012260383488880912,0.00021643682436175353,-0.0006165985861136854,-0.00030321152431995535,0.0015808346555345393,-0.1793939769268036,-51.08700942993164,-9.388016700744629,17.23242950439453,1.8721414804458618,-1.2229111194610596,0.03941498324275017,685,701,671,46.170,1,0
1739304750.8815575,-0.05799784824386028,1.1099251246862707,-0.4795927406240237,-1.4056855223548035,1.620599956233743,1.0646156135673457,1.3602643764234812,-0.0010530889207573508,-0.0009222194015518811,0.0002851955365117901,-0.00010373106649818047,-0.0016446878884654702,-0.0004100520922448603,-0.0012937828958629193,-0.1793939769268036,-51.05923843383789,-9.388016700744629,17.28003692626953,1.8858743906021118,-1.2100937366485596,0.06596527993679047,684,700,671,46.278,0,0
1739304750.8924527,-0.057997161522808295,1.1099213468526998,-0.47959630010323323,-1.4056897785340887,1.620600622418833,1.0646163756970155,1.3602641878022328,1.1397725045502599e-05,-0.0014046579276732558,0.0001177708341311589,-0.0015837601065388158,0.0004568809542495032,-0.0008227599396344213,0.000613870301912618,-0.2071649730205536,-51.03543472290039,-9.340409278869629,17.30384063720703,1.8922830820083618,-1.2165024280548096,0.06596527993679047,683,699,668,46.387,0,0
1739304750.9025056,-0.05799514129063322,1.1099266923245517,-0.47959475290122133,-1.405683740026722,1.6206055822463767,1.0646163756970912,1.3602676121179837,0.0005247524731231395,0.0006836374267039001,-0.0004558706964277282,-4.704700199937054e-06,0.0016690384980787884,-1.2988538218088809e-05,0.0007202704245075853,-0.2071649730205536,-51.11081314086914,-9.364212989807129,17.25623321533203,1.8721414804458618,-1.2165024280548096,0.07328949868679047,685,699,668,46.278,0,0
1739304750.9144506,-0.057993691629905336,1.1099240271912865,-0.47959273180695244,-1.405685522463672,1.6206011922326253,1.0646170126761603,1.3602651326008226,0.0003351947764699891,-0.0016072537229389538,0.0004446754860230881,-0.0009548727645759072,-4.222116978072412e-05,-0.001561634636351871,0.00015628557738654145,-0.2309686839580536,-51.11081314086914,-9.388016700744629,17.28003692626953,1.8785501718521118,-1.2229111194610596,0.05955658480525017,682,700,671,46.278,0,0
1739304750.9254782,-0.05799132545483667,1.1099249741293942,-0.4795955885387586,-1.405685522363178,1.6205995511762508,1.0646163737103453,1.360266144001269,0.0005834025757930365,-0.0004094353475735909,-0.00018492247591405352,-0.0004206561793288071,-0.0009819092421999719,1.4685433463389408e-05,0.0013826900362790711,-0.2309686839580536,-51.08700942993164,-9.340409278869629,17.28003692626953,1.8922830820083618,-1.2165024280548096,0.07969819009304047,682,699,668,46.278,0,0
1739304750.9355462,-0.05799443106305871,1.1099236492119617,-0.47959451447062507,-1.4056859679661244,1.6206003088183514,1.064615618036979,1.3602647203060299,-0.00021755900010888912,-0.0010379722271983275,0.0011150878168629066,-0.0011531634289430914,-9.348924374409748e-05,-5.731835973196269e-05,0.0005490034322470315,-0.2071649730205536,-51.05923843383789,-9.364212989807129,17.25623321533203,1.8858743906021118,-1.2100937366485596,0.07328949868679047,690,698,669,46.170,2,0
1739304750.9465203,-0.05799514123913329,1.109924946738882,-0.4795945145189643,-1.4056837478623962,1.6206019324294971,1.0646156180370128,1.3602604974280874,-0.0007910045652396456,-0.0007171192298693478,0.00032409774875215394,-7.355349716102591e-05,-0.0003533226204162937,-7.865317427427828e-06,7.645437295568098e-05,-0.2071649730205536,-51.08700942993164,-9.364212989807129,17.25623321533203,1.8721414804458618,-1.2100937366485596,0.10624848306179047,685,699,665,46.278,1,0
1739304750.9575746,-0.05799343153374378,1.109926737989631,-0.47959273180560674,-1.4056916466870748,1.6205992486957053,1.0646137742478519,1.3602642330557788,0.0007311414866802491,-0.000203791530348915,0.00025688737174312914,-0.0016904763150241032,-0.0018017080916788706,-0.0016663123199454793,0.0011488753919062424,-0.2309686839580536,-51.11081314086914,-9.388016700744629,17.33161163330078,1.8858743906021118,-1.2036850452423096,0.07328949868679047,685,700,670,46.170,0,0
1739304750.9685104,-0.05799689076520829,1.1099257795432473,-0.4795927318056066,-1.4056837397240503,1.6205995511522884,1.064615617865338,1.3602668544630487,-2.138565791259475e-05,-0.00021787436723272986,0.0003539785332671876,-0.0003238645320690805,-9.978338362403135e-05,-0.00025775545915866544,0.000470467790792522,-0.1793939769268036,-51.05923843383789,-9.388016700744629,17.25623321533203,1.8922830820083618,-1.2100937366485596,0.07969819009304047,686,700,670,46.278,0,0
1739304750.9785347,-0.05799342875429008,1.1099252523756664,-0.47959451448262563,-1.4056837672587517,1.6205999536675741,1.0646163756970881,1.3602635090383028,-0.00024151848186127606,-0.0010497818840822183,-4.5979712164916396e-05,0.0003363617759721202,-0.0009736709425853658,0.0005409871591212933,-0.0004902445343810216,-0.2309686839580536,-51.08700942993164,-9.364212989807129,17.25623321533203,1.8858743906021118,-1.2165024280548096,0.07328949868679047,687,699,669,46.170,0,0
