IITGN-Robotics/Franka_IITGN_ROBOTICS/franka_ros/franka_iitgn/data01/s_f_010.csv
time,fr3_joint1_pos,fr3_joint2_pos,fr3_joint3_pos,fr3_joint4_pos,fr3_joint5_pos,fr3_joint6_pos,fr3_joint7_pos,fr3_joint1_vel,fr3_joint2_vel,fr3_joint3_vel,fr3_joint4_vel,fr3_joint5_vel,fr3_joint6_vel,fr3_joint7_vel,fr3_joint1_eff,fr3_joint2_eff,fr3_joint3_eff,fr3_joint4_eff,fr3_joint5_eff,fr3_joint6_eff,fr3_joint7_eff,flexpin1,flexpin2,flexpin3,Force,ContactMic,ContactMic_gt
1739304832.876375,-0.05495652634459408,1.107919610647904,-0.4802639743761222,-1.4097295411894029,1.6218739130755242,1.0665101987115264,1.3592812633129312,-0.0012211283393921927,-0.0011660963364100371,-0.0013494807790821344,-0.0005852106765427674,0.0013931257098902076,0.001706943867046312,-0.00032351888419447335,-0.4809076488018036,-51.11081314086914,-9.514969825744629,17.15705108642578,1.8986917734146118,-1.2165024280548096,0.10624848306179047,,,,,,,,,
1739304832.8864071,-0.05495851404118191,1.107924399221702,-0.48026075132667057,-1.4097417357597912,1.6218699686824298,1.0665094748721193,1.359282489148118,-0.001287243886879978,0.00037111678697527705,0.0005580992846061733,-0.0015690211636108918,-0.0024155567596115105,0.0005670547119772786,-0.00032749161422548196,-0.3063471019268036,-51.05923843383789,-9.514969825744629,17.18085479736328,1.8922830820083618,-1.2229111194610596,0.06596527993679047,,,,,,,,,
1739304832.8964093,-0.05495184864725713,1.1079319900793012,-0.4802593506841623,-1.4097516286739251,1.62187228374018,1.06650961468994,1.3592828864671775,0.00012350129677170718,0.0020012454051492328,-0.000979001983500624,-0.0019144651782618282,-0.0009089153593750085,0.0007780647823688537,0.0013306038636479614,-0.3063471019268036,-51.13858413696289,-9.491166114807129,17.18085479736328,1.8721414804458618,-1.2430527210235596,0.05314789339900017,,,,,,,,,
1739304832.9073358,-0.05494888169180271,1.1079279637897037,-0.48025802852959093,-1.4097583741380455,1.6218715262398413,1.0665077605139346,1.3592668437049213,-0.0003793737020573453,-0.00022853778241060138,-0.0005704576848938738,-0.001125078008938157,-0.00019055445072029415,0.0005075127418639542,-0.0015826947320115316,-0.3063471019268036,-51.00766372680664,-9.467362403869629,17.13324737548828,1.8785501718521118,-1.2366440296173096,0.11265717446804047,,,,,,,,,
1739304832.9174247,-0.05494537431645006,1.1079262276145798,-0.48025796385096303,-1.4097598795047657,1.6218781388757366,1.0665073896951132,1.3592726104656037,0.0002839318655793236,-0.00033082023052691755,-0.0002567471827384764,0.0005137713969562322,0.0023234885925499855,5.2258188634472754e-05,-0.0004337868623755539,-0.3063471019268036,-50.93228530883789,-9.467362403869629,17.10944366455078,1.8593240976333618,-1.2366440296173096,0.05955658480525017,,,,,,,,,
1739304832.9283366,-0.054942496623260804,1.1079320504376136,-0.4802569841748777,-1.4097669948107565,1.6218730236573768,1.0665017118194862,1.3592757704749714,0.0015865708067068053,0.0010700265783710374,0.0011837492180149143,-0.001390787935862886,-0.000605091538050456,-0.0008209268241754842,0.0015174214513416172,-0.3063471019268036,-50.96005630493164,-9.467362403869629,17.15705108642578,1.8657327890396118,-1.2165024280548096,0.05955658480525017,,,,,,,,,
1739304832.9383495,-0.05494879634553582,1.1079311099825853,-0.4802579378328968,-1.4097613069890467,1.6218738660837326,1.066506631488409,1.3592639865420986,-0.0019702008798809295,-0.0010512561642458766,4.604996992002585e-05,0.0012398513483117739,-0.0015192088919404932,0.0008819085349078111,-0.002864890303609841,-0.2309686839580536,-50.96005630493164,-9.467362403869629,17.08167266845703,1.8593240976333618,-1.2302353382110596,0.11998139321804047,,,,,,,,,
1739304832.9484034,-0.05494636940280921,1.1079333065357504,-0.48025790252777606,-1.409759550802258,1.6218745131139223,1.0664995408240427,1.359267838624268,0.000594016924692131,0.00034033552796722917,-0.0008573147380437697,0.0010367598776862734,-0.00030472133604153996,-0.0014919018859670657,0.0007731927334094473,-0.2071649730205536,-50.93228530883789,-9.467362403869629,17.05786895751953,1.8529154062271118,-1.2100937366485596,0.05955658480525017,,,,,,,,,
1739304832.9593735,-0.05493997964123805,1.1079356144027286,-0.48025503841583345,-1.4097669785872806,1.6218760148655833,1.0664995000442217,1.3592657771975056,0.002714151703144008,-0.0003698580732514504,0.0011193425478074216,-0.002063202383107977,-0.0007469460824545956,-0.002636763841238243,-0.00012541587821561788,-0.3301508128643036,-50.93228530883789,-9.467362403869629,17.15705108642578,1.8400980234146118,-1.2100937366485596,0.11265717446804047,,,,,,,,,
1739304832.9693828,-0.054943782829658165,1.1079376427676473,-0.4802550725253615,-1.4097690449179712,1.621874217196202,1.0665019029033278,1.3592709758495378,0.0004516882292782956,0.00040909660733027295,-0.0004611719840438386,-0.0007882906858912225,-2.7253456252054276e-05,-0.0007718177500271108,0.0010708873721407756,-0.2825433909893036,-50.96005630493164,-9.467362403869629,17.15705108642578,1.8593240976333618,-1.2302353382110596,0.05955658480525017,,,,,,,,,
1739304832.9804168,-0.05494659275142002,1.1079365823108114,-0.4802536522150073,-1.409765710108667,1.6218738872429794,1.0665026256781234,1.359262512371782,-0.0010031296636207568,-3.217349352887031e-05,0.001170146406541295,-0.0005810387124992543,-0.0007998561359114224,-0.0002305189118961606,-0.001679378623465687,-0.2071649730205536,-50.93228530883789,-9.491166114807129,17.10944366455078,1.8593240976333618,-1.2366440296173096,0.11265717446804047,,,,,,,,,
1739304832.9913383,-0.05494093326740668,1.1079358853629862,-0.48025687814096424,-1.4097623322943595,1.6218748527588804,1.0665018636571975,1.3592669999612217,0.0009320892882060518,-0.0011689905915027042,0.0004432831696828691,-0.00013322075580268468,0.0003652458510213664,-0.0007288474763189699,0.0013930851123620577,-0.2825433909893036,-50.93228530883789,-9.439591407775879,17.08167266845703,1.8529154062271118,-1.2302353382110596,0.06596527993679047,,,,,,,,,
1739304833.0014136,-0.05494093326607163,1.1079386442000145,-0.48026084517122636,-1.4097697349594143,1.621875143834491,1.0665038499276094,1.3592621838852166,0.0012664242956983052,0.0007315551068442761,-0.001226608373987788,-0.000992863302583026,3.3064813905822046e-05,0.0009210771055324536,-0.0016560790834359088,-0.2825433909893036,-50.93228530883789,-9.415787696838379,17.15705108642578,1.8465067148208618,-1.2430527210235596,0.10624848306179047,,,,,,,,,
1739304833.0123427,-0.05494627625997125,1.1079424540193525,-0.48025278015923556,-1.4097626501373195,1.6218737811304882,1.066506742134857,1.359258702991869,-0.0010141782731335532,0.0019529450885967276,0.0008922724703132479,0.00045492452271302835,0.00015806552876957986,0.0010918989498711936,-0.001999317870651183,-0.2071649730205536,-50.98386001586914,-9.491166114807129,17.05786895751953,1.8593240976333618,-1.2366440296173096,0.09983979165554047,,,,,,,,,
1739304833.0223584,-0.0549417992601978,1.1079387539510854,-0.48025758021853066,-1.409766512711108,1.621878738098532,1.0665009978297268,1.3592681083551932,-0.0002240170243020937,0.000936648260517849,-0.00046941823616581014,-0.0007317441802703329,3.110970031170128e-05,-0.00045113079380051826,0.0009722028544664522,-0.2309686839580536,-50.93228530883789,-9.467362403869629,17.10944366455078,1.8529154062271118,-1.2229111194610596,0.05314789339900017,,,,,,,,,
1739304833.0333302,-0.05494455548589352,1.1079388340540037,-0.48025471921438,-1.4097665127487944,1.6218730233334713,1.0665018636571735,1.359262143845393,-0.001205905263532859,-0.0002887675969829832,0.0017251093028366666,-0.0008069471194194766,-0.0003114456011601018,0.00021978967335980034,-0.0011293591402319776,-0.2309686839580536,-50.93228530883789,-9.467362403869629,17.10944366455078,1.8657327890396118,-1.2302353382110596,0.07969819009304047,,,,,,,,,
1739304833.0433433,-0.054944613378253036,1.1079392677257824,-0.4802568788970101,-1.4097715096237882,1.6218746361797354,1.0665026213172513,1.3592599740736986,0.00011325620898222177,-0.0007819922066492896,0.0005247036522079374,-0.00048428989705857374,0.00016495186541164072,0.00045747663089756586,-0.0020343896708431763,-0.2309686839580536,-50.90848159790039,-9.439591407775879,17.13324737548828,1.8529154062271118,-1.2366440296173096,0.11265717446804047,,,,,,,,,
1739304833.053369,-0.05494034916360515,1.1079360867767298,-0.48025679909845453,-1.4097665495080633,1.6218738596251554,1.0665001223622923,1.3592668154749716,0.0009055830260217726,-0.0013441087706836463,-0.0011383804260579038,-0.0002586132989399519,-0.0012932551651181241,-7.7408743315205e-05,0.00034910538205362067,-0.2309686839580536,-50.88071060180664,-9.439591407775879,17.10944366455078,1.8593240976333618,-1.2165024280548096,0.06596527993679047,,,,,,,,,
1739304833.0643778,-0.054943498643408806,1.1079419604526655,-0.4802547281375641,-1.4097665127113175,1.6218789114314114,1.0665010021199266,1.3592629015067272,-0.0015246332053618994,0.00044847070765497555,-0.0004647293880940561,-6.128640138710673e-05,0.0016136170702702275,0.00027512931105816684,0.00010290436831369336,-0.2071649730205536,-50.93228530883789,-9.467362403869629,17.10944366455078,1.8465067148208618,-1.2229111194610596,0.07328949868679047,,,,,,,,,
1739304833.0753582,-0.05494133847726932,1.1079364323908787,-0.48025472214171916,-1.4097666236169935,1.6218759124706525,1.0665026082353237,1.359260515911481,0.0013419322978072933,-0.0027117233508643116,-0.00040305381919715055,-0.00028189747121930563,0.000762018489715599,0.0002668716704970944,-0.0002458326170882804,-0.2309686839580536,-50.85690689086914,-9.467362403869629,17.10944366455078,1.8529154062271118,-1.2366440296173096,0.09343110024929047,,,,,,,,,
1739304833.0853798,-0.05493797320517063,1.1079439714857546,-0.48025491150771693,-1.4097648769558857,1.621879206885775,1.0665026213170297,1.3592651599102386,0.0019331178332802849,0.0016187546785054925,0.0003384244820707347,0.0005842353037474566,-1.4623116720330136e-05,0.0004335389727215648,0.0002377485741020184,-0.2825433909893036,-50.96005630493164,-9.439591407775879,17.05786895751953,1.8400980234146118,-1.2366440296173096,0.07969819009304047,,,,,,,,,
1739304833.0963461,-0.05494361217108714,1.1079418937469945,-0.4802531776939083,-1.4097687379637511,1.6218745523756948,1.0665017502802536,1.359258952641192,-0.0006710676602998245,0.0006223196290839507,0.0010100218742245507,-0.0002731182180985294,2.598642166599355e-05,-0.0006541677664147242,-0.0005112627631413911,-0.2309686839580536,-50.93228530883789,-9.491166114807129,17.10944366455078,1.8529154062271118,-1.2302353382110596,0.10624848306179047,,,,,,,,,
1739304833.107331,-0.05494145545728083,1.107940022607142,-0.4802569052803082,-1.4097658920022398,1.6218752573672321,1.0665008800217304,1.3592679334443514,-0.0005825623238294084,0.00027460421977933526,-0.0009207846673080578,0.0005618102475965914,-0.0009371218877702932,-0.00038142826339244144,0.0013729956994136343,-0.2309686839580536,-50.90848159790039,-9.439591407775879,17.05786895751953,1.8465067148208618,-1.2229111194610596,0.05314789339900017,,,,,,,,,
1739304833.1173992,-0.054937734217372775,1.1079382777984772,-0.4802549576186086,-1.409764473110291,1.6218737425312968,1.0665026213152573,1.3592677038091543,0.0012441275888620913,-0.00016921568385626395,0.0007692539268290006,-0.0008453378051503156,-0.0005256786100909559,0.0008992123043624433,0.0017873572789135154,-0.2825433909893036,-50.88071060180664,-9.467362403869629,17.08167266845703,1.8593240976333618,-1.2366440296173096,0.05955658480525017,,,,,,,,,
1739304833.1284175,-0.05494515806675318,1.1079439662550583,-0.4802547193085916,-1.4097665127113368,1.6218746305263816,1.0665009977599405,1.3592667756076842,-0.0016474368884730657,0.000530471334846383,0.00015844676635471566,-0.00012064537744334075,0.000950808689392838,0.0005958444107637807,0.002402946160079571,-0.1793939769268036,-50.96005630493164,-9.467362403869629,17.10944366455078,1.8529154062271118,-1.2229111194610596,0.06596527993679047,,,,,,,,,
1739304833.13935,-0.05494144359509635,1.1079381153678876,-0.4802567989880869,-1.4097683778044277,1.6218745000320849,1.0665002400998622,1.3592653164601667,-0.0004529371882297491,-0.00023315773535529307,-0.0004091924128530329,-0.0005290346113171081,0.0017993880474754874,0.0001779123872980643,0.0031388396844472546,-0.2309686839580536,-50.90848159790039,-9.439591407775879,17.13324737548828,1.8529154062271118,-1.2165024280548096,0.07969819009304047,,,,,,,,,
1739304833.1494217,-0.05493844435823048,1.1079402639938376,-0.4802547191982295,-1.4097666673191573,1.6218729451408451,1.066501863657173,1.3592610654042758,0.0003689794384233491,0.0004448937049748835,-0.00023927127336893268,0.0003302766745307275,-0.0005253239663753745,0.00027483077041380556,0.0007764130552000938,-0.2825433909893036,-50.90848159790039,-9.467362403869629,17.08167266845703,1.8657327890396118,-1.2302353382110596,0.10624848306179047,,,,,,,,,
1739304833.1604004,-0.05494144374343222,1.1079441193141317,-0.4802592969208414,-1.4097668708785036,1.6218795102932273,1.0665002400998622,1.359260873831451,-0.001174787003278974,0.0006604972497560296,-0.0004261295745698392,-0.0006371593528142797,0.0005637567721002132,-0.00021973104194861147,-0.0010125707041701596,-0.2309686839580536,-50.93228530883789,-9.415787696838379,17.10944366455078,1.8465067148208618,-1.2165024280548096,0.08610688149929047,,,,,,,,,
1739304833.1724072,-0.054941443703289704,1.1079431210800874,-0.4802549576208462,-1.4097673402677384,1.621877038776579,1.0665009933992895,1.3592609076089832,0.0002571491040362219,-9.582403983766756e-05,0.00036159773523159654,-0.001241134711128891,0.0016056665806974198,0.00019576076834067527,0.00013165944732213778,-0.2309686839580536,-50.90848159790039,-9.467362403869629,17.10944366455078,1.8593240976333618,-1.2229111194610596,0.07969819009304047,,,,,,,,,
1739304833.1824079,-0.05493949441966377,1.1079413408649161,-0.48026052461158625,-1.4097665961589088,1.6218748529753986,1.066501863657099,1.3592613663221293,0.000890445991806939,2.038744865258803e-05,-0.0003489670946768682,0.00019020413174117791,-0.00029342877941471054,0.0007176607665791521,-0.0007107925941806411,-0.2547723948955536,-50.93228530883789,-9.415787696838379,17.10944366455078,1.8529154062271118,-1.2302353382110596,0.07328949868679047,,,,,,,,,
1739304833.193351,-0.05494144402800013,1.10793930015589,-0.4802529365369793,-1.4097688203676373,1.6218752572060933,1.0664978188455523,1.3592635618440687,-0.0004538800651130077,-0.0013731573500031602,0.0011111494193597176,-0.0007375268278112857,-0.000628011090671129,-0.00032703885768986735,0.0007711829388230776,-0.2309686839580536,-50.88071060180664,-9.491166114807129,17.10944366455078,1.8465067148208618,-1.2229111194610596,0.09343110024929047,,,,,,,,,
1739304833.2043867,-0.05493702295302349,1.1079447131676234,-0.48025471919822954,-1.4097666856464521,1.6218784405343023,1.0665009933813445,1.35926028514914,0.0010806563166021702,0.0002964080248936924,0.0010179551368185752,0.001219026721042249,0.0008346527408736186,-0.00027248694560390416,0.000519601920212135,-0.2825433909893036,-50.96005630493164,-9.467362403869629,17.08167266845703,1.8465067148208618,-1.2229111194610596,0.08610688149929047,,,,,,,,,
1739304833.2153327,-0.054941443699279884,1.1079442286979577,-0.4802585909314869,-1.409768398255676,1.6218745141526576,1.0665009977599156,1.3592643665502444,-0.0008838072997750528,0.000749014124639312,-0.0009156109315917019,-0.0007748692926096462,0.0002949457100754996,0.00019317203636793817,0.0025690740664539337,-0.2309686839580536,-50.93228530883789,-9.415787696838379,17.13324737548828,1.8529154062271118,-1.2229111194610596,0.05955658480525017,,,,,,,,,
1739304833.2254262,-0.054943050996067486,1.107945085781526,-0.4802596639357768,-1.4097645428113947,1.6218760192264048,1.0665002400998622,1.3592679318448517,3.5779916292033673e-05,0.0016157879874145443,-0.0006472728190794906,0.0012525865395940374,0.0002868642407542189,0.0007799874697103034,0.0017173818327530807,-0.2071649730205536,-50.93228530883789,-9.439591407775879,17.08167266845703,1.8400980234146118,-1.2165024280548096,0.05314789339900017,,,,,,,,,
1739304833.2363822,-0.05494318841729343,1.107940489651154,-0.4802575937328547,-1.4097693668006355,1.621875257205453,1.0664966551604387,1.3592656727249368,-0.0012877517571170337,-0.0010370145418282396,-0.0013659041804165097,-0.00042674444655394135,0.00043204644375723024,-0.0012472555697851603,0.002353498092925898,-0.2071649730205536,-50.88071060180664,-9.439591407775879,17.13324737548828,1.8465067148208618,-1.2165024280548096,0.07328949868679047,,,,,,,,,
1739304833.247349,-0.05494143201147642,1.107945164283956,-0.4802567993196202,-1.4097684189620983,1.6218753749429984,1.0664983826906616,1.3592577688038872,-0.000741218649815166,0.0005852954018246066,0.0006578794126697105,-6.204422124043074e-06,-0.00045604434067919044,-0.0005343749525691585,0.0003722471110284744,-0.2309686839580536,-50.93228530883789,-9.439591407775879,17.13324737548828,1.8465067148208618,-1.2366440296173096,0.10624848306179047,,,,,,,,,
1739304833.257421,-0.054939966922091715,1.1079422396006333,-0.48025471930725133,-1.409766799757075,1.6218778817598716,1.0664952438154847,1.3592664166675101,-0.0006769122317982569,-9.70856833850966e-05,0.0011048857235834454,0.0003192723027652364,0.003148032804247263,-0.0009752051236846812,0.0016757996722997605,-0.2547723948955536,-50.93228530883789,-9.467362403869629,17.10944366455078,1.8593240976333618,-1.2100937366485596,0.06596527993679047,,,,,,,,,
1739304833.2683794,-0.05493594180133995,1.1079434756267204,-0.48025294535152874,-1.4097694035818402,1.6218738204003547,1.0665002268324772,1.3592636540461722,0.0017892303767365007,0.0009146241915897193,0.0016942031109028685,-0.0006157260331775651,-0.0007566112698878812,9.064054881044217e-05,0.0016284805433776082,-0.3063471019268036,-50.90848159790039,-9.491166114807129,17.13324737548828,1.8593240976333618,-1.2165024280548096,0.05314789339900017,,,,,,,,,
1739304833.2793374,-0.05493773324125973,1.1079451642531946,-0.48025751424387214,-1.4097686647791865,1.6218740440252715,1.0664978169074104,1.3592584620686818,0.0006554127016271577,0.00020562231439324373,-8.074146797685173e-05,0.0004997117301063153,-0.000698046607381643,-0.0001664343849928023,0.0003141400047937232,-0.2825433909893036,-50.93228530883789,-9.439591407775879,17.13324737548828,1.8657327890396118,-1.2229111194610596,0.10624848306179047,,,,,,,,,
1739304833.289348,-0.05493973118255828,1.1079467451178628,-0.4802560903671989,-1.4097711892782654,1.6218752615840268,1.0664997560137621,1.3592624646754667,-0.00028186096647413796,0.0012594746898397062,0.0003055697603404042,-0.0005591011283150918,0.0010732870175353825,-0.0006049067175860267,0.0006878380457860057,-0.2547723948955536,-50.98386001586914,-9.439591407775879,17.15705108642578,1.8465067148208618,-1.2165024280548096,0.05955658480525017,,,,,,,,,
1739304833.2993588,-0.05494144370328948,1.107941478756159,-0.4802565135714936,-1.4097659605945343,1.621874503906075,1.0664978125386364,1.3592577174828016,-0.000985620050646856,-0.0011582043433156605,-0.0007136581945636471,0.0015806881057151738,0.0004444626130403192,0.00013234820336894632,-0.0004908078097456165,-0.2309686839580536,-50.88071060180664,-9.439591407775879,17.05786895751953,1.8529154062271118,-1.2229111194610596,0.11265717446804047,,,,,,,,,
1739304833.3103662,-0.054941442728956576,1.107945295181739,-0.48025882891238975,-1.4097675144251065,1.6218776915417148,1.0665002400280463,1.3592609588435436,-0.0009457869209639013,0.0008245579157091019,-0.0013026260007722146,0.001081397388618139,0.0018420880485612307,0.0009807634943989054,-0.0005609031389281642,-0.2309686839580536,-50.93228530883789,-9.415787696838379,17.10944366455078,1.8529154062271118,-1.2165024280548096,0.07328949868679047,,,,,,,,,
1739304833.320412,-0.05493962552155182,1.1079451804257079,-0.48025679899227214,-1.409767378042686,1.6218760163731138,1.0665002394538385,1.3592598025383344,-0.0004473748439185727,-7.840074902543362e-06,0.0009706620767651112,0.00044124280788243543,-0.0007778772231045015,0.0009631059372229772,-0.0005637877244379491,-0.2547723948955536,-50.93228530883789,-9.439591407775879,17.10944366455078,1.8400980234146118,-1.2165024280548096,0.08610688149929047,,,,,,,,,
1739304833.3313432,-0.054940784697147374,1.1079451920522994,-0.4802575132717606,-1.4097676882003665,1.621875380003515,1.0664999364529164,1.3592589308329155,-0.0011862578488200932,0.0003661441754770039,-0.0009375848035093947,0.0010138942087678294,0.0011733903066910604,-0.0012184716516386058,0.0006142717281268975,-0.2071649730205536,-50.93228530883789,-9.439591407775879,17.08167266845703,1.8465067148208618,-1.2229111194610596,0.09343110024929047,,,,,,,,,
1739304833.3413804,-0.054939412427279,1.1079451931425262,-0.48025679932723025,-1.4097698139403523,1.621875257207508,1.0664976250866822,1.3592605543901934,-0.0002286557953804451,-0.00018429200497747163,-0.0005227056892193533,0.0006486918687333766,0.0002285930920026624,5.2249982772222306e-05,0.0012819464389350215,-0.2547723948955536,-50.93228530883789,-9.439591407775879,17.10944366455078,1.8465067148208618,-1.2302353382110596,0.07969819009304047,,,,,,,,,
1739304833.3523967,-0.05494022337193526,1.1079439980496502,-0.4802585806930442,-1.40976777208935,1.6218752586589786,1.0665009960671226,1.3592589324479385,0.00021178708126813438,-0.0014785773830287658,-0.00042769789302830104,0.00042259429936185506,-0.0002292319344176748,-0.0011311407092407975,-3.607013933917209e-05,-0.2071649730205536,-50.88071060180664,-9.415787696838379,17.08167266845703,1.8465067148208618,-1.2229111194610596,0.09343110024929047,,,,,,,,,
1739304833.363338,-0.05494304184965138,1.1079451922119257,-0.48025858166509855,-1.4097698505712244,1.6218723164370052,1.0665003921797975,1.359255034295346,-0.00028833933182865925,0.0006565987197999361,-0.00013262139552469283,-0.0007504453542883309,-0.0005024255354606306,-0.00014590080098831644,-0.0010799423058208864,-0.2071649730205536,-50.93228530883789,-9.415787696838379,17.10944366455078,1.8593240976333618,-1.2302353382110596,0.12639008462429047,,,,,,,,,
1739304833.3734176,-0.05494136055827847,1.1079415579385083,-0.48025858166510405,-1.409771739212049,1.621876855527264,1.0665004052368399,1.3592628178704529,-0.00026771741935610523,-0.00015494981024848043,-0.0013503043722266855,-0.0009714290745133054,0.0005316784616028222,0.00012291680770622494,0.0005865738711378541,-0.2309686839580536,-50.88071060180664,-9.415787696838379,17.13324737548828,1.8593240976333618,-1.2302353382110596,0.05955658480525017,,,,,,,,,
1739304833.3843997,-0.05493896647946691,1.1079434797124126,-0.48025471919822943,-1.4097719963390272,1.6218745407468502,1.0665013926448252,1.3592581689729946,0.0012604411900649995,0.0002041548998365706,0.0004953417480227442,2.469268855935908e-05,0.0009814635339957642,-0.0002020363448945752,-0.00048558150054717295,-0.2309686839580536,-50.90848159790039,-9.467362403869629,17.10944366455078,1.8529154062271118,-1.2302353382110596,0.09983979165554047,,,,,,,,,
1739304833.3953342,-0.054940493281691836,1.1079414817361366,-0.4802547192345682,-1.4097716302078935,1.621875565051748,1.0664999243911777,1.359261298968296,-6.918786669822468e-06,-0.0005815669563061542,0.00041368561914124425,-0.0007160150900653757,0.0006372864308664902,-0.0006074280575889302,-5.64709246510701e-05,-0.2309686839580536,-50.88071060180664,-9.467362403869629,17.13324737548828,1.8529154062271118,-1.2229111194610596,0.07328949868679047,,,,,,,,,
1739304833.405361,-0.05493849687146975,1.1079414849904738,-0.48025858166510466,-1.409766226958935,1.6218751008860686,1.0665006412032385,1.3592591415391326,-0.0002543029493487887,-0.0006979807703388987,-0.00042626764522652025,0.0008364773112931179,-0.000200597340281665,0.00029012438743444147,0.0001253358023570641,-0.2309686839580536,-50.88071060180664,-9.415787696838379,17.05786895751953,1.8465067148208618,-1.2302353382110596,0.07969819009304047,,,,,,,,,
1739304833.4163792,-0.054944834422702205,1.1079481094364454,-0.48025471952527826,-1.4097691101340701,1.6218731632290238,1.066497101819666,1.3592566175924108,-0.0012583804563395067,0.0013517284856546805,0.0002631957859681634,0.00074766145214694,0.00022493051566265974,-0.0015035090227961806,-0.0009441784016553733,-0.1793939769268036,-50.96005630493164,-9.467362403869629,17.10944366455078,1.8657327890396118,-1.2302353382110596,0.08610688149929047,,,,,,,,,
1739304833.4264061,-0.054941961920103206,1.1079471901541422,-0.48025679898809054,-1.4097694079956251,1.6218752572084598,1.0664994649913166,1.3592588782897292,0.00015021876811405752,0.001042925825410697,9.855742803973765e-05,0.0004869071532717237,-0.0003299862122697853,5.418056649552715e-05,0.00015734097754571387,-0.1793939769268036,-50.96005630493164,-9.439591407775879,17.13324737548828,1.8465067148208618,-1.2229111194610596,0.09343110024929047,,,,,,,,,
1739304833.436407,-0.05494072935495415,1.1079414787926973,-0.4802568784609447,-1.4097698514016248,1.6218774429845981,1.0665009439526236,1.3592620602090444,-0.00048696889892546375,-0.0004152607099289031,-6.308513530690684e-05,0.00039004391143842014,0.00020360816338620792,0.0006003345604617989,0.0011867457547277355,-0.2309686839580536,-50.88071060180664,-9.439591407775879,17.10944366455078,1.8529154062271118,-1.2229111194610596,0.06596527993679047,,,,,,,,,
1739304833.4473393,-0.054942233760364445,1.1079442490777558,-0.48025672025153376,-1.4097677825551231,1.6218757455072563,1.0664955284971886,1.3592531764750273,-0.0006890142196909973,0.0007300383604359355,0.0004756642373384701,0.0005807236347461377,0.0013441571611400396,-0.0024996995872824564,-0.000957577561487825,-0.1793939769268036,-50.88071060180664,-9.439591407775879,17.08167266845703,1.8465067148208618,-1.2165024280548096,0.10624848306179047,,,,,,,,,
1739304833.4574404,-0.05493685068027308,1.1079435562532753,-0.480254730970653,-1.4097745085525157,1.6218748702089323,1.0664972151236949,1.3592611748602434,0.0008379339687749945,0.0007329206860125894,-0.00014237831889523755,-0.0015870875198273355,0.0005182879353781402,-0.001229948056647842,-6.389198332587391e-05,-0.2547723948955536,-50.90848159790039,-9.467362403869629,17.13324737548828,1.8529154062271118,-1.2302353382110596,0.07328949868679047,,,,,,,,,
1739304833.4683948,-0.05494195797940491,1.107944477722523,-0.4802547198555547,-1.4097699565837236,1.6218745001976498,1.0664972542091138,1.3592575326019503,-0.00111528170074331,0.0004505547768416528,-0.00029643538259381584,-0.0005365299431106096,-0.0005461833287734487,-0.0005745705186456683,-0.000778529212259137,-0.1793939769268036,-50.88071060180664,-9.467362403869629,17.10944366455078,1.8529154062271118,-1.2302353382110596,0.10624848306179047,,,,,,,,,
1739304833.4784951,-0.05494135177317675,1.1079398838689807,-0.48025681170698986,-1.4097699299316213,1.621874512627306,1.0665001947984432,1.3592589250193428,-0.00044094246388846854,-0.0015927637062592773,-0.0010038635666572888,-0.0003137609191235451,0.0006963930841771069,0.0016421953176561377,0.0002397188015691928,-0.2309686839580536,-50.85690689086914,-9.439591407775879,17.10944366455078,1.8529154062271118,-1.2165024280548096,0.09343110024929047,,,,,,,,,
1739304833.489407,-0.054937563904807314,1.1079476028226232,-0.4802529365212822,-1.4097698505339804,1.6218752614046472,1.0664971347734502,1.359259756693602,0.000810412144760712,0.0017724802793518796,0.0017191608757183491,0.00013932408709154472,0.00016551443695239935,0.001211794485423413,0.0008485941921193738,-0.2547723948955536,-50.93228530883789,-9.491166114807129,17.10944366455078,1.8465067148208618,-1.2302353382110596,0.05955658480525017,,,,,,,,,
1739304833.500407,-0.05494143445293579,1.1079424033921204,-0.4802547191982295,-1.409770574657272,1.6218769207996833,1.0664989132300438,1.35925979671217,-0.0009023209730284968,-7.46790851495747e-05,0.0006530813144814553,0.000260024761340852,0.0014544371489171688,-0.00018797453268972966,0.0015415472093968585,-0.2309686839580536,-50.88071060180664,-9.467362403869629,17.10944366455078,1.8593240976333618,-1.2366440296173096,0.08610688149929047,,,,,,,,,
1739304833.5113304,-0.054934879961782646,1.1079451922133292,-0.4802568649654414,-1.4097700890020586,1.6218769252141456,1.0664958256049681,1.3592625693133606,0.0005067995062512445,9.209794205306351e-05,-0.0002581102108984765,0.0006149221943537902,0.0017785062544941209,-0.0017407791455033316,0.002071920075880532,-0.2825433909893036,-50.93228530883789,-9.467362403869629,17.10944366455078,1.8593240976333618,-1.2165024280548096,0.05955658480525017,,,,,,,,,
1739304833.5213516,-0.05493664985670068,1.1079444783386863,-0.480257037418777,-1.409770566809447,1.6218744952026694,1.0664981609552595,1.3592585776181052,0.0001328978414474189,0.000178976541102436,-0.00031452318820711475,-0.0005234169104129641,-0.0004539501255822133,0.00049980126026986,0.00045810537247352565,-0.2547723948955536,-50.90848159790039,-9.439591407775879,17.10944366455078,1.8529154062271118,-1.2302353382110596,0.09343110024929047,,,,,,,,,
1739304833.5323563,-0.05494112655857979,1.1079462350566993,-0.4802547309733324,-1.4097727115982095,1.6218760148654823,1.0664963487469998,1.359261312048278,0.0004348107963561883,-0.0004225608017651483,-0.0003524487635762738,-0.0007286832395241887,0.0004044226710527471,-0.0006917473266699209,0.00012004348615196739,-0.2309686839580536,-50.90848159790039,-9.467362403869629,17.10944366455078,1.8400980234146118,-1.2229111194610596,0.07328949868679047,,,,,,,,,
1739304833.5425808,-0.054939986280691605,1.1079435064932026,-0.48025859333105364,-1.409767770829813,1.6218760164805626,1.066500585680467,1.3592524193001303,-0.0011236006270043482,-0.0017046615573670994,0.0005093446051835678,0.0011562020099554538,-0.0006128971091309322,0.0010644484880369433,-0.0013522656986119683,-0.2071649730205536,-50.90848159790039,-9.415787696838379,17.08167266845703,1.8400980234146118,-1.2229111194610596,0.11265717446804047,,,,,,,,,
1739304833.553387,-0.05493827363930383,1.1079482831186354,-0.48025677274248424,-1.4097681603625078,1.6218760148655158,1.0664986258985913,1.3592571515019494,0.0008405131133795472,0.0006268234686295441,-0.00028522232432142075,0.000523012944913095,-0.0005684580319691495,0.0010564538558929368,-0.00010432868728105763,-0.2309686839580536,-50.93228530883789,-9.439591407775879,17.05786895751953,1.8400980234146118,-1.2302353382110596,0.09343110024929047,,,,,,,,,
1739304833.5644097,-0.05493685944474498,1.1079479769832574,-0.48025709074272527,-1.4097698505834795,1.6218761655621652,1.066497853115815,1.3592636913199898,6.468440273438845e-05,0.0009440441127678938,-0.0008560293238623637,0.0004911196980359796,-0.0004002500667082043,0.0009131347113455447,0.0013599928294018512,-0.2547723948955536,-50.93228530883789,-9.439591407775879,17.10944366455078,1.8657327890396118,-1.2366440296173096,0.05314789339900017,,,,,,,,,
1739304833.5744536,-0.05493824870882041,1.1079455025617084,-0.4802547192031703,-1.4097701772929738,1.6218730236864318,1.066496229388361,1.3592534790997322,0.00073953265966141,0.0005831117748518973,0.00073001810895151,0.000611236885191499,-0.0006639091850853474,-0.00029729166068558196,-0.001900098472993657,-0.2309686839580536,-50.93228530883789,-9.467362403869629,17.10944366455078,1.8657327890396118,-1.2229111194610596,0.11265717446804047,,,,,,,,,
1739304833.5863984,-0.05493653589390888,1.1079457765061629,-0.4802591744253205,-1.4097729510320751,1.6218737549674467,1.0664965840546183,1.3592629355900787,0.0016335288384520356,-0.0003980919533858147,-0.0010170589629930442,-0.0012187564808738382,-0.0009034828879124214,0.00026896377775922464,0.0013946595039244216,-0.2547723948955536,-50.90848159790039,-9.439591407775879,17.10944366455078,1.8593240976333618,-1.2229111194610596,0.05955658480525017,,,,,,,,,
1739304833.59733,-0.054935770804587274,1.1079451926686146,-0.4802570374111339,-1.4097716342352165,1.621872984225218,1.0664963471265956,1.3592580379926313,-0.0004673654828433501,-0.0006082264816099091,-0.0006017071817486033,-0.00022701500171522622,-0.0007896853262597027,-0.0002169992120011687,0.0005930564609896289,-0.3063471019268036,-50.93228530883789,-9.439591407775879,17.13324737548828,1.8657327890396118,-1.2229111194610596,0.09983979165554047,,,,,,,,,
1739304833.6074,-0.0549366138543443,1.1079462470186336,-0.48025495718881883,-1.4097681007736227,1.6218702609928328,1.066495067767422,1.3592559631071937,0.0001078303722117284,-0.000353182719893119,0.000492792403408959,-4.811267852079457e-06,-0.0015707243589404135,-0.00034178815733850327,-0.0018713568107129072,-0.2547723948955536,-50.90848159790039,-9.467362403869629,17.08167266845703,1.8529154062271118,-1.2100937366485596,0.07969819009304047,,,,,,,,,
1739304833.6183426,-0.05493922076322557,1.1079482150729614,-0.48025469262988574,-1.4097699388762575,1.6218752572353368,1.066495471784112,1.3592646222013711,-6.02482089079614e-05,-0.00022192910609773015,-2.7459176469488242e-05,0.0005624251802849524,0.0001541066206789039,-0.0006131200622187204,0.0030015415424772076,-0.2309686839580536,-50.93228530883789,-9.467362403869629,17.10944366455078,1.8465067148208618,-1.2165024280548096,0.03300629183650017,,,,,,,,,
1739304833.629406,-0.05493650862363868,1.107945389652829,-0.48025567298111216,-1.4097720317702118,1.6218760148655074,1.0664994141169482,1.359258911912135,0.0006264754816073175,0.00015186398117915896,-9.843896488015757e-05,-0.000366094958669215,0.00038890899232412303,0.0001630352485367777,-0.0007139477058892659,-0.2547723948955536,-50.90848159790039,-9.467362403869629,17.10944366455078,1.8400980234146118,-1.2229111194610596,0.09343110024929047,,,,,,,,,
1739304833.6404045,-0.05493995996098159,1.1079473609664732,-0.480261377693638,-1.4097698515439063,1.621876014919342,1.0664972890324802,1.359260797493449,-0.0009196216401691549,0.0004661847882037835,-0.0017231172818101494,0.0006894041721916879,2.118910880981675e-05,0.0006413441319166989,-0.0003214019113003546,-0.2071649730205536,-50.93228530883789,-9.388016700744629,17.10944366455078,1.8400980234146118,-1.2229111194610596,0.07328949868679047,,,,,,,,,
1739304833.6504707,-0.05493849336914147,1.1079465786828426,-0.4802572790260986,-1.409770090407024,1.6218760148655078,1.0664972516247897,1.3592556291490736,-0.0003576450790169779,-0.00033175187814369765,-0.0006435110719333953,0.000881199879125659,-0.00036822813503217724,0.0006226194394653656,-0.0013377840386723078,-0.2309686839580536,-50.90848159790039,-9.439591407775879,17.10944366455078,1.8400980234146118,-1.2302353382110596,0.11998139321804047,,,,,,,,,
1739304833.661388,-0.05493824740837883,1.1079481867655916,-0.4802568669449484,-1.4097721023063037,1.6218752572054285,1.0664971083701906,1.359254691631586,3.0152328207078708e-05,0.0012423486662708494,-0.00011091861061595168,-0.0005550411605076431,0.0002618560441763695,0.0009032621914178667,-0.0014248244319185431,-0.2309686839580536,-50.93228530883789,-9.467362403869629,17.10944366455078,1.8465067148208618,-1.2302353382110596,0.09343110024929047,,,,,,,,,
1739304833.672328,-0.05493824740421342,1.1079438924122886,-0.48026073136902575,-1.4097721150698566,1.6218744995453502,1.0664970952856647,1.3592642789008034,-0.00031107701029531244,-0.0004441145358225841,-0.0015003387353675823,0.0006413612264337905,1.2917627236348674e-05,5.989532149209241e-05,0.0011819318546449503,-0.2309686839580536,-50.88071060180664,-9.415787696838379,17.10944366455078,1.8529154062271118,-1.2302353382110596,0.04673920199275017,,,,,,,,,
1739304833.6833832,-0.054936771754635946,1.1079482916353611,-0.48025679903655893,-1.409767877121345,1.6218783853696743,1.0664958673453309,1.3592548100169641,0.000486720813888779,-0.00026934553706540397,0.0002178895538004284,0.00023321748892757537,0.0001873998679300054,-0.00027149367059137235,-0.0025716953881742355,-0.2547723948955536,-50.93228530883789,-9.439591407775879,17.08167266845703,1.8529154062271118,-1.2229111194610596,0.09343110024929047,,,,,,,,,
1739304833.6934116,-0.05494037827160126,1.1079465918384286,-0.4802567902395297,-1.4097729539379316,1.6218737419610423,1.0664962293863145,1.3592615169197206,-0.0004485016145959051,-0.00048459055432181693,-0.001046905195167712,-0.00019619309138117172,-0.00048688337293245143,0.00020751429708229662,0.0006204845468806154,-0.2309686839580536,-50.90848159790039,-9.439591407775879,17.10944366455078,1.8593240976333618,-1.2229111194610596,0.05955658480525017,,,,,,,,,
1739304833.7043977,-0.05493724518419459,1.107948010752849,-0.4802585816650547,-1.4097698535685137,1.6218757281557086,1.0664962643260534,1.359262929139791,0.0002358809103902044,0.000335165447128412,-0.0007015149900546531,0.001378231817976138,0.0014733133047372315,0.00023790586105435537,0.002313325804872528,-0.2547723948955536,-50.93228530883789,-9.415787696838379,17.10944366455078,1.8465067148208618,-1.2229111194610596,0.05955658480525017,,,,,,,,,
1739304833.7144022,-0.05493994825860584,1.10794672694012,-0.48025682547903825,-1.4097705700786398,1.6218773518825,1.0664978529462608,1.3592529905452673,-0.0005100646444677995,-0.0006292307153617878,-0.0008630103271833688,-0.00017299338040856687,0.0013567135184465882,5.150864789032076e-05,-0.0020631148949210327,-0.2071649730205536,-50.88071060180664,-9.439591407775879,17.10944366455078,1.8327738046646118,-1.2366440296173096,0.11265717446804047,,,,,,,,,
1739304833.7244337,-0.054939971616741815,1.1079479854529275,-0.48025472214211734,-1.4097730337494245,1.6218745014913956,1.0664962293883584,1.3592605543280871,-0.0008633301720843132,-0.00027066655525481936,0.0002225422705987956,-0.0009166212769861079,0.00037674297524499024,0.00022571248647600015,0.0015764835987574022,-0.2071649730205536,-50.93228530883789,-9.467362403869629,17.10944366455078,1.8529154062271118,-1.2229111194610596,0.07969819009304047,,,,,,,,,
1739304833.7344687,-0.05494195916510619,1.1079469883604045,-0.48025471628209415,-1.4097681692467328,1.6218760560494634,1.066497095285591,1.359256314690672,-0.0013436777071029178,0.0013127872046890632,0.00014253489580592568,0.001445251715502353,0.00016486500022614163,0.0005014907644564811,-0.001528744774402856,-0.1793939769268036,-50.90848159790039,-9.467362403869629,17.05786895751953,1.8400980234146118,-1.2302353382110596,0.10624848306179047,,,,,,,,,
1739304833.744478,-0.054938247404235405,1.1079465791254486,-0.48025679898803564,-1.409771668606445,1.621874460300191,1.0664947140682017,1.359263654003602,-0.00012653810835287625,1.0775119082270823e-05,-0.00026881469517247,-6.466992784194471e-05,0.0007906090151719193,-0.00039079183408068053,0.0018712649688995282,-0.2309686839580536,-50.90848159790039,-9.439591407775879,17.13324737548828,1.8529154062271118,-1.2100937366485596,0.05314789339900017,,,,,,,,,
1739304833.7553914,-0.054939961224055124,1.1079475943711963,-0.4802529102755438,-1.4097677838639124,1.6218745389520477,1.0664929708355673,1.3592561432951955,-0.0004715353211698189,5.280039964671642e-05,0.0017732920839270403,0.0010045836139256459,0.00023198984584498275,-0.0009043022059842227,-0.0003330352212130216,-0.2071649730205536,-50.93228530883789,-9.491166114807129,17.08167266845703,1.8529154062271118,-1.2229111194610596,0.11265717446804047,,,,,,,,,
1739304833.7653978,-0.054936850567363575,1.1079468969981485,-0.4802589447548524,-1.409775881001339,1.6218760150276796,1.0664962293331743,1.3592618628792272,-0.0004313105171295015,-0.0008260264465045973,-0.0010410145541151377,-0.0015686180336381503,0.0009886820399111745,-0.0005069440453324011,0.0014857303261665907,-0.2547723948955536,-50.90848159790039,-9.439591407775879,17.15705108642578,1.8400980234146118,-1.2229111194610596,0.05955658480525017,,,,,,,,,
1739304833.7763767,-0.05493653585840912,1.107953151584796,-0.48025679899212265,-1.409767770943468,1.6218730365530025,1.0664947140682015,1.3592594925966377,0.000646048435829914,0.0016352284382937167,-0.00033214489021632116,0.0009959375235405236,-0.00064423967998954,-0.0004479808207475071,0.0009000626984227148,-0.2547723948955536,-50.96005630493164,-9.439591407775879,17.08167266845703,1.8657327890396118,-1.2100937366485596,0.07969819009304047,,,,,,,,,
1739304833.787331,-0.0549399599249501,1.107944819648739,-0.48025759210395197,-1.4097728175579802,1.6218753373124928,1.0664962293883582,1.35925236212116,-0.0011937318824424047,-0.0007063242925100168,-0.0008694696888457045,-0.0006811997595621826,-0.00019308346432080992,6.480258344122251e-05,-0.003097895840597234,-0.2071649730205536,-50.88071060180664,-9.467362403869629,17.10944366455078,1.8465067148208618,-1.2229111194610596,0.11265717446804047,,,,,,,,,
1739304833.7973492,-0.05493798474919806,1.1079445811817035,-0.4802546930012157,-1.4097747446227837,1.6218749704969864,1.06649547172828,1.359260378437865,0.0004560797897783201,-0.0006885748398038365,0.0010581008794311865,-0.0008776817235653094,0.0011556276211908475,0.00044344745333429146,-0.0012618706396396045,-0.2309686839580536,-50.88071060180664,-9.467362403869629,17.13324737548828,1.8529154062271118,-1.2165024280548096,0.07969819009304047,,,,,,,,,
1739304833.807365,-0.054936534879034125,1.1079465804267135,-0.48025679898764134,-1.409767863497881,1.6218760323160852,1.0664962293883582,1.3592647914861808,0.0005223633700785937,-0.0009025708065737012,-0.0004491570364211101,0.00020953384377462062,-0.00015951262878116743,0.0001267850703071354,0.0019482013574472342,-0.2547723948955536,-50.90848159790039,-9.439591407775879,17.08167266845703,1.8400980234146118,-1.2229111194610596,0.07969819009304047,,,,,,,,,
1739304833.8174028,-0.054938326325178165,1.1079495990872088,-0.48025471919822943,-1.4097663069784978,1.6218740792707298,1.0664939564081233,1.359253960802094,-0.0005410889017650079,0.0006326504932313395,0.0007150999273563643,0.0005608876950610567,-0.0007257486711968954,0.0005516591235480579,-0.0006988324981476273,-0.2309686839580536,-50.90848159790039,-9.467362403869629,17.05786895751953,1.8593240976333618,-1.2036850452423096,0.13279877603054047,,,,,,,,,
1739304833.828328,-0.05493653492001413,1.1079502131767458,-0.48025464046122956,-1.409769885930627,1.6218769208015642,1.0664976422391974,1.3592605020606017,0.0002574370545234929,0.00017146105728121355,0.0010765227681281014,0.0002564590451635665,-0.00033320912073323754,0.0007289040436466237,0.0007212529748523206,-0.2547723948955536,-50.96005630493164,-9.467362403869629,17.10944366455078,1.8593240976333618,-1.2229111194610596,0.07969819009304047,,,,,,,,,
1739304833.8393378,-0.0549403781621317,1.107946579117224,-0.48025775266106796,-1.4097691710529312,1.621873741939107,1.0664954717522068,1.3592575861813907,0.00021944290412315767,-0.0005074010884507732,-0.0003982593074908778,0.0005768451808535188,-0.0006023245385585339,-0.00045268143283604383,0.0014148977389849778,-0.2309686839580536,-50.90848159790039,-9.439591407775879,17.05786895751953,1.8593240976333618,-1.2165024280548096,0.06596527993679047,,,,,,,,,
1739304833.8493934,-0.05494209082707988,1.1079466056094713,-0.4802589712624007,-1.4097726667763646,1.6218744995453511,1.0664954717282804,1.3592574152734584,-0.00033048958119309864,-0.00010897467759530226,-0.00032485281524908643,-0.0010638023838371066,-0.0013659764801331972,-0.0006822310036752918,-0.0006686989679875934,-0.2071649730205536,-50.90848159790039,-9.439591407775879,17.13324737548828,1.8529154062271118,-1.2165024280548096,0.10624848306179047,,,,,,,,,
1739304833.8604,-0.054939962888039366,1.1079502984104699,-0.48025293656163665,-1.4097730677522602,1.621874812721139,1.0664962293883584,1.3592568521977164,7.052081168276253e-05,0.0007252770630041273,0.0012833298586539586,-0.0005195534756953589,-0.00010377222531190284,0.0010700884501549416,-0.000812150800759377,-0.2071649730205536,-50.96005630493164,-9.491166114807129,17.10944366455078,1.8263651132583618,-1.2229111194610596,0.07969819009304047,,,,,,,,,
1739304833.870402,-0.054936298396585294,1.1079487248858795,-0.4802607274323167,-1.409773655815529,1.6218781388269121,1.0664962293883584,1.3592609573213148,0.0012810382254932783,-0.0004484739189167317,-0.001983398471299004,-0.000688528079227409,0.002018783570547819,0.0008837925829703201,0.0015846819744163446,-0.2547723948955536,-50.90848159790039,-9.415787696838379,17.15705108642578,1.8593240976333618,-1.2229111194610596,0.07328949868679047,,,,,,,,,
1739304833.8804274,-0.05493824740020847,1.1079429750931507,-0.48025858955969886,-1.4097708174405645,1.6218737419597342,1.0664954717282802,1.3592565008632136,0.00031276141304155316,-0.0011272267168194177,-0.0007918839176428429,0.0009463204040508215,-0.0008124714688983865,0.0002497642755845141,-0.001891596980920804,-0.2309686839580536,-50.85690689086914,-9.415787696838379,17.10944366455078,1.8593240976333618,-1.2165024280548096,0.11265717446804047,,,,,,,,,
1739304833.8913453,-0.05493661380444703,1.1079466625165644,-0.480256799969276,-1.409772707100277,1.6218752572054287,1.0664970947889612,1.3592577273791382,-2.7208827457468512e-05,0.0005171381815665168,-0.00070210074740001,-0.0010929194732221047,-0.0006075305989093982,0.0008407408603810231,-0.0013571155193749576,-0.2547723948955536,-50.90848159790039,-9.439591407775879,17.13324737548828,1.8465067148208618,-1.2302353382110596,0.07328949868679047,,,,,,,,,
1739304833.9023883,-0.05493824772943654,1.1079466703656056,-0.4802567993151393,-1.4097689403799702,1.6218794783153425,1.0664954315012742,1.3592605543161225,0.00022786577480646056,0.00025681010584425697,-3.543791995082256e-05,0.0005202413824249178,0.0006505437832703504,0.0007592764487858389,0.0014782190454970994,-0.2309686839580536,-50.90848159790039,-9.439591407775879,17.05786895751953,1.8465067148208618,-1.2165024280548096,0.07969819009304047,,,,,,,,,
1739304833.9124043,-0.054936613804452555,1.1079482916407946,-0.4802546404612351,-1.4097747337209077,1.6218760149369915,1.066496068479665,1.3592581726882862,0.0008341663502906103,0.0008546022954796621,0.000238429551240853,-0.0007917991850717569,0.0005515556173070649,-0.00025469807051683394,0.0012538503004467304,-0.2547723948955536,-50.93228530883789,-9.467362403869629,17.13324737548828,1.8400980234146118,-1.2229111194610596,0.09983979165554047,,,,,,,,,
1739304833.922427,-0.05494256459406833,1.1079468293108543,-0.4802586081547239,-1.409772989747174,1.621876014865508,1.0664947138999332,1.3592545569386787,-0.0012393602943376663,0.001347557570776063,-0.0014770928061694309,0.0005571925328491958,-0.00040584635864103345,-0.0006884175526024204,0.0006533314108591086,-0.2071649730205536,-50.90848159790039,-9.415787696838379,17.10944366455078,1.8400980234146118,-1.2100937366485596,0.09343110024929047,,,,,,,,,
1739304833.9334128,-0.05493824713060413,1.107946583371565,-0.4802567990245733,-1.4097738183880417,1.6218752572054285,1.06649709528559,1.3592574095123287,-0.000634563300874324,-0.0002451881134302792,0.0005425259934072326,0.00013299200654597108,-0.0014146502063037915,0.000698972300278329,0.0007265032816943747,-0.2309686839580536,-50.90848159790039,-9.439591407775879,17.13324737548828,1.8465067148208618,-1.2302353382110596,0.10624848306179047,,,,,,,,,
1739304833.9444191,-0.05493894893411961,1.107946579118542,-0.4802550458119793,-1.4097691979190083,1.6218757279942024,1.0664954315012771,1.359258984340553,-0.0002804112012306835,-0.00016145677758874983,0.0006093546686596388,0.0011124488069399554,-4.55394355048951e-05,-0.0006793993757715051,0.001074456278053474,-0.2309686839580536,-50.90848159790039,-9.467362403869629,17.05786895751953,1.8465067148208618,-1.2165024280548096,0.07969819009304047,,,,,,,,,
1739304833.9553244,-0.05493656250146149,1.1079446089768132,-0.48025679899361623,-1.4097702740672762,1.6218756921972743,1.0664970952849095,1.3592552416957695,0.00010788716329540073,-0.0011884771601989967,-0.0007899501842961184,0.0007860853679844775,-0.0015145284581151372,0.00015164851543355748,-0.0010188115867641578,-0.2547723948955536,-50.88071060180664,-9.439591407775879,17.08167266845703,1.8657327890396118,-1.2302353382110596,0.09343110024929047,,,,,,,,,
1739304833.9654255,-0.05493727299220953,1.1079494411591093,-0.48025703740666414,-1.4097762784158856,1.621876368093503,1.0664951432592757,1.359260548555167,-0.00010635533732823439,-3.172183651192859e-05,-0.0003451786898694442,-0.001321073633346184,0.0009061388578344966,-0.00027898186692785153,0.00038348609222005353,-0.2825433909893036,-50.90848159790039,-9.439591407775879,17.15705108642578,1.8400980234146118,-1.2229111194610596,0.07969819009304047,,,,,,,,,
1739304833.9763248,-0.05493653489892729,1.1079445841372604,-0.4802558531733705,-1.4097709894301689,1.6218737423717824,1.0664958673391995,1.359262935392649,0.0011542722986609014,-0.0012376472393280712,0.000956786929619811,-0.0007148072295165812,-0.0008123567567560836,-7.889356840808158e-05,0.0016374651371497992,-0.2547723948955536,-50.88071060180664,-9.439591407775879,17.08167266845703,1.8593240976333618,-1.2229111194610596,0.05955658480525017,,,,,,,,,
1739304833.986458,-0.054936535208260105,1.1079465791185683,-0.480254010549213,-1.4097730702031814,1.6218756104181462,1.0664954180861446,1.3592609544769076,0.0009504284652101702,-0.0008233239009829732,0.0007804880559301187,-0.0003033426504432584,-0.00030878368501792924,-0.0006257417662457373,0.0006833758473081596,-0.2547723948955536,-50.90848159790039,-9.467362403869629,17.10944366455078,1.8465067148208618,-1.2165024280548096,0.07328949868679047,,,,,,,,,
1739304833.9974065,-0.05493824740421523,1.107944581177665,-0.4802567989840847,-1.4097709894321848,1.6218754912290119,1.0664947140678989,1.35925567373131,-0.00033573523544089484,-0.0007772025901345273,-0.0005682696181165205,0.000758108218942215,0.0004464563814825618,-0.0010748234033010951,0.0001389788480590826,-0.2309686839580536,-50.88071060180664,-9.439591407775879,17.08167266845703,1.8465067148208618,-1.2100937366485596,0.11998139321804047,,,,,,,,,
1739304834.0083818,-0.0549382474042134,1.1079497672992888,-0.48025858166510405,-1.4097730335737153,1.6218758782331046,1.0664970952855908,1.3592628676882832,0.0007056471384623091,0.00040490836912461596,-0.0013827246072305197,-0.0009148475318922413,-0.0013850852153550872,0.00048752360025299343,-0.0010314434358836464,-0.2309686839580536,-50.90848159790039,-9.415787696838379,17.10944366455078,1.8400980234146118,-1.2302353382110596,0.04673920199275017,,,,,,,,,
1739304834.0183942,-0.05493614532867782,1.1079504417120878,-0.48025682515501766,-1.4097691272816968,1.6218752572031143,1.0664962159793574,1.359254197325669,0.0012084054923433712,0.001192860646612438,0.0001689657370387784,0.00235245875757039,0.00041605243909168064,-0.0009512643200874458,-0.0003857106088139096,-0.2309686839580536,-50.93228530883789,-9.439591407775879,17.05786895751953,1.8465067148208618,-1.2229111194610596,0.10624848306179047,,,,,,,,,
1739304834.0284064,-0.05493653484788338,1.1079475419866127,-0.48025775266284454,-1.409774851897708,1.621873844354589,1.066496229388131,1.359259717393278,0.0008548555802892828,0.0005349446096658116,-0.0008416561076306265,-0.000488416014544759,-0.0013803289527601224,0.0004157369287828058,0.0007746963726418982,-0.2547723948955536,-50.90848159790039,-9.439591407775879,17.13324737548828,1.8465067148208618,-1.2229111194610596,0.05955658480525017,,,,,,,,,
1739304834.0384967,-0.0549382245926848,1.1079487513929895,-0.4802568029288212,-1.4097709099593196,1.6218752571815016,1.0664962239133189,1.359256740725289,9.258874979422866e-05,0.0005092775787850182,-0.0007062194123527805,0.0008455977317433878,0.0008404314483304712,2.4366917397685423e-06,-0.0014088289973412458,-0.2309686839580536,-50.90848159790039,-9.439591407775879,17.08167266845703,1.8465067148208618,-1.2229111194610596,0.09983979165554047,,,,,,,,,
1739304834.0493743,-0.05493824859506213,1.1079482916515118,-0.48025259333559345,-1.4097730590830735,1.6218730101408645,1.0664947140681706,1.3592551209574346,-0.0008246872710291062,-0.0006296377534867132,0.0009569877665206806,0.0005082344867782797,-0.0015857502270266194,4.400072817641515e-05,-0.0012939552926565668,-0.2309686839580536,-50.93228530883789,-9.467362403869629,17.10944366455078,1.8529154062271118,-1.2100937366485596,0.11265717446804047,,,,,,,,,
1739304834.0603583,-0.054938010917273024,1.1079476391927126,-0.4802570417553143,-1.409770892298627,1.621874146970255,1.06649547172828,1.3592607974848088,0.00046050855601991543,0.0007309106368681761,-0.0010396807710094632,0.00020931263155741245,-0.00047345236445725097,-5.8311199332185724e-05,0.0006159503792374545,-0.2309686839580536,-50.90848159790039,-9.439591407775879,17.08167266845703,1.8529154062271118,-1.2165024280548096,0.07328949868679047,,,,,,,,,
1739304834.0704489,-0.054938665745528005,1.1079483004875195,-0.4802525933033437,-1.4097728396321287,1.6218744850038769,1.0664962293883582,1.3592600311033907,0.0001324040786825321,0.0008259342635899972,0.0012676107387014825,-0.0008735272624770719,-0.0016269851415812745,0.0006946541702881641,-0.0011064241810435972,-0.2547723948955536,-50.93228530883789,-9.467362403869629,17.10944366455078,1.8529154062271118,-1.2229111194610596,0.07969819009304047,,,,,,,,,
1739304834.0813742,-0.05493824741624218,1.1079445821588612,-0.4802530159820693,-1.4097726268030413,1.6218760190107346,1.0664925548254494,1.3592538777135326,-0.00046825217084769965,-0.0014240114658868386,0.0013247243342509344,-0.00013573130616978228,0.0010341452243435724,-0.0010877767608907715,-0.0022514173096318526,-0.2309686839580536,-50.88071060180664,-9.491166114807129,17.13324737548828,1.8400980234146118,-1.2229111194610596,0.09983979165554047,,,,,,,,,
1739304834.0923975,-0.05493627114701041,1.1079466585913833,-0.4802567989885336,-1.4097730956640888,1.6218729842252169,1.066495471652356,1.3592605150662533,0.0014648238707157565,-0.0006401554142665476,0.0004530070101260808,1.5563386525252682e-05,-0.00019597351038868317,0.00039732107850632277,0.0003466621194562996,-0.2547723948955536,-50.90848159790039,-9.439591407775879,17.10944366455078,1.8657327890396118,-1.2165024280548096,0.07969819009304047,,,,,,,,,
1739304834.1024158,-0.054937121752713945,1.107953415622946,-0.4802547188742089,-1.409774840234761,1.621875275132548,1.0664970947889598,1.3592515120568027,0.0005352270922394344,0.002574072056972989,0.0017091662959497944,-0.0002746135724080846,-0.00016069315925866808,0.0008240883785494631,-0.0018949415347981825,-0.2071649730205536,-50.96005630493164,-9.467362403869629,17.13324737548828,1.8465067148208618,-1.2302353382110596,0.11998139321804047,,,,,,,,,
1739304834.1124444,-0.05493823556964791,1.1079446088117206,-0.48025293641319805,-1.4097730692218375,1.6218769374515023,1.0664954717282717,1.3592617674893375,0.0007233776193537847,0.000577558878647702,-0.0003691975665494805,-0.0007893138602989881,0.0013524343940091068,2.979181023749175e-05,0.0022826622474860308,-0.2309686839580536,-50.88071060180664,-9.491166114807129,17.10944366455078,1.8327738046646118,-1.2165024280548096,0.06596527993679047,,,,,,,,,
1739304834.1233664,-0.054936534883415405,1.1079475332290556,-0.48025679902442314,-1.4097748514629889,1.621875375427835,1.0664962293883582,1.3592589985462824,0.0005680830352909302,-0.0006537430736566474,-0.0003039695563791541,-0.0013834309533771894,2.7030979790655337e-05,-0.00046265104815911283,0.0021038290231154043,-0.2547723948955536,-50.90848159790039,-9.439591407775879,17.13324737548828,1.8465067148208618,-1.2229111194610596,0.06596527993679047,,,,,,,,,
1739304834.1343265,-0.05493995988890025,1.1079490334276645,-0.4802567989880852,-1.4097752149529057,1.6218764858164538,1.0664929556055909,1.3592629028792198,-0.0012101273055890507,-0.00018031380277590584,-0.00039798654926779793,0.00020368824568941883,0.0007814021888994853,-0.001229533179175531,0.0018264932163875233,-0.2071649730205536,-50.93228530883789,-9.439591407775879,17.10944366455078,1.8400980234146118,-1.2229111194610596,0.04673920199275017,,,,,,,,,
1739304834.1443493,-0.054938247079812465,1.1079513270165995,-0.48025894475529696,-1.4097721156567329,1.6218744995692769,1.0664947810499228,1.359255655243043,-0.00021125125904416587,0.0007778306741978535,-0.0009043345446685803,0.0009943850984454367,-8.111684040488219e-05,-0.0012561019446750271,-0.0002792487209307594,-0.2309686839580536,-50.96005630493164,-9.439591407775879,17.10944366455078,1.8529154062271118,-1.2229111194610596,0.11998139321804047,,,,,,,,,
1739304834.1543705,-0.054936534775347344,1.10794746880644,-0.48025401046933647,-1.4097709998923582,1.6218764552912315,1.0664949889960673,1.3592526994950986,0.0002168437137908689,-3.190863899280114e-05,0.0008620145799982099,0.00013729851230496716,0.00090630687439104,-0.002030407011258885,-0.0031406374205487013,-0.2547723948955536,-50.88071060180664,-9.467362403869629,17.08167266845703,1.8400980234146118,-1.2165024280548096,0.10624848306179047,,,,,,,,,
1739304834.1643715,-0.054934536834494285,1.1079511541283122,-0.48025645486623125,-1.4097709881241614,1.621875259150954,1.0664962293801832,1.359260001978138,0.002291138420546717,0.00013303006114699073,0.0006623729186755587,0.0011740467775143825,0.0010558970947956892,-0.00027947514286049427,-0.00035972503199954296,-0.2825433909893036,-50.93228530883789,-9.439591407775879,17.08167266845703,1.8465067148208618,-1.2229111194610596,0.05314789339900017,,,,,,,,,
1739304834.1753364,-0.05493824740421279,1.1079466894591405,-0.4802567980140807,-1.409770989432172,1.6218763168435686,1.0664950962762514,1.3592537074852111,-0.0004550858103537968,-9.161161545323825e-05,-0.00040812931036408596,0.0003622053415209503,0.0006770959069267768,-0.0010463321637173926,-0.0016735667822192909,-0.2309686839580536,-50.90848159790039,-9.439591407775879,17.08167266845703,1.8465067148208618,-1.2165024280548096,0.10624848306179047,,,,,,,,,
1739304834.1854336,-0.05493605342675963,1.1079505368308677,-0.4802508106221969,-1.40977379330809,1.6218763052331007,1.0664953108139095,1.3592621219174894,0.000850501327336077,0.0011697406102685332,0.001364998541331843,-5.6056909811819084e-05,0.0010149466956078065,-8.90022904030778e-05,0.001822001953960486,-0.2547723948955536,-50.96005630493164,-9.491166114807129,17.10944366455078,1.8465067148208618,-1.2165024280548096,0.05314789339900017,,,,,,,,,
1739304834.1973193,-0.054934536939911315,1.107950519824156,-0.4802585816531033,-1.4097729897532627,1.6218760148714229,1.0664970947880528,1.3592579391707758,0.0015247913591378425,0.0008575287052223336,-0.0012132493169202088,8.790148617118942e-05,0.0003849161530831979,-3.9918761792289304e-05,0.00010607425803480425,-0.2825433909893036,-50.93228530883789,-9.415787696838379,17.10944366455078,1.8400980234146118,-1.2302353382110596,0.06596527993679047,,,,,,,,,
1739304834.207326,-0.054936759968008966,1.1079511536922617,-0.48025879383801645,-1.4097766345756244,1.6218787380978674,1.066495488165508,1.3592584402626642,0.0007529018190041449,0.002558517486197323,-0.0009031978550655466,-0.0015279257387802898,0.0009383153206490197,0.0003607431270504499,-0.0006283750205105763,-0.2547723948955536,-50.93228530883789,-9.415787696838379,17.15705108642578,1.8529154062271118,-1.2165024280548096,0.09343110024929047,,,,,,,,,
1739304834.2173862,-0.05493704293200981,1.1079446610260426,-0.48025679899167817,-1.4097719908761046,1.6218752747198115,1.0664954717285584,1.3592585602519691,8.596836246773612e-05,-0.0014231781586003293,-0.00044809439226572826,0.00012463688733337948,0.00015048795306270757,0.0006225595929850479,-0.0007467503196030203,-0.2071649730205536,-50.88071060180664,-9.439591407775879,17.13324737548828,1.8465067148208618,-1.2165024280548096,0.05955658480525017,,,,,,,,,
1739304834.2274213,-0.054939959875545064,1.1079468307294178,-0.4802585816651041,-1.409773068192437,1.6218744821030437,1.0664962293883584,1.3592561459673584,-0.0006371126212334492,0.0006658796950958091,-0.0005333445334217772,0.00016624826787355415,-0.00037297714797299906,0.0005982067298446917,-0.0006071406105163326,-0.2071649730205536,-50.90848159790039,-9.415787696838379,17.10944366455078,1.8529154062271118,-1.2229111194610596,0.11265717446804047,,,,,,,,,
1739304834.2383554,-0.05493993364861686,1.1079476807296298,-0.48025679898808504,-1.4097731351993854,1.6218744995452516,1.0664920524330201,1.3592591414826294,-9.189926332646604e-05,-0.00030055752887932696,-0.0002085187190077012,8.690740135085164e-05,1.753546814429294e-05,-0.0010298951992139213,0.0020475804926167957,-0.2071649730205536,-50.88071060180664,-9.439591407775879,17.08167266845703,1.8529154062271118,-1.2165024280548096,0.07969819009304047,,,,,,,,,
1739304834.2484434,-0.05493893514772886,1.1079483185097425,-0.480258503255153,-1.409770989468518,1.6218737420467773,1.066497852887763,1.3592542359283881,-0.0010629773162980469,0.00011510135589519547,-0.0006296167029443421,0.0008625269420243944,-0.0010705508941513794,0.0007386049896476239,-0.0007688755928906151,-0.2071649730205536,-50.93228530883789,-9.415787696838379,17.08167266845703,1.8593240976333618,-1.2366440296173096,0.10624848306179047,,,,,,,,,
1739304834.2593393,-0.05493783153663584,1.1079527898683708,-0.48025471919778684,-1.4097692080633557,1.621876014919343,1.066493956408123,1.3592624644782887,-0.0007545580348059701,0.001195802151465277,0.0009034396184182097,0.0009323641032271812,-0.0008819420675923841,-0.0005877623675598827,0.0006502614047882063,-0.2071649730205536,-50.96005630493164,-9.467362403869629,17.05786895751953,1.8400980234146118,-1.2036850452423096,0.05955658480525017,,,,,,,,,
1739304834.269401,-0.054938247368168956,1.1079469279039034,-0.4802547221416687,-1.409774851899076,1.621878605092046,1.0664970952855908,1.3592552765995856,0.00032377686904089297,-0.0010378265502964993,0.0009193189848080462,-0.0001657078391832666,0.001617554498972953,0.0004595169002513446,-0.0012301368290753745,-0.2309686839580536,-50.90848159790039,-9.467362403869629,17.13324737548828,1.8400980234146118,-1.2302353382110596,0.09343110024929047,,,,,,,,,
1739304834.2803233,-0.054938010484733964,1.1079490196881976,-0.48025679607191646,-1.409774851899054,1.6218760148801286,1.0664970952855908,1.3592583794979969,4.996392225921142e-05,-0.0004943704792086086,-0.0008675354526951114,1.4862317059435924e-05,0.0008111890732088649,0.0006070335316352299,0.00021510055228529025,-0.2309686839580536,-50.93228530883789,-9.439591407775879,17.13324737548828,1.8400980234146118,-1.2302353382110596,0.08610688149929047,,,,,,,,,
1739304834.2903333,-0.054938247400201146,1.1079454126570738,-0.48025679898803564,-1.4097736785139594,1.621876316843558,1.06649547172828,1.3592545171843127,-4.2205166807660695e-05,-0.001145628865634281,-0.00011996237614380939,0.0001056978476254308,-0.0002495202437477152,-4.808804555646232e-05,-0.0010022317239716074,-0.2309686839580536,-50.88071060180664,-9.439591407775879,17.10944366455078,1.8465067148208618,-1.2165024280548096,0.09343110024929047,,,,,,,,,
1739304834.3003588,-0.05493824697168119,1.1079507940127564,-0.4802567980160233,-1.4097688397507002,1.6218770792545814,1.0664929710011106,1.359257760306253,-0.0008461467890869669,0.0003520741283233238,0.00017849137842417144,0.0011981703032997683,0.000982269090804821,-0.000339468031076527,-0.00021093112052592402,-0.2309686839580536,-50.93228530883789,-9.439591407775879,17.08167266845703,1.8593240976333618,-1.2229111194610596,0.07328949868679047,,,,,,,,,
1739304834.3104038,-0.05493712208157213,1.1079496815458636,-0.48025679898806856,-1.4097730687495649,1.6218744989558465,1.066497852890488,1.3592573428498427,-8.737910983222107e-05,-0.0002548731672629062,-0.0003893165685798384,-0.000217010800825036,-0.000145791691708989,0.0010026742828430947,-0.0008371683781640128,-0.2071649730205536,-50.90848159790039,-9.439591407775879,17.10944366455078,1.8529154062271118,-1.2366440296173096,0.09343110024929047,,,,,,,,,
1739304834.3204064,-0.05493823859737845,1.107953546166912,-0.48025365134492026,-1.409773069222027,1.621871084795412,1.0664962293883573,1.3592612968418543,-0.0010472047297368588,0.0012619106363907975,0.0015874870475556624,-0.000473362039061443,-0.0012064499610713515,0.0005465135634467145,0.0008738082895884423,-0.2309686839580536,-50.93228530883789,-9.491166114807129,17.10944366455078,1.8593240976333618,-1.2229111194610596,0.07328949868679047,,,,,,,,,
1739304834.3313375,-0.05493741545332452,1.1079532698238337,-0.48025609148562265,-1.4097730695490838,1.62187555916848,1.0664939519384564,1.3592569907365109,-0.0005507234393620767,0.0014888680892796479,-0.0005532902470825559,0.0001213633259949657,0.0011164061165683927,-0.00064651196821341,-8.547402271224169e-05,-0.2309686839580536,-50.96005630493164,-9.439591407775879,17.10944366455078,1.8529154062271118,-1.2036850452423096,0.09983979165554047,,,,,,,,,
1739304834.3424199,-0.054939866182534075,1.1079514824895729,-0.4802539644520951,-1.4097751697904946,1.6218745000358485,1.0664970952855657,1.3592603967540695,-0.0006804762670573859,0.00026154898687234904,0.0006177323412724634,-0.001881462581211565,0.0014577615903393199,0.0004447228063733622,0.0003607106866905559,-0.2071649730205536,-50.93228530883789,-9.439591407775879,17.13324737548828,1.8529154062271118,-1.2302353382110596,0.07969819009304047,,,,,,,,,
1739304834.353416,-0.05493645605397067,1.1079497181509643,-0.4802586081400563,-1.4097709894339738,1.6218729843867017,1.0664954583731143,1.359263634479179,0.00043648482213193946,0.0003708478399488393,-0.0003948920911539472,0.00042701463548877334,9.363100998362124e-05,0.00021627701474990604,0.0016327417535834097,-0.2547723948955536,-50.90848159790039,-9.415787696838379,17.08167266845703,1.8657327890396118,-1.2165024280548096,0.05314789339900017,,,,,,,,,
1739304834.3643434,-0.05493680380956872,1.107946740189904,-0.4802567988802276,-1.4097733871134739,1.6218745106892363,1.066499408302671,1.359253875831923,0.0007226493822228429,-0.0019410537564342896,-0.0005092034355550247,-0.0002698056039641165,-0.0008407038804158965,0.001442814410936627,-0.000617221703130931,-0.2071649730205536,-50.88071060180664,-9.439591407775879,17.10944366455078,1.8529154062271118,-1.2229111194610596,0.09983979165554047,,,,,,,,,
1739304834.374416,-0.05493893509472476,1.1079474847535218,-0.4802540092691463,-1.4097684826744887,1.6218729843868878,1.0664962248069831,1.3592586774405542,-0.00013684655076109177,-0.001454704650090717,0.0014222591843736708,0.0015772016846699157,-0.0005448359978466407,0.0001869541375416544,0.0007191072973781626,-0.2071649730205536,-50.88071060180664,-9.467362403869629,17.05786895751953,1.8657327890396118,-1.2229111194610596,0.05955658480525017,,,,,,,,,
1739304834.385343,-0.05493824696589606,1.1079514013810363,-0.4802547191942219,-1.4097748518949664,1.6218760148655078,1.0664954717282542,1.359256845713456,-7.759465861586264e-05,0.00047662495245333076,0.0007485054154218701,0.0002546623707133747,-4.5637683702901e-06,0.0005561691209598184,0.00015439687367368408,-0.2309686839580536,-50.93228530883789,-9.467362403869629,17.13324737548828,1.8400980234146118,-1.2165024280548096,0.07969819009304047,,,,,,,,,
1739304834.3964107,-0.05493824740420598,1.107951161981245,-0.48025679898808493,-1.4097699220108975,1.621875661652797,1.06649547172828,1.3592618578184614,0.0003574523821523745,0.0008022144854832369,0.000242105278321002,0.0012312364613510205,-0.00014910711462152497,-0.0002903145154742779,0.0005469233749348805,-0.2309686839580536,-50.93228530883789,-9.439591407775879,17.05786895751953,1.8400980234146118,-1.2165024280548096,0.05955658480525017,,,,,,,,,
1739304834.4073224,-0.05493653483542309,1.107950036405292,-0.480256866796204,-1.4097730015242782,1.6218760147033366,1.0664965826010682,1.3592530197414683,-0.00018336206957867638,-7.752482784325335e-05,-0.00044895544918781543,-4.594435593217123e-05,0.0020515546163670743,0.00036165068210969526,-0.0008529786590865304,-0.2547723948955536,-50.90848159790039,-9.439591407775879,17.10944366455078,1.8400980234146118,-1.2229111194610596,0.10624848306179047,,,,,,,,,
1739304834.4174302,-0.05493359193480644,1.107949771282424,-0.4802549576179569,-1.409773149020797,1.6218744995453473,1.0664954717342616,1.359258401020128,0.000974715149997639,-0.00025730038283275716,0.00087921047233662,-4.705945983917223e-05,-0.0005406388179743039,0.0007995462319427488,0.0002729888260160473,-0.2547723948955536,-50.90848159790039,-9.467362403869629,17.10944366455078,1.8529154062271118,-1.2165024280548096,0.09343110024929047,,,,,,,,,
1739304834.4283223,-0.05493824349481111,1.1079515102535789,-0.4802585816664499,-1.4097731614139097,1.6218776731300537,1.0664954848102322,1.3592589700343387,0.00011156238899793293,0.0005036938211069439,-0.0002523343593997065,0.00013992644119315093,0.0012484204751871497,0.0005597347161269486,-4.661627834122309e-05,-0.2309686839580536,-50.93228530883789,-9.415787696838379,17.10944366455078,1.8529154062271118,-1.2165024280548096,0.05314789339900017,,,,,,,,,
1739304834.4383564,-0.054936526124640186,1.1079535043063338,-0.4802585813410835,-1.4097710692336491,1.621874669179957,1.0664954657689456,1.359255799101328,0.0011510320555541771,0.0004219933997739573,-0.0004684796186459278,0.00011690772770325865,-0.000551392918882714,0.00019782787826741163,0.0002737454152249211,-0.2547723948955536,-50.96005630493164,-9.415787696838379,17.08167266845703,1.8529154062271118,-1.2165024280548096,0.07969819009304047,,,,,,,,,
1739304834.4483993,-0.05493830394603405,1.1079477998284162,-0.48025562643937836,-1.409770980603213,1.6218745055239294,1.0664940235560691,1.359253404801444,-0.00028486176225851127,-0.0007114621621069758,-0.000658570602934037,0.0009374347249110769,0.0013634504793511174,-0.001154618568314815,-0.0021815733963672485,-0.2309686839580536,-50.88071060180664,-9.439591407775879,17.08167266845703,1.8529154062271118,-1.2165024280548096,0.09983979165554047,,,,,,,,,
1739304834.45933,-0.05493624295526827,1.1079474819370438,-0.4802547191916104,-1.4097730692219852,1.6218745039060345,1.066495471720105,1.3592526517171357,0.00020599796898062813,-0.000990155006669015,0.00043911980353471914,0.0008307563382011837,-0.0006361014663787714,0.00040790652602631613,-0.0025629643729274216,-0.2547723948955536,-50.88071060180664,-9.467362403869629,17.10944366455078,1.8529154062271118,-1.2165024280548096,0.10624848306179047,,,,,,,,,
1739304834.4704013,-0.05493692985129249,1.1079476255057874,-0.4802606615639758,-1.409773069222035,1.6218752572055022,1.0664918444794815,1.3592541626228838,0.00023187075315284588,0.0002175244736865548,-0.0009957135748459227,0.0001473748834337688,-0.001156633149524598,-0.0012961177896414055,-0.0008464552107351795,-0.2547723948955536,-50.90848159790039,-9.388016700744629,17.10944366455078,1.8465067148208618,-1.2229111194610596,0.09343110024929047,,,,,,,,,
1739304834.4814153,-0.05493653777266617,1.107947693888746,-0.4802547104496745,-1.4097755671547911,1.6218756104181382,1.066499002340736,1.359252651555631,-0.0005902456596148642,-0.0011181173587176722,0.0011606755310214628,-0.0010460703525179658,0.0007935966215084987,0.0009191161712430623,-0.00023282373770756707,-0.2547723948955536,-50.88071060180664,-9.467362403869629,17.13324737548828,1.8465067148208618,-1.2165024280548096,0.10624848306179047,,,,,,,,,
1739304834.4933867,-0.05493821983029496,1.1079498242600898,-0.4802585701093632,-1.4097748519003996,1.6218756790960644,1.0664962293950018,1.3592575293412927,-0.0006805231532529043,0.00014683705483108117,-0.0006605977654389081,-0.0009878587144185992,2.153005744173105e-05,0.0009129971360730133,-2.7186110897815677e-05,-0.2309686839580536,-50.90848159790039,-9.415787696838379,17.13324737548828,1.8400980234146118,-1.2229111194610596,0.06596527993679047,,,,,,,,,
1739304834.5043378,-0.054938244484569576,1.1079476226767977,-0.48025682537100967,-1.4097737846231273,1.6218755611209146,1.0664947140682017,1.359260024571354,-0.00041429648531789447,-0.0010029967315104305,0.0001291530153261311,9.912009098732519e-05,0.0005633452954969642,-0.00019483557300848146,0.0010303196327303896,-0.2309686839580536,-50.90848159790039,-9.439591407775879,17.10944366455078,1.8529154062271118,-1.2100937366485596,0.07969819009304047,,,,,,,,,
1739304834.5143745,-0.05493653488343277,1.1079549029323934,-0.48025543445441354,-1.4097709894442947,1.6218763168615355,1.0664962159793574,1.359257882536049,0.0004196517694498982,0.00125373750493609,0.0007244418774322939,0.00017849296415235673,0.0008276969345417313,0.0008011832648102923,0.0018301439995059097,-0.2547723948955536,-50.98386001586914,-9.467362403869629,17.08167266845703,1.8465067148208618,-1.2229111194610596,0.06596527993679047,,,,,,,,,
1739304834.5243833,-0.0549361161020976,1.1079515102846849,-0.4802589699622808,-1.4097766375195124,1.6218749835955275,1.0664929710008835,1.3592531224600841,0.00034885685361792356,0.0010859573360684962,-0.000984916619974864,-0.0007560874188724861,0.0009411947012265241,-0.000761234024273101,-0.00021206706576964768,-0.2309686839580536,-50.93228530883789,-9.439591407775879,17.15705108642578,1.8529154062271118,-1.2229111194610596,0.10624848306179047,,,,,,,,,
1739304834.5344174,-0.05493644718744266,1.1079505566157504,-0.4802567725286947,-1.4097762569668904,1.6218751552452197,1.066496229222815,1.3592558252886167,0.001251890276947597,0.0007580637331965146,-0.0008589797710564168,-0.0016184488499926134,0.00138151045647276,7.272626551131281e-05,-0.0007724639654285301,-0.2547723948955536,-50.93228530883789,-9.439591407775879,17.10944366455078,1.8593240976333618,-1.2229111194610596,0.07969819009304047,,,,,,,,,
1739304834.5454009,-0.05493653777027155,1.107954973488847,-0.4802525903829975,-1.4097748519050521,1.6218752615687386,1.066496229388358,1.3592581715971657,-0.00010656683566378751,0.0010137206964451455,0.0014801929849281121,-0.0002836540393653526,0.0001747923404728685,0.00048106399089758745,0.0006175675151536942,-0.2547723948955536,-50.98386001586914,-9.467362403869629,17.13324737548828,1.8465067148208618,-1.2229111194610596,0.05955658480525017,,,,,,,,,
1739304834.5564115,-0.054936534883498506,1.1079515073452322,-0.48025081061019614,-1.4097766345760732,1.6218740948826653,1.0664903693311472,1.3592556276399734,0.0004865936879976356,-0.0005511658345408917,0.0015940789210838013,-0.0015113582107767012,-0.00015633610153975575,-0.001101585793265362,0.00039251202437918576,-0.2547723948955536,-50.93228530883789,-9.491166114807129,17.15705108642578,1.8593240976333618,-1.2100937366485596,0.09343110024929047,,,,,,,,,
1739304834.5673306,-0.0549382352933135,1.1079524392015452,-0.4802547190422195,-1.4097730958220045,1.6218722260825909,1.0664954716485728,1.359257427026796,0.0001413553368815106,0.00013301599331742527,0.0005570011108066311,-0.0006505058675144099,-0.0007004309141234156,0.00044497420891660504,0.0006552487509026421,-0.2309686839580536,-50.98386001586914,-9.467362403869629,17.10944366455078,1.8721414804458618,-1.2165024280548096,0.06596527993679047,,,,,,,,,
1739304834.5793366,-0.054941957865729286,1.1079497980806827,-0.4802529368482583,-1.4097748783901574,1.6218745131656516,1.0664962234288018,1.3592588224268598,-0.0011114492749206878,-0.00015682099141058864,0.002188590201438334,-0.001394760099558683,-0.0003962413745078231,0.00024713961886306253,0.0016496178066460693,-0.1793939769268036,-50.90848159790039,-9.491166114807129,17.13324737548828,1.8529154062271118,-1.2229111194610596,0.06596527993679047,,,,,,,,,
1739304834.5893872,-0.054935479613195656,1.1079497937357392,-0.480254719198235,-1.4097748518995026,1.6218768865771709,1.0664954583191781,1.359255786527055,0.0014848562766238312,-0.0016316369828686228,0.00018200094546516664,-0.0002516041769020634,-6.822332555389608e-05,1.7107737746365745e-05,1.499153606802537e-05,-0.2547723948955536,-50.90848159790039,-9.467362403869629,17.13324737548828,1.8327738046646118,-1.2165024280548096,0.07969819009304047,,,,,,,,,
1739304834.6003838,-0.05493823860740756,1.1079515107261246,-0.48025670577917545,-1.40977306878597,1.621876312536753,1.0664939423369242,1.3592596956385508,-2.1489466010942858e-05,0.0004434780779075031,-0.00022991480843911048,-0.00019822622509699315,0.0013805908375510677,-0.0008273136815443048,0.0026988245730534747,-0.2309686839580536,-50.93228530883789,-9.439591407775879,17.10944366455078,1.8465067148208618,-1.2036850452423096,0.04673920199275017,,,,,,,,,
1739304834.6113403,-0.05493793208823428,1.1079514419365704,-0.4802547191977033,-1.409771705014963,1.6218754272767646,1.0664953495573024,1.3592541643994416,-0.0006411006387249429,8.339460161658292e-05,0.0007019950717088742,0.0005297760499350299,0.0011460688259577587,-0.00010429803387190308,0.0004964360998468253,-0.2309686839580536,-50.96005630493164,-9.467362403869629,17.08167266845703,1.8465067148208618,-1.2165024280548096,0.09343110024929047,,,,,,,,,
1739304834.622347,-0.054936534878142304,1.1079460871637425,-0.48025471919822943,-1.4097766345881915,1.6218763212070886,1.0664962288896596,1.359254230661567,0.00014270232810146297,-0.0011101666770112542,0.0002074580834663894,-0.000389560770773625,0.0013560055203273524,0.0006151722231548961,-0.0005600912348412426,-0.2547723948955536,-50.85690689086914,-9.467362403869629,17.15705108642578,1.8465067148208618,-1.2229111194610596,0.06596527993679047,,,,,,,,,
1739304834.6324039,-0.05493824643101606,1.107949797769335,-0.48025680978978025,-1.409773413604427,1.6218706843423607,1.0664962292228122,1.3592581671646606,-0.0009792080738634135,0.0001816528297098996,-0.0004011075515656796,-0.0008886654737984001,-0.0021690438201635103,-0.0009416286566224646,0.0006997142646386684,-0.2309686839580536,-50.90848159790039,-9.439591407775879,17.10944366455078,1.8465067148208618,-1.2229111194610596,0.05955658480525017,,,,,,,,,
1739304834.643354,-0.054938168467081515,1.1079515897629268,-0.4802547074256648,-1.4097764080460993,1.6218752963738432,1.0664962293883555,1.359260782231206,5.547528919947598e-05,0.00014241805713118396,0.000809275552205248,-0.00042699516634263693,0.0003222672372411504,0.0003989940499065165,0.0022423693883930032,-0.2309686839580536,-50.93228530883789,-9.467362403869629,17.15705108642578,1.8465067148208618,-1.2229111194610596,0.07328949868679047,,,,,,,,,
1739304834.6543171,-0.05493420993616862,1.1079505247989798,-0.4802568078183806,-1.4097755342005676,1.621876056049504,1.0664970952855908,1.359252660231072,0.0012134765372585842,0.0007802598441182928,-0.00021819124736046437,-0.0005632973613673882,0.0012003227222457179,0.0008788483611315631,-3.276715814703383e-07,-0.2825433909893036,-50.90848159790039,-9.439591407775879,17.10944366455078,1.8400980234146118,-1.2302353382110596,0.10624848306179047,696,706,700,44.975,0,0
1739304834.66432,-0.05493824739867551,1.1079485149875161,-0.4802564081386675,-1.4097741038281673,1.6218748015240985,1.0664954652720944,1.3592523473496148,-0.0002551912658928124,0.00041494100282930184,-0.0001452849726487662,-0.0004316453924153006,-0.0008681421954349683,-0.00042786489719530337,-0.0005808522345984833,-0.2309686839580536,-50.88071060180664,-9.439591407775879,17.10944366455078,1.8593240976333618,-1.2165024280548096,0.11265717446804047,696,706,699,45.084,0,0
1739304834.6744208,-0.05493793208828385,1.107947799840594,-0.48025609165666217,-1.4097752238370858,1.6218763189610754,1.0664954315011677,1.359258167244195,-0.00010422366091981026,-6.047000386561946e-05,-0.0002488226940380448,2.0670409260589153e-05,0.0007456150976523599,0.0005497847070865312,0.0015591776149810079,-0.2309686839580536,-50.88071060180664,-9.439591407775879,17.10944366455078,1.8465067148208618,-1.2165024280548096,0.05955658480525017,696,706,699,44.866,0,0
1739304834.685383,-0.05493653098891299,1.1079515142146528,-0.4802567902355366,-1.409773781546496,1.6218752615720728,1.0664954717280528,1.3592506234971156,0.0008608839972840281,0.00028356886448323683,0.0009052192350275634,0.0008733579097631953,0.0009801820731526346,0.000485758800426176,-0.0013725296548173858,-0.2547723948955536,-50.93228530883789,-9.439591407775879,17.10944366455078,1.8465067148208618,-1.2165024280548096,0.12639008462429047,695,705,698,44.975,0,0
1739304834.6963902,-0.05493653196386829,1.1079497182964984,-0.4802607627535375,-1.409773387117495,1.6218729847097348,1.066495470238391,1.35925578747418,0.000736238268546798,-0.0009580382466360391,-0.0009258147091463843,-0.0010118799731722874,-0.0007901334332609095,-0.0004795232761460619,-0.00026091724061896653,-0.2547723948955536,-50.90848159790039,-9.415787696838379,17.10944366455078,1.8657327890396118,-1.2165024280548096,0.07969819009304047,694,706,704,45.084,0,0
1739304834.706393,-0.05493730145637558,1.107949720257423,-0.4802547193441826,-1.4097748872257085,1.6218751399523834,1.0664958673453055,1.3592551866175648,0.0006283643188148698,-0.0006806378329549548,0.00017470270796767818,-0.0013541212507311147,0.0006075274537480661,-0.0002243660431306196,0.0005203972458496336,-0.2309686839580536,-50.90848159790039,-9.467362403869629,17.13324737548828,1.8465067148208618,-1.2229111194610596,0.11265717446804047,696,711,699,44.975,0,0
1739304834.7164133,-0.05493972537177918,1.1079515102887545,-0.4802560903550885,-1.4097755681365358,1.6218768793072031,1.066493835720983,1.3592592783265718,0.00028669250017888113,0.0012013308203311843,0.0002707225928943235,-0.0010932217070365742,0.00011810053773449755,-0.0014258950213694734,0.0015515771157632967,-0.2071649730205536,-50.93228530883789,-9.439591407775879,17.13324737548828,1.8327738046646118,-1.2036850452423096,0.05314789339900017,697,705,700,45.084,0,0
1739304834.7273238,-0.05493509424359474,1.107949797769336,-0.480256825475038,-1.4097733341356105,1.6218753763965403,1.0664918848713467,1.3592546766013687,0.0007543058467198958,0.00029307291684338866,0.0002770888691580183,-0.0002785297054646583,0.00028722096999237817,-0.0004996480301520496,-0.0006576231831351191,-0.2309686839580536,-50.90848159790039,-9.439591407775879,17.10944366455078,1.8465067148208618,-1.2229111194610596,0.08610688149929047,695,706,700,45.084,0,0
1739304834.7383137,-0.054939013851223496,1.1079515102900672,-0.48025866117445204,-1.4097709933945992,1.621875257152266,1.066494707587491,1.3592535225368065,0.0001397431239419407,0.000908833364145625,-0.0011395747331951669,0.0002875744060813301,-0.000865192762882082,-0.0002662932518492211,-0.0016402831004194754,-0.2071649730205536,-50.93228530883789,-9.415787696838379,17.08167266845703,1.8465067148208618,-1.2100937366485596,0.09983979165554047,695,706,700,44.975,0,0
1739304834.7483454,-0.05493824738819156,1.107946850078752,-0.4802546734174833,-1.4097730780524198,1.6218783336504976,1.0664954583191693,1.3592511342171514,-0.00041777192046901014,-0.0008667862479610686,0.001160212200156025,-0.001079815048332996,-0.0004931156267140647,0.00047230603643877444,-0.00026625895537479486,-0.2309686839580536,-50.88071060180664,-9.439591407775879,17.10944366455078,1.8593240976333618,-1.2165024280548096,0.11998139321804047,695,707,700,44.975,0,0
1739304834.7584794,-0.054936119021689274,1.107947651658991,-0.48025858162910734,-1.4097730688951358,1.6218774282786246,1.066496229388131,1.3592597225949512,-0.0015277494595940134,-0.0006953009244385194,-0.0013778679091549628,0.0007891922766607765,0.00023682800805312914,0.0012817545970826051,0.0014469177442318925,-0.2309686839580536,-50.90848159790039,-9.415787696838379,17.10944366455078,1.8400980234146118,-1.2229111194610596,0.07328949868679047,696,706,699,45.084,0,0
1739304834.7693753,-0.05493995688520484,1.1079499455835797,-0.4802599779024728,-1.4097709983715114,1.6218768809322235,1.06649547172828,1.3592558261273122,-0.0006121163234340199,-0.0003612812956794917,-0.0016695312930478377,0.0006570056175752301,0.0010317118676595517,0.00031255573103097973,0.00044482048847638745,-0.2071649730205536,-50.88071060180664,-9.439591407775879,17.08167266845703,1.8327738046646118,-1.2165024280548096,0.10624848306179047,697,706,700,45.192,0,0
1739304834.7804005,-0.05493824693561975,1.1079497978177875,-0.48025690496984297,-1.4097748518991042,1.6218754162884284,1.0664978572511388,1.359251024247801,0.00023810690032564257,-0.000478423109740547,-0.0007413105048610922,-0.00045893108245476674,0.0014057567439708612,0.0010884579629188255,-0.0012302464534828849,-0.2309686839580536,-50.90848159790039,-9.439591407775879,17.13324737548828,1.8465067148208618,-1.2366440296173096,0.11998139321804047,695,706,700,45.192,0,0
1739304834.79042,-0.054936119021681606,1.10794779350554,-0.4802529375041516,-1.409771599771269,1.6218784367685326,1.0664970952856638,1.3592583242198788,0.0001536491807378476,-0.0013095829803752208,0.0007822803840447824,-0.0002722564031635979,0.00032026565104296284,0.00041476824929710974,0.0013298825128118977,-0.2309686839580536,-50.88071060180664,-9.491166114807129,17.05786895751953,1.8465067148208618,-1.2302353382110596,0.05955658480525017,696,706,700,45.084,0,0
1739304834.8013644,-0.05493801090525152,1.107949945595659,-0.4802554344539723,-1.4097692865685774,1.6218745037086089,1.066494594337697,1.35925264714203,0.0004552662184855294,-0.0006240211199568368,0.00042958795347671413,0.0019207056826672482,-0.0006459598611066275,0.0002436702491174517,-0.001592508339776926,-0.2309686839580536,-50.88071060180664,-9.467362403869629,17.05786895751953,1.8529154062271118,-1.2366440296173096,0.10624848306179047,696,705,699,45.084,0,0
1739304834.8123157,-0.05493815689552823,1.1079460992389767,-0.4802539527953859,-1.4097748523355695,1.6218753749430217,1.0664962288181525,1.3592550283585332,0.00017989544063400672,-0.0006857757119795204,0.001317142694933564,-0.00011853205880471514,-0.00028786178288313987,0.0012396341815619687,-0.0008804578307993729,-0.2309686839580536,-50.85690689086914,-9.439591407775879,17.13324737548828,1.8465067148208618,-1.2229111194610596,0.08610688149929047,697,706,699,44.866,0,0
1739304834.8233097,-0.05493995112961351,1.107949771714515,-0.4802547191821626,-1.4097730693673924,1.6218782936142428,1.0664954716730959,1.3592526471411441,0.00028755393340283394,-0.0008726898457605717,0.00044144174825244567,0.0006257693354587218,0.0014325445362829905,-9.1783191576223e-05,-0.0012501817691550016,-0.2071649730205536,-50.90848159790039,-9.467362403869629,17.10944366455078,1.8327738046646118,-1.2165024280548096,0.10624848306179047,696,710,699,44.975,0,0
1739304834.8343801,-0.05493824740406445,1.1079507429399422,-0.4802585856987057,-1.4097740228963538,1.6218754146972985,1.066497081214416,1.359258167236441,-0.0006892300108972762,-4.1743902701821506e-05,-0.0006619391763404782,-0.0003056542767574854,0.0012301786575998756,-0.0006087465202937825,-0.0001904027869978417,-0.2309686839580536,-50.90848159790039,-9.415787696838379,17.10944366455078,1.8465067148208618,-1.2302353382110596,0.05955658480525017,697,706,700,45.084,0,0
1739304834.8444033,-0.054936534775349176,1.1079461226343583,-0.48025858155712,-1.4097713073290017,1.621877944762408,1.0664960091564288,1.359256516724162,0.00045145532470361027,-0.0019427113007308683,-0.0008899547279216545,-0.0003311286231284157,0.0004054147647417173,4.374202936751042e-05,0.001285068487460063,-0.2547723948955536,-50.85690689086914,-9.415787696838379,17.08167266845703,1.8327738046646118,-1.2302353382110596,0.04673920199275017,696,706,700,45.084,0,0
1739304834.8544216,-0.054939959924942765,1.1079505143338668,-0.4802585816651022,-1.4097730692274186,1.6218760192441763,1.066495143240882,1.359257014575356,-0.0013847858268002458,0.0011134638334857104,-0.0007601111322534366,0.0001821878115045691,0.00019718931887404822,-0.0014862320565124465,-0.00019218065329932845,-0.2071649730205536,-50.90848159790039,-9.415787696838379,17.10944366455078,1.8400980234146118,-1.2229111194610596,0.07328949868679047,695,706,701,45.192,0,0
1739304834.8653746,-0.054936119021689545,1.1079499037371938,-0.48025609079115106,-1.4097751976986574,1.6218748015234257,1.0664947125721813,1.3592550413893083,0.0003424701427523351,0.0005932964316320282,0.0003687252219327501,-0.0014192292365037271,0.0004439886802143345,0.0007938926919095796,0.0006532321357431188,-0.2309686839580536,-50.90848159790039,-9.439591407775879,17.13324737548828,1.8593240976333618,-1.2100937366485596,0.08610688149929047,694,705,699,45.084,1,0
1739304834.876393,-0.054938247392198616,1.1079477999744358,-0.4802585846045455,-1.4097755671567431,1.6218787893385078,1.0664961757523457,1.3592534573444455,0.00025637065387343463,-0.0006954361965157156,-0.0006831474500971997,-0.0007642014198131904,0.0017206475422438408,-0.0007888040607457609,-0.0016534186038886592,-0.2309686839580536,-50.88071060180664,-9.415787696838379,17.13324737548828,1.8465067148208618,-1.2229111194610596,0.09983979165554047,695,705,701,45.192,0,0
1739304834.887318,-0.054936533585885725,1.1079475879008576,-0.4802596601200671,-1.4097748514670265,1.6218746559565285,1.0664962288914257,1.3592574097377244,-0.00025705168730725105,-0.0009639453144314067,-0.0009797261086625644,-0.0005779459218185728,-0.0003056501875211157,0.00023480484885589435,-6.767897837661556e-05,-0.2547723948955536,-50.88071060180664,-9.439591407775879,17.13324737548828,1.8529154062271118,-1.2229111194610596,0.06596527993679047,695,706,700,44.975,0,0
1739304834.8973844,-0.05493680644122891,1.107952659115745,-0.48025471924668295,-1.4097730692220276,1.6218802534206729,1.0664947140681933,1.3592496260012492,0.0015939084008375327,1.968468518157441e-05,-0.00015306290748128188,0.0006184714695765497,0.001469592684299865,-0.0007621862217614867,-0.0003821493908351733,-0.2071649730205536,-50.90848159790039,-9.467362403869629,17.10944366455078,1.8400980234146118,-1.2100937366485596,0.13279877603054047,696,706,700,45.084,0,0
1739304834.9083886,-0.05493824735080888,1.1079477998769398,-0.480258502928105,-1.4097730437122282,1.6218768982771223,1.0664945526635596,1.3592541624632948,-0.0004449954323846098,-0.0002446710836429009,0.0003248413964387873,0.00046555098883151435,0.0008763831025021401,-0.0006079355262524492,0.0003523846335710517,-0.2309686839580536,-50.88071060180664,-9.415787696838379,17.10944366455078,1.8327738046646118,-1.2100937366485596,0.09343110024929047,695,705,700,44.975,0,0
1739304834.9193263,-0.05493824599848385,1.1079468290544423,-0.48025858165295515,-1.4097710247534023,1.6218745126452803,1.0664962293880547,1.3592568456567407,-0.0002371424475306121,-0.001521549590470337,-0.0014229892376829384,0.0008524570096804223,0.0005669809400382617,0.00048693929959311847,0.0007838174925309373,-0.2309686839580536,-50.85690689086914,-9.415787696838379,17.08167266845703,1.8529154062271118,-1.2229111194610596,0.07969819009304047,695,706,701,44.866,0,0
1739304834.9293814,-0.05493621956752895,1.1079477998410443,-0.4802585816651039,-1.4097730721660724,1.6218744995455718,1.06649547172828,1.3592526471590891,0.0007053351302399435,-9.634923078565374e-05,-0.00030850504490192223,-0.0004647253299755987,0.0010644565794459635,0.0006014829287127328,-0.0014726798862788283,-0.2547723948955536,-50.88071060180664,-9.415787696838379,17.10944366455078,1.8529154062271118,-1.2165024280548096,0.10624848306179047,695,709,700,44.975,1,0
1739304834.9404147,-0.05493824448284149,1.1079505130250733,-0.48025495761680853,-1.4097752150256024,1.6218760134119565,1.066495310820268,1.3592541618152785,-0.0006056031222643549,0.000596214670810678,0.0015094924028628488,-0.0011348494289534208,1.9466794164565374e-05,-0.0007295044891872704,0.00013167499559049375,-0.2309686839580536,-50.90848159790039,-9.467362403869629,17.10944366455078,1.8400980234146118,-1.2165024280548096,0.09343110024929047,695,705,700,44.975,0,0
1739304834.951304,-0.05493821139589632,1.1079514664695649,-0.48025858264759635,-1.4097777158775555,1.6218737418852633,1.0664965589246418,1.3592530003538503,-0.0003472304471234489,0.00013895005626916678,-0.0004131867488943444,-0.0015046775479621815,-0.0017778725800729062,-0.0006500587392375208,-0.001597886709168843,-0.2309686839580536,-50.93228530883789,-9.415787696838379,17.13324737548828,1.8593240976333618,-1.2302353382110596,0.10624848306179047,694,705,699,45.192,0,0
1739304834.9614537,-0.054937538917095206,1.1079480382463198,-0.4802585816651207,-1.4097752494868896,1.6218752572054282,1.066495471222567,1.3592526071102051,0.00034167409681446,-0.00037549171446994294,-0.0009271082440605821,-0.00035349199579671933,9.492027418565185e-05,0.00034204129782172037,-0.001008412586568217,-0.2309686839580536,-50.88071060180664,-9.415787696838379,17.10944366455078,1.8465067148208618,-1.2165024280548096,0.07969819009304047,696,706,700,44.975,1,0
1739304834.972391,-0.054937122077580024,1.107952447193054,-0.4802567990971013,-1.4097748519477002,1.621874787708699,1.066497095285588,1.3592558038739508,-0.0002011661640951096,0.0005228971892564753,-8.379649207562335e-05,-0.00030158748586371083,7.265976625999751e-05,0.0008941187127184501,0.0001612362542715218,-0.2071649730205536,-50.90848159790039,-9.439591407775879,17.13324737548828,1.8465067148208618,-1.2302353382110596,0.07969819009304047,695,707,699,45.084,1,0
1739304834.9824235,-0.05493653483542302,1.1079497987953506,-0.48026089987354054,-1.4097768867307028,1.6218787380899162,1.0664907651689224,1.3592534049630303,-0.000585478191763706,-0.0003882954292998257,-0.0012986963034981658,-0.0007994478780789417,-0.00038847720806514793,-0.0014537491015325086,-0.0009633770088191594,-0.2547723948955536,-50.90848159790039,-9.388016700744629,17.15705108642578,1.8529154062271118,-1.2165024280548096,0.09983979165554047,694,706,700,45.084,0,0
1739304834.993345,-0.0549335909948405,1.107951510290073,-0.4802556764744568,-1.4097709894336028,1.6218785538813127,1.0664960684537774,1.3592557463051433,0.0011047663773701966,-0.0007354753658085569,0.0007320969228161316,0.00042205110778364117,0.0008964981840827761,-1.4747462684717186e-05,0.0004861261925010338,-0.2825433909893036,-50.93228530883789,-9.467362403869629,17.08167266845703,1.8465067148208618,-1.2229111194610596,0.05314789339900017,695,707,701,44.975,0,0
1739304835.0043993,-0.05493823864009768,1.107948523914538,-0.4802607245215346,-1.4097713086318133,1.6218760150456222,1.0664954652711858,1.3592531157256749,-0.00017706251456558363,-0.0014023710797140183,-0.0011699666549570033,0.00030412958598602206,-0.0001510922804489814,0.0001064722029974543,-0.0010751128210790962,-0.2309686839580536,-50.88071060180664,-9.415787696838379,17.08167266845703,1.8400980234146118,-1.2165024280548096,0.09343110024929047,695,707,703,44.975,0,0
1739304835.0153992,-0.05493619231797851,1.1079535082350076,-0.4802565617420165,-1.4097730692601758,1.6218784186772142,1.0664945531601528,1.359258167230532,0.0013831577509351585,0.0010522972308559715,2.9756635046449377e-05,-0.001118009850275395,0.00092592209107289,-0.0005204746187361908,0.0021791157794190923,-0.2547723948955536,-50.96005630493164,-9.415787696838379,17.10944366455078,1.8465067148208618,-1.2100937366485596,0.05955658480525017,693,704,701,44.975,1,0
1739304835.0263112,-0.05493711869147724,1.107947802771922,-0.48025679883267336,-1.409773148694895,1.6218758143053689,1.0664929710002022,1.3592566614162598,-0.0007224072070385736,-0.0005863309178882151,0.0008804457891884221,-0.0003154871034594736,0.00042216332992781004,0.00021499321511030643,0.00018773148945773168,-0.2071649730205536,-50.88071060180664,-9.439591407775879,17.10944366455078,1.8657327890396118,-1.2229111194610596,0.07328949868679047,694,706,701,44.975,1,0
1739304835.0363157,-0.05493995976869502,1.1079498010398738,-0.4802547191982268,-1.4097751707729849,1.6218746174923533,1.0664970905951996,1.3592550283605271,-0.0012179673629406005,-5.528908619109999e-05,0.00022102009634771826,-0.0010583864112173047,-8.841713695360109e-05,0.0005198888358518301,0.0001378454919841056,-0.2071649730205536,-50.90848159790039,-9.467362403869629,17.13324737548828,1.8529154062271118,-1.2302353382110596,0.08610688149929047,695,706,700,44.975,0,0
1739304835.046387,-0.054938246431013436,1.1079507906895643,-0.48025471919822943,-1.4097748519044542,1.6218745039079983,1.0664977978196966,1.359256145045522,-0.0001716408749613426,0.00043041462715280533,0.00039951834710599127,-0.0004574403718550467,-0.00034120940053608475,-0.0003758258299853815,4.311990340709573e-05,-0.2309686839580536,-50.90848159790039,-9.467362403869629,17.13324737548828,1.8529154062271118,-1.2366440296173096,0.07969819009304047,697,706,700,44.975,0,0
1739304835.0563955,-0.05493814229885414,1.1079497978197814,-0.48025680781840274,-1.4097710012059366,1.621876920799881,1.0664943841065078,1.3592526471593847,0.000446297145110911,-0.0005295379256807163,-0.00036933213326528357,0.0003499197411208876,0.00014052391506945433,0.00040033624671021394,-0.0015602887638107477,-0.2309686839580536,-50.90848159790039,-9.439591407775879,17.08167266845703,1.8593240976333618,-1.2165024280548096,0.10624848306179047,692,705,700,45.084,1,0
1739304835.0673122,-0.05493822064709691,1.1079500352067688,-0.48025464046124616,-1.4097709894322015,1.6218701432612446,1.066496229312737,1.3592588856506624,0.0005776128500200961,-0.0003999960680164226,0.0006885652149891837,0.00031256565858856086,-0.001997118858585968,0.0005839143949490692,0.0013441755673593812,-0.2309686839580536,-50.90848159790039,-9.467362403869629,17.08167266845703,1.8529154062271118,-1.2229111194610596,0.05314789339900017,696,707,700,44.975,1,0
1739304835.0774298,-0.05493451034144946,1.1079515231580077,-0.4802537282437559,-1.409777990586439,1.6218733375256347,1.0664961067208292,1.359256661415595,0.0005693742000927143,0.0001056012011016299,0.0007016506577369007,-0.0014663162582393644,-0.0010618905611105808,0.000610198574514508,0.0006295664624749327,-0.2825433909893036,-50.93228530883789,-9.439591407775879,17.13324737548828,1.8657327890396118,-1.2229111194610596,0.07328949868679047,695,705,699,44.975,0,0
1739304835.0884023,-0.054938325964584624,1.1079536564207393,-0.48025471928991126,-1.4097731488579677,1.6218792068638412,1.066495471230958,1.359260343616059,-0.001010719475765812,0.0004771655326241477,0.0003168616988851676,-0.0004269585322587612,0.00013539553670443959,7.676174711553763e-06,0.003172872662407885,-0.2309686839580536,-50.93228530883789,-9.467362403869629,17.10944366455078,1.8400980234146118,-1.2165024280548096,0.05314789339900017,695,706,700,44.975,1,0
1739304835.099314,-0.05493712208202293,1.1079522257032746,-0.48025652066955216,-1.4097737844782219,1.6218762024572921,1.0664918848720253,1.3592518894890744,-0.0006546855848772709,-0.0005569394081750299,9.144618914118155e-05,0.00026848064385505855,-0.0011475506373166454,-0.00024336696323859583,-0.0007396834399340624,-0.2071649730205536,-50.93228530883789,-9.439591407775879,17.10944366455078,1.8657327890396118,-1.2229111194610596,0.11265717446804047,695,707,700,44.975,1,0
1739304835.1093206,-0.05493995987688548,1.1079536532349716,-0.48025679898337165,-1.4097730427431947,1.6218769227922276,1.0664918847984532,1.3592510085638143,-0.00020932571342139282,-0.00013511139308701968,0.00044661598600049385,0.0002157148332977991,0.0010752691187478508,-0.0013032610046561646,-0.0020809248930622566,-0.2071649730205536,-50.93228530883789,-9.439591407775879,17.10944366455078,1.8593240976333618,-1.2229111194610596,0.11998139321804047,694,707,700,45.084,1,0
1739304835.1193457,-0.05493824902961487,1.1079481177562125,-0.48025679898808493,-1.4097692126415904,1.6218760150808813,1.0664929689410159,1.3592557814962005,0.00013518911385132601,-0.001573619579224428,-8.092370196914711e-05,0.0009766128812836073,0.0003897089232970433,-0.00032707648287804445,0.0006272982473515968,-0.2309686839580536,-50.88071060180664,-9.439591407775879,17.05786895751953,1.8400980234146118,-1.2229111194610596,0.07969819009304047,695,705,700,44.975,1,0
1739304835.130371,-0.05493792332953565,1.1079497977747201,-0.4802547193072457,-1.4097713790134252,1.621876920799663,1.0664942268192819,1.3592468250681597,-0.00021343908311584765,-0.00032282603812555405,0.001638418808153878,0.0007772209531740121,-0.00010153828369794087,-0.0011892442206000962,-0.0036280811749062033,-0.2309686839580536,-50.90848159790039,-9.467362403869629,17.05786895751953,1.8593240976333618,-1.2100937366485596,0.14653168618679047,696,707,701,44.975,1,0
1739304835.1403832,-0.05493619317760403,1.1079536825482323,-0.48026066156397773,-1.4097733989240182,1.6218738997674504,1.0664947138944068,1.3592565438222504,0.0007456599400159569,0.0005782050671096489,-0.0008224290455955888,-0.0015039814240325176,-0.0002104496119797692,-0.0009252350913412584,6.55955356900269e-05,-0.2547723948955536,-50.93228530883789,-9.388016700744629,17.10944366455078,1.8529154062271118,-1.2100937366485596,0.07328949868679047,696,706,700,44.866,0,0
1739304835.161421,-0.05493722261407396,1.1079500371690811,-0.48025437365542084,-1.4097694461683445,1.6218737469457798,1.066496108701218,1.3592523446776903,-0.0001026774425832631,-0.0003490353937849981,0.00092610748755041,0.0011959842362206329,-1.077310218368404e-05,0.0008559149732595105,-0.0012665216529281565,-0.2309686839580536,-50.90848159790039,-9.491166114807129,17.05786895751953,1.8593240976333618,-1.2229111194610596,0.09983979165554047,695,707,700,45.084,0,0
