IITGN-Robotics/Franka_IITGN_ROBOTICS/franka_ros/franka_iitgn/data01/s_f_005.csv
time,fr3_joint1_pos,fr3_joint2_pos,fr3_joint3_pos,fr3_joint4_pos,fr3_joint5_pos,fr3_joint6_pos,fr3_joint7_pos,fr3_joint1_vel,fr3_joint2_vel,fr3_joint3_vel,fr3_joint4_vel,fr3_joint5_vel,fr3_joint6_vel,fr3_joint7_vel,fr3_joint1_eff,fr3_joint2_eff,fr3_joint3_eff,fr3_joint4_eff,fr3_joint5_eff,fr3_joint6_eff,fr3_joint7_eff,flexpin1,flexpin2,flexpin3,Force,ContactMic,ContactMic_gt
1739303175.8609822,-0.11104880531420043,1.0642003266456799,-0.3890538757512901,-1.419282372188282,1.5159309437429915,1.1582074944484737,1.3614161361922792,0.00046899130099421933,0.0014877463939200189,-0.0019112755874575024,0.00038192356647957586,-0.0009511873861252048,-0.0005601750810155158,0.000930022921660307,-0.6038934588432312,-51.23776626586914,-7.408341407775879,18.24408721923828,2.0424294471740723,-0.5197861194610596,0.05314789339900017,,,,,,,,,
1739303175.8720148,-0.11104832174843106,1.0641941465139926,-0.3890500046438672,-1.4192841549743112,1.51593162291202,1.15820962929287,1.3614138727199707,-0.000535150784684297,-0.0010661941575494994,9.969996352337176e-05,-0.0003005634714058985,-0.0005146897987920551,0.0005726988350155042,0.0005431001406961469,-0.5800897479057312,-51.19015884399414,-7.459916114807129,18.26789093017578,2.0360207557678223,-0.5390121936798096,0.07328949868679047,,,,,,,,,
1739303175.882036,-0.11105107859672296,1.064195129280399,-0.38905182470000993,-1.4192809388879142,1.5159345345250894,1.1582097139544278,1.3614113736055,-0.00023551221298437255,-0.00029808279433906064,0.0005365425910945959,0.00033312167211932853,0.0012399184083348369,-0.002266134753117172,-0.0011807751087850853,-0.5285150408744812,-51.16238784790039,-7.408341407775879,18.16870880126953,1.9838358163833618,-0.6442978382110596,0.09343110024929047,,,,,,,,,
1739303175.8930128,-0.1110444173661631,1.0641878270739362,-0.38904730536330456,-1.4193016477852944,1.5159366807420502,1.1581322277771748,1.3614104450869822,0.001234995988361188,-0.0016285682295260825,0.0017037228468838575,-0.00394933936591388,-0.0009820991431325286,-0.00862681970049046,0.0006318657987139318,-0.4571039378643036,-51.05923843383789,-7.384537696838379,18.12110137939453,1.8593240976333618,-0.7038071155548096,0.07328949868679047,,,,,,,,,
1739303175.9030883,-0.11104238419983783,1.0641944250514332,-0.38904751871212073,-1.4193154268458983,1.5159374530631666,1.1580788931984287,1.361402708864117,0.0007022434577406727,0.0010700057953287006,0.0015440476619692927,-0.0011544894627519018,0.0005504591929469133,-0.003927815043859796,-0.0022949494590112024,-0.3817255198955536,-51.11081314086914,-7.356766700744629,18.02191925048828,1.8199564218521118,-0.7559921741485596,0.12639008462429047,,,,,,,,,
1739303175.9140618,-0.1110445802250382,1.0641967511838932,-0.3890429130085197,-1.4193383754770068,1.5159363235428516,1.158059175572009,1.3614010989308623,0.0006585535887444774,0.0009951726117639406,-0.00042760267520100125,-0.002936643061728882,0.0009607439786188089,-0.0012071562293841515,-0.00026816631881642044,-0.3063471019268036,-51.13858413696289,-7.356766700744629,18.14490509033203,1.7934061288833618,-0.7239487171173096,0.09983979165554047,,,,,,,,,
1739303175.9249442,-0.11104386031915497,1.064202178092647,-0.3890437053577756,-1.4193426304448538,1.5159379761021945,1.1580526054919438,1.3614073566206253,-0.0005392628849212649,0.0018566542695108062,-0.0002662405272104224,-0.001321025595261512,0.00033724926737408324,-0.0005034354160719933,0.0022751952264701745,-0.3063471019268036,-51.21396255493164,-7.332962989807129,18.09729766845703,1.8071390390396118,-0.7102158069610596,0.04673920199275017,,,,,,,,,
1739303175.9350576,-0.11104308762936198,1.064200429269532,-0.38904362569718526,-1.4193474980001548,1.515936188394269,1.158049342478814,1.3614009564509413,-0.0009738895815980357,-0.000903961849598885,0.0002540044984238138,0.00029137675864895365,0.00016011820898522404,-0.002081844060764429,6.692999867133489e-05,-0.2825433909893036,-51.19015884399414,-7.332962989807129,18.02191925048828,1.7934061288833618,-0.7239487171173096,0.05955658480525017,,,,,,,,,
1739303175.9460263,-0.11104311346120979,1.0641985848233686,-0.38904070065409274,-1.4193442599807078,1.5159370643814911,1.1580484748433755,1.3613935767857035,0.0005351300903359038,-0.0019195002030581935,0.001402001074206415,0.0015035692165349427,-0.00011245420660712234,0.00017244371094673046,-0.0013446782192484364,-0.2825433909893036,-51.16238784790039,-7.332962989807129,17.99811553955078,1.7869974374771118,-0.7166244983673096,0.08610688149929047,,,,,,,,,
1739303175.9560356,-0.11104703340482122,1.0641967555484146,-0.3890435205556269,-1.419352241476812,1.5159370626056123,1.158048317859939,1.3613904378364432,-0.00014015206680726173,-0.0008839667539113339,-0.0002745889664358698,-0.0007412694157965444,-0.0003876936622752806,-0.0005352850998311299,-0.0018731223595208264,-0.2309686839580536,-51.13858413696289,-7.332962989807129,18.06952667236328,1.7869974374771118,-0.7166244983673096,0.11265717446804047,,,,,,,,,
1739303175.967057,-0.11104501884176578,1.0641990147268912,-0.3890435343214403,-1.4193510084603842,1.5159370630901046,1.1580500852640025,1.3613959889224223,0.00011700792420677822,-0.00035493444279087157,-0.0007536928277889669,-0.001004347807038352,-4.942504729443342e-05,0.0005510390692810203,-0.00024234303919905829,-0.2547723948955536,-51.13858413696289,-7.332962989807129,18.02191925048828,1.7869974374771118,-0.7303574085235596,0.07328949868679047,,,,,,,,,
1739303175.9780576,-0.11104402307183767,1.0641978181770817,-0.38904432849355247,-1.4193537973707273,1.5159346732052519,1.1580508541226135,1.3613941196947612,0.0002907183294205557,0.000944339873030301,-0.0004128068909117851,0.0005769733038690505,-0.0015470205465496815,-0.00016927141071315408,-0.001372008595675208,-0.2547723948955536,-51.13858413696289,-7.281388282775879,18.04572296142578,1.8071390390396118,-0.7367660999298096,0.08610688149929047,,,,,,,,,
1739303175.9889703,-0.11103841705801994,1.0641941550221024,-0.3890401986441963,-1.4193521562980622,1.5159364624134064,1.1580516137208219,1.361395445632674,0.0009566247385518064,-0.00017723613869430907,0.00043987948894533133,0.0002768865775200064,0.0019497987784273642,2.1850589702330657e-05,0.00011548899632606848,-0.3063471019268036,-51.05923843383789,-7.309159278869629,18.02191925048828,1.7934061288833618,-0.7431747913360596,0.06596527993679047,,,,,,,,,
1739303175.9999547,-0.11103821536040934,1.0641940369323915,-0.3890421845187297,-1.4193502593001157,1.5159371149342855,1.1580508560607545,1.3613962258811128,0.0005236143657703128,0.00021151458712211448,0.0005109625757342581,-0.0008976803482794551,0.0010141020778924184,-0.00010096610534762561,-0.0011855655628086985,-0.3063471019268036,-51.08700942993164,-7.309159278869629,17.99811553955078,1.7869974374771118,-0.7367660999298096,0.08610688149929047,,,,,,,,,
1739303176.0100093,-0.11104157287430139,1.064196181717726,-0.38904043781880965,-1.4193505001890903,1.5159373679761365,1.1580497964226253,1.3613899606323083,-0.002385892011953066,1.6761033382636825e-05,0.001189906309400285,-0.00011554175545782081,7.459964336508924e-05,-0.0008432941218495379,-0.0008339992466590402,-0.2547723948955536,-51.08700942993164,-7.332962989807129,17.99811553955078,1.7934061288833618,-0.7367660999298096,0.11265717446804047,,,,,,,,,
1739303176.0200288,-0.11104114030085567,1.0641968340912695,-0.38904114839654136,-1.4193523181914598,1.5159367611300503,1.1580496786671104,1.3613876450947462,-0.001991498932187303,0.00010049398114292315,0.0005569691827970459,-0.0007276479053323633,-2.319827301845755e-05,-0.0009458429160666495,-0.0011010683440635326,-0.2547723948955536,-51.13858413696289,-7.332962989807129,18.02191925048828,1.7805887460708618,-0.7367660999298096,0.13279877603054047,,,,,,,,,
1739303176.0310802,-0.11104041186769734,1.0641976447928654,-0.389040437175378,-1.419352147578474,1.5159366586367569,1.1580451021814342,1.3613921810700613,-0.0007930679405779685,0.0006011819738470614,6.44997654072798e-05,0.0005154192570098853,0.00018063054940601047,-0.0019395889607115423,-0.00046116976777641497,-0.2309686839580536,-51.11081314086914,-7.332962989807129,18.02191925048828,1.7934061288833618,-0.7239487171173096,0.09343110024929047,,,,,,,,,
1739303176.04202,-0.11103977577156039,1.064194835786531,-0.38904430806277274,-1.419352124902127,1.515936156673431,1.158049327634719,1.3613938446636253,-0.0010226297696709036,-0.0012025754662643045,-0.0009892204934911944,0.0019039204246446896,0.001351585095253226,-0.00022178464227131517,-0.0008080237938429389,-0.2825433909893036,-51.11081314086914,-7.281388282775879,18.02191925048828,1.7677713632583618,-0.7239487171173096,0.10624848306179047,,,,,,,,,
1739303176.0530057,-0.11103670104966584,1.0641979718780075,-0.3890442980181824,-1.4193566983954904,1.5159363010514302,1.1580472462329334,1.3613945352963648,0.0006588937945872695,-8.989893470468197e-05,-0.0009937125032044864,0.00012977688495166865,0.0005905301241818939,-0.0015398288402489132,0.0007154146702460428,-0.2825433909893036,-51.11081314086914,-7.281388282775879,18.04572296142578,1.7934061288833618,-0.7102158069610596,0.04673920199275017,,,,,,,,,
1739303176.0630143,-0.11103673602653133,1.0642009582712064,-0.3890429281573368,-1.419357032687574,1.5159375187720603,1.1580434393769377,1.3613961856294143,9.805687594582836e-05,0.0011717253162824848,-0.0004947857397612644,0.0006378504732315371,0.00018054468790646458,-0.00019601704676903856,0.00046838290339552553,-0.2825433909893036,-51.16238784790039,-7.309159278869629,18.04572296142578,1.7741800546646118,-0.7102158069610596,0.05955658480525017,,,,,,,,,
1739303176.0739625,-0.1110369368464715,1.0641979743989975,-0.38904221952836004,-1.4193595397834724,1.5159343242933758,1.1580447682122548,1.361396939090125,0.0002191082863833263,0.0008889659037811801,-0.00022005962492292855,-0.001273761645794244,-0.0010534762048040032,-0.0007560996360325535,0.0017146727820893885,-0.2825433909893036,-51.11081314086914,-7.309159278869629,18.06952667236328,1.8071390390396118,-0.7166244983673096,0.05314789339900017,,,,,,,,,
1739303176.0849514,-0.11103599074761882,1.0641977324959944,-0.3890440631032157,-1.4193545419678204,1.5159350863140308,1.1580445875685215,1.361394562286708,0.0004530110280091848,0.0005687582042918559,0.0004808576358951956,0.0006952499804120407,-0.001264576676458531,-0.0009407850116535368,0.000941479188629813,-0.2825433909893036,-51.11081314086914,-7.281388282775879,18.02191925048828,1.8007303476333618,-0.7239487171173096,0.07328949868679047,,,,,,,,,
1739303176.0949767,-0.11103456709490425,1.0641933649917008,-0.38904229826002623,-1.4193552598237977,1.5159340016959542,1.158047721231502,1.3613899080891587,0.0007595512177540602,0.0008768591395281817,0.0008731558786964682,9.108678564327571e-05,-0.0012936984535284817,-0.0011523622182909635,-0.0009321734053483349,-0.2825433909893036,-51.08700942993164,-7.309159278869629,18.02191925048828,1.7869974374771118,-0.7495834827423096,0.11265717446804047,,,,,,,,,
1739303176.1050081,-0.11104033242853065,1.0641919997335714,-0.3890460440821604,-1.4193549452068956,1.5159363047321615,1.1580468981635785,1.361393759745057,-0.0023089776715082954,-0.00026351220262276853,-0.0003426859351139091,-9.847380620817375e-05,0.0006730962676676137,-0.0008794692108233339,0.0026711646450360564,-0.2309686839580536,-51.05923843383789,-7.257584571838379,18.02191925048828,1.7934061288833618,-0.7431747913360596,0.05314789339900017,,,,,,,,,
1739303176.115012,-0.11103598652017707,1.0641935097286201,-0.3890442983415116,-1.4193571222994459,1.5159354400173013,1.1580479620371344,1.3613937105934424,0.0004893906572111408,-0.0002211723672912269,-0.0009940188382142941,-0.0010384364413217207,-0.0003349225615543102,0.00031567911163972126,0.0008783548188423374,-0.2825433909893036,-51.05923843383789,-7.281388282775879,18.04572296142578,1.8007303476333618,-0.7495834827423096,0.05314789339900017,,,,,,,,,
1739303176.1250486,-0.11103838327720222,1.0641987405405273,-0.38904608199121793,-1.4193554985748256,1.515937061636565,1.1580496223690506,1.3613943683296308,-0.0014123623574955693,0.0011199958634805557,-0.001774492738732378,-3.585715022806049e-05,-0.0001348277014094537,0.00022961640160961517,-0.0007053945648258502,-0.2547723948955536,-51.16238784790039,-7.257584571838379,18.02191925048828,1.7869974374771118,-0.7303574085235596,0.06596527993679047,,,,,,,,,
1739303176.1350849,-0.11103771359247677,1.0642015664231486,-0.38904217341521835,-1.4193572812545368,1.5159354380792214,1.1580489855817595,1.3613903114254284,0.0006689148474165606,0.000806746398173635,-0.0002194699532364517,4.038940594228404e-05,-0.0005251330742657838,0.001918538658553172,-0.0013725282647717072,-0.2547723948955536,-51.16238784790039,-7.281388282775879,18.04572296142578,1.8007303476333618,-0.7239487171173096,0.09983979165554047,,,,,,,,,
1739303176.1469765,-0.11104008281336593,1.0642015789002017,-0.389040200588338,-1.4193553661200597,1.5159335821976596,1.1580421912303749,1.361387369882066,0.000270412539980292,0.0006110599433651398,0.00035150451302847597,-0.0008378262485903161,-9.045503318943875e-05,-0.0007233070912869048,-0.0019555827146258385,-0.2309686839580536,-51.16238784790039,-7.332962989807129,18.02191925048828,1.7805887460708618,-0.7038071155548096,0.13279877603054047,,,,,,,,,
1739303176.1570199,-0.11103767285441796,1.0642016460542936,-0.38904051525898636,-1.4193592150906833,1.5159362922703146,1.158042909619684,1.361384450425813,0.0004742222512721669,0.0010653411274781231,0.0004352356694587393,-0.0010589659705355896,-0.000902291230075353,-0.000651374136773828,-0.0014848446350240554,-0.2547723948955536,-51.16238784790039,-7.332962989807129,18.04572296142578,1.7934061288833618,-0.7102158069610596,0.11998139321804047,,,,,,,,,
1739303176.168037,-0.1110383451401814,1.064200934723521,-0.38904358474128176,-1.4193577251340093,1.5159381401707652,1.1580445723687947,1.3613888083881884,7.42092175061897e-05,0.0012679133968521404,-0.0009516826697870942,0.0009994503194255054,-0.00020083479115152162,0.0005847005096300089,0.0010669886985415812,-0.2547723948955536,-51.16238784790039,-7.281388282775879,18.02191925048828,1.7869974374771118,-0.7239487171173096,0.08610688149929047,,,,,,,,,
1739303176.1789901,-0.11103835600598398,1.064197818178253,-0.389042219520326,-1.419361696829671,1.5159346818787982,1.1580437064717837,1.3613906613646596,0.0009780187044010507,-0.0005449212322716933,3.0110314224946703e-05,-0.001008745590540926,0.00013687735336277642,-0.00028086460180197503,0.0002868016432382573,-0.2547723948955536,-51.13858413696289,-7.309159278869629,18.06952667236328,1.8071390390396118,-0.7166244983673096,0.10624848306179047,,,,,,,,,
1739303176.189048,-0.11103475130983813,1.0641932825402816,-0.3890404455958962,-1.419358111348993,1.5159354401788188,1.1580453300290943,1.3613921810693197,0.0009961886995181943,-0.0018926731346358408,0.0005496560225489294,-0.0007261034940119793,0.0006948704366361302,-9.610737708803443e-05,0.0013483627802463331,-0.3063471019268036,-51.08700942993164,-7.332962989807129,18.04572296142578,1.8007303476333618,-0.7303574085235596,0.09343110024929047,,,,,,,,,
1739303176.199965,-0.1110386959044786,1.06419183316845,-0.38904221952440915,-1.4193581605750936,1.515937703012619,1.15804609253434,1.3613938971110897,-0.0018224546222781642,-0.001094847760041655,0.0006009370966323723,-0.00027485894843084504,0.0017355431627195544,0.00015174680118034187,0.0016453374397574112,-0.2547723948955536,-51.03543472290039,-7.309159278869629,18.02191925048828,1.7805887460708618,-0.7367660999298096,0.06596527993679047,,,,,,,,,
1739303176.211015,-0.11103206746152831,1.0641930450262638,-0.3890442740406104,-1.4193617928754616,1.5159363055908697,1.1580460876892,1.3613934509208352,0.0014824053428398824,-0.0008421469064310183,0.00012108206060178195,-0.0023389394002176363,-0.0009308120243572507,0.00011590427640482623,0.0011788030580865696,-0.3063471019268036,-51.08700942993164,-7.281388282775879,18.06952667236328,1.7934061288833618,-0.7367660999298096,0.07969819009304047,,,,,,,,,
1739303176.2210631,-0.11103467277825006,1.0641931615142266,-0.389040425182172,-1.4193537160557297,1.5159374660839282,1.1580460876891727,1.3613871327921574,0.0013077734077880376,-0.0002821159360664809,0.0015375851235462546,0.0012677983882370628,0.0002708085199630467,0.00029510145993906663,-4.775586076814992e-05,-0.3063471019268036,-51.08700942993164,-7.332962989807129,17.99811553955078,1.7805887460708618,-0.7367660999298096,0.13279877603054047,,,,,,,,,
1739303176.2320297,-0.11103401500688335,1.0641948660774125,-0.3890432669845954,-1.419354470762789,1.5159384759389443,1.1580429488117052,1.361394602764586,0.0008490888147461078,-0.0006107206780468864,-0.000995899991658936,0.0004483261189269779,0.0012003439269087923,0.00010346378725256493,0.0010708323343699578,-0.3063471019268036,-51.11081314086914,-7.281388282775879,17.99811553955078,1.7869974374771118,-0.7102158069610596,0.05955658480525017,,,,,,,,,
1739303176.2429407,-0.11103495927609523,1.064199619513422,-0.3890422078537915,-1.4193584787931564,1.5159354376027048,1.1580437064717837,1.3613913441176018,0.0008507910344984287,-0.0011300100141391034,-1.8781800755869756e-05,-0.0004322048044910806,-0.0019140890829784183,-0.0003002823942041569,-5.1560855950330716e-05,-0.3063471019268036,-51.13858413696289,-7.309159278869629,18.02191925048828,1.8007303476333618,-0.7166244983673096,0.07328949868679047,,,,,,,,,
1739303176.252966,-0.11103582847968634,1.0641989101924685,-0.38904224576982877,-1.419359571670788,1.51593592340349,1.158044572369016,1.3613916557987384,-0.0006107150247629886,-3.28935037921215e-05,-0.00034125903671750177,-0.00012879325701071434,0.00011592012716323029,0.0001919588552130345,-0.00021394535386521155,-0.2547723948955536,-51.13858413696289,-7.309159278869629,18.06952667236328,1.8007303476333618,-0.7239487171173096,0.09343110024929047,,,,,,,,,
1739303176.2630436,-0.11103721953070303,1.064201675144243,-0.3890435919777431,-1.4193577635081096,1.5159370611602345,1.1580437064717837,1.3613869616097982,-0.0007564328338097052,0.0011241513081016786,-0.0007493502632603406,-0.0001504244429036605,0.0005922065578440578,-0.00030780757892799983,-0.0007749966580649501,-0.2309686839580536,-51.16238784790039,-7.281388282775879,18.02191925048828,1.7869974374771118,-0.7166244983673096,0.10624848306179047,,,,,,,,,
1739303176.274049,-0.11103560887639634,1.0641961553734187,-0.38904429931022244,-1.4193625485309957,1.515935245145866,1.1580437056642556,1.3613891976590426,-0.0003052148601400241,-0.00155133127748058,-0.0009187464222116823,-0.0012255648545429325,-0.001127813140707182,0.0005263440294459305,0.001034721230718957,-0.2547723948955536,-51.08700942993164,-7.281388282775879,18.04572296142578,1.7934061288833618,-0.7166244983673096,0.07969819009304047,,,,,,,,,
1739303176.28503,-0.11103725074052417,1.0641955523880617,-0.38904429917020616,-1.419361805754088,1.5159378202596832,1.158043706471779,1.3613882829566062,-0.00046763890867800067,-0.0007349812808458813,-0.001488988571971028,-0.0007608425132208297,0.00129426012333937,0.00030881985914034795,-5.921642391990749e-05,-0.2309686839580536,-51.11081314086914,-7.281388282775879,18.06952667236328,1.7805887460708618,-0.7166244983673096,0.08610688149929047,,,,,,,,,
1739303176.2959702,-0.11103358365439828,1.0641915356503695,-0.38904429899019394,-1.4193582403857938,1.5159370456475014,1.1580460876891727,1.361394386326475,0.0007715414070363129,-0.001691996761937587,-0.00016681521301196598,-9.635207914273023e-05,-0.0001652799733924487,0.000672549835428327,0.00025846414718009675,-0.2825433909893036,-51.05923843383789,-7.281388282775879,18.02191925048828,1.7869974374771118,-0.7367660999298096,0.07328949868679047,,,,,,,,,
1739303176.3059824,-0.11103464506056722,1.064195086842988,-0.3890460703264882,-1.4193584784746323,1.5159346817109172,1.1580418491366553,1.3613916905739587,-0.00030404860033770485,4.47496619083998e-06,-0.0006064579970368083,-0.0010393175162232333,-0.00043740909493486654,-0.0006868291992295336,0.0001471474150432016,-0.3063471019268036,-51.11081314086914,-7.257584571838379,18.02191925048828,1.8071390390396118,-0.7367660999298096,0.09343110024929047,,,,,,,,,
1739303176.3174922,-0.11103350474933718,1.0641940896079023,-0.38904642506913734,-1.4193602614827359,1.5159364077378397,1.1580453300051674,1.3613836344065018,0.0002626352599607521,0.0016693495818802457,-0.0006555198605787446,-0.0008039669915425214,-0.0013253608809453339,-1.4114916453573099e-06,-0.0041868024425830205,-0.2825433909893036,-51.08700942993164,-7.281388282775879,18.04572296142578,1.7805887460708618,-0.7303574085235596,0.12639008462429047,,,,,,,,,
1739303176.3289769,-0.11103551436608072,1.0641955456332217,-0.3890443454353567,-1.4193602613737215,1.5159360034978364,1.1580460876891725,1.3613922296473666,-0.00010641234808219211,0.0013282041189139101,0.00020215703258020612,-0.0006785074976698338,-0.00036435139257622355,0.0005567495107641742,0.0012854048025583546,-0.2547723948955536,-51.08700942993164,-7.309159278869629,18.04572296142578,1.7869974374771118,-0.7367660999298096,0.06596527993679047,,,,,,,,,
1739303176.3390923,-0.11103858351477935,1.0641972561998794,-0.3890404368233393,-1.4193602614827372,1.5159385783504473,1.158044572369016,1.3613849428017768,-0.00010030572070523065,0.0003458881260907148,0.000748004332403623,-0.000446788931427554,0.001281335834439598,0.0001592245837828494,-0.0011006618352014269,-0.2547723948955536,-51.11081314086914,-7.332962989807129,18.04572296142578,1.7741800546646118,-0.7239487171173096,0.12639008462429047,,,,,,,,,
1739303176.34998,-0.11103558175678774,1.064195590649319,-0.3890376810523445,-1.4193584788057187,1.5159405439825457,1.1580437064717837,1.3613917765079162,-0.001240609369482177,-0.001455761484690221,0.001358248551562786,0.0001401450241231213,0.0015397737109439584,0.00023646419625049692,0.003210792886612232,-0.2547723948955536,-51.11081314086914,-7.332962989807129,18.02191925048828,1.7934061288833618,-0.7166244983673096,0.05955658480525017,,,,,,,,,
1739303176.361014,-0.1110357512376808,1.064199878540166,-0.3890404367957819,-1.419363016541874,1.5159369452687936,1.158042191151627,1.3613925186031386,0.0003199737893450781,-0.0005510489694968714,0.001259314164078021,-0.00039811551543438196,0.0006497634137022197,0.0003922590004481604,0.0007682837382894542,-0.2547723948955536,-51.13858413696289,-7.332962989807129,18.04572296142578,1.7869974374771118,-0.7038071155548096,0.08610688149929047,,,,,,,,,
1739303176.3719893,-0.11103722400130268,1.0641999635857824,-0.3890404368473404,-1.4193584523653107,1.515937063089442,1.158042942997504,1.3613820000729804,-0.0007970916410219494,0.0002037186709743389,0.0006688215438337601,0.0011948693885763138,0.001435724632616805,-0.00043613446260795294,-0.0019016340233898405,-0.2309686839580536,-51.13858413696289,-7.332962989807129,18.02191925048828,1.7869974374771118,-0.7102158069610596,0.11265717446804047,,,,,,,,,
1739303176.3830163,-0.11103753087872612,1.0641972507530597,-0.38904257149489324,-1.4193641445020284,1.5159370567913895,1.1580453256145753,1.3613882761547373,-0.0007868602995868407,-0.0006322272798767602,-0.0006860259405963781,-0.0008703166854078428,-0.0007189562036389437,0.0011145416706172056,0.00034388592668198163,-0.2309686839580536,-51.11081314086914,-7.332962989807129,18.06952667236328,1.7869974374771118,-0.7303574085235596,0.08610688149929047,,,,,,,,,
1739303176.3930314,-0.11104005646315668,1.0641979470277558,-0.3890422195605102,-1.4193573850340317,1.5159352457917925,1.1580452907831629,1.3613866550376923,-0.0004693049797797056,0.0003061879141628395,-0.0004597923029243928,0.0011590193041533753,-0.00030772861426382763,0.0005665314755360277,-0.0003748178968277609,-0.2309686839580536,-51.11081314086914,-7.309159278869629,17.99811553955078,1.7934061288833618,-0.7303574085235596,0.09983979165554047,,,,,,,,,
1739303176.4039507,-0.11103834384485918,1.0641961534110262,-0.3890443017983733,-1.4193591675743915,1.515937214253351,1.1580460833283004,1.361383515514244,-0.0009843533792456268,0.00025898396129041756,-0.0003371607059308987,0.00019488555741581113,2.8995205129052337e-05,0.0001562840421762559,-0.0012669864486646607,-0.2547723948955536,-51.08700942993164,-7.281388282775879,18.02191925048828,1.7869974374771118,-0.7367660999298096,0.12639008462429047,,,,,,,,,
1739303176.414097,-0.11103385563742295,1.0641913755499517,-0.38904429931434154,-1.4193602911217043,1.515936301077058,1.1580460876889511,1.3613803483897307,2.078741986427917e-05,-0.0011175113002069219,-0.00021883943831711258,-0.000953536722593025,0.0005628807172537423,9.251969966878881e-05,-0.0024029930747689263,-0.2825433909893036,-51.05923843383789,-7.281388282775879,18.04572296142578,1.7934061288833618,-0.7367660999298096,0.12639008462429047,,,,,,,,,
1739303176.4250078,-0.11103550281909175,1.0641999698190316,-0.38904608101917265,-1.4193602624276012,1.5159361833318,1.1580429468736382,1.361387767573452,-0.00015999246489010078,0.002528737310268244,-0.0010957635022629197,-0.00030828950288703974,0.00016759447861609247,-0.001428360309688864,0.0007190409747144142,-0.2547723948955536,-51.13858413696289,-7.257584571838379,18.04572296142578,1.7934061288833618,-0.7102158069610596,0.09343110024929047,,,,,,,,,
1739303176.436023,-0.111035505597087,1.0641949957515484,-0.3890401977201394,-1.4193602614827538,1.5159393360682745,1.1580437064717508,1.3613920974379505,5.7331466047927095e-05,-0.0012514946982343943,0.0007407578869948533,0.00044797069816255995,0.0029854464288191717,0.0004251462873667484,0.0019848297952956206,-0.2547723948955536,-51.11081314086914,-7.332962989807129,18.04572296142578,1.7677713632583618,-0.7166244983673096,0.07969819009304047,,,,,,,,,
1739303176.4469836,-0.11103721519482254,1.0641948625886775,-0.38904395220354054,-1.4193641781882045,1.5159353944727387,1.1580429488117052,1.3613882786187494,-0.0007137470599192753,-0.0012339654049499738,-0.0017694807241900718,-0.0005892512790282655,-0.0005342694109310812,-0.00013193999161672908,-0.00040415422855058427,-0.2309686839580536,-51.11081314086914,-7.257584571838379,18.06952667236328,1.8007303476333618,-0.7102158069610596,0.08610688149929047,,,,,,,,,
1739303176.457932,-0.11103645394777317,1.064203647867627,-0.3890442992781472,-1.4193650288432944,1.5159371415810574,1.1580437399034393,1.3613827585001883,-0.00023339640347178316,0.0006098892183351759,-0.00170526950635874,-0.0008304943495144706,0.000576006543520058,0.0002655177307755801,-0.0017983687561117815,-0.2547723948955536,-51.19015884399414,-7.281388282775879,18.06952667236328,1.7869974374771118,-0.7166244983673096,0.13279877603054047,,,,,,,,,
1739303176.468067,-0.11103551159279751,1.0641977975782155,-0.38904150214280503,-1.4193605480563212,1.515938573996221,1.1580435127310753,1.361382754139537,0.00010733021050526577,0.00013851005474958388,-0.0005403962958577014,0.0007092972165113582,0.0004119949028520367,0.00035596765287706215,-0.0013873714466368452,-0.2547723948955536,-51.13858413696289,-7.309159278869629,18.02191925048828,1.7741800546646118,-0.7239487171173096,0.13279877603054047,,,,,,,,,
1739303176.4789648,-0.11103351353836562,1.0641955784312744,-0.38903998863864664,-1.4193584797622074,1.515935438832914,1.1580426453202872,1.3613858442587576,0.0009155341289903942,-0.0009689588999163794,0.0008222872566072527,0.0010322901521260626,-0.0007361895953945275,-0.0007523211987185861,1.5015960262300453e-05,-0.2825433909893036,-51.11081314086914,-7.309159278869629,18.02191925048828,1.8007303476333618,-0.7166244983673096,0.07969819009304047,,,,,,,,,
1739303176.48903,-0.11103581965750309,1.0641939463643935,-0.38904043673399996,-1.4193605791131951,1.5159335821976323,1.1580436933359193,1.361384877614276,-0.00022674415672432435,-0.0024663983620333294,0.00034412888494682434,0.000110765057449175,-0.00014642383886869718,-0.00031814730851923855,-0.0005243276517139181,-0.2547723948955536,-51.05923843383789,-7.332962989807129,18.02191925048828,1.7805887460708618,-0.7166244983673096,0.13279877603054047,,,,,,,,,
1739303176.5000076,-0.11103182826341533,1.064192233964814,-0.3890460382364557,-1.4193623619340894,1.51593312648972,1.1580437064717588,1.3613874809020328,0.0010752702471758086,-0.001046288432217055,-0.0013520559221458668,-0.00022897431997134763,0.00012816969866021968,0.0008422313455096855,0.0007972527386940734,-0.3063471019268036,-51.03543472290039,-7.257584571838379,18.04572296142578,1.7934061288833618,-0.7166244983673096,0.06596527993679047,,,,,,,,,
1739303176.5109763,-0.11103350473343629,1.0641951134873742,-0.38904429931396833,-1.4193614644447738,1.5159320493631276,1.1580453285755439,1.3613914174011719,0.0003404876820284515,-0.0006983767550386715,-0.000652744977539097,-0.00016540067992228016,-0.0030745998748605862,0.000983431592086934,0.0010546723364964154,-0.2825433909893036,-51.11081314086914,-7.281388282775879,18.02191925048828,1.7934061288833618,-0.7303574085235596,0.05955658480525017,,,,,,,,,
1739303176.5220551,-0.11103180487882928,1.0641969902970938,-0.3890422194883575,-1.419362331993089,1.5159356502152423,1.1580421852835825,1.3613842337834234,0.0013998460986197159,0.0008840666876219708,-0.00016574630776615277,-0.0006797492820281359,-0.0010644818559146687,-0.0004990382249410492,-0.00034541584177994085,-0.3063471019268036,-51.11081314086914,-7.309159278869629,18.04572296142578,1.7869974374771118,-0.7038071155548096,0.09343110024929047,,,,,,,,,
1739303176.5336516,-0.11103834382889163,1.0641996548466843,-0.38904221941635275,-1.419357027872855,1.5159363446679097,1.1580445592870308,1.3613882785770992,-0.0012442570222587635,0.0020684449316479125,-9.611528638547832e-05,-0.0004427016930254427,-0.0012904210983398746,0.000570303296364759,0.0003239782740392102,-0.2547723948955536,-51.13858413696289,-7.309159278869629,17.99811553955078,1.7934061288833618,-0.7239487171173096,0.08610688149929047,,,,,,,,,
1739303176.5440528,-0.11103350474927118,1.0641972473718124,-0.38904820886229247,-1.4193642134400166,1.5159342871159234,1.1580425912382708,1.3613906598124332,0.0008955939792090488,0.0013581722782992599,-0.0020013207526007673,-0.0010362104225611706,-0.0009368447115031698,-0.0013881743382723527,0.0012890323659626257,-0.2825433909893036,-51.11081314086914,-7.257584571838379,18.06952667236328,1.7805887460708618,-0.7102158069610596,0.06596527993679047,,,,,,,,,
1739303176.554977,-0.11103523020154997,1.0641959843228443,-0.38904043671533783,-1.419362047951233,1.5159377015391178,1.1580445723669974,1.3613850996806562,0.00013987845460793075,-0.0005177713339752275,0.001420180591391773,0.00020844383974928172,-0.00023219474926344463,0.000338562184810739,0.00023959033778091666,-0.2547723948955536,-51.08700942993164,-7.332962989807129,18.06952667236328,1.7805887460708618,-0.7239487171173096,0.08610688149929047,,,,,,,,,
1739303176.565937,-0.11103550267254772,1.0642036448663084,-0.38904043684733997,-1.419363322764556,1.5159317131796115,1.1580445709154656,1.3613890365063535,0.00022645553433804427,0.001286517560083317,-0.0005622303554340788,-0.0002913747342219085,-0.0006717691401886631,0.0007269506267901114,0.0002485756694649433,-0.2547723948955536,-51.19015884399414,-7.332962989807129,18.04572296142578,1.7934061288833618,-0.7239487171173096,0.07969819009304047,,,,,,,,,
1739303176.5769968,-0.11103550289035188,1.0641979483475636,-0.3890422088316808,-1.4193647993757148,1.515934320883823,1.1580428310741107,1.3613914174729564,8.289050322693064e-05,-0.00014529749156055253,0.001343017429964643,0.00037058121552660056,-0.0012059810546616672,0.001234521038631975,-0.00011690008701713316,-0.2547723948955536,-51.11081314086914,-7.309159278869629,18.06952667236328,1.7741800546646118,-0.7102158069610596,0.05955658480525017,,,,,,,,,
1739303176.5879962,-0.11103422800096524,1.0641971133801518,-0.3890404368473206,-1.4193626607744854,1.5159338822296407,1.1580400563736084,1.3613871259880133,-0.00045904747898061317,0.00032334859413735975,-0.0004255981926864854,-0.00039608484139502234,0.00010203425489769695,0.00047363760104625395,5.3797153599507964e-05,-0.2825433909893036,-51.13858413696289,-7.332962989807129,18.04572296142578,1.7869974374771118,-0.7166244983673096,0.09983979165554047,,,,,,,,,
1739303176.5989773,-0.11103350473731564,1.0641941066872793,-0.38904429931421536,-1.419364223879565,1.515936761147935,1.1580439156502647,1.3613879239314428,0.0007261956200505288,-0.001199019295309689,-0.0005655444644931856,-0.0011882036790105861,-0.00026439116457685485,-0.0003182702055565947,-0.0003346068749022163,-0.2825433909893036,-51.08700942993164,-7.281388282775879,18.06952667236328,1.7805887460708618,-0.7303574085235596,0.08610688149929047,,,,,,,,,
1739303176.609063,-0.1110372151948171,1.064193400277834,-0.3890442963980302,-1.4193610608269318,1.5159370630721627,1.1580445592631112,1.36138169821003,-0.0007139969654286453,-0.0008156864002605851,-0.0007777077776420094,0.0010045319079981395,4.881016128853772e-05,0.0011875173801148295,-0.0020164378419287796,-0.2309686839580536,-51.08700942993164,-7.281388282775879,18.04572296142578,1.7869974374771118,-0.7239487171173096,0.13279877603054047,,,,,,,,,
1739303176.619971,-0.11103721519481705,1.0641920116169423,-0.3890440631031663,-1.4193627446956842,1.5159370609905343,1.1580460746069985,1.3613835146887598,-0.0006274160888977377,-0.0014126441418940742,-0.0005446796010670737,-0.0004991915123492251,0.0008296473745696822,0.0007063167102322679,-0.0008203771955979829,-0.2309686839580536,-51.05923843383789,-7.281388282775879,18.06952667236328,1.7869974374771118,-0.7367660999298096,0.12639008462429047,,,,,,,,,
1739303176.631978,-0.11103542356915605,1.0641942524905703,-0.3890442993137709,-1.4193630175929786,1.515932824053069,1.1580402144638482,1.3613906597406504,0.0004789465261019373,-0.00017925220113371588,-9.163823631671414e-05,-0.0008014712837740062,-0.0003721605704392393,-0.002066642009993701,0.0013092162927887145,-0.2547723948955536,-51.05923843383789,-7.281388282775879,18.04572296142578,1.7869974374771118,-0.7239487171173096,0.06596527993679047,,,,,,,,,
1739303176.6429327,-0.11103763343147616,1.0641937973152282,-0.3890442905656598,-1.4193623306283634,1.5159349622578773,1.1580452863964417,1.3613882365666619,-0.0006887909278950165,-0.0007643340662109659,0.00011462840492834284,0.0006613854473164663,-0.0003151894273624578,0.0016777295183434994,-0.0009501202374373676,-0.2547723948955536,-51.08700942993164,-7.281388282775879,18.04572296142578,1.8007303476333618,-0.7303574085235596,0.05955658480525017,,,,,,,,,
1739303176.6539376,-0.1110355027101704,1.0641978255538511,-0.3890404367391857,-1.4193615683618077,1.5159365790497925,1.158044572368277,1.3613879765631243,-0.0004314044323194928,0.0001855786658029539,0.001713470584441309,0.0005430663556869969,-0.0009907644541376638,0.0017131059710710557,0.00025309637514283473,-0.2547723948955536,-51.13858413696289,-7.332962989807129,18.02191925048828,1.7869974374771118,-0.7239487171173096,0.07969819009304047,,,,,,,,,
1739303176.6640537,-0.11103721519481724,1.0641996254420671,-0.38904245573535884,-1.4193607761054878,1.5159348744339967,1.1580382545771604,1.361383514700734,-0.0006072954232270321,-0.000705409417939167,-0.0003578286197613422,0.0011084625370099037,-0.0003035563511062308,0.0010733100480709978,-0.0010393036589821498,-0.2309686839580536,-51.13858413696289,-7.309159278869629,18.02191925048828,1.7934061288833618,-0.6973984241485596,0.12639008462429047,,,,,,,,,
1739303176.6749983,-0.11103550234855115,1.0641997333783333,-0.3890442173383431,-1.419366993798351,1.5159370630820292,1.1580425939121592,1.3613850873897597,-2.916953837295386e-05,0.0006591195571759322,-0.00015898584544053734,-0.0018933149989141637,0.00034838964962963524,-0.00017917722699282637,0.00023069014691315647,-0.2547723948955536,-51.13858413696289,-7.281388282775879,18.09729766845703,1.7869974374771118,-0.7102158069610596,0.11265717446804047,,,,,,,,,
1739303176.6850252,-0.11103834382881463,1.064195467585784,-0.38904009167985104,-1.4193605680689352,1.5159351934640903,1.158040404968648,1.3613882785941582,-0.0007617284954523557,-0.0013145180180262205,0.00018616200359526167,0.0007422470916145412,0.00020794500923959923,-0.00021794057936293771,0.0009236781981154759,-0.2547723948955536,-51.08700942993164,-7.309159278869629,18.04572296142578,1.7934061288833618,-0.7166244983673096,0.08610688149929047,,,,,,,,,
1739303176.6950586,-0.11103249972774737,1.0641999701501703,-0.38904217563753996,-1.4193626370493226,1.5159385260636238,1.1580452057753896,1.3613827179787505,0.0008199298909041045,0.0006581257973047129,-0.000564927535888219,0.00041356707678694203,0.0007567577663959472,0.0012055947389578508,-0.0011365932616177817,-0.3063471019268036,-51.13858413696289,-7.309159278869629,18.04572296142578,1.7741800546646118,-0.7303574085235596,0.10624848306179047,,,,,,,,,
1739303176.7059364,-0.11103279280084646,1.0641950343433133,-0.3890422982606164,-1.4193624076010782,1.5159338318470237,1.1580427782597054,1.361389674508732,0.0013044334725214636,-0.00070681195096419,-0.0004974649986234054,0.0004098912047313062,-0.001241916898755938,-8.074013184629597e-05,-0.0005466216286205127,-0.2825433909893036,-51.11081314086914,-7.309159278869629,18.04572296142578,1.7869974374771118,-0.7102158069610596,0.07328949868679047,,,,,,,,,
1739303176.7169309,-0.11103550624454311,1.0641979354666478,-0.38904043684748885,-1.4193603723908654,1.5159362921625457,1.1580445435339737,1.3613827584999632,-0.000706955143244848,0.0006787012350796088,0.0003780102991072588,0.00015639715512875887,0.0007968640662611382,-0.0006266627947034509,-0.0016778521875423075,-0.2547723948955536,-51.11081314086914,-7.332962989807129,18.04572296142578,1.7934061288833618,-0.7367660999298096,0.13279877603054047,,,,,,,,,
1739303176.726994,-0.1110355026741463,1.0641998889458424,-0.3890422195243598,-1.419358868243388,1.515937814451243,1.1580422478887142,1.3613891785998553,-0.0007422325534618655,0.0017099103108587843,0.00023031744996869106,0.001386883547919336,0.0010184690579845123,-0.0026300434815981957,0.002001124598575999,-0.2547723948955536,-51.13858413696289,-7.309159278869629,17.99811553955078,1.7805887460708618,-0.7166244983673096,0.09343110024929047,,,,,,,,,
1739303176.7380211,-0.11103625682068817,1.0641930569116744,-0.3890422195243598,-1.419362357522827,1.5159353159809188,1.1580413929454099,1.3613897546992502,0.0005596614506309335,-0.00254368305660456,-0.0005331089148305834,-0.0006241525286154596,-0.0008576663210424562,0.0009730388120065017,0.0010672210781217896,-0.2309686839580536,-51.08700942993164,-7.309159278869629,18.04572296142578,1.8007303476333618,-0.7239487171173096,0.07328949868679047,,,,,,,,,
1739303176.7480648,-0.11102933865212915,1.0641962268700536,-0.3890442730685487,-1.4193615752671882,1.5159363052678256,1.1580409223248946,1.3613906447921928,0.0025348370022393605,-0.00036604419092894143,-0.00016798648788899143,-0.00073018970478839,-5.777125262224013e-05,-0.000487500152209714,0.0020744426515446257,-0.3063471019268036,-51.08700942993164,-7.281388282775879,18.02191925048828,1.7934061288833618,-0.7239487171173096,0.06596527993679047,,,,,,,,,
1739303176.7590234,-0.11103711266681199,1.0642011040258073,-0.3890419819091228,-1.4193662481745837,1.5159369054068221,1.158042580989053,1.361383005964045,4.958149457750583e-05,0.0012209428588723073,-0.00044000354653156887,-0.0013469729341616396,-0.0001880358281191787,0.0004651011385148454,-0.0033055282999750702,-0.2309686839580536,-51.16238784790039,-7.309159278869629,18.12110137939453,1.7869974374771118,-0.7102158069610596,0.12639008462429047,,,,,,,,,
1739303176.7699785,-0.11103526582784093,1.0641940812266713,-0.38904009085184543,-1.4193644176584979,1.5159377025272087,1.1580436541418984,1.3613865370819427,0.0001687233768851963,-0.001050484771279822,0.00016543169352710056,1.9441783367756113e-05,0.0005474788457239456,2.1416499943541738e-05,-0.0012602520991966094,-0.2547723948955536,-51.08700942993164,-7.309159278869629,18.06952667236328,1.7805887460708618,-0.7166244983673096,0.09983979165554047,,,,,,,,,
1739303176.7809708,-0.1110335037552917,1.0641962511501248,-0.38904220781160037,-1.4193606175298101,1.5159370238435832,1.1580427913434663,1.3613842171312192,0.0006043055456807391,-0.0008438918169711613,-0.0007046123650051855,7.694799023609143e-05,0.000862561949476297,-9.921688728179909e-05,-0.0016487217657550203,-0.2825433909893036,-51.08700942993164,-7.309159278869629,18.04572296142578,1.7869974374771118,-0.7102158069610596,0.11998139321804047,,,,,,,,,
1739303176.7919304,-0.11103558159504516,1.064197886535926,-0.3890442988821218,-1.419367223375654,1.5159322606181866,1.1580389775874276,1.3613844845264962,-0.0011339997417058622,0.00029012581563671335,0.000769047103272108,-0.0017655774327910944,-0.000303678250697475,2.7760606909625656e-05,-0.0015542985062756505,-0.2547723948955536,-51.11081314086914,-7.281388282775879,18.09729766845703,1.8007303476333618,-0.7166244983673096,0.10624848306179047,,,,,,,,,
1739303176.801978,-0.11103252921536105,1.0642016852992553,-0.3890422197403662,-1.4193577291708968,1.515939218278937,1.1580403700093682,1.3613882784096119,0.00048127791310550387,0.0016872579132053613,-0.00027737070722636475,0.002361453884769411,0.000802322447922882,0.0011740128969591652,0.002610774620537745,-0.2825433909893036,-51.16238784790039,-7.309159278869629,17.99811553955078,1.7677713632583618,-0.7166244983673096,0.08610688149929047,,,,,,,,,
1739303176.8129778,-0.11103550233203066,1.0641999686374015,-0.38904127468036476,-1.4193633608892715,1.5159369262928837,1.1580389775318134,1.3613834630413901,-0.0014849593686475445,-0.00030026654396067526,0.0014863524836036483,0.00037696329078291794,0.0005744665477412528,-0.0012478489722916773,-0.0004017512412713421,-0.2547723948955536,-51.13858413696289,-7.309159278869629,18.04572296142578,1.7869974374771118,-0.7166244983673096,0.09983979165554047,,,,,,,,,
1739303176.8229828,-0.11103861129582711,1.0641975089759905,-0.3890435906758827,-1.4193641487188189,1.5159360034512055,1.1580421465658548,1.3613838030135514,-0.0013359446344186074,0.00016012507673769313,-0.00028892758931479436,-0.0002748984286465295,-0.000989144725107431,0.00028121645123162274,-0.002368040286607392,-0.2071649730205536,-51.13858413696289,-7.281388282775879,18.06952667236328,1.7869974374771118,-0.7303574085235596,0.11998139321804047,,,,,,,,,
1739303176.8339345,-0.11103518624900807,1.0641979734892466,-0.38904221951235896,-1.4193615782303985,1.5159370478906373,1.1580428935393476,1.3613869417395592,0.0004111445318210333,0.0014285211945274162,0.0009090822108258252,0.000501986583795799,0.000650240683312222,0.00014878398078637875,-0.00039347990238903136,-0.2547723948955536,-51.11081314086914,-7.309159278869629,18.02191925048828,1.7869974374771118,-0.7367660999298096,0.09343110024929047,,,,,,,,,
1739303176.8440409,-0.11103550266872715,1.0641962256889463,-0.38904253447235915,-1.4193612946299137,1.5159368810356688,1.1580440490368342,1.3613882372416393,-0.0006836159982700246,-0.000414147698459214,-0.000690993086367522,-0.0003666160426925921,0.00023814278249308833,0.0008741570457079968,9.718284636365152e-05,-0.2547723948955536,-51.08700942993164,-7.309159278869629,18.04572296142578,1.7934061288833618,-0.7239487171173096,0.08610688149929047,,,,,,,,,
1739303176.8549328,-0.11103566033205056,1.0641978943729786,-0.38904429932680873,-1.4193615782433588,1.5159381222448027,1.1580436519895823,1.361385021979929,-0.001030684398771805,0.00019532312558559256,-0.00042155570455740574,0.0004323832624583831,0.00040871141184998166,-8.428126761379843e-05,-0.0007225829272631924,-0.2547723948955536,-51.11081314086914,-7.281388282775879,18.02191925048828,1.7869974374771118,-0.7166244983673096,0.11265717446804047,,,,,,,,,
1739303176.8649833,-0.11103721194214008,1.064197700770905,-0.3890442983421538,-1.419359795570228,1.5159323536052467,1.1580404708680134,1.3613890362531287,-0.0005503756789353759,-6.538131432834207e-05,3.134799588553803e-05,0.0012449697337627926,-0.0011174794341736194,0.00019999466580155185,0.0010114151147372782,-0.2309686839580536,-51.11081314086914,-7.281388282775879,17.99811553955078,1.7869974374771118,-0.7166244983673096,0.07969819009304047,,,,,,,,,
1739303176.875004,-0.11103312854953286,1.064199734356799,-0.38904217341520186,-1.4193615754128242,1.5159338320911657,1.1580401169554086,1.3613937986903413,0.0008506111858111742,-0.00010047104185813269,-0.00017850565773877759,0.0008902713149153358,0.0004696246989796531,0.00023242957199579432,0.0012164488100495818,-0.2547723948955536,-51.13858413696289,-7.281388282775879,18.02191925048828,1.7869974374771118,-0.7166244983673096,0.03941498324275017,,,,,,,,,
1739303176.886015,-0.11103550164790925,1.0641979486739164,-0.3890421932306901,-1.4193597842325198,1.515935934541136,1.158039843411451,1.3613858973776554,-0.00011899834758372844,0.000607034701351552,-0.0002425242629733667,0.000859266912133203,-0.0010520492129311148,-0.0006130401307413303,0.0003598479905691185,-0.2547723948955536,-51.11081314086914,-7.309159278869629,17.99811553955078,1.7934061288833618,-0.7239487171173096,0.10624848306179047,,,,,,,,,
1739303176.8969297,-0.111030657064002,1.0642008240879157,-0.3890422195239145,-1.4193633619052206,1.5159311835313949,1.1580441782153084,1.3613906423698305,0.0011147702279850115,0.0017247976031906666,-0.00014245675571794523,-0.00013816005592211334,-0.0027464962520321033,0.0017660063826466642,0.0013728196241974341,-0.2825433909893036,-51.11081314086914,-7.309159278869629,18.04572296142578,1.8007303476333618,-0.7239487171173096,0.06596527993679047,,,,,,,,,
1739303176.9069352,-0.11103041571847933,1.064197966024933,-0.3890421320028021,-1.4193633609242715,1.5159378076442078,1.1580412232255186,1.3613858973775568,0.001741254760074139,0.0006457547821393886,-5.163612830690536e-05,-0.00030520394756495574,-9.810486349910263e-05,0.0005934114911881371,-0.0013022816180564246,-0.2825433909893036,-51.11081314086914,-7.309159278869629,18.04572296142578,1.7805887460708618,-0.7239487171173096,0.10624848306179047,,,,,,,,,
1739303176.9169405,-0.11103507540298357,1.0641999724528215,-0.38904043684585854,-1.4193616047382003,1.515934596291001,1.1580412362529777,1.3613842345744878,6.637428766492087e-05,0.0008262629272914716,0.00120747739532973,-0.0006762074491029354,0.00024604974793549655,0.0009918180730500797,-0.0013036563805612152,-0.2309686839580536,-51.13858413696289,-7.332962989807129,18.02191925048828,1.7805887460708618,-0.7239487171173096,0.11998139321804047,,,,,,,,,
1739303176.927011,-0.11103349290527123,1.0641979745121013,-0.38904220785961896,-1.4193633874165652,1.5159354393689768,1.1580401577674266,1.3613866550357396,-0.00013993763628850883,0.0014789226922612135,-0.00011859104029228426,-0.0003946332368721057,0.0009573502071149149,-0.0007542700996171211,-0.0006171183400566398,-0.2825433909893036,-51.11081314086914,-7.309159278869629,18.04572296142578,1.8007303476333618,-0.7239487171173096,0.09983979165554047,,,,,,,,,
1739303176.9370322,-0.11103884861055165,1.0641957495990932,-0.389044290565594,-1.419359791791147,1.515933126354134,1.1580403509530377,1.3613890362551226,-0.0012133256509837167,0.0009749389827861683,-3.712926410455962e-05,0.0005715421137951341,-2.594477924770401e-05,0.0007704531611722617,0.0011648517644328891,-0.2071649730205536,-51.11081314086914,-7.281388282775879,17.99811553955078,1.7934061288833618,-0.7166244983673096,0.07969819009304047,,,,,,,,,
1739303176.9480062,-0.11103550263746877,1.0641978255830347,-0.389046081991185,-1.4193633608192662,1.515937061134094,1.158039860693869,1.3613890362551226,0.00010984719604978298,9.343342541846573e-05,-0.0011638753650925673,0.00015518014116840107,-6.900626780623371e-05,-0.0012409375362801471,0.0006645299806157922,-0.2547723948955536,-51.13858413696289,-7.257584571838379,18.04572296142578,1.7869974374771118,-0.7239487171173096,0.07969819009304047,,,,,,,,,
1739303176.9589698,-0.11103549974427342,1.0641991427180306,-0.38904198331336015,-1.4193672233561472,1.5159378206963392,1.1580424189929606,1.3613906598124335,0.00037822139779095435,-0.00045614451590167497,-0.0005877108590493444,-0.0015911003695022244,-0.0002909369500728189,-0.0015564312778141944,0.001310484652729082,-0.2547723948955536,-51.13858413696289,-7.309159278869629,18.09729766845703,1.7805887460708618,-0.7102158069610596,0.06596527993679047,,,,,,,,,
1739303176.9690144,-0.11103339925994343,1.0641988999368646,-0.3890422190883321,-1.4193598073439841,1.515938224551531,1.1580449703471887,1.3613878196335667,-0.00037530661922301407,-0.0005129306477349017,-0.00016619551309236873,0.001199602670769473,0.0014427008651424437,0.0012445810663242306,-0.00039707354119554987,-0.2825433909893036,-51.13858413696289,-7.309159278869629,17.99811553955078,1.7741800546646118,-0.7303574085235596,0.07969819009304047,,,,,,,,,
1739303176.9799395,-0.11103550169569557,1.0641977271360359,-0.38904151045932595,-1.4193630352498743,1.5159338841697263,1.1580409564353544,1.36139030657912,0.00016184093270849291,0.00025980902662607624,0.00036351912949562036,0.0010956444734199853,-0.000993990701796577,-8.608656759625036e-05,0.001371531128092179,-0.2547723948955536,-51.11081314086914,-7.309159278869629,18.02191925048828,1.7869974374771118,-0.7038071155548096,0.06596527993679047,,,,,,,,,
1739303176.9900055,-0.11104092272658354,1.0642013674079136,-0.3890422084054378,-1.419365382028089,1.5159338320453057,1.158042774163365,1.361388918300218,-0.0011543195718831225,0.0010139450468468056,-0.00016879307126330063,-0.0010225304143378936,0.000993252221744091,-0.00010058691870042195,0.0011378639394747662,-0.1793939769268036,-51.16238784790039,-7.281388282775879,18.06952667236328,1.7869974374771118,-0.7102158069610596,0.07969819009304047,,,,,,,,,
1739303177.0010002,-0.11103350440764848,1.0641979718903438,-0.38904146075055585,-1.4193615782512847,1.5159366475189133,1.1580414821765492,1.3613896006568231,0.0005101360139021999,0.0001593497782239989,0.00033912204879110177,0.0006542457241453058,-3.73770141359975e-06,0.0003136792338032223,0.0017754403091654464,-0.2825433909893036,-51.11081314086914,-7.281388282775879,18.02191925048828,1.7805887460708618,-0.7102158069610596,0.06596527993679047,,,,,,,,,
1739303177.013011,-0.11103602641329008,1.0641940328267239,-0.3890442905483178,-1.41936336060933,1.515935439315248,1.1580389444230772,1.3613891787593677,-0.0009812249587984262,-0.0026612633204866894,-0.00038035091011817955,-0.0005347912844129435,-0.000553249656634738,0.00027705036877093635,-0.0005379284817198861,-0.2309686839580536,-51.08700942993164,-7.281388282775879,18.04572296142578,1.8007303476333618,-0.7166244983673096,0.09343110024929047,,,,,,,,,
1739303177.0239928,-0.11103549974203672,1.0641979650235074,-0.38904197456478806,-1.4193652410618283,1.5159359984453042,1.1580422929480163,1.361389063159579,-8.026246405829393e-05,0.000629850630512197,0.0008118598274746519,2.054739424877961e-05,-0.0001263740340676711,0.00019837872867574515,0.0002817971355282829,-0.2547723948955536,-51.11081314086914,-7.309159278869629,18.06952667236328,1.7869974374771118,-0.7166244983673096,0.10624848306179047,,,,,,,,,
1739303177.034026,-0.11103709659162847,1.0641979748390005,-0.3890419833092117,-1.4193633613619818,1.5159382764141829,1.1580398084148993,1.3613827040396915,0.00024169670409551888,9.537960504885573e-05,-0.00037429206145065796,0.0003503682937121526,0.0005244007273783322,-0.0012172781214187776,-0.0021973148111708177,-0.2309686839580536,-51.11081314086914,-7.309159278869629,18.04572296142578,1.7677713632583618,-0.7239487171173096,0.11998139321804047,,,,,,,,,
1739303177.0460064,-0.11103550252873423,1.0641962619913865,-0.38904284941902545,-1.4193615782472495,1.5159374675314938,1.1580431011339336,1.3613886830335513,-0.0009772898750795172,-0.0007910773175535193,-0.00034660325949945926,0.0006600444456042499,0.0013385357539279768,0.0007094833733787642,0.00023374720030722444,-0.2547723948955536,-51.08700942993164,-7.309159278869629,18.02191925048828,1.7805887460708618,-0.7239487171173096,0.07969819009304047,,,,,,,,,
1739303177.0580122,-0.11103550267408557,1.064197012334532,-0.3890442205784007,-1.4193633609242662,1.5159363890025284,1.1580445663367058,1.3613857795855855,-0.0003747909814939042,-0.0008870445178293257,-0.0009199490386381171,-0.0001439158048456464,-0.001054313596533568,0.0033303364894052855,0.0006450139964866938,-0.2547723948955536,-51.11081314086914,-7.281388282775879,18.04572296142578,1.7805887460708618,-0.7239487171173096,0.10624848306179047,,,,,,,,,
1739303177.0689247,-0.11103473657368348,1.0641996185722393,-0.38903866288272676,-1.419362672159482,1.5159327776429423,1.1580429291977379,1.3613906597942667,-0.0006740902605925846,0.00019208026734834996,0.0007438028445975763,-0.0003535214468778883,0.0006667231708690978,0.00019543680849977408,8.151993329234386e-05,-0.2309686839580536,-51.13858413696289,-7.356766700744629,18.04572296142578,1.7934061288833618,-0.7102158069610596,0.06596527993679047,,,,,,,,,
1739303177.0789673,-0.11103538543962159,1.0641999639437032,-0.38904043781955,-1.4193635983863733,1.5159367610523127,1.1580399675215045,1.361383463041393,-1.870432217755914e-05,0.0006435600647568995,2.038280633977858e-06,0.0005440936294271058,0.00019861155948722216,-0.0005873283142352287,-0.0008205750898352832,-0.2547723948955536,-51.13858413696289,-7.332962989807129,18.04572296142578,1.7805887460708618,-0.7239487171173096,0.09983979165554047,,,,,,,,,
1739303177.0889978,-0.11103339925800768,1.0641996366668844,-0.38904217341523484,-1.4193651534167706,1.5159363033125102,1.158038938102971,1.361382758446131,0.00021657330114650787,0.0005888227126883078,0.0005939744336645688,-0.0004317956215655126,-0.00021428710070928923,-0.0004102413218695623,-0.0010119838747554032,-0.2825433909893036,-51.16238784790039,-7.281388282775879,18.06952667236328,1.7934061288833618,-0.7166244983673096,0.13279877603054047,,,,,,,,,
1739303177.0990057,-0.11103650324866265,1.064197963030716,-0.38904043681133843,-1.419367289368663,1.5159347824697351,1.158039803997434,1.361384982088127,-0.0014539998720344374,0.00013314290103183123,0.0003755211451396493,3.887792911151926e-05,-0.0005132233983261953,0.0005302718288735611,-0.0006933083138660153,-0.2309686839580536,-51.11081314086914,-7.332962989807129,18.06952667236328,1.7869974374771118,-0.7239487171173096,0.11265717446804047,,,,,,,,,
1739303177.11001,-0.11103550267006689,1.064199893488787,-0.38904142826611376,-1.4193633609363792,1.515934292970864,1.158039921735004,1.3613918219194308,-0.0005533751767519048,0.0005217829977044572,0.00026807222088259623,-0.0007577171306646423,-1.0707716285541721e-06,-0.00022702452963133167,0.0016446351661493666,-0.2547723948955536,-51.13858413696289,-7.309159278869629,18.04572296142578,1.7805887460708618,-0.7239487171173096,0.05314789339900017,,,,,,,,,
1739303177.120031,-0.1110335047332327,1.0641935128180848,-0.38904221691879515,-1.4193651439283341,1.5159370585082075,1.1580409813751271,1.3613853599184826,0.0005496624299172095,-0.0012558931763101112,-9.580559852116695e-05,-0.00037778779335889755,-8.289286847697338e-05,0.0004486812211141794,-0.0009351314025565866,-0.2825433909893036,-51.05923843383789,-7.309159278869629,18.06952667236328,1.7869974374771118,-0.7239487171173096,0.09983979165554047,,,,,,,,,
1739303177.1310048,-0.11103550267408584,1.0641914032413744,-0.3890403580023193,-1.4193634521708847,1.515935438886748,1.1580440443291213,1.361385779471269,-0.00016027668680632605,-0.0010669802914990622,-0.0001321825775467696,-0.0002223351030125807,-0.0016004009215099264,0.0006463360791335989,-3.5020603298055366e-05,-0.2547723948955536,-51.05923843383789,-7.332962989807129,18.04572296142578,1.8007303476333618,-0.7239487171173096,0.10624848306179047,,,,,,,,,
1739303177.141937,-0.11103350469706225,1.0641970121730262,-0.3890412969293289,-1.4193598044010607,1.5159332289849543,1.1580389439383394,1.3613834764292274,-0.00011709302408665343,-0.000843999087906551,0.0005571152615765725,0.0011200020147692645,-0.0011815056932500641,-0.0001452805259095472,-0.0010724988922447246,-0.2825433909893036,-51.11081314086914,-7.309159278869629,17.99811553955078,1.7805887460708618,-0.7166244983673096,0.12639008462429047,,,,,,,,,
1739303177.1520345,-0.11103355728588707,1.0641999424571942,-0.38904224575440216,-1.4193634403972752,1.5159317135870394,1.158038835630983,1.3613888792710231,-0.0002735244528051608,0.0008515189552771192,-0.0006210328924221033,-0.0003997920248824257,-0.0007404553924811703,0.0001381888572925499,0.0007282050306634951,-0.2825433909893036,-51.13858413696289,-7.309159278869629,18.04572296142578,1.7934061288833618,-0.7038071155548096,0.07969819009304047,,,,,,,,,
1739303177.1630077,-0.11103517439073238,1.0641975002908801,-0.38904327573336484,-1.4193651630066295,1.515935230745959,1.1580445328888764,1.3613842738194584,0.0008761455586162004,-0.0003077603264866354,0.00034300836127773137,-0.0006519704899508032,0.0002617798724851955,0.0017939786924446313,-0.0026336840910239833,-0.2547723948955536,-51.13858413696289,-7.281388282775879,18.06952667236328,1.7934061288833618,-0.7239487171173096,0.11998139321804047,,,,,,,,,
1739303177.1730978,-0.111032449995276,1.064200652111703,-0.38904221950702533,-1.4193658619098064,1.5159363034737618,1.1580416257363764,1.3613893229649214,0.0008764120904576818,-3.871800097041112e-05,-7.924536784228639e-05,-0.002000918037660573,0.0004172222815187418,-0.000506685027056765,0.0012463822212253621,-0.2825433909893036,-51.16238784790039,-7.309159278869629,18.06952667236328,1.7934061288833618,-0.7303574085235596,0.07328949868679047,,,,,,,,,
1739303177.183988,-0.11103326132561711,1.0641978688695213,-0.38904043684734063,-1.419364439274251,1.5159360028059445,1.158038180499965,1.361394185046426,0.0004063605791408951,0.000501002579064227,0.0012019618329020504,-0.0003739243592675048,-0.0001064545700296703,-0.0008262038410164574,0.0020064304711993274,-0.2547723948955536,-51.11081314086914,-7.332962989807129,18.02191925048828,1.7869974374771118,-0.7102158069610596,0.03300629183650017,,,,,,,,,
1739303177.1959546,-0.11103251932707212,1.0641960235722092,-0.38903972821434174,-1.4193655068529836,1.515936405955294,1.1580433467180982,1.3613858317504575,0.0009874288034094976,-0.0009981499866063177,0.0008774179058592683,-0.00020100795600318702,0.0007545703112361822,0.002167620599009791,0.00018939570184823667,-0.2825433909893036,-51.08700942993164,-7.332962989807129,18.04572296142578,1.7805887460708618,-0.7166244983673096,0.10624848306179047,,,,,,,,,
1739303177.2059674,-0.1110306305818876,1.064197084283623,-0.38904450830348636,-1.4193633612997676,1.5159366701390373,1.1580389386634404,1.3613902668689797,0.001360536035372509,0.00046895015151190777,-0.000193886594469397,0.0004964897366869919,-0.0008111258758244594,0.0011523902833970976,0.001245004852926055,-0.2825433909893036,-51.13858413696289,-7.281388282775879,18.04572296142578,1.7869974374771118,-0.7166244983673096,0.06596527993679047,,,,,,,,,
1739303177.2169456,-0.11103549386842453,1.064195829055649,-0.38904219317186606,-1.419361578247249,1.5159377684201583,1.158038350505505,1.3613866157896586,-0.0007378730120734444,7.402673660572269e-05,-0.0002306285125443189,0.0012056816817593188,-0.0010160273722706744,-0.0004270987049806497,0.0001223184579714287,-0.2547723948955536,-51.11081314086914,-7.309159278869629,18.02191925048828,1.7805887460708618,-0.7102158069610596,0.09983979165554047,,,,,,,,,
1739303177.2280245,-0.1110372062967197,1.0641969416556516,-0.38904338946399253,-1.419365143601285,1.5159352823869778,1.1580405616603922,1.3613876103216664,-0.0008083790289676719,-0.0023539914651264935,-0.0007082500075955434,0.0002543385282784235,-0.0006056467591180431,-0.001389033238880291,-0.0001251120916517163,-0.2309686839580536,-51.11081314086914,-7.281388282775879,18.06952667236328,1.8007303476333618,-0.7303574085235596,0.07969819009304047,,,,,,,,,
1739303177.2389996,-0.11103625374617712,1.0641971117187874,-0.38904222341089467,-1.419361578247247,1.5159378201038674,1.1580389381002016,1.3613887342026083,-0.00015211812386045707,0.0003976997034644614,0.00012361729815578773,0.0007320204085155375,0.0017203002688257066,-0.0013729578272425116,0.0002231781109233459,-0.2309686839580536,-51.13858413696289,-7.309159278869629,18.02191925048828,1.7805887460708618,-0.7166244983673096,0.07328949868679047,,,,,,,,,
1739303177.2499428,-0.11103336291828289,1.0641971117086182,-0.3890443454234226,-1.4193633638677055,1.5159328114556263,1.158043898201349,1.3613841168189715,-0.0003228297265093391,0.0008178601873050505,-0.0005555472771229951,7.079222132742543e-06,-0.0007025148119488535,0.0014283649883389733,-0.0009581927782318458,-0.2547723948955536,-51.13858413696289,-7.309159278869629,18.04572296142578,1.7869974374771118,-0.7303574085235596,0.11998139321804047,,,,,,,,,
1739303177.260077,-0.11103550263784889,1.0641960091342075,-0.38904466378917696,-1.419363360924316,1.5159335265303566,1.1580398090606117,1.3613824052848191,0.00014681296615300603,-0.0009440740713730722,-0.001042516492079456,0.00020268479109535972,-1.593660250224746e-05,-0.0011210183518343027,-0.0016272085795320784,-0.2547723948955536,-51.08700942993164,-7.257584571838379,18.04572296142578,1.7869974374771118,-0.7239487171173096,0.13279877603054047,,,,,,,,,
1739303177.2710466,-0.11103542356915598,1.0641999462885898,-0.3890404358726104,-1.4193633609242662,1.5159341821498624,1.158038938100211,1.3613889178708656,-0.00019800204985222705,0.0007204788166470038,0.0005604549345021549,0.0006044535486441089,-0.0013665788451634705,-0.00021632737851353935,0.0013170841807634832,-0.2547723948955536,-51.13858413696289,-7.332962989807129,18.04572296142578,1.7741800546646118,-0.7166244983673096,0.07969819009304047,,,,,,,,,
1739303177.282038,-0.11103247633252838,1.0641989926146005,-0.38904219327868766,-1.4193672322214586,1.5159363946310713,1.1580444982319786,1.3613827393880256,0.0012681508614909563,3.4084490627012414e-06,0.0007816635488608744,-0.0009853186479877852,-0.0008007882502850112,0.0009404225943817146,-0.002506090787019774,-0.2825433909893036,-51.13858413696289,-7.309159278869629,18.09729766845703,1.7805887460708618,-0.7367660999298096,0.13279877603054047,,,,,,,,,
1739303177.2929258,-0.11103504419816065,1.0641999626359737,-0.3890404368471926,-1.4193636788157549,1.5159347615901113,1.158040010838228,1.3613879766168855,-6.872621256468819e-05,-3.626955464793277e-05,0.0007028599137549186,-0.0002976576221640032,-0.0004952397831985041,0.0008823159643466277,0.0015253229257320496,-0.2309686839580536,-51.13858413696289,-7.332962989807129,18.04572296142578,1.7934061288833618,-0.7166244983673096,0.07969819009304047,,,,,,,,,
1739303177.3039575,-0.11103507934945725,1.0641979748391095,-0.3890406730583404,-1.4193633697563783,1.5159331134249734,1.1580398098176905,1.3613842738143627,-8.40625396114517e-05,-8.283093690973522e-05,0.00015013718148583756,0.00017346747586760347,-0.0011002379205531277,0.00015036487985607583,0.00016178033489327355,-0.2309686839580536,-51.11081314086914,-7.332962989807129,18.04572296142578,1.7934061288833618,-0.7239487171173096,0.11998139321804047,,,,,,,,,
1739303177.3150017,-0.11103515010795911,1.0641940246508081,-0.389042184531471,-1.4193637249956552,1.5159360034339588,1.1580390558378044,1.3613898418823591,0.00017797955124727334,-0.002840631723842138,0.0003233457043463473,0.0007648234478549036,5.300602981234118e-05,-0.0003448924702021392,0.0030293153689621294,-0.2547723948955536,-51.05923843383789,-7.309159278869629,18.02191925048828,1.7869974374771118,-0.7166244983673096,0.07328949868679047,,,,,,,,,
1739303177.3250911,-0.11103336650947596,1.0641979365703966,-0.38904221822768487,-1.419363361069638,1.5159356986729975,1.1580389381021956,1.361388800780795,-0.00044473485587444566,-0.0005921791110362388,0.00021848226809963533,0.0005606495864655985,0.0006596092162172299,-0.0005214953387420803,0.0026366606441459014,-0.2547723948955536,-51.11081314086914,-7.309159278869629,18.04572296142578,1.7869974374771118,-0.7166244983673096,0.07969819009304047,,,,,,,,,
1739303177.336043,-0.1110334694307985,1.0641952291706112,-0.3890422185522761,-1.4193597985136694,1.5159352966430513,1.1580405616575122,1.3613886819452752,0.000416324206124333,-0.0014611518750889175,0.0001287164330815085,0.0015036036517311752,0.0013169107801024747,6.243801337970273e-05,0.00044526594971682485,-0.2825433909893036,-51.08700942993164,-7.309159278869629,17.99811553955078,1.7934061288833618,-0.7303574085235596,0.07328949868679047,,,,,,,,,
1739303177.3470151,-0.11103718882644067,1.064197970912637,-0.3890433544702149,-1.4193633609242715,1.5159356109376778,1.1580389381002016,1.3613866143526983,-0.0006500155743018898,0.0006550569107674986,-0.000834585086937797,-2.0101697340833315e-05,0.0008578092363802068,-0.0010856256005898543,-4.9855766005803834e-05,-0.2309686839580536,-51.11081314086914,-7.281388282775879,18.04572296142578,1.7869974374771118,-0.7166244983673096,0.07328949868679047,,,,,,,,,
1739303177.3590052,-0.11103318831336476,1.0641959413745188,-0.3890442643146595,-1.4193651524316029,1.5159378144432702,1.1580389381540368,1.3613811876415687,0.0006934740316294983,-0.00122360133474679,-0.0005242836863822466,-0.0012198121022120997,0.0013386347962924695,0.00025610209257713885,-0.0017469153596008566,-0.2825433909893036,-51.08700942993164,-7.281388282775879,18.06952667236328,1.7805887460708618,-0.7166244983673096,0.10624848306179047,,,,,,,,,
1739303177.3699284,-0.11103721211972734,1.064201685300147,-0.38904016944611164,-1.4193636346641327,1.515932956234909,1.1580398042127749,1.3613842332721,-0.0016898029904095064,0.0005013631360054719,0.0005840365878634133,-0.00022928325845860792,-0.0003196401825847288,9.572241845884935e-05,0.00042375213103146303,-0.2309686839580536,-51.16238784790039,-7.309159278869629,18.04572296142578,1.7934061288833618,-0.7239487171173096,0.09343110024929047,,,,,,,,,
1739303177.38003,-0.11103649348425194,1.0641960674905337,-0.3890422190961844,-1.4193615792423009,1.5159315023036564,1.1580389381002125,1.3613874120517637,-0.00066221150345255,9.600771999816943e-05,0.00011620341418616271,0.0007519366382846882,-0.00044120273493422136,-0.0007202407768047256,0.0003408727421734945,-0.2309686839580536,-51.11081314086914,-7.309159278869629,18.02191925048828,1.8071390390396118,-0.7166244983673096,0.09343110024929047,,,,,,,,,
1739303177.3910348,-0.11103349296439853,1.0641968723537558,-0.38903938499236296,-1.41936185497899,1.5159323143354704,1.1580381804401232,1.3613903070842392,0.0005537638295883209,-0.00045371215570537144,0.0015768331538519708,4.986870910119774e-05,-0.0013243325069441818,-0.0008065141618781591,-5.9726661132344905e-05,-0.2825433909893036,-51.13858413696289,-7.309159278869629,18.02191925048828,1.7869974374771118,-0.7102158069610596,0.06596527993679047,,,,,,,,,
1739303177.4019828,-0.11103342562823654,1.0641999726535014,-0.38904006336744135,-1.4193672322593593,1.5159354334764477,1.1580398432432906,1.3613888118186854,-3.932167224389915e-05,0.0009695180655406059,0.0008078369721462876,-0.0015524157448911814,9.4218952234082e-05,-0.00016791828268516334,0.0020903284530983997,-0.2825433909893036,-51.13858413696289,-7.309159278869629,18.09729766845703,1.8007303476333618,-0.7239487171173096,0.09343110024929047,,,,,,,,,
1739303177.412959,-0.11103137171416891,1.0642006167959643,-0.3890435644233782,-1.4193658588570723,1.5159338822376178,1.1580389400923254,1.3613846644145444,0.0010659107607705201,-0.0005546649970991241,-0.00037590521488255923,-0.001226888537313528,0.0003793473497106847,0.0002616256870853673,-0.0011117865058533085,-0.2825433909893036,-51.16238784790039,-7.281388282775879,18.06952667236328,1.7869974374771118,-0.7166244983673096,0.11265717446804047,,,,,,,,,
1739303177.423009,-0.11103473349923684,1.0641976438476803,-0.3890460819787889,-1.4193633874273321,1.5159385718961724,1.1580398039974678,1.3613887342690223,-3.502393001297697e-05,-0.0010831406639633077,-0.0002266823856847864,-0.0004784783350059311,0.0006330459201737014,-1.9364423982178514e-05,0.0009176015324301833,-0.2309686839580536,-51.11081314086914,-7.257584571838379,18.04572296142578,1.7741800546646118,-0.7239487171173096,0.07328949868679047,,,,,,,,,
1739303177.4339557,-0.11103055143234068,1.064197974837298,-0.38904151089136074,-1.4193615816632397,1.5159363053761568,1.1580437390820113,1.3613921591379958,0.0015020029393395487,0.0007215486906671983,0.0010220183081449572,0.0010711080935926587,0.000504266850794854,0.00043730305784764556,0.00187593941889949,-0.2825433909893036,-51.11081314086914,-7.309159278869629,18.02191925048828,1.7934061288833618,-0.7303574085235596,0.05314789339900017,,,,,,,,,
1739303177.444924,-0.11103478926622537,1.0642021205095242,-0.3890419055444217,-1.4193633620507868,1.5159364076840052,1.1580413193355272,1.3613864198062755,0.0006063076461357382,0.00033812228994698287,-0.0008333185661761127,0.0011491235466837616,0.000915713734948478,0.00018871822638963235,0.0012498490747096251,-0.2547723948955536,-51.13858413696289,-7.309159278869629,18.04572296142578,1.7805887460708618,-0.7367660999298096,0.06596527993679047,,,,,,,,,
1739303177.4550583,-0.11103892444811969,1.064199972925408,-0.38904127467504385,-1.4193640791234619,1.5159327678251995,1.1580405616575125,1.361387975899166,-0.0013622396974425684,0.0013419736212085516,-4.5811615880186625e-05,-0.00012951471657355934,-0.0014572221229619334,0.0001773928431141059,0.0010597329246994575,-0.2071649730205536,-51.13858413696289,-7.309159278869629,18.04572296142578,1.7869974374771118,-0.7303574085235596,0.07969819009304047,,,,,,,,,
1739303177.465068,-0.11103476294193808,1.0641996516180952,-0.38904422056121435,-1.419363726970061,1.515935527906801,1.1580389381002016,1.36138496527359,-0.00031393867547110336,0.0009688143892019696,-0.0007492218605764721,0.0007186475887543068,0.00015379622136806804,-0.0004978253191372372,-0.0028600411203660936,-0.2309686839580536,-51.13858413696289,-7.281388282775879,18.02191925048828,1.7869974374771118,-0.7166244983673096,0.11265717446804047,,,,,,,,,
1739303177.4759958,-0.11103065560360786,1.064195087214435,-0.38904221941590833,-1.4193633609727345,1.5159359522086526,1.158038898034704,1.3613840395570256,0.0009631024448524862,-0.0008111501541712556,-0.0009107675704947475,0.0007612252219727539,0.0005326715089651439,-0.0016479659372681506,-0.0007531108058334195,-0.2825433909893036,-51.11081314086914,-7.309159278869629,18.04572296142578,1.7934061288833618,-0.7166244983673096,0.08610688149929047,,,,,,,,,
1739303177.486012,-0.11103549079807516,1.0641961710229164,-0.3890422195243579,-1.4193662484381693,1.5159378207442036,1.158038938099523,1.361394898293162,0.0003551825575021211,-0.0007729622850185051,-0.0007296651881586135,-0.0009158724873870986,-0.001070681762382093,-0.00033411591224091747,0.002683060629226458,-0.2547723948955536,-51.08700942993164,-7.309159278869629,18.04572296142578,1.7805887460708618,-0.7166244983673096,0.06596527993679047,,,,,,,,,
1739303177.4970412,-0.11103721515857948,1.0641958290351006,-0.38904214064335074,-1.4193615870938647,1.5159370047865917,1.158039472609953,1.3613851004956465,-0.0011400086198029829,-0.0009012186961146934,-0.00028192954638216726,0.0007815917466327557,0.0010794412524016933,0.0004448432095982552,-0.0009685666902906143,-0.2309686839580536,-51.11081314086914,-7.309159278869629,18.02191925048828,1.7869974374771118,-0.7102158069610596,0.11265717446804047,737,742,721,39.762,0,0
1739303177.5079944,-0.11103548954418646,1.0641999596859544,-0.38904221937990535,-1.4193633874152694,1.5159365528936417,1.158039803839185,1.3613887342768503,0.0006145296413370101,0.0004490082446887021,-0.0002851984589610949,0.00020362468710138774,0.000749479657122368,0.0005468708132917157,0.0022999459287587195,-0.2547723948955536,-51.13858413696289,-7.309159278869629,18.04572296142578,1.7869974374771118,-0.7239487171173096,0.07328949868679047,737,743,721,39.654,0,0
1739303177.518948,-0.11103710093206655,1.0642013944611026,-0.389044194331548,-1.4193637053068078,1.5159334120755739,1.1580381804401223,1.361383515508262,0.00017381789126957577,0.0011824534926810565,-0.00025104700717614717,-0.0004468048163564544,8.999416519334485e-05,-2.4237714029446387e-05,-0.0003648792345043413,-0.2309686839580536,-51.13858413696289,-7.281388282775879,18.04572296142578,1.7805887460708618,-0.7102158069610596,0.12639008462429047,736,743,721,39.654,0,0
1739303177.5290108,-0.11103350429725148,1.0641975797879872,-0.38904043684556283,-1.4193653830068427,1.5159311496709589,1.1580381804401232,1.3613881245187072,0.0004134620093872684,0.0007881465379558061,0.0006135165551025727,-0.0004824670586179812,-0.002123660664982933,-0.000726804333036149,-0.0005448975810312805,-0.2825433909893036,-51.13858413696289,-7.332962989807129,18.06952667236328,1.8071390390396118,-0.7102158069610596,0.08610688149929047,735,744,721,39.654,1,0
1739303177.5410058,-0.11103599822810878,1.064197974825658,-0.3890458075458068,-1.4193616578668131,1.5159370092888087,1.1580405616575122,1.3613840742643768,-0.0006053821223363001,-0.00013190293906717047,-0.0010726182344331266,0.0012467207344853321,0.0012780364171818843,0.0003525191546111316,-0.0017701335243266638,-0.2071649730205536,-51.11081314086914,-7.257584571838379,18.02191925048828,1.7869974374771118,-0.7303574085235596,0.11265717446804047,737,748,721,39.654,0,0
1739303177.5510511,-0.11103572537809009,1.0641978845736964,-0.3890422078580698,-1.4193654085112668,1.515933542790002,1.1580389381002016,1.361389775820561,-0.0002840617014744783,0.0009204075504416505,0.0007023801479174288,-1.6408869200275052e-05,0.0009313135309615133,0.00041461648699221655,0.0014588916021348293,-0.2071649730205536,-51.11081314086914,-7.309159278869629,18.06952667236328,1.7805887460708618,-0.7166244983673096,0.07328949868679047,736,744,720,39.654,1,0
1739303177.5619335,-0.11103335799729694,1.0641962357906338,-0.3890422234125408,-1.419365152760147,1.5159353869654975,1.1580389773460582,1.3613865240566037,0.001290104334031446,0.0006843832210175646,0.0008517786280780417,-0.00036092267753262247,0.0007664125937427042,-0.00014057613010148127,-0.0002714347916886458,-0.2547723948955536,-51.08700942993164,-7.309159278869629,18.06952667236328,1.8007303476333618,-0.7166244983673096,0.09983979165554047,737,743,720,39.762,0,0
1739303177.5719948,-0.11103549862283771,1.0641999635131876,-0.3890460777790328,-1.4193615783564184,1.5159361746096163,1.1580389511828184,1.3613866019166427,0.00013516363727505607,-7.906972809230929e-05,-0.0011508666152346022,0.001021558364530272,-0.001601735081231102,0.000680033249631696,0.000488886443260908,-0.2547723948955536,-51.13858413696289,-7.257584571838379,18.02191925048828,1.7934061288833618,-0.7166244983673096,0.07328949868679047,736,743,721,39.654,0,0
1739303177.5829358,-0.11103418561525977,1.0641977916551457,-0.3890419016601513,-1.4193655332187707,1.5159381048751563,1.1580398039975077,1.361385139699558,-0.00010580379577675809,0.0009156614380134195,0.0007389443147265745,-0.0007675918411518755,-6.517664327113722e-05,0.0004110180772383113,7.574245877362126e-05,-0.2825433909893036,-51.13858413696289,-7.309159278869629,18.04572296142578,1.7741800546646118,-0.7239487171173096,0.11265717446804047,742,745,720,39.654,1,0
1739303177.5929954,-0.1110312631359463,1.064199945851205,-0.38904127466421196,-1.4193660973859654,1.51593311122333,1.1580381804401232,1.361385202941037,0.0005889673005131044,-0.00019059708674480744,0.0006006701163158868,-0.0005918736063205544,-0.00020870969362593946,-0.0003556630898919746,-0.0013291156863438826,-0.2825433909893036,-51.13858413696289,-7.309159278869629,18.06952667236328,1.7805887460708618,-0.7102158069610596,0.09983979165554047,737,743,721,39.654,0,0
1739303177.6030297,-0.11103718455659448,1.0641978953658509,-0.38904222339660544,-1.4193672234072932,1.5159362654583934,1.1580381804401232,1.361382660296666,-0.0006192441202898047,-0.0013870991960787725,0.0004738277726372374,-0.0014384321855544517,0.00038688689526484785,-0.0005209715725739606,-0.0012556877174215546,-0.2309686839580536,-51.11081314086914,-7.309159278869629,18.09729766845703,1.7934061288833618,-0.7102158069610596,0.10624848306179047,736,744,718,39.654,0,0
1739303177.61402,-0.11103135964041726,1.064193880639869,-0.3890440543546674,-1.4193659677642745,1.5159369060348251,1.1580387178683513,1.3613830059580387,0.00014360273110886675,-0.0014590369707521708,0.00030715092402898843,-0.0012389313316989161,-0.00011700040306094418,-0.000363987923488561,-0.0011975692672073271,-0.2825433909893036,-51.08700942993164,-7.281388282775879,18.06952667236328,1.7869974374771118,-0.7239487171173096,0.12639008462429047,737,746,720,39.654,0,0
1739303177.6249306,-0.11103278396310065,1.0641978265364087,-0.38904217632725513,-1.4193634767135004,1.515937044998822,1.1580381804217295,1.3613907616275285,0.00048342740962122423,0.00026964544311818136,-0.0009306451803314878,-0.00024819217236460127,0.0009057216198252636,-2.1708846363833892e-05,0.0023476837146021966,-0.2825433909893036,-51.13858413696289,-7.281388282775879,18.04572296142578,1.7869974374771118,-0.7102158069610596,0.05314789339900017,736,743,721,39.762,0,0
1739303177.634951,-0.11103350472916401,1.0641962230604631,-0.38904194816314447,-1.4193651792502584,1.515933067673671,1.1580389381002014,1.361389481944238,0.00014777232314473418,-0.001601533882183824,0.0005474874496005825,-0.0006373612217813527,-0.0007976181747379017,-0.00024298038240621412,0.002006747504685133,-0.2825433909893036,-51.08700942993164,-7.309159278869629,18.06952667236328,1.7934061288833618,-0.7166244983673096,0.06596527993679047,737,743,722,39.654,1,0
1739303177.645007,-0.11103470836944093,1.0641998933064951,-0.3890400586265451,-1.419364076180607,1.515938682187058,1.1580405108922698,1.3613828503559922,-0.00019333101519652466,0.001207404546591206,0.0008868545293535642,0.00048171919136150436,0.00017678429787459194,-0.0003299650390861766,-9.111486573433556e-05,-0.2547723948955536,-51.13858413696289,-7.309159278869629,18.04572296142578,1.8007303476333618,-0.7303574085235596,0.11265717446804047,737,741,723,39.654,1,0
1739303177.6559937,-0.11103688694285356,1.0641979482387485,-0.3890422193681523,-1.4193633609283038,1.5159370232703682,1.1580398039971473,1.3613873937349001,-0.00018579050662096764,-0.00016765080535545096,0.0009023885517219384,0.001096839511464002,0.0005391078189736431,9.090796171715195e-05,-0.00022794145823079516,-0.2309686839580536,-51.11081314086914,-7.309159278869629,18.04572296142578,1.7869974374771118,-0.7239487171173096,0.09343110024929047,736,743,721,39.762,1,0
1739303177.6660082,-0.11103132981928854,1.0641935841147159,-0.38904429639802224,-1.419360033988807,1.515930730027976,1.158038576057174,1.3613882429182513,0.0009473730160057916,-0.0011353999498522269,-0.0005253078664437603,0.000948180405507598,-0.0020535447211206697,-0.0010330983490057634,0.001390306929999005,-0.2825433909893036,-51.05923843383789,-7.281388282775879,17.99811553955078,1.8007303476333618,-0.7166244983673096,0.05955658480525017,736,744,721,39.654,0,0
1739303177.6769445,-0.11103241724013985,1.0641953086065004,-0.3890404280987797,-1.419367223427928,1.5159308475254214,1.1580389380995204,1.3613858915395358,0.0006348020346179635,-0.0015284208491135325,0.000686373434290598,-0.00010875102097123205,-0.0015072035377279606,8.921353538405522e-05,0.00016358654358277305,-0.2547723948955536,-51.08700942993164,-7.332962989807129,18.09729766845703,1.8007303476333618,-0.7166244983673096,0.10624848306179047,736,742,723,39.654,0,0
1739303177.6880744,-0.11103541440193263,1.0641970172241133,-0.3890404329589457,-1.419363444321712,1.5159369060289145,1.1580389381002016,1.3613913782269966,4.444216635963381e-05,-0.0010282688748329762,0.0011739675754548493,-0.00047057359497092307,0.0004755453398817787,-0.0008289690118406283,0.0024839414318087627,-0.2547723948955536,-51.11081314086914,-7.332962989807129,18.04572296142578,1.7869974374771118,-0.7166244983673096,0.05955658480525017,736,743,722,39.762,1,0
1739303177.6989572,-0.11103539622407595,1.064195586726988,-0.38904792513805553,-1.4193658706430492,1.5159329543503937,1.158040199596091,1.3613851265637704,-6.935706381475386e-05,-0.000754624523353412,-0.0013000770733865373,-0.0005606236784432718,-0.0019978779343970323,0.00023458072891444537,0.0004145765562263056,-0.2547723948955536,-51.11081314086914,-7.229813575744629,18.06952667236328,1.7934061288833618,-0.7303574085235596,0.11265717446804047,737,743,720,39.654,0,0
1739303177.7110212,-0.11103257141444947,1.0641994567767101,-0.38904043684600487,-1.4193615813401455,1.5159371132126989,1.1580405616554683,1.3613897881009258,0.0009900523638619492,0.0007139924455222553,0.0005325082865048738,0.0006857350997653437,-0.0005932164829182645,0.0007569448690843438,0.00043878174277494193,-0.2547723948955536,-51.16238784790039,-7.332962989807129,18.02191925048828,1.7741800546646118,-0.7303574085235596,0.07328949868679047,736,744,721,39.545,1,0
1739303177.7230325,-0.11103350080924397,1.0641984709397692,-0.38903831094834374,-1.4193625672428403,1.5159371524747154,1.1580389381002016,1.3613842738203334,0.0003817561721947896,0.0007593164071262249,0.0014311340348408326,0.00027563079025433,-0.0002829847378405569,-9.932594891000595e-06,-0.0012705423229333248,-0.2825433909893036,-51.16238784790039,-7.332962989807129,18.02191925048828,1.7741800546646118,-0.7166244983673096,0.11998139321804047,737,742,718,39.545,1,0
1739303177.7339666,-0.11103335371106006,1.0641959442998352,-0.38904359066921557,-1.4193633916724369,1.515936592131778,1.158039803997434,1.3613874634554424,0.00044126988918079024,-0.0016927543896034607,-0.001362893832297222,-0.0005514576753775395,0.0016009587653527313,0.00012459215951715467,0.0009779380534509787,-0.2547723948955536,-51.08700942993164,-7.281388282775879,18.04572296142578,1.7869974374771118,-0.7239487171173096,0.06596527993679047,736,744,721,39.654,1,0
1739303177.7439797,-0.11103690841756775,1.064199139784917,-0.38904146431018927,-1.4193664613471144,1.515936888607584,1.1580390950836281,1.361380624728697,3.073370742834563e-05,0.0010835551884902756,-0.00037085049573878166,-0.00025372295571863873,-0.0004618493607981884,0.00036155136658572466,-0.002119017259177676,-0.2547723948955536,-51.13858413696289,-7.281388282775879,18.04572296142578,1.7869974374771118,-0.7166244983673096,0.14653168618679047,737,742,722,39.654,1,0
1739303177.7549853,-0.11103710095594706,1.0641978684251818,-0.3890442992662043,-1.419363733878429,1.5159335172320798,1.1580398025102034,1.3613890341469095,-0.00046146127846340493,0.0006563317438156493,0.00022328032331830037,0.0004161386305883012,-7.05009131592768e-05,0.00028227262962706974,1.852910116490467e-05,-0.2309686839580536,-51.11081314086914,-7.281388282775879,18.02191925048828,1.7869974374771118,-0.7239487171173096,0.07969819009304047,736,745,722,39.871,1,0
1739303177.7659311,-0.11103264285161474,1.0641962619911864,-0.3890442730685486,-1.4193672617689235,1.5159327852132807,1.1580389385847154,1.3613864805399198,0.00010674593696827469,-0.0006801633477511023,-0.0002766016795106416,0.00012580179499911703,-0.001315861234003157,-0.00020987470737345482,0.0008183027753985339,-0.2547723948955536,-51.08700942993164,-7.281388282775879,18.09729766845703,1.7869974374771118,-0.7166244983673096,0.09983979165554047,737,744,722,39.654,0,0
1739303177.7770054,-0.11103264269488679,1.0641941845776683,-0.3890422195239153,-1.4193652230747946,1.5159365746247782,1.1580440425499594,1.3613858973747002,0.0009558541220311196,-0.00103247065896956,-0.0003862747343012547,-0.000465634864597227,0.0010456263792618312,0.0009996079589958415,3.390972087892958e-05,-0.2547723948955536,-51.05923843383789,-7.309159278869629,18.06952667236328,1.7869974374771118,-0.7239487171173096,0.10624848306179047,737,743,721,39.654,0,0
1739303177.7870078,-0.11103626588334431,1.0641933015091103,-0.38904051515231314,-1.4193651440377986,1.5159361353618925,1.1580389381241283,1.361380429999439,0.00010845375289423816,-0.0022918598272461954,-0.0001453301232272131,0.00010963660317317859,-0.0003907820542058419,0.00023980700987452769,-0.0013538028412615434,-0.2309686839580536,-51.05923843383789,-7.332962989807129,18.06952667236328,1.7934061288833618,-0.7166244983673096,0.11265717446804047,737,744,723,39.654,1,0
1739303177.7989893,-0.11103304911376456,1.0641978239549168,-0.3890404338955953,-1.4193629989902572,1.515937047853787,1.1580381804401232,1.3613889950446125,-0.00019323062917504758,0.0013907513032759122,0.0012298503532532886,8.038995229851634e-05,0.0004295714922680355,-0.0004460505311282927,0.0015596617322766175,-0.2547723948955536,-51.13858413696289,-7.332962989807129,18.04572296142578,1.7869974374771118,-0.7102158069610596,0.07969819009304047,736,744,722,39.654,1,0
1739303177.8099272,-0.11103549969425269,1.0641996195551797,-0.3890397281783228,-1.4193615782452038,1.5159359990912409,1.15803980256138,1.3613841022473476,-0.00047128409302654543,-0.000556941018870972,0.0002064947536319455,0.0003748594115500834,-0.0002587441030190276,9.860183652510285e-05,-0.0002116164655916197,-0.2547723948955536,-51.13858413696289,-7.332962989807129,18.02191925048828,1.7869974374771118,-0.7239487171173096,0.11998139321804047,736,743,722,39.654,1,0
1739303177.8199337,-0.11103642381996759,1.064197223279018,-0.3890414320063513,-1.4193624086241636,1.5159367084178408,1.158038180440115,1.361384156081806,-0.0002872808116277678,-0.0004210586176087777,-0.0002941432354669907,-0.00014553711454801457,-0.0011014135903169263,-0.00047456916880795827,-0.000576552174909958,-0.2309686839580536,-51.11081314086914,-7.309159278869629,18.02191925048828,1.7869974374771118,-0.7102158069610596,0.11998139321804047,737,743,723,39.545,1,0
1739303177.8310137,-0.11103526524631756,1.0641979747259078,-0.3890460557411222,-1.4193616168436936,1.5159376854065048,1.1580389382617071,1.3613827627899102,-0.001031583534466192,0.0016711865377277667,-0.001155401767872023,-0.0005760053770462625,0.00014380393022165152,-0.00014430534237764176,-0.002029017248456453,-0.2547723948955536,-51.11081314086914,-7.257584571838379,18.02191925048828,1.7805887460708618,-0.7166244983673096,0.09343110024929047,733,745,723,39.654,1,0
1739303177.841017,-0.11103696572271168,1.0641997343614387,-0.38904198288088815,-1.4193651553756956,1.5159359522150269,1.158040561657515,1.361391686661401,-0.0005159866341014683,0.000493986209551079,0.0001280555850719882,-0.0009851231424546775,-0.000577533758888069,0.0003248872339452312,0.0012272789463058386,-0.2309686839580536,-51.13858413696289,-7.309159278869629,18.06952667236328,1.7934061288833618,-0.7303574085235596,0.05314789339900017,737,744,722,39.654,1,0
1739303177.8519704,-0.11103890098412479,1.0641962495985249,-0.3890412746790253,-1.4193664872202016,1.5159385195664026,1.1580405616575122,1.361388272778086,-0.002952786091690697,-0.0008010139146934843,-0.00012418444235985987,-0.0004275909727484664,0.0009117221172445572,0.00014493263766004598,0.000752062480359408,-0.2071649730205536,-51.08700942993164,-7.309159278869629,18.04572296142578,1.7741800546646118,-0.7303574085235596,0.08610688149929047,737,745,721,39.654,1,0
1739303177.864015,-0.11103618529216983,1.064197256530902,-0.3890421918692703,-1.4193640791774293,1.5159352046076435,1.158038936113683,1.361386373292725,-0.0010539357785168115,-0.00027916758793683033,-0.00020630925194690762,-0.0002971095030872002,-9.452034120724064e-05,-0.0003645543122907745,0.0012312602990502057,-0.2547723948955536,-51.11081314086914,-7.309159278869629,18.04572296142578,1.7934061288833618,-0.7166244983673096,0.06596527993679047,737,744,722,39.654,0,0
1739303177.8740454,-0.11103265392386258,1.0641979714556076,-0.38904221077564816,-1.4193655067318713,1.5159331221487755,1.1580389381001903,1.3613897895303526,0.0002521162408740459,-0.00038467363043139294,-0.0007505651811057171,-0.00033681172852550296,0.00035899488062321667,7.811189020328743e-05,0.0007782643845730126,-0.2547723948955536,-51.11081314086914,-7.309159278869629,18.04572296142578,1.7934061288833618,-0.7166244983673096,0.07328949868679047,736,744,722,39.654,1,0
1739303177.8849921,-0.11103350175517673,1.0641949960785901,-0.38904032214390877,-1.4193681771017965,1.5159358449610918,1.1580356797129538,1.3613866550376592,-8.786537551860776e-05,-0.0015624962048040993,0.00014850115603112085,-0.001043246241752769,-5.250251382719311e-05,-0.00030665304988668554,-0.0005526884388974093,-0.2825433909893036,-51.11081314086914,-7.332962989807129,18.09729766845703,1.7869974374771118,-0.7166244983673096,0.09983979165554047,736,743,722,39.545,1,0
1739303177.896928,-0.11102866800784379,1.0641961563005657,-0.3890442992659965,-1.4193651819162416,1.515931696148126,1.1580389380940703,1.3613851003102146,0.0015363894505300937,-0.0003137050902549242,0.0001605799060241266,-0.0003186275394311245,-3.952288778228218e-05,0.0007291168212976298,0.0006411004092428156,-0.3063471019268036,-51.08700942993164,-7.281388282775879,18.06952667236328,1.7934061288833618,-0.7166244983673096,0.11265717446804047,736,743,721,39.654,1,0
1739303177.9069614,-0.11103030207003883,1.0641977096007902,-0.3890439570404798,-1.4193634403977746,1.5159385768786549,1.1580398039974338,1.3613864212592486,0.0006077514843217582,-0.00032763316999302294,0.0004609677959672257,0.0011451026881141844,0.0009034906479690301,3.4609273567806165e-05,0.0010543798623657962,-0.2825433909893036,-51.11081314086914,-7.281388282775879,18.04572296142578,1.7741800546646118,-0.7239487171173096,0.06596527993679047,737,743,722,39.654,1,0
1739303177.9169862,-0.11103499134075545,1.0641962534502816,-0.3890404066754927,-1.4193672896959943,1.5159337662227996,1.1580381804401232,1.3613889125179193,-0.0006939017145560376,-6.477359460089956e-05,0.0008206989516112315,-0.0005191891275899981,0.0007413387680519625,-9.991942481643023e-05,0.0004143698926523237,-0.2309686839580536,-51.08700942993164,-7.332962989807129,18.06952667236328,1.7869974374771118,-0.7102158069610596,0.07969819009304047,737,745,723,39.654,1,0
1739303177.9269972,-0.11103233420728192,1.0641968693047392,-0.3890400845522757,-1.4193615871139091,1.515932458187095,1.1580405616575122,1.3613825877866912,0.00023995415081788662,-0.0006763091382704491,0.00046176194335812576,0.001246549591909106,-0.0002513898591863771,-0.00020904947439618835,-0.001089655871967445,-0.2547723948955536,-51.13858413696289,-7.309159278869629,18.02191925048828,1.7869974374771118,-0.7303574085235596,0.13279877603054047,733,744,722,39.654,1,0
1739303177.9380615,-0.11103061881414478,1.064196253361582,-0.3890435905611575,-1.4193615859632263,1.515935399469881,1.1580398020109153,1.3613895589894167,0.0009693953672817192,-0.0006530865344152917,-0.0005117974829303062,8.548400832294285e-05,0.00044380930963751526,-3.86083794631821e-05,0.00018926995078388754,-0.2825433909893036,-51.08700942993164,-7.281388282775879,18.02191925048828,1.7741800546646118,-0.7239487171173096,0.06596527993679047,735,743,724,39.654,1,0
1739303177.9490879,-0.1110352619791469,1.0641992447693285,-0.3890412746763602,-1.419361941373822,1.515936304712226,1.1580390950836168,1.3613842600861557,-0.0002722490068342055,0.0004766567344516749,0.0010640502831155917,0.0007458982981752724,0.0011502926415480632,0.0005045396451218626,-0.0009146656272066625,-0.2547723948955536,-51.13858413696289,-7.309159278869629,17.99811553955078,1.7934061288833618,-0.7166244983673096,0.11998139321804047,736,745,720,39.654,1,0
1739303177.9599953,-0.11103417288781052,1.0641995395294293,-0.3890442993088816,-1.4193655076847376,1.515936003236633,1.1580378519720052,1.3613858558871068,-0.00045806200325421435,0.000482476770892085,-0.0012495654532275657,0.0011779121578865343,0.0013834050400484631,-0.000558431166406084,0.0003599452111002833,-0.2309686839580536,-51.16238784790039,-7.281388282775879,18.04572296142578,1.7869974374771118,-0.7166244983673096,0.07969819009304047,736,745,722,39.545,0,0
1739303177.9709504,-0.1110368973111031,1.0641948356672648,-0.3890419823412984,-1.4193644393186535,1.5159350863141037,1.1580398039913027,1.361387294403937,-0.00027460688098078495,-0.0014886836770339918,-2.31919593435425e-05,0.0010587960046662868,0.00025887492097393554,0.00022874032385053104,-0.00019056444177003502,-0.2309686839580536,-51.11081314086914,-7.309159278869629,18.02191925048828,1.8007303476333618,-0.7239487171173096,0.09343110024929047,736,744,721,39.654,1,0
1739303177.981023,-0.11103720347018478,1.0642044271157565,-0.38904426031972267,-1.4193635998273628,1.5159365921338457,1.1580398039974338,1.361388917061999,-0.002118173571333724,0.002331900125650483,-0.00027304476981253724,0.00036992064673137883,0.0004502266513365542,0.00010558303998978494,-0.0002643613204155161,-0.2309686839580536,-51.16238784790039,-7.281388282775879,18.04572296142578,1.7869974374771118,-0.7239487171173096,0.07969819009304047,736,744,722,39.762,0,0
1739303177.9923217,-0.11103241367534139,1.0641978865514667,-0.38904221952413964,-1.4193634004985203,1.5159354930916773,1.1580389381002016,1.3613803312694988,-0.0001920967862041119,-0.0005480960765252866,-0.0003214765507299085,0.0007566771337649895,-0.0008105455084112776,-0.000301672254437736,-0.002303192720128487,-0.2547723948955536,-51.11081314086914,-7.309159278869629,18.04572296142578,1.7869974374771118,-0.7166244983673096,0.12639008462429047,737,745,721,39.654,1,0
1739303178.0030384,-0.1110330503676542,1.064197974729652,-0.3890400936253628,-1.4193616166211969,1.5159372931025834,1.1580389381002016,1.361383565343176,0.00040849737413977956,0.00012942153893288156,-0.00013627580121575216,0.0007595602694870946,-0.0005954389804098816,-0.0003610802512243203,-0.0008459794578627419,-0.2547723948955536,-51.11081314086914,-7.309159278869629,18.02191925048828,1.7805887460708618,-0.7166244983673096,0.11265717446804047,737,744,720,39.654,1,0
1739303178.013049,-0.11103514801676628,1.0641979735309697,-0.38904116825760315,-1.4193636788163548,1.5159370609815987,1.1580381802745798,1.3613842345478255,-0.0008428967331810996,-0.000838298787622749,0.00078703391789002,0.00021208906356821625,0.0016995296085986246,-0.0004275712102281425,-0.00022055904713826877,-0.2547723948955536,-51.11081314086914,-7.309159278869629,18.04572296142578,1.7869974374771118,-0.7102158069610596,0.11998139321804047,735,743,722,39.654,1,0
1739303178.0239468,-0.11103177128820833,1.0641995390974666,-0.3890421141037314,-1.4193634757201914,1.5159333696189201,1.1580389381002008,1.3613790693894416,0.0009675522358602326,0.000720831153954924,0.00047873343111643445,0.0010622530967112345,-0.00021367410353273085,-0.0004347874166799701,-0.002473146828420031,-0.3063471019268036,-51.16238784790039,-7.309159278869629,18.04572296142578,1.7869974374771118,-0.7166244983673096,0.13279877603054047,737,745,721,39.545,1,0
1739303178.034927,-0.11103521709828194,1.0641958257893513,-0.3890419823407033,-1.4193641571070614,1.5159335249126176,1.1580413193175907,1.3613862567067698,-0.0001473849765436514,-0.0006646050871309556,0.0006326458711636777,0.00023925440005824505,-0.0018403819069143742,0.000894440220667009,-0.0003265849409557676,-0.2547723948955536,-51.11081314086914,-7.309159278869629,18.04572296142578,1.7869974374771118,-0.7367660999298096,0.07328949868679047,737,745,722,39.654,1,0
1739303178.0449622,-0.1110386109654581,1.0641920802002498,-0.3890404018491018,-1.4193636379480876,1.5159338834697773,1.1580381804401232,1.3613882572911824,-0.0020400206470834142,-0.0022062538967750848,0.0007565442659669805,-0.00011421825498897865,0.0003372212088626949,0.0002389197784436508,8.403642588706623e-05,-0.2071649730205536,-51.05923843383789,-7.332962989807129,18.04572296142578,1.7869974374771118,-0.7102158069610596,0.07328949868679047,737,745,721,39.654,1,0
1739303178.056025,-0.11103550234318696,1.0641941837775708,-0.3890442993136226,-1.4193637154498626,1.5159352455765465,1.1580389381002016,1.3613850938404324,-0.0013868900728417897,-0.0015134035182961208,-0.0007305615588725405,-0.00037438372474826514,0.0003493433539841253,0.00011874532089774164,0.0007505761425503452,-0.2547723948955536,-51.05923843383789,-7.281388282775879,18.04572296142578,1.7934061288833618,-0.7166244983673096,0.08610688149929047,736,744,722,39.654,1,0
1739303178.0679898,-0.1110323780474436,1.0641967845990972,-0.3890422195243598,-1.4193655331830983,1.5159363054280344,1.1580389323021512,1.3613833189006403,-0.0008758278954219228,-0.0007835612740502328,-0.0008713654716820437,-0.0005969054189457301,0.0004964135470320493,-0.00024411071670302158,-0.000611810215522727,-0.2547723948955536,-51.13858413696289,-7.309159278869629,18.04572296142578,1.7934061288833618,-0.7166244983673096,0.09983979165554047,734,745,721,39.654,1,0
1739303178.078067,-0.11103233451756195,1.0641953082630782,-0.3890443780512152,-1.4193625623738897,1.5159362770798241,1.158038180440025,1.3613868133598985,0.0002443832109115676,-0.0005038319047135586,0.0003468546310349653,0.0007859141507326069,-0.0021495807453614135,-0.0006171714715581611,0.0005139835250493367,-0.2547723948955536,-51.08700942993164,-7.281388282775879,18.02191925048828,1.7805887460708618,-0.7102158069610596,0.08610688149929047,736,745,721,39.545,0,0
1739303178.0889614,-0.11103478971098166,1.0641999684175736,-0.38904221854044546,-1.4193615870794165,1.515933530260247,1.158039803997434,1.3613894392282389,-0.0010716926867675933,0.00030308013715416585,0.0005679496108686654,0.0010717996488407906,-0.0003833132445420974,0.0007495192514973936,8.72637046713732e-05,-0.2547723948955536,-51.13858413696289,-7.309159278869629,18.02191925048828,1.7869974374771118,-0.7239487171173096,0.07328949868679047,736,744,721,39.762,1,0
1739303178.0999558,-0.11103033727666939,1.064196996962915,-0.3890442993142098,-1.4193625350104075,1.515935946383175,1.1580389381002016,1.361379054636818,0.0007301112730981764,-0.000669525137430675,-0.0012312637730636702,0.0008873956663605065,0.0002487426625813977,8.64972608643812e-05,-0.0016577892073185213,-0.2825433909893036,-51.13858413696289,-7.281388282775879,18.02191925048828,1.7934061288833618,-0.7166244983673096,0.13279877603054047,736,744,721,39.654,1,0
1739303178.1119192,-0.11103030109229255,1.064194264324445,-0.38904224544600585,-1.419364518748457,1.5159361872059152,1.1580389376035718,1.361388626117704,0.0009392919619512674,0.00043196781440755735,-0.0009723478474503455,-0.0006468615713602492,0.00019105490534573227,-6.853890002303285e-05,0.00036479118442974556,-0.2825433909893036,-51.05923843383789,-7.309159278869629,18.02191925048828,1.7934061288833618,-0.7166244983673096,0.07969819009304047,736,746,728,39.762,1,0
1739303178.122946,-0.11103136454158073,1.0642013673002957,-0.38904009232932923,-1.4193633639095773,1.5159365354332002,1.1580398039974331,1.3613897413533347,0.0008843717257344494,0.000372351895602785,0.0011190429730342402,-0.00019455554381769667,0.0002725623393550492,8.960730623604234e-05,4.24798947985749e-05,-0.2825433909893036,-51.16238784790039,-7.309159278869629,18.04572296142578,1.7869974374771118,-0.7239487171173096,0.07328949868679047,736,745,722,39.654,0,0
1739303178.1330073,-0.11103649431625634,1.0641955470573128,-0.38904216754682375,-1.4193680163980418,1.515933702112602,1.1580389381002016,1.361385042829801,-0.0013721821637477142,-0.0007439239420978707,-0.0007197429957877624,-0.0005945685824661135,-0.0009208518564340917,0.0001161960052140203,0.002000399857994536,-0.2309686839580536,-51.08700942993164,-7.281388282775879,18.06952667236328,1.7934061288833618,-0.7166244983673096,0.08610688149929047,736,747,721,39.654,1,0
1739303178.1451035,-0.11103326136367228,1.0641955470586604,-0.38904221612811096,-1.4193624028625187,1.5159367092166793,1.158039803997434,1.36138523565457,0.00030586129507563915,-0.000716693981219043,-0.00046170891507755005,0.0009182895249324015,0.00011211921528005683,-5.996503808149675e-05,0.00015451229626147357,-0.2547723948955536,-51.08700942993164,-7.309159278869629,18.02191925048828,1.7869974374771118,-0.7239487171173096,0.09983979165554047,736,746,722,39.654,2,0
1739303178.1559803,-0.11103030103361447,1.064199707493641,-0.3890442089124683,-1.419363612256768,1.5159358349635998,1.1580405616575122,1.361387408705817,0.0008996334250416188,0.0006149101936532457,-5.2276961719044e-05,-0.001119561510546549,0.00016676479688439584,0.0006229125150230754,0.001321453485864682,-0.2825433909893036,-51.13858413696289,-7.281388282775879,18.04572296142578,1.7934061288833618,-0.7303574085235596,0.05314789339900017,736,744,721,39.545,1,0
1739303178.1660497,-0.11103325455982396,1.064196182841083,-0.3890442196036228,-1.4193634521751393,1.5159327852837656,1.1580378183970956,1.3613796251244323,1.910043835608497e-05,-0.00029329076227044867,-0.00016452186899001828,0.00015919655958191044,0.00015673208357192247,-0.0007125332418186409,-0.0020832017731316063,-0.2825433909893036,-51.08700942993164,-7.281388282775879,18.04572296142578,1.7869974374771118,-0.7102158069610596,0.11998139321804047,737,745,723,39.654,1,0
