IITGN-Robotics/Franka_IITGN_ROBOTICS/franka_ros/franka_iitgn/data01/s_f_008.csv
time,fr3_joint1_pos,fr3_joint2_pos,fr3_joint3_pos,fr3_joint4_pos,fr3_joint5_pos,fr3_joint6_pos,fr3_joint7_pos,fr3_joint1_vel,fr3_joint2_vel,fr3_joint3_vel,fr3_joint4_vel,fr3_joint5_vel,fr3_joint6_vel,fr3_joint7_vel,fr3_joint1_eff,fr3_joint2_eff,fr3_joint3_eff,fr3_joint4_eff,fr3_joint5_eff,fr3_joint6_eff,fr3_joint7_eff,flexpin1,flexpin2,flexpin3,Force,ContactMic,ContactMic_gt
1739303549.996904,-0.1061310452563201,1.0634969766712445,-0.3970772700950623,-1.4271747952748826,1.527312952073383,1.1548812295020618,1.3563571725270311,-2.5349501493353698e-05,-0.0005199773532823541,-0.0004269631306822967,-0.0014929463241672178,-0.0008290640958864619,-0.0009088305570277322,0.001021565026479963,-0.3301508128643036,-51.31711196899414,-7.511490821838379,18.14490509033203,1.9051004648208618,-0.7239487171173096,0.026597600430250168,,,,,,,,,
1739303550.007013,-0.1061295203399055,1.0635065600820819,-0.3970762527862485,-1.4271894556723115,1.5273152255321158,1.1548736084802882,1.3563524434072671,-0.0002406523916525383,0.001934148821422076,0.0005330353199862599,-0.0001585971731929085,-0.00019286210339501556,-0.0014848400209575374,-0.000171193770610045,-0.3063471019268036,-51.39249038696289,-7.483719825744629,18.09729766845703,1.8858743906021118,-0.7038071155548096,0.026597600430250168,,,,,,,,,
1739303550.0179796,-0.10612638529169105,1.0634996877788574,-0.3970789190149278,-1.4271915998995846,1.527309875622302,1.154867794313721,1.3563510641562369,0.0007406227828271428,-0.0006747283387715637,0.0002668545751759049,-0.0005612941439172713,-0.0013350954253772793,0.0008971045349403004,-4.0560512468198334e-05,-0.3063471019268036,-51.26553726196289,-7.459916114807129,18.06952667236328,1.8922830820083618,-0.6836655139923096,0.03941498324275017,,,,,,,,,
1739303550.0289812,-0.10613280518484716,1.0635004084147293,-0.3970744005543484,-1.4271881535510382,1.5273152250216784,1.154862454655831,1.356356448408751,-0.0011593224584266124,-0.00087720043376334,0.0011855148232770582,0.000757554342666923,0.0009539851120836781,-0.001244767751650565,0.0020968062911858143,-0.2547723948955536,-51.26553726196289,-7.511490821838379,18.02191925048828,1.8858743906021118,-0.6909897327423096,0.019273381680250168,,,,,,,,,
1739303550.0399292,-0.10613113931800144,1.0635022372962257,-0.3970733016192583,-1.4271961974209348,1.52731369664549,1.1548636503049623,1.356349802003338,-0.0007234437815441751,0.0007665297450776654,0.0008917242123429403,-0.0005640080269404702,0.0003531038733688383,-0.0004621799502011894,0.001374177909211803,-0.2547723948955536,-51.28934097290039,-7.563065528869629,18.09729766845703,1.8986917734146118,-0.7102158069610596,0.03941498324275017,,,,,,,,,
1739303550.049969,-0.10612795599095773,1.0635045434270254,-0.39707911320328987,-1.4271948097350733,1.527314467387447,1.1548692463970642,1.3563508881083435,0.0009797463400349595,0.0007549957039773335,-0.0015722697098140281,0.00210582484604724,0.0010891006179712857,0.00044446683539582166,0.0006572234738180805,-0.2825433909893036,-51.28934097290039,-7.483719825744629,18.06952667236328,1.8922830820083618,-0.7495834827423096,0.03941498324275017,,,,,,,,,
1739303550.0619185,-0.10612711082171916,1.0634992254403945,-0.3970779713058575,-1.4272001861807937,1.527312912660002,1.1548686064798728,1.3563481031371658,-0.0004243453086777217,0.0003759366073542615,-0.00014809791871358131,-0.00101559938687705,0.000397806255923564,-0.00011856955235928621,0.0008075899904322551,-0.2547723948955536,-51.21396255493164,-7.459916114807129,18.09729766845703,1.9051004648208618,-0.7431747913360596,0.05955658480525017,,,,,,,,,
1739303550.0719514,-0.1061186600443548,1.0634974916620838,-0.397074172654527,-1.4271945544335558,1.5273064576958488,1.1548700193313766,1.356347462802198,0.0006209631227059443,-0.0008063273505855048,0.001993526952741059,0.000271729395216027,-0.0007254906538745161,0.00038748006773592353,0.0009363111122307373,-0.3817255198955536,-51.19015884399414,-7.511490821838379,18.02191925048828,1.9316507577896118,-0.7431747913360596,0.03941498324275017,,,,,,,,,
1739303550.083012,-0.10612059300917644,1.0634945357952077,-0.3970828014532783,-1.427191271913098,1.5273066683995526,1.154867854658587,1.3563475160440663,-0.0003987248460023291,-0.0007947827547015014,-0.0006170601867796217,0.0016266226074783349,0.00014289122410072105,-2.3057736939646018e-05,-0.0002701751546488613,-0.3539545238018036,-51.16238784790039,-7.436112403869629,18.02191925048828,1.9179178476333618,-0.7367660999298096,0.026597600430250168,,,,,,,,,
1739303550.093972,-0.10611961628247979,1.0634988819978752,-0.3970793411337198,-1.4271952921348485,1.5273074240491853,1.1548686064805704,1.356346014108148,-0.0006140024227034022,-8.078080299338296e-05,0.0008345354017555914,0.0003638998483377255,0.0001948128235274736,3.5046323235002054e-05,5.4545380388613756e-05,-0.3539545238018036,-51.21396255493164,-7.483719825744629,18.04572296142578,1.9115091562271118,-0.7431747913360596,0.03941498324275017,,,,,,,,,
1739303550.1049044,-0.10612280412249715,1.0634967721527733,-0.3970811321278599,-1.4271959127056935,1.5273055822465318,1.1548681507985101,1.3563399899931787,-0.000845710036563327,-0.0013434125254509447,-0.0004853287423473763,-3.5682473833264605e-05,-0.0008518871839829339,-0.00011436481267171854,-0.002003309777683927,-0.3063471019268036,-51.19015884399414,-7.459916114807129,18.06952667236328,1.9179178476333618,-0.7303574085235596,0.09343110024929047,,,,,,,,,
1739303550.1149719,-0.10612008908569374,1.0635040004183463,-0.397076984424701,-1.4272019978182922,1.5273066676950589,1.1548647099609368,1.3563388613570204,-0.0002031867368572042,0.0007931800987438849,0.0007900618001836942,-0.0007600544828210256,0.00070633395854769,-0.0005392287422176809,-0.002757378460299928,-0.3063471019268036,-51.28934097290039,-7.483719825744629,18.12110137939453,1.9179178476333618,-0.7102158069610596,0.09983979165554047,,,,,,,,,
1739303550.1249783,-0.10612272709744623,1.0635083333714221,-0.3970793469533794,-1.4272002933662304,1.5273080627940447,1.1548639527674305,1.3563412383191338,-0.0012217296359935427,0.0018409527037316243,-0.0008346295396314985,0.0005177469550957628,-0.0008107924990574219,-0.00031102728929765605,-0.0009980304042175804,-0.3063471019268036,-51.34091567993164,-7.483719825744629,18.06952667236328,1.9051004648208618,-0.7038071155548096,0.07969819009304047,,,,,,,,,
1739303550.1369195,-0.10611984831948457,1.0635093759133412,-0.39707647744049773,-1.4272010204442456,1.5273081836950997,1.1548635990702065,1.3563388394383935,0.0009935829939304052,0.0016105941691038194,0.0008221587914198658,0.0004998743586391671,0.0005579174264585946,-0.00030826877784099224,-0.0010898304215147439,-0.3063471019268036,-51.31711196899414,-7.483719825744629,18.06952667236328,1.9051004648208618,-0.7038071155548096,0.09983979165554047,,,,,,,,,
1739303550.1469517,-0.106119847942374,1.0635029217769698,-0.39708088463555125,-1.4272031012154478,1.5273066678789957,1.154863599064222,1.356336842562145,0.0008504741996327358,-0.0004245175263011186,-0.0002176209750032174,-0.00024351462929162818,-0.0002679083197573484,0.00037369833351499015,-0.002220745794135913,-0.3063471019268036,-51.26553726196289,-7.459916114807129,18.09729766845703,1.9179178476333618,-0.7038071155548096,0.07969819009304047,,,,,,,,,
1739303550.1579719,-0.10611985703614134,1.0635028922959844,-0.39708291512754934,-1.427197765427295,1.5273058565204087,1.1548654671165595,1.3563436133156943,-0.0014196217446349815,-0.0003081092835894528,-0.0016449273096807093,0.002509866678852289,0.000180397203496564,0.0007274737590103493,-0.00033729989106634104,-0.3063471019268036,-51.26553726196289,-7.436112403869629,18.02191925048828,1.9115091562271118,-0.7166244983673096,0.05955658480525017,,,,,,,,,
1739303550.1699305,-0.10611813542165353,1.0634974959252044,-0.3970793411343619,-1.4271976915403706,1.5273035772746943,1.15486709116038,1.3563425596780732,0.00012951501663334333,-0.0009868241596793486,0.00013435860992651219,5.8314423867295495e-05,-0.0015452236572732216,4.9386315651230175e-05,-0.00024906804572573263,-0.3301508128643036,-51.19015884399414,-7.483719825744629,18.02191925048828,1.9316507577896118,-0.7303574085235596,0.05955658480525017,,,,,,,,,
1739303550.1799858,-0.10611805668463653,1.0634998890108043,-0.39708086135466547,-1.4272006498670495,1.5273045603753803,1.154868553668212,1.3563385548969626,-0.0006172244418034478,0.0017489530356295901,-0.00031887243494023833,-0.0005301813721860817,-0.0010638342202718381,-0.000606611150538175,-0.0026755800564884826,-0.3301508128643036,-51.21396255493164,-7.459916114807129,18.06952667236328,1.9316507577896118,-0.7431747913360596,0.09343110024929047,,,,,,,,,
1739303550.1900275,-0.106118135420303,1.0634961782459058,-0.3970826790213632,-1.4272002948258873,1.5273062842758944,1.154865427565255,1.3563426132961434,-0.0001679514868735808,-0.00023410603611247378,-0.00033724422997935815,-0.0003876294770609493,0.00022876597988222183,-0.000674948681194577,0.0005085469972627618,-0.3301508128643036,-51.16238784790039,-7.436112403869629,18.06952667236328,1.9115091562271118,-0.7431747913360596,0.05955658480525017,,,,,,,,,
1739303550.2009735,-0.10612268812504018,1.0634982444234602,-0.3970793383248503,-1.4272005473638123,1.5273010363170298,1.1548686064087572,1.3563443771361563,-0.0012957677269083397,0.0002077681335382422,0.0007953469270852037,-0.0003657510686231734,-0.0004689375556556233,0.00015048532534665392,0.0016229247448976078,-0.3063471019268036,-51.16238784790039,-7.483719825744629,18.09729766845703,1.9252420663833618,-0.7431747913360596,0.05314789339900017,,,,,,,,,
1739303550.2119436,-0.10612048767698914,1.0635029104081726,-0.3970793498828524,-1.427200323892661,1.527303296170777,1.1548663330157853,1.3563483425051361,-1.0767090982256953e-06,0.001429378509054058,0.0004942723833087318,3.440912990058603e-05,-0.000549462391667891,0.0008716522610989256,0.004921460388936804,-0.2547723948955536,-51.26553726196289,-7.483719825744629,18.06952667236328,1.9051004648208618,-0.7239487171173096,0.019273381680250168,,,,,,,,,
1739303550.2240076,-0.10611982038328434,1.0635029444056967,-0.39708113245192983,-1.427197796638349,1.527302263684334,1.1548647097276483,1.3563377572057238,-0.001347637435977255,-8.967450151554235e-05,0.0004539081449168508,0.000970650759978859,-0.00010535427668013165,0.000426981054997399,-0.0017033985275154166,-0.3063471019268036,-51.26553726196289,-7.459916114807129,18.02191925048828,1.9179178476333618,-0.7102158069610596,0.07328949868679047,,,,,,,,,
1739303550.2341225,-0.10612298054296129,1.0635045264328005,-0.3970804215147839,-1.4271983874893623,1.527302538457558,1.1548613773246263,1.3563451473754224,-0.0009265308868483986,-0.0008115750959434697,-0.0007985373659176409,0.0009042143860877765,-1.202441846601075e-05,-0.0001477708907232857,0.0011126486632897037,-0.2547723948955536,-51.28934097290039,-7.459916114807129,18.06952667236328,1.9115091562271118,-0.6909897327423096,0.04673920199275017,,,,,,,,,
1739303550.2449346,-0.10611939924259703,1.0635029103920761,-0.39707934858282146,-1.42720033340085,1.527301663057184,1.1548652200748324,1.3563377416476283,-0.0005032241887946633,-0.00013864038625459804,-0.0010045241682008841,0.00034094674406708405,-0.0003054601158415226,0.00035691756892636603,-0.00019619789108685356,-0.2825433909893036,-51.26553726196289,-7.483719825744629,18.06952667236328,1.9179178476333618,-0.7239487171173096,0.10624848306179047,,,,,,,,,
1739303550.2550402,-0.10611939942527232,1.0635050107000488,-0.39707698777289896,-1.4271992204652022,1.5273036250785503,1.1548639321506378,1.3563353711373334,0.00022919910537243286,0.000177077402716305,0.00037361716824071565,0.0005696443010351273,0.00031273031069126687,-0.0013833232353633038,-0.0008095056406050365,-0.2825433909893036,-51.26553726196289,-7.483719825744629,18.06952667236328,1.9115091562271118,-0.7166244983673096,0.09343110024929047,,,,,,,,,
1739303550.265983,-0.10611677715117057,1.063499200082864,-0.397074435187709,-1.4271995835244349,1.5273065297645867,1.1548617415649023,1.356343579508051,0.0007332457867509013,0.0004281100073233326,0.0013759639011630476,-0.00028664850961762216,0.0006470669219222108,-0.0018292343485038192,0.000102365768483785,-0.3063471019268036,-51.21396255493164,-7.511490821838379,18.04572296142578,1.9115091562271118,-0.7239487171173096,0.05955658480525017,,,,,,,,,
1739303550.2759953,-0.1061152211285747,1.063493777154643,-0.39708261482187274,-1.4272013662499048,1.5273001573050362,1.154868253190063,1.356336940918666,-2.6500347010743647e-05,-0.0012906368496080872,7.995587447553559e-05,-0.0009414113912337192,-0.0010194009859887288,-3.853654607244896e-05,-0.002749065334391474,-0.3301508128643036,-51.13858413696289,-7.436112403869629,18.06952667236328,1.9316507577896118,-0.7431747913360596,0.07969819009304047,,,,,,,,,
1739303550.2869353,-0.10611417889795828,1.0634955152941958,-0.39708113252223853,-1.4271974459818948,1.5273009148975218,1.1548678095726082,1.3563372956316242,0.001734019765427091,0.00028862305245202466,-4.883909292491959e-05,0.0007736145480681026,0.0002597720899474874,0.0013844623190953586,-0.00033306939323336695,-0.3539545238018036,-51.16238784790039,-7.459916114807129,18.04572296142578,1.9252420663833618,-0.7367660999298096,0.08610688149929047,,,,,,,,,
1739303550.2969823,-0.10611665921788004,1.0634954859652184,-0.3970811413084916,-1.4271946922607723,1.527301722652744,1.1548678488197945,1.356338817419698,0.00016527770707714285,-0.0011484916270107838,0.00027178518558019756,0.0028113688471951854,-0.000446858718167882,0.0007231716217605785,0.0005222740665238169,-0.3063471019268036,-51.16238784790039,-7.459916114807129,18.02191925048828,1.9179178476333618,-0.7367660999298096,0.09983979165554047,,,,,,,,,
1739303550.3079767,-0.10611708417288164,1.0635001987222383,-0.397079349882967,-1.4272070113762507,1.5273009193668603,1.1548678074211949,1.3563443202337744,0.00015767755336559635,0.0004557358947841978,0.0008278276571541093,-0.0015131243803356326,0.0003006262594804798,0.0004525835391027095,0.0026917282074713257,-0.3301508128643036,-51.23776626586914,-7.483719825744629,18.14490509033203,1.9252420663833618,-0.7367660999298096,0.05314789339900017,,,,,,,,,
1739303550.3180335,-0.1061177132770121,1.0635029218232042,-0.3970772700930621,-1.4272016694241478,1.5273020008651743,1.154862890706016,1.3563435800693961,-0.0006908233398161985,0.001041683939934338,0.0009521450329644894,-0.00031358894505212754,0.0008672937524964254,-0.0010838448849613072,0.0032617638394921026,-0.3063471019268036,-51.26553726196289,-7.511490821838379,18.06952667236328,1.9252420663833618,-0.7038071155548096,0.05955658480525017,,,,,,,,,
1739303550.3289056,-0.10611837162055422,1.0635038970992297,-0.39708078933795876,-1.427203675629734,1.5273017691549857,1.1548613740391844,1.3563419536221883,0.0002881713877094548,0.0002676120115619542,-0.001493499908816747,-0.0014576876022316955,-0.00010329072537504651,-0.0002330313036900294,0.0011675319313390502,-0.2825433909893036,-51.23776626586914,-7.436112403869629,18.09729766845703,1.9179178476333618,-0.7102158069610596,0.04673920199275017,,,,,,,,,
1739303550.338969,-0.10611860782560309,1.0635029905542714,-0.39708078832989474,-1.42720412131293,1.5273009148973244,1.15486153097211,1.3563441778025016,6.45217360222199e-05,-4.285811172276578e-05,-0.0018041974715609513,-9.660781883101706e-05,-0.00018582671037025138,0.00020873787347068767,0.001138001587288935,-0.2825433909893036,-51.23776626586914,-7.436112403869629,18.06952667236328,1.9252420663833618,-0.7102158069610596,0.026597600430250168,,,,,,,,,
1739303550.3499103,-0.1061169738988595,1.0635029878785798,-0.3970808961929214,-1.4272014004481146,1.5273005616848117,1.1548622870018457,1.3563432600551188,0.00012038230339019362,0.0007777150081538983,4.6826855996547084e-05,-0.0010104577793951517,-0.00046754384920064785,0.0012542408531378976,-0.00012254335895841483,-0.3063471019268036,-51.26553726196289,-7.459916114807129,18.06952667236328,1.9252420663833618,-0.7166244983673096,0.05955658480525017,,,,,,,,,
1739303550.360919,-0.10611689530664889,1.0635020693123367,-0.3970811322345818,-1.427201442779519,1.527299399575371,1.1548654499271718,1.3563397847245202,-0.0002818850589658687,0.0008278670311513787,-0.0005557907852491239,-0.0006926756102486599,-0.0005884384232370372,-0.0006980480956717129,-0.0003403667306642118,-0.3063471019268036,-51.21396255493164,-7.459916114807129,18.06952667236328,1.9380594491958618,-0.7166244983673096,0.05314789339900017,,,,,,,,,
1739303550.3709304,-0.10611452531682358,1.0635015762680806,-0.3970826780538778,-1.4271977979563164,1.5272990975993135,1.1548617634716287,1.3563416317188763,0.0012375550549297623,0.0016880490872760714,-0.0007918592817246356,0.0006821968931425624,-0.0009282956341533661,-0.0007186805466302535,0.001127638491267049,-0.3063471019268036,-51.21396255493164,-7.436112403869629,18.02191925048828,1.9316507577896118,-0.7166244983673096,0.06596527993679047,,,,,,,,,
1739303550.3809319,-0.10611689525674017,1.063494005919179,-0.39708496845578517,-1.427199557081917,1.5273045017477918,1.1548659408054855,1.3563361850288804,-0.0001635281072877932,-0.0017896130266026264,-0.000299055540308306,0.0002433205530916332,0.0010025019352007934,0.0010804968514787519,-0.000740917720698046,-0.3063471019268036,-51.13858413696289,-7.408341407775879,18.04572296142578,1.9316507577896118,-0.7239487171173096,0.08610688149929047,,,,,,,,,
1739303550.3910098,-0.1061165793105807,1.063499288746834,-0.39708089634848703,-1.4271995836774165,1.5272996849071878,1.1548667204984178,1.3563418598595243,-0.000813512169170623,0.00027324314530407503,-0.0005026417840806613,0.0005032899673730309,-0.0027061315228570446,0.0008719657719807525,-0.0014158717925954116,-0.3063471019268036,-51.21396255493164,-7.459916114807129,18.04572296142578,1.9316507577896118,-0.7303574085235596,0.07328949868679047,,,,,,,,,
1739303550.4020185,-0.10611281570663984,1.0635038974495952,-0.3970810496093359,-1.4271978008958681,1.5273007971572852,1.1548656781459437,1.3563418379836454,0.0006195236342915087,0.001894044499999063,-0.0008039470468042279,0.00039581429842169965,-0.00037808336576631077,-0.0002575315692126303,0.0012663261737036295,-0.3301508128643036,-51.23776626586914,-7.459916114807129,18.02191925048828,1.9252420663833618,-0.7303574085235596,0.04673920199275017,,,,,,,,,
1739303550.4129035,-0.1061201805186016,1.0635019102904855,-0.39708110760988413,-1.4271984981639205,1.5273028077213633,1.1548654675412584,1.3563409165595481,-0.00045120076149154703,0.0012975432844232338,-0.0008922262222815778,0.0012840523980670948,0.0008074110460425348,0.00013253679612635683,0.00021513920794544397,-0.2825433909893036,-51.23776626586914,-7.459916114807129,18.02191925048828,1.9051004648208618,-0.7166244983673096,0.07328949868679047,,,,,,,,,
1739303550.4229298,-0.1061193348445513,1.0635019890201467,-0.39708113255951416,-1.4271998897023768,1.5272988884203877,1.1548646532545312,1.3563425158917952,-0.000754701468561787,-0.00035500247332695824,-0.0009047600583483907,0.0003414089702592708,-0.00045731951492504876,-0.0003997191511682055,0.0018204006096914807,-0.2547723948955536,-51.21396255493164,-7.459916114807129,18.04572296142578,1.9115091562271118,-0.7102158069610596,0.05955658480525017,,,,,,,,,
1739303550.4339323,-0.10611825761181314,1.063499301986008,-0.39708113007577894,-1.4272035392503988,1.5272993450426513,1.1548600012309385,1.3563437167187944,0.0003437613256150377,-0.0007821319460199249,-0.0005948532835162091,-0.0003804297462115335,-0.0016709822074248292,-0.0015052069058477675,0.0022195052308889946,-0.2825433909893036,-51.21396255493164,-7.459916114807129,18.09729766845703,1.9252420663833618,-0.6836655139923096,0.04673920199275017,,,,,,,,,
1739303550.4439397,-0.10611908024181038,1.0635016040561596,-0.39708111959898745,-1.4272006124731638,1.5273017744162793,1.1548619465520513,1.3563372447634208,-0.0003604067082795158,-0.00036942215365549144,-0.0007627669055507633,-0.0003251951172728143,0.0016522931587148182,0.000593024150067141,-0.0016033483440990922,-0.2825433909893036,-51.23776626586914,-7.459916114807129,18.04572296142578,1.9179178476333618,-0.6909897327423096,0.08610688149929047,,,,,,,,,
1739303550.4539917,-0.10611836869560484,1.0635036118637229,-0.39707934113428894,-1.4272013662557137,1.5273009105368347,1.1548631336457345,1.3563347567907784,7.08703165430488e-05,0.0010647755355836347,0.00024426998128099545,0.0006779537904953147,0.0009523938932755593,2.030724570882148e-05,-0.0010457250115076127,-0.2825433909893036,-51.26553726196289,-7.483719825744629,18.06952667236328,1.9252420663833618,-0.7102158069610596,0.10624848306179047,,,,,,,,,
1739303550.4650047,-0.1061166240178713,1.0635060098206124,-0.3970800202814393,-1.4272013309286344,1.5273013708935599,1.1548627483366403,1.3563368165949907,0.00022801181662990147,0.0024200636020492014,-0.00011223676041303792,-0.0003844955953054452,2.006389064913089e-05,0.0007778095845625604,-0.00046384387141227396,-0.3063471019268036,-51.26553726196289,-7.483719825744629,18.06952667236328,1.9179178476333618,-0.7239487171173096,0.11265717446804047,,,,,,,,,
1739303550.4750693,-0.10611941828117505,1.063500357263572,-0.3970786383450867,-1.427201570393781,1.527300346730403,1.1548626808667137,1.3563325777832753,-0.0003662513744315723,-0.0003829988106755926,0.00022191103136409826,0.0006425479072840967,0.0006003712716717716,0.0006474953510097947,0.00010092807222756921,-0.2547723948955536,-51.19015884399414,-7.483719825744629,18.04572296142578,1.8986917734146118,-0.7303574085235596,0.11265717446804047,,,,,,,,,
1739303550.4869716,-0.10611494656777097,1.0635019819158948,-0.39708113255592004,-1.4271995835100788,1.5273001179168249,1.1548670503822425,1.356337228840457,0.00024796336221877355,0.0021676010013860106,-0.00037678898433634407,0.00013235653940138953,0.0009403071504911216,0.0011773902822018406,-0.00014305369624690334,-0.3301508128643036,-51.21396255493164,-7.459916114807129,18.04572296142578,1.9316507577896118,-0.7303574085235596,0.07328949868679047,,,,,,,,,
1739303550.4979823,-0.10611486375484448,1.0634996388930227,-0.39707935373516223,-1.4271996601023067,1.5273010804898781,1.1548631386714097,1.3563340885094213,-0.00039585155438178604,-0.0006370927005461995,0.0009220351323635724,0.00012681638035174898,0.0006759662680882552,-0.0022023694155316295,-0.0015758874496288773,-0.3301508128643036,-51.19015884399414,-7.483719825744629,18.04572296142578,1.9115091562271118,-0.7367660999298096,0.09983979165554047,,,,,,,,,
1739303550.5089114,-0.1061149452735629,1.0635002046936384,-0.39708220653197396,-1.4271995835733187,1.5272996668982632,1.1548634280256662,1.3563372317475315,0.00013136302855308073,0.0009234504799443544,-0.0005753752486742577,-0.0002688410045808435,-0.0011725538749701248,-0.0017361625541678367,-0.0007657559842761101,-0.3301508128643036,-51.21396255493164,-7.436112403869629,18.04572296142578,1.9316507577896118,-0.7303574085235596,0.07328949868679047,,,,,,,,,
1739303550.518969,-0.10611837161459599,1.0635052095702366,-0.39707934944688955,-1.4271993536575764,1.5272993534628156,1.154862735586844,1.3563396085508994,-7.799779236923842e-05,0.0020052427472611344,0.0008877304029207081,-0.00027682979318055035,5.728001411792557e-05,9.662628012018984e-05,0.0006324593273832538,-0.2825433909893036,-51.26553726196289,-7.483719825744629,18.04572296142578,1.9252420663833618,-0.7038071155548096,0.05314789339900017,,,,,,,,,
1739303550.5289907,-0.1061195540388197,1.0635038377077863,-0.3970793489108485,-1.4271996856082203,1.5273020093360994,1.1548606018289918,1.3563377400714025,-0.0005668209638923832,0.00013420622979699252,0.0010784880802651815,-0.0006776782405690548,-0.0008848341290135955,-0.00032697550873620433,0.0006273672360245047,-0.2547723948955536,-51.26553726196289,-7.483719825744629,18.04572296142578,1.9115091562271118,-0.7038071155548096,0.06596527993679047,,,,,,,,,
1739303550.5390358,-0.10611470882210268,1.063503898059677,-0.39707715636182356,-1.427205229663316,1.527297367161224,1.1548599474096233,1.3563364697208204,0.0010335652334754401,0.0007636141312533387,0.0013229030440913467,-0.0013403450536817931,0.0008526816405286801,-0.0016649192373306698,-0.00112668316956236,-0.3301508128643036,-51.23776626586914,-7.511490821838379,18.12110137939453,1.9179178476333618,-0.7102158069610596,0.07969819009304047,,,,,,,,,
1739303550.550006,-0.10611826638262387,1.063505677259925,-0.3970772225779054,-1.4271995930209793,1.5272963056149462,1.1548587815636344,1.3563377782245503,0.001286876494601967,0.0006956607329686951,0.0011532739725319794,0.001075097177187941,2.0317661486396856e-05,-0.0009000696735306775,-0.0016441962051414673,-0.2825433909893036,-51.26553726196289,-7.483719825744629,18.04572296142578,1.9252420663833618,-0.6973984241485596,0.05955658480525017,,,,,,,,,
1739303550.560964,-0.10611638433179653,1.0634993030252562,-0.3970826790219532,-1.4271985061717818,1.527301368875064,1.1548615665829394,1.3563333293937663,-0.0003966488127998226,-7.134485866865288e-05,-0.0008293468034348909,0.0002316246818386224,0.0015352331535780578,-0.0003261329413212568,-0.0020997258105851712,-0.3063471019268036,-51.21396255493164,-7.436112403869629,18.06952667236328,1.9179178476333618,-0.7239487171173096,0.10624848306179047,,,,,,,,,
1739303550.5718982,-0.10611571204074301,1.0634965225997137,-0.39708016989347295,-1.4272013661974214,1.5272979343963915,1.1548655409490516,1.3563325200703755,-7.813112725380922e-05,-0.000549641739487051,0.00011210588953158363,-0.00043360432807278864,-0.0008499631237525297,0.0008720048044107925,-0.0011216355147775825,-0.3063471019268036,-51.16238784790039,-7.459916114807129,18.06952667236328,1.9380594491958618,-0.7303574085235596,0.08610688149929047,,,,,,,,,
1739303550.58202,-0.10611483710704017,1.063500560887119,-0.3970811237950783,-1.427200493200592,1.5272985490432271,1.154863893162081,1.3563388116447184,-0.00014903462230127836,-0.00039688819670543403,-0.0017821995193412557,-0.00042439239586904533,0.0007304700397222605,0.0005319471317100938,0.0005489378249236321,-0.3301508128643036,-51.19015884399414,-7.459916114807129,18.04572296142578,1.9179178476333618,-0.7303574085235596,0.05955658480525017,,,,,,,,,
1739303550.5929682,-0.10611278795602787,1.0635016064784746,-0.39708291523690625,-1.4271996090878283,1.5272972497792505,1.154863080457742,1.3563391202116055,0.000798445839446174,0.0012651251048005395,-0.0005968325587589998,7.678549767205646e-05,-0.0005381417405383889,-0.0014570293619829877,0.0005296129284748696,-0.3301508128643036,-51.21396255493164,-7.436112403869629,18.04572296142578,1.9252420663833618,-0.7367660999298096,0.05314789339900017,,,,,,,,,
1739303550.6039383,-0.10611350059180572,1.0635059983797441,-0.3970811325599367,-1.4272013662503376,1.5272958225270348,1.1548667433954973,1.356339608596439,0.0007082561468808326,0.002596345586489121,-0.0002859689921479686,-0.000271903630292072,-0.0008106450061312295,0.0007280279789112411,0.00010349232852463548,-0.3063471019268036,-51.26553726196289,-7.459916114807129,18.06952667236328,1.9316507577896118,-0.7367660999298096,0.05314789339900017,,,,,,,,,
1739303550.6140406,-0.10611665572000677,1.063502296538077,-0.39707853623124983,-1.4272041433078142,1.5273009540067592,1.1548659744671517,1.356335712066724,0.00019411518736759542,-8.093495332743146e-05,0.000894250377847658,-0.0005219046452283293,0.0011487773142006149,0.00262342664709384,-0.00024390588290147458,-0.3063471019268036,-51.21396255493164,-7.483719825744629,18.09729766845703,1.9115091562271118,-0.7239487171173096,0.08610688149929047,,,,,,,,,
1739303550.6249092,-0.10611736772685208,1.0634999655576571,-0.3970790786731027,-1.4272052636786,1.5272970124411451,1.1548610568297395,1.3563403677183388,-0.001132661927455625,-0.0011901409114288813,0.00020628908409940194,-0.0014041301857300635,0.0006820664695810204,-0.0011378725937462963,0.0016543155739134371,-0.3063471019268036,-51.21396255493164,-7.483719825744629,18.12110137939453,1.9179178476333618,-0.7166244983673096,0.04673920199275017,,,,,,,,,
1739303550.634956,-0.10612022568672216,1.0635032546305108,-0.3970810159079365,-1.4272055126496415,1.5272951133538009,1.154860060768586,1.3563396086047346,-0.001171867840261592,0.00036547400073806517,-0.0006496875967116147,-0.00200546026991232,-0.0008148987910902662,-0.0004329487584518417,0.0006887056983918865,-0.2825433909893036,-51.26553726196289,-7.459916114807129,18.09729766845703,1.9051004648208618,-0.7102158069610596,0.05314789339900017,,,,,,,,,
1739303550.645903,-0.10611842376630587,1.0635032302482956,-0.3970811325592782,-1.4272013676612867,1.5272961856986866,1.1548592018391242,1.356335577371068,-0.0006291316612910846,-0.0008580798882825017,-0.001045655130487097,0.000268973450519695,0.0013876999587021173,-0.0004385699806270893,-0.00019067316195000563,-0.2825433909893036,-51.26553726196289,-7.459916114807129,18.06952667236328,1.9252420663833618,-0.7038071155548096,0.08610688149929047,,,,,,,,,
1739303550.6560462,-0.1061203568900119,1.0635012445045875,-0.3970772700930621,-1.427199671440023,1.5272992854040701,1.154859941733219,1.3563355928733227,-0.0019885519602740216,-0.00010085135348611755,0.000365947164968843,0.0007735037257796792,0.0012927008586573001,-0.0006636642512353631,-0.00029846100116593484,-0.2547723948955536,-51.23776626586914,-7.511490821838379,18.04572296142578,1.8986917734146118,-0.7102158069610596,0.08610688149929047,,,,,,,,,
1739303550.6669557,-0.10611727850230514,1.0634976017688995,-0.39707927114591773,-1.4272034060887935,1.5272978094906124,1.1548599415714107,1.3563404055099724,0.0012551785926915445,-0.0010562298434316176,-0.0006045818932446339,4.540574801680002e-05,6.882808782671324e-05,0.0006117454006772642,0.0016298864836310938,-0.2547723948955536,-51.19015884399414,-7.483719825744629,18.06952667236328,1.9115091562271118,-0.7102158069610596,0.04673920199275017,,,,,,,,,
1739303550.6770804,-0.10611444882147249,1.063498511688724,-0.39707934955756363,-1.4272043726035717,1.5272970124238392,1.1548616048590938,1.3563341545244516,-0.0005609687323443074,-0.0012234534452160194,0.0003522374124141607,-0.0006784998265682027,0.0012029273190807147,-1.3347989411847028e-05,4.822784264378729e-06,-0.3063471019268036,-51.19015884399414,-7.483719825744629,18.09729766845703,1.9179178476333618,-0.7239487171173096,0.05955658480525017,,,,,,,,,
1739303550.6880152,-0.10611418319323881,1.0635016105960662,-0.39707932349324,-1.427201366255136,1.5272980721151364,1.1548615694895956,1.3563396085781987,0.00037205245105894594,0.0003862362504780116,0.000662710063867903,3.423624056058842e-05,0.0009709609234647778,-8.235928237338851e-05,0.0014440001027107075,-0.3063471019268036,-51.21396255493164,-7.483719825744629,18.06952667236328,1.9179178476333618,-0.7239487171173096,0.05314789339900017,,,,,,,,,
1739303550.698967,-0.10611210204839458,1.0634967714777177,-0.3970818285559843,-1.4272014692339405,1.5272949844244745,1.154866272445242,1.3563371873504004,0.0007687291590295305,-0.0010373334315976338,-0.0002043608492481841,-5.121674535850654e-05,0.00017192631136677468,0.0003809260318847438,0.000910662393409235,-0.3301508128643036,-51.13858413696289,-7.459916114807129,18.06952667236328,1.9380594491958618,-0.7367660999298096,0.04673920199275017,,,,,,,,,
1739303550.7090359,-0.10611631608051932,1.0635060094124578,-0.3970793498947044,-1.4272013662516496,1.5272961421712705,1.1548617589236743,1.3563403612042801,-0.00025424489554586776,0.0020336104121749096,-1.3124717853926955e-05,-0.0002523998340558986,-0.001549663272390814,-0.0005581902844257003,0.002337635471863079,-0.3063471019268036,-51.26553726196289,-7.483719825744629,18.06952667236328,1.9252420663833618,-0.7166244983673096,0.04673920199275017,,,,,,,,,
1739303550.7199297,-0.10611742344241039,1.0634995579562896,-0.39708121129693663,-1.427201368103182,1.527296146525915,1.1548599415773917,1.3563396083893406,-0.0006061222949728733,-0.0010749296415985365,9.947588308227745e-05,0.0001337404883385356,-0.000577670577851648,-0.0004878797465526491,0.0001143843588096996,-0.2825433909893036,-51.19015884399414,-7.459916114807129,18.06952667236328,1.9252420663833618,-0.7102158069610596,0.05314789339900017,,,,,,,,,
1739303550.7299728,-0.10611346618890384,1.063501380057287,-0.39708105090808504,-1.4271978777402552,1.5272953917729615,1.1548591839113316,1.3563348447159378,0.0010175212705618335,-0.0005343963233883002,0.00025379562551095783,0.0007886574392079968,-0.0006233607156053209,-0.00022120264248165857,-3.414876454642369e-05,-0.3063471019268036,-51.21396255493164,-7.459916114807129,18.02191925048828,1.9316507577896118,-0.7038071155548096,0.09343110024929047,,,,,,,,,
1739303550.7400537,-0.10611570863218638,1.0635022225126396,-0.3970785275173138,-1.4272052296628894,1.527301303788064,1.1548606992314883,1.3563384410434378,0.0005016345622039122,-0.00047485826901881795,0.001487211110441439,-0.001067239633245311,0.0016065913414053017,7.644504858860855e-05,0.0017532091706418701,-0.3063471019268036,-51.21396255493164,-7.483719825744629,18.12110137939453,1.9179178476333618,-0.7166244983673096,0.05955658480525017,,,,,,,,,
1739303550.7500541,-0.10612033024126663,1.0635002321321032,-0.39707718897577166,-1.4272013671947292,1.5272953891000414,1.1548615651287206,1.3563376477001725,-0.0006234374837065165,-0.0008478738959350107,0.000536365790787626,-7.754928672140732e-05,-0.0005759839730960883,0.0006081546262006868,0.0004429208407867016,-0.2547723948955536,-51.21396255493164,-7.483719825744629,18.06952667236328,1.9316507577896118,-0.7239487171173096,0.03941498324275017,,,,,,,,,
1739303550.7609859,-0.10611542425736108,1.0635005102757504,-0.397079349834717,-1.427197800568824,1.5272953888658625,1.1548599415714098,1.3563364681991825,-0.0007397939611379167,-1.5313354723468786e-06,-0.000244460832749915,0.0003928734334162797,-7.936024895733933e-05,-0.0007220347985713258,-0.0005684103031215014,-0.2825433909893036,-51.19015884399414,-7.483719825744629,18.02191925048828,1.9316507577896118,-0.7102158069610596,0.07969819009304047,,,,,,,,,
1739303550.7719355,-0.10611178051587643,1.0634985596215105,-0.3970754870920222,-1.4272053345352362,1.5272970122616663,1.1548583920285336,1.3563371684542387,0.0013867969336830255,-0.0014618049082260334,0.0015980717066274447,-0.0015546262853580043,-0.00039546140819523006,-0.00024087119988888336,0.00046999582792871806,-0.3301508128643036,-51.16238784790039,-7.535294532775879,18.12110137939453,1.9179178476333618,-0.7239487171173096,0.04673920199275017,,,,,,,,,
1739303550.7829645,-0.10611725261089414,1.0635022653589927,-0.3970811322359106,-1.4271995835746787,1.527296146525937,1.15486550164945,1.3563374191434843,-0.00036388247439771365,0.000261075539556712,9.786073053156885e-06,-0.0006008338248795298,5.919233080064801e-05,0.000979970825867077,-0.00018162846761589683,-0.2547723948955536,-51.21396255493164,-7.459916114807129,18.04572296142578,1.9252420663833618,-0.7303574085235596,0.05955658480525017,,,,,,,,,
1739303550.7940102,-0.10611528487399813,1.0635021968783658,-0.3970811325599361,-1.427199684033397,1.5272993254403275,1.1548606992374697,1.3563332893561697,0.00045569928511690703,-0.0005727841226333228,0.00016472422485441904,0.0001297990885694818,0.0015012879025474261,-0.0006429394736167748,0.0006270581297037576,-0.2825433909893036,-51.21396255493164,-7.459916114807129,18.04572296142578,1.9252420663833618,-0.7166244983673096,0.07969819009304047,,,,,,,,,
1739303550.804896,-0.10611482819354907,1.0635010187408935,-0.3970793489108559,-1.4271995825934416,1.5272957958554512,1.1548647440431088,1.3563302493437317,0.0006862819389174863,-0.0004890961792142622,-0.00011155097921217516,0.0009106968223953603,-0.00025904730011874034,0.0010295741064381262,-0.0004970494645979563,-0.3301508128643036,-51.23776626586914,-7.483719825744629,18.04572296142578,1.9179178476333618,-0.7239487171173096,0.09343110024929047,,,,,,,,,
1739303550.8149621,-0.10611592473924736,1.063505933287832,-0.39708105367892216,-1.4271980301570746,1.5272953888589935,1.1548615651466656,1.3563313434597992,-0.0012456841247868442,0.0019906399168643394,-3.335819721912226e-05,0.0006296306626360247,-0.0009118405017162249,-1.0377723560598453e-05,-0.002855446052584655,-0.2825433909893036,-51.26553726196289,-7.459916114807129,18.02191925048828,1.9316507577896118,-0.7239487171173096,0.11265717446804047,,,,,,,,,
1739303550.8249648,-0.10611571061886936,1.0635039098501795,-0.3970811238073736,-1.4271978009075152,1.527296133443987,1.1548606992314892,1.3563384976694455,0.00014446798547646628,0.0015826618538642026,2.2767523784864366e-05,0.001494765796933343,0.0005436713475887449,0.0001521825655280892,0.0013488209088426879,-0.3063471019268036,-51.23776626586914,-7.459916114807129,18.02191925048828,1.9252420663833618,-0.7166244983673096,0.05955658480525017,,,,,,,,,
1739303550.8349729,-0.10611930413512007,1.0635057034009552,-0.3970790066608903,-1.4272041349445168,1.5272943292276577,1.1548615694893714,1.3563313499604415,-0.0008888028832874631,0.0011732987394617572,0.0002251065351474601,-0.0007973437606833968,-0.00022919426855063827,0.0004262975059232549,-0.0009552143469540452,-0.2547723948955536,-51.26553726196289,-7.459916114807129,18.09729766845703,1.9316507577896118,-0.7239487171173096,0.08610688149929047,,,,,,,,,
1739303550.8459306,-0.10611720101885361,1.063497830531224,-0.397076514978898,-1.42720344604365,1.5272961072741011,1.1548599415714342,1.3563310024854676,-0.00012784552535257272,-0.0008268823615652275,0.00010680780857794656,0.0005618091570815606,-0.00014563291400029304,-2.814274674501568e-05,-0.0014620613659303244,-0.2547723948955536,-51.19015884399414,-7.483719825744629,18.09729766845703,1.9252420663833618,-0.7102158069610596,0.08610688149929047,,,,,,,,,
1739303550.856006,-0.10612009344080882,1.0635008138860422,-0.3970793495108877,-1.427204122358828,1.5272977695980685,1.1548590661737617,1.3563348460897344,-0.0008775639733395509,-0.0006660630066013921,-0.00045779405904847117,0.0004984102265284167,0.0007335395636761969,0.0002007977006639873,0.0007831007633168501,-0.2547723948955536,-51.19015884399414,-7.483719825744629,18.06952667236328,1.9115091562271118,-0.7038071155548096,0.09343110024929047,,,,,,,,,
1739303550.8669603,-0.10611731529183621,1.063504011754606,-0.39707934988291554,-1.4272005785758894,1.5272945984366104,1.154859189778703,1.3563387327225447,-0.0003056421781814003,0.0008749179790484927,8.191840642502747e-05,-0.0005791583599519434,-0.00037878718079537434,-0.0002292802835670314,0.000228991242070788,-0.2825433909893036,-51.23776626586914,-7.483719825744629,18.04572296142578,1.9115091562271118,-0.7038071155548096,0.05955658480525017,,,,,,,,,
1739303550.8769808,-0.10611612630067763,1.0635022989526477,-0.3970811325599367,-1.4272034376462084,1.5272961275760741,1.154862322788898,1.3563386934746864,-9.525307436639738e-05,0.00029052934883984295,-0.001071121133678346,-9.45612171333334e-05,-0.000679415664626542,0.0006068844485424556,-0.0008772499156770286,-0.2825433909893036,-51.21396255493164,-7.459916114807129,18.09729766845703,1.9252420663833618,-0.7303574085235596,0.05955658480525017,,,,,,,,,
1739303550.8888984,-0.1061151754652412,1.0634984922132493,-0.3970793586314732,-1.427199870019141,1.527295675629388,1.1548623227887989,1.356334607815234,0.00015347643821789225,-0.0006685394236206712,0.00042375805472659385,0.0007257036221768886,-0.0020986271010650834,0.00023935190962294506,-0.0007446661168955351,-0.2825433909893036,-51.19015884399414,-7.483719825744629,18.04572296142578,1.9252420663833618,-0.7303574085235596,0.05955658480525017,,,,,,,,,
1739303550.8999412,-0.10611600393152931,1.0634974907053079,-0.3970826702774499,-1.427201595839784,1.5272970124205136,1.1548606591945674,1.3563389353013715,-0.0007781105064648771,-0.0012113950078308368,0.00011974902587724408,-0.00035201319367396736,0.0011605850866057464,9.23384733506157e-05,0.0013183526132442996,-0.2825433909893036,-51.19015884399414,-7.436112403869629,18.06952667236328,1.9179178476333618,-0.7431747913360596,0.04673920199275017,,,,,,,,,
1739303550.9109805,-0.10611517564186407,1.0635020697784774,-0.39707911367145704,-1.4272016733594843,1.5272946878942424,1.154862322782817,1.3563364298322307,0.00018756157052532614,0.0005628886123029159,0.0005018561251183169,-0.0003642738629170378,-0.0002610957688868419,0.00016670500823746446,0.0006310439176801807,-0.2825433909893036,-51.21396255493164,-7.483719825744629,18.06952667236328,1.9380594491958618,-0.7303574085235596,0.07969819009304047,,,,,,,,,
1739303550.921921,-0.10611304412470074,1.0635013044888026,-0.39708291523562234,-1.4271978008976012,1.527296028627184,1.1548615651287206,1.3563348067080692,0.0001972688925075453,0.00041729080936772015,-0.002329185901483499,0.0011956384816192815,-0.0001888517979379025,-5.953697856638788e-05,-0.0004228204889482357,-0.2825433909893036,-51.21396255493164,-7.436112403869629,18.02191925048828,1.9252420663833618,-0.7239487171173096,0.09343110024929047,,,,,,,,,
1739303550.9319298,-0.10611559362475488,1.0635010272290497,-0.39708113255993666,-1.4271992204826938,1.5272977699197479,1.1548606992314883,1.3563300843382176,-8.304159532793756e-05,-0.00018027369130676314,-0.001048485384434981,4.929315004378144e-05,0.0014637335796455157,-0.0004417019993001266,-0.001937274865129123,-0.3063471019268036,-51.23776626586914,-7.459916114807129,18.06952667236328,1.9115091562271118,-0.7166244983673096,0.09343110024929047,,,,,,,,,
1739303550.9420338,-0.10611738546340624,1.0635040118427501,-0.39708110631427007,-1.4272013788110023,1.5272962642635066,1.1548599415714098,1.3563332913613306,-0.0003797698157012885,0.0008579502483460585,2.714643184487087e-05,-0.000569707619428308,-0.0003076909212331366,-0.0006640707152681043,-0.0004449335784182222,-0.2825433909893036,-51.23776626586914,-7.459916114807129,18.06952667236328,1.9252420663833618,-0.7102158069610596,0.10624848306179047,,,,,,,,,
1739303550.9529972,-0.10611731531278074,1.0635039350489386,-0.39708113255949223,-1.4272055123343261,1.527297012425166,1.1548606992314883,1.3563308697024776,0.0007113520087390332,0.0008898223452212832,-1.8791245416489597e-06,-0.0008062153910161621,0.00020367231320245313,-0.0003382391863687381,-0.0009993846688115524,-0.2825433909893036,-51.23776626586914,-7.459916114807129,18.09729766845703,1.9179178476333618,-0.7166244983673096,0.09983979165554047,,,,,,,,,
1739303550.9639628,-0.10611517921688562,1.063499795503942,-0.3970764103682551,-1.427203534587373,1.5272961421652886,1.1548600985548363,1.3563358130764347,0.00048246358147575484,-0.0007271601804676071,0.0008411323120413955,0.00022318311600468942,0.0004450415255501357,0.0006226220270589623,0.000586537366589926,-0.2825433909893036,-51.19015884399414,-7.483719825744629,18.06952667236328,1.9252420663833618,-0.7102158069610596,0.07328949868679047,,,,,,,,,
1739303550.9740796,-0.10611345445890288,1.0635020612676327,-0.3970793498331367,-1.427202058305748,1.527294631205709,1.1548630804515356,1.3563317414489424,0.00024490123088254144,7.403603807050452e-05,0.00029563136847432156,-0.00015272658024042995,-0.0013861172644258413,0.0003219752720834059,-0.0029688551320254464,-0.3063471019268036,-51.21396255493164,-7.483719825744629,18.06952667236328,1.9380594491958618,-0.7367660999298096,0.10624848306179047,,,,,,,,,
1739303550.9849014,-0.10611525423644502,1.0635016560662203,-0.3970821716097343,-1.4271996941192895,1.527296044056622,1.1548615651287206,1.356342222041709,-0.00015139917140994058,8.373672262339976e-05,-0.00020988134922846134,0.00021917331013706156,0.00043370775364092644,0.0001139164687734291,0.002064949550276975,-0.2825433909893036,-51.21396255493164,-7.436112403869629,18.04572296142578,1.9380594491958618,-0.7239487171173096,0.026597600430250168,,,,,,,,,
1739303550.9949641,-0.1061117502754014,1.0634992354873885,-0.39707627783124627,-1.4272021315459822,1.5272962584732352,1.1548575203171,1.356332056739357,0.001723777545230115,-0.00023929319245410334,0.0011403460884252417,-0.0007706919073136372,0.00033564104167494515,-0.001294451239827047,-0.0009450647423834606,-0.3301508128643036,-51.19015884399414,-7.483719825744629,18.06952667236328,1.9252420663833618,-0.7166244983673096,0.07969819009304047,,,,,,,,,
1739303551.0059397,-0.10611346290305528,1.063498588868359,-0.3970808425081773,-1.4271995835772069,1.5272961465265715,1.1548623227170185,1.356332498424667,0.0003663268831563071,2.071784940041823e-05,0.0008227840124771197,0.00038572327516467884,0.0008990630668429828,0.0013210998500246256,-0.0006669013220797163,-0.3063471019268036,-51.16238784790039,-7.459916114807129,18.04572296142578,1.9252420663833618,-0.7303574085235596,0.07328949868679047,,,,,,,,,
1739303551.0160537,-0.10611801744459627,1.0634985889109796,-0.3970811199182222,-1.4271978264056744,1.5272961445878726,1.1548606599856304,1.356338439348321,-0.0012614261292350644,-0.0009160681474540339,-0.00019540649549476308,0.0005813917559377744,0.00032665744824036735,-4.2282033834179706e-05,0.0007490645963309031,-0.2825433909893036,-51.16238784790039,-7.459916114807129,18.02191925048828,1.9252420663833618,-0.7166244983673096,0.05955658480525017,,,,,,,,,
1739303551.0280035,-0.10611614869013752,1.0635060009809514,-0.3970793534830749,-1.4272034546481527,1.5272968017166892,1.1548606862031496,1.3563300783070205,-0.0004169515128623364,0.002237167412144365,0.0006879211129590011,-0.0007627730423867116,0.0015506810612280946,-0.00027576188745744354,-0.0011112408368950332,-0.2825433909893036,-51.26553726196289,-7.483719825744629,18.09729766845703,1.9316507577896118,-0.7166244983673096,0.09343110024929047,,,,,,,,,
1739303551.0399961,-0.10611517531735881,1.0635022984277402,-0.3970772691210071,-1.4271995864189901,1.5272953903220698,1.1548606992314636,1.3563356379296876,-7.007454633839272e-05,0.0006325608322069696,0.0005809390594187786,0.0008142407823449623,-0.0004308773547366288,-0.0001526280107415481,-0.0007246606774524682,-0.2825433909893036,-51.21396255493164,-7.511490821838379,18.04572296142578,1.9316507577896118,-0.7166244983673096,0.07328949868679047,,,,,,,,,
1739303551.050023,-0.10611178535004925,1.0634982909692146,-0.3970751471102448,-1.4271996601023231,1.5272928259831307,1.1548606992314883,1.3563333744678125,0.0004007920281705195,-0.0008624529144265584,0.0006594052584297082,0.0003866745365861535,-0.0003605164058999166,0.00019520368348627216,-0.001407578302118847,-0.3301508128643036,-51.19015884399414,-7.511490821838379,18.04572296142578,1.9179178476333618,-0.7166244983673096,0.09343110024929047,,,,,,,,,
1739303551.06092,-0.1061123344857686,1.06350206973635,-0.3970793378461697,-1.4272062010993296,1.5272953887883933,1.1548606987469714,1.3563308672139407,0.0004939083157860128,-0.0002573235978404129,-0.0005945096902112884,-0.001862925273786064,-0.0008552047616695103,-0.0001613430581205221,-0.0011955515968064506,-0.2825433909893036,-51.21396255493164,-7.483719825744629,18.09729766845703,1.9316507577896118,-0.7166244983673096,0.08610688149929047,,,,,,,,,
1739303551.071909,-0.10611541203031206,1.0635039353599864,-0.3970854756473408,-1.4271998246504758,1.5272946312057816,1.1548605818169213,1.3563348402318327,2.5704639112129223e-06,-8.456027986297472e-05,-0.0010678833297860849,0.0008156126372948121,-0.0009636590284090457,-0.00031356438608790135,-0.0006843724100517202,-0.2825433909893036,-51.23776626586914,-7.436112403869629,18.04572296142578,1.9380594491958618,-0.7166244983673096,0.05314789339900017,,,,,,,,,
1739303551.081977,-0.10611175027807365,1.0635022224219335,-0.3970839553625458,-1.4271999268570856,1.5272953888658611,1.154859183909343,1.3563357156307765,0.0013544236051774485,-0.000119074157626293,-0.0002564084426290475,-0.0005749027642374563,-0.0006906309839352017,-0.00047335549924719915,0.00036850234701008163,-0.3301508128643036,-51.21396255493164,-7.459916114807129,18.04572296142578,1.9316507577896118,-0.7038071155548096,0.04673920199275017,,,,,,,,,
1739303551.0939627,-0.1061148597399271,1.0635022965379968,-0.3970807630976037,-1.42720136635553,1.5272914522196144,1.1548623227708537,1.3563300779775818,0.0005473053642740715,-0.00017439204341921264,-4.603075751713362e-05,-0.000610021991499166,-0.0019454435558236337,0.0001198307424993003,-0.0012715919765402706,-0.2825433909893036,-51.21396255493164,-7.436112403869629,18.06952667236328,1.9380594491958618,-0.7303574085235596,0.09343110024929047,,,,,,,,,
1739303551.1039877,-0.10611175027228344,1.0635040118932797,-0.39708184074875935,-1.4271996856121145,1.5272950868698647,1.1548607006850384,1.3563325164948232,0.0006564918546942899,0.0013982995194043372,-0.0002326798298936334,0.0007778700446249786,-0.0004514543369809409,-8.742304030983867e-05,-0.0003817656678757799,-0.3301508128643036,-51.23776626586914,-7.459916114807129,18.04572296142578,1.9252420663833618,-0.7166244983673096,0.09983979165554047,,,,,,,,,
1739303551.1140463,-0.10611517531552722,1.0635012568341595,-0.39708113257192995,-1.427199685613842,1.5272961465079942,1.1548614081453186,1.3563278179537572,-0.0002934151128453644,6.66666210440177e-05,0.0001403948993779286,0.0001070964901244896,-0.001097393700341678,-0.00022171374508167207,-0.001392279778388837,-0.2825433909893036,-51.23776626586914,-7.459916114807129,18.04572296142578,1.9252420663833618,-0.7239487171173096,0.11265717446804047,,,,,,,,,
1739303551.1259913,-0.1061134621452408,1.0635039750302446,-0.39708113255993677,-1.4272016298518186,1.527295388865861,1.154860699230602,1.3563335586904228,0.00046612770051447113,0.0016656140875282032,-0.0005306360512078421,-0.0017746365000813544,0.0004908511509542864,-0.00015913170362728664,0.0010870615353037135,-0.3063471019268036,-51.23776626586914,-7.459916114807129,18.06952667236328,1.9316507577896118,-0.7166244983673096,0.09983979165554047,,,,,,,,,
1739303551.1368902,-0.10611741012753037,1.0635040106333442,-0.397077034206083,-1.4271996204218733,1.5272953888658611,1.154859902325553,1.356331701917499,-0.0012323846710171789,0.00023730150602254224,0.0013056529696812659,0.0002084133665921563,0.000705572137102101,-0.0007509312532939338,0.001837371084473653,-0.2547723948955536,-51.23776626586914,-7.511490821838379,18.04572296142578,1.9316507577896118,-0.7102158069610596,0.07969819009304047,,,,,,,,,
1739303551.1469657,-0.10611719956470574,1.0635032526269592,-0.39708112877836504,-1.427201649867447,1.52729538305166,1.154859183372758,1.3563324590153019,-0.0006083568391867928,0.0013819591625018712,-7.095939451027544e-05,0.000579893594717419,0.00023601961915732704,5.899795605254543e-05,-9.932408946342338e-05,-0.2547723948955536,-51.21396255493164,-7.459916114807129,18.04572296142578,1.9316507577896118,-0.7038071155548096,0.07328949868679047,,,,,,,,,
1739303551.157975,-0.10611346279494457,1.06350130449548,-0.3970829139408521,-1.4271996090943577,1.527296142165256,1.1548591839113285,1.3563348402331281,-0.0007007677945928015,-0.0005015373188636031,-0.0012417824973333556,0.0005051107364833407,-9.963611174867504e-05,-0.0002777090915898012,0.0015011770493960537,-0.3063471019268036,-51.21396255493164,-7.436112403869629,18.04572296142578,1.9252420663833618,-0.7038071155548096,0.05314789339900017,,,,,,,,,
1739303551.16891,-0.10611730618157797,1.0635030061194168,-0.39708498627824845,-1.4272024496295708,1.5272970124231473,1.1548599415714098,1.3563337805949987,-0.0005200765849534405,0.0009724086284726352,-0.000688983801573244,-0.00090997340633311,0.0016271981312138575,-0.0005388529487754717,-0.0007513407797940265,-0.2825433909893036,-51.21396255493164,-7.408341407775879,18.04572296142578,1.9179178476333618,-0.7102158069610596,0.05314789339900017,,,,,,,,,
1739303551.1789353,-0.10611345990788378,1.0635023033091189,-0.39708089537672714,-1.427203446088298,1.5272961458799172,1.1548599415714098,1.3563324415547506,0.0011432864722655295,-0.0001463010218362399,0.00023092357981200623,-0.0013857114896619757,0.0001617753036047579,-0.0002907288633712137,-0.001784477036231925,-0.3063471019268036,-51.21396255493164,-7.459916114807129,18.09729766845703,1.9252420663833618,-0.7102158069610596,0.07328949868679047,,,,,,,,,
1739303551.1900249,-0.10611346279477978,1.063502299372587,-0.39707934696539354,-1.4271978008958677,1.5272953365380486,1.1548606992314883,1.3563359511058177,0.0002271969143123649,-0.0003569235633634575,0.0007855742805040857,0.0013269717069304516,0.00010385358465255407,0.00039405506654734677,0.0007235232755460742,-0.3063471019268036,-51.21396255493164,-7.483719825744629,18.02191925048828,1.9316507577896118,-0.7166244983673096,0.04673920199275017,,,,,,,,,
1739303551.2009563,-0.10611286747739461,1.0635023788454243,-0.39708081761188774,-1.4271998481190313,1.5272945788770877,1.1548615651287206,1.3563325323617192,-0.00021797950427046987,0.0017028714071926226,-0.0004194071305481204,8.29152327593887e-05,-0.00106848859398734,0.0002108067829141903,0.0011597352915667983,-0.3063471019268036,-51.21396255493164,-7.459916114807129,18.04572296142578,1.9380594491958618,-0.7239487171173096,0.04673920199275017,,,,,,,,,
1739303551.211895,-0.10611559365972659,1.063504445139926,-0.397081044749768,-1.4272043732115092,1.5272961274681822,1.1548583862143325,1.35633386651274,0.0001409793618302009,0.00035625395915064905,-2.9651137300934935e-05,0.00028848795053833416,0.0010695600055204964,-0.0007702940309419068,0.0002127340812873943,-0.3063471019268036,-51.21396255493164,-7.459916114807129,18.09729766845703,1.9252420663833618,-0.7239487171173096,0.07328949868679047,,,,,,,,,
1739303551.2219596,-0.10611353752973805,1.0635019456352823,-0.39708018350218344,-1.4272033535070143,1.5272953883810216,1.1548599415175747,1.3563333438325202,0.0005731945668845117,-0.0008565455224233454,-0.0010466262956241833,0.0005811452314852502,0.001150781791175763,-0.0005880495439078677,-0.000293207045437836,-0.3063471019268036,-51.23776626586914,-7.459916114807129,18.06952667236328,1.9316507577896118,-0.7102158069610596,0.06596527993679047,,,,,,,,,
1739303551.2329288,-0.10611344038640502,1.063500582932632,-0.397078404698826,-1.4271995922147886,1.5272952711282828,1.154859941571409,1.3563316613190604,0.0007298027492237484,-0.0006453834747243757,0.0006607126228945688,0.0013831646410319433,-0.0010577357644157243,3.9269571284673924e-05,0.001520742506862099,-0.3063471019268036,-51.19015884399414,-7.483719825744629,18.04572296142578,1.9316507577896118,-0.7102158069610596,0.05314789339900017,,,,,,,,,
1739303551.2429607,-0.10611303568035393,1.063502299446566,-0.39707934987758203,-1.4272020550147384,1.5272970080080213,1.1548581242732021,1.3563292912268508,0.0014138352830357997,-9.531416092249976e-05,0.0008535527503540554,-0.0004364067299988103,5.536323019363467e-05,-0.0009474439407006758,-0.0007917777997590471,-0.2825433909893036,-51.21396255493164,-7.483719825744629,18.06952667236328,1.9179178476333618,-0.7038071155548096,0.07328949868679047,,,,,,,,,
1739303551.2530072,-0.10611346275856115,1.063503323128513,-0.3970804226308553,-1.4271978276770823,1.5272961465258648,1.154860699213543,1.356334080581336,0.00018890920059832036,-0.001159278244900491,-0.0003838163615482458,0.0014430666873915445,0.0009664411475737396,-0.00014067664385549386,0.0007441807474176459,-0.3063471019268036,-51.23776626586914,-7.459916114807129,18.02191925048828,1.9252420663833618,-0.7166244983673096,0.05955658480525017,,,,,,,,,
1739303551.2640088,-0.10611133528478069,1.063504184897927,-0.39707454256803676,-1.4272041226739152,1.5272959527850425,1.154860699231488,1.3563278048176632,0.0010382364532117798,0.0010492957775318577,0.0015496613577311697,-0.0010649866307370864,0.0005869663122916419,0.00016408327407759995,-0.0025173052250205496,-0.3063471019268036,-51.26553726196289,-7.535294532775879,18.06952667236328,1.9179178476333618,-0.7166244983673096,0.11265717446804047,,,,,,,,,
1739303551.2749245,-0.10611888673943455,1.0634985889006785,-0.3970764333683823,-1.4272020904430405,1.5272919079674403,1.1548605052752503,1.3563355455653976,-0.001413583348678686,-0.0014653338796924032,0.0006827890484335437,-0.0008017615346963513,-0.0005756706634999916,0.0003048544622059206,0.0015643446012874988,-0.2309686839580536,-51.16238784790039,-7.483719825744629,18.06952667236328,1.9252420663833618,-0.7239487171173096,0.04673920199275017,,,,,,,,,
1739303551.2859046,-0.10611717358116338,1.063500862590315,-0.39707639821902085,-1.4272036769968328,1.5272961464481776,1.1548615651227376,1.3563300603550112,-0.000666112950961468,-0.0007853217173584303,0.0008042084678444139,-0.0005199414421001427,0.00023753557577404092,0.0002319753047438423,-0.0006277766481847341,-0.2547723948955536,-51.19015884399414,-7.483719825744629,18.09729766845703,1.9252420663833618,-0.7239487171173096,0.09343110024929047,,,,,,,,,
1739303551.2960718,-0.10611070153536502,1.0635022993772343,-0.3970811207372024,-1.4272023386359343,1.5272953888658598,1.154859923967301,1.3563317013549248,0.0008201990424354592,-7.028997488290193e-05,-0.00037087975769211593,-0.0012597290605301803,8.429330987618298e-05,-0.0006184089335560291,-0.0012129887038991075,-0.3063471019268036,-51.21396255493164,-7.459916114807129,18.04572296142578,1.9316507577896118,-0.7102158069610596,0.07969819009304047,,,,,,,,,
1739303551.3069234,-0.10611522791391642,1.0634985889109805,-0.39708113277588364,-1.4272043766908586,1.527295388327509,1.1548623227886994,1.3563356371928983,-0.000606225169456921,-0.001370618661949623,-0.0009573358991281295,0.00023046518938301633,-0.0006065049257292763,-0.0001663269218753798,0.0018435998577977031,-0.2825433909893036,-51.16238784790039,-7.459916114807129,18.09729766845703,1.9316507577896118,-0.7303574085235596,0.04673920199275017,,,,,,,,,
1739303551.3179622,-0.1061117866494567,1.0635060097991562,-0.3970850294712132,-1.4272013919049373,1.5272964978663817,1.1548606992314883,1.356335637139285,-0.00027149712931675847,0.0018948732968696535,-0.0006684484194322372,-0.0010748954996564646,4.793635233192042e-05,0.00021775969739995643,0.00018327738425386118,-0.3301508128643036,-51.26553726196289,-7.436112403869629,18.06952667236328,1.9179178476333618,-0.7166244983673096,0.04673920199275017,,,,,,,,,
1739303551.3289566,-0.10611275192893536,1.0635005897952725,-0.3970811296556864,-1.4271978013159268,1.527295988086058,1.1548591839113316,1.356328259853901,0.0014455557911921407,-8.185596632830235e-05,3.3118053713651206e-06,0.0006198216893533832,0.00023559865438128806,-0.0005728656169009701,-0.0020639852168492837,-0.3063471019268036,-51.19015884399414,-7.459916114807129,18.02191925048828,1.9252420663833618,-0.7038071155548096,0.09983979165554047,,,,,,,,,
1739303551.3389897,-0.10611646252262132,1.0635008740010332,-0.3970765614600139,-1.427203446984576,1.5272953757812255,1.1548606998775106,1.3563349971985985,-0.0009556468453511785,-0.0011912975698485345,0.0010660059687167716,-0.0006718090931541862,0.0001488088505333379,-0.000196817219940258,0.0012537841364939231,-0.2547723948955536,-51.16238784790039,-7.511490821838379,18.09729766845703,1.9316507577896118,-0.7166244983673096,0.05314789339900017,,,,,,,,,
1739303551.3500087,-0.10611730617756585,1.0635020250847027,-0.3970818402168737,-1.4272020890277708,1.5272953845051365,1.1548606992314918,1.3563256190393909,-0.0007355248889923808,-0.00024436021613282317,-0.00023840316363623394,-0.00018541315106327966,-0.00044191848899481455,6.723631193342771e-05,-0.0010479266099985766,-0.2825433909893036,-51.23776626586914,-7.459916114807129,18.06952667236328,1.9316507577896118,-0.7166244983673096,0.10624848306179047,,,,,,,,,
1739303551.360893,-0.10611492820786364,1.063502299326356,-0.39707934988691235,-1.4272062133854773,1.5272970124231473,1.15485982383384,1.356330021038999,-0.0003448118713312006,-5.196437142214684e-05,-0.0004198160953639496,-0.0010163609025267213,-3.998628915973188e-05,-0.0002949806878386854,-0.0006271354954286488,-0.2825433909893036,-51.21396255493164,-7.483719825744629,18.09729766845703,1.9179178476333618,-0.7102158069610596,0.09343110024929047,,,,,,,,,
1739303551.3709521,-0.10611517520308325,1.0635037814692423,-0.397079348910856,-1.4271996615138947,1.5272961450723892,1.1548606992294943,1.3563309044483243,-4.48512701831104e-05,-0.0004556627970108448,3.748024984650671e-05,-0.00025899926303570334,0.0009297672055955601,0.00022057443227198857,-0.00016615747335079232,-0.2825433909893036,-51.23776626586914,-7.483719825744629,18.04572296142578,1.9252420663833618,-0.7166244983673096,0.08610688149929047,,,,,,,,,
1739303551.3809745,-0.10611346279479415,1.0635022993686623,-0.3970792708218807,-1.4272043632861013,1.5272942605504454,1.1548623218197651,1.356332043854044,-5.757115561867503e-05,-1.9922569682932328e-06,-0.0003839297931771408,-0.00083183911847324,-0.0005300366915580958,0.0004513812777761559,0.0005668751897421613,-0.3063471019268036,-51.21396255493164,-7.483719825744629,18.06952667236328,1.9380594491958618,-0.7303574085235596,0.11265717446804047,,,,,,,,,
1739303551.3919578,-0.10611099379042628,1.0635040207236135,-0.3970828274269334,-1.4272014429362159,1.5272968612518538,1.1548605814939128,1.3563348407415743,0.0003792219655906581,0.0008116142206046454,-0.0008386101495457623,0.00038014936111299897,0.001303005288463341,-0.0003218847971365757,0.0005211112924980679,-0.3539545238018036,-51.23776626586914,-7.436112403869629,18.06952667236328,1.9179178476333618,-0.7166244983673096,0.05314789339900017,,,,,,,,,
1739303551.4039354,-0.10611686764602443,1.063501966521721,-0.39707934696623676,-1.4272034608889204,1.527294915976661,1.1548606992846586,1.3563313993771722,-0.00027774573576436505,-0.00074155441083747,0.00029259371656098845,0.0005876452461184261,-0.0005281761982488183,-0.0005296048335657879,0.0004974816161940168,-0.2547723948955536,-51.21396255493164,-7.483719825744629,18.06952667236328,1.9316507577896118,-0.7166244983673096,0.07328949868679047,,,,,,,,,
1739303551.4139755,-0.10611493855090753,1.0635053240109251,-0.39707722301184245,-1.4272034443486814,1.5272953888631917,1.1548606992314885,1.356333454935448,0.0005428934357588553,0.001654794736866953,0.0001760390981521371,0.00024312485098372833,0.0003478383791140809,-0.0007126646448290879,0.0018316835254551015,-0.2825433909893036,-51.26553726196289,-7.483719825744629,18.06952667236328,1.9316507577896118,-0.7166244983673096,0.03941498324275017,,,,,,,,,
1739303551.4249299,-0.10611346279345953,1.063500230239918,-0.39707903459889127,-1.4272003065024488,1.5272950820426425,1.1548599415714098,1.3563348387625929,0.00030244284256063063,-0.0009659122322088337,-0.0003743370801735585,0.00040512620736694654,-0.00021465173250978859,-2.7669541263386672e-06,0.0007167603643372887,-0.3063471019268036,-51.21396255493164,-7.483719825744629,18.04572296142578,1.9252420663833618,-0.7102158069610596,0.05314789339900017,,,,,,,,,
1739303551.4349325,-0.10611370053202347,1.0635005842044398,-0.39707935279376344,-1.4272005909251302,1.527296842339766,1.1548630281210683,1.356336601327368,-0.0005405712350844919,-0.0011378518692328934,-7.708223910287974e-05,0.0001205404525067656,-0.0007257542841679974,0.0004343077109565844,0.0014829423832174475,-0.3063471019268036,-51.19015884399414,-7.483719825744629,18.02191925048828,1.9179178476333618,-0.7367660999298096,0.04673920199275017,,,,,,,,,
1739303551.445014,-0.10611346279882217,1.0635015337633793,-0.3970772700931114,-1.4272002734347065,1.5272953888629808,1.154860699230602,1.3563357156477696,6.730943446198374e-05,-3.84025383057802e-05,0.00024551172070300163,0.0006087686429041428,0.0013467463778647094,0.0003122481832416072,0.0013766251064043031,-0.3063471019268036,-51.21396255493164,-7.511490821838379,18.04572296142578,1.9316507577896118,-0.7166244983673096,0.04673920199275017,,,,,,,,,
1739303551.4559855,-0.10611493855263274,1.0635042513977158,-0.39707927114591773,-1.4271998900093985,1.527291907973422,1.1548606992314883,1.3563364639526092,-0.00014145271923381907,0.0004164826512745311,-0.0006413673177315078,-0.00028683946127145115,-0.0006800634823585139,0.00025993026830727604,0.0011017522968002518,-0.2825433909893036,-51.23776626586914,-7.483719825744629,18.04572296142578,1.9252420663833618,-0.7166244983673096,0.03941498324275017,,,,,,,,,
1739303551.466025,-0.10611517531151765,1.0635063279517138,-0.3970811325586033,-1.4272062785783153,1.5272961464541592,1.1548615651287206,1.356331006127982,0.0005250601078612735,0.001488729042255528,-0.0011862901597113073,-0.0012349605156328463,0.0013608496882900245,0.0006390901865373864,-0.000338954755361663,-0.2825433909893036,-51.26553726196289,-7.459916114807129,18.09729766845703,1.9252420663833618,-0.7239487171173096,0.04673920199275017,,,,,,,,,
1739303551.4768927,-0.106117146949392,1.0635022997014092,-0.39708194411128817,-1.4272034410635164,1.5272961404963974,1.154859286380649,1.3563333646169837,-0.0011058813829158728,-0.00012832769723268662,-0.00033821240474922096,0.000297558732667436,0.0008574938443749809,-0.0014596434952850001,6.894886449129907e-05,-0.2547723948955536,-51.21396255493164,-7.436112403869629,18.06952667236328,1.9252420663833618,-0.7166244983673096,0.06596527993679047,,,,,,,,,
1739303551.4869585,-0.10611248911100654,1.063500586851839,-0.39707722007922763,-1.4271960479629375,1.5272914459925748,1.154862322764872,1.3563299753292644,-0.00022953745372670007,-0.0005145001879215802,4.883722716651846e-05,0.0035083889113126446,0.00014657612746461895,0.0009566057488057454,-0.0008919861609865878,-0.3063471019268036,-51.19015884399414,-7.483719825744629,17.99811553955078,1.9380594491958618,-0.7303574085235596,0.10624848306179047,,,,,,,,,
1739303551.4978852,-0.1061171601515193,1.063502001980222,-0.3970818916079321,-1.4271996090828614,1.5272946158657146,1.1548655017031866,1.3563355979550173,-0.001048095661876063,-0.000787690737850232,-0.00020854496220064486,0.0009077981761494686,-0.0001889331219325238,0.0006079151640317067,0.0022896378014480323,-0.2547723948955536,-51.21396255493164,-7.436112403869629,18.04572296142578,1.9252420663833618,-0.7303574085235596,0.04673920199275017,,,,,,,,,
1739303551.5078895,-0.10611730618135604,1.0635023006757234,-0.3970772239665854,-1.4272016647974453,1.5272972860250962,1.1548599417867504,1.3563355978932075,-0.0008406053415980118,0.00012735153127161792,0.0007809923432929757,0.00023972018765514632,0.0008111190747465678,-0.00040849006254691135,0.0014338455074270123,-0.2825433909893036,-51.21396255493164,-7.483719825744629,18.06952667236328,1.9115091562271118,-0.7102158069610596,0.04673920199275017,,,,,,,,,
1739303551.5179262,-0.10611788358115029,1.0634985932716532,-0.39707933818217434,-1.427201369194363,1.5272941539485878,1.1548606992314918,1.356334838295061,-0.0007897683495383651,-0.00011696449018389087,0.001183855948982526,0.00032682986001753033,-0.0013738057696198376,-6.247072385648856e-05,0.0008352709761624599,-0.2547723948955536,-51.16238784790039,-7.483719825744629,18.06952667236328,1.9380594491958618,-0.7166244983673096,0.05314789339900017,,,,,,,,,
1739303551.528037,-0.10611177659308256,1.063505347560392,-0.39708288909909784,-1.42720265488423,1.5272914521218066,1.1548599415714098,1.3563355980546792,0.001234503009773182,0.0014471926517718738,-0.00033849278460122245,0.0002100215525709533,-0.0016452572617526287,-0.00010313716935533423,0.0010680376356679623,-0.3301508128643036,-51.26553726196289,-7.436112403869629,18.04572296142578,1.9380594491958618,-0.7102158069610596,0.04673920199275017,,,,,,,,,
1739303551.538983,-0.10611517531567582,1.0635046025760384,-0.3970793469665849,-1.4272041213263795,1.527297768611754,1.1548588306986218,1.3563361618123888,0.00028053232733887915,0.0006407203243335972,0.000732019489925798,0.00025344624247377966,0.0012644388974394742,-0.0005875384279636373,0.0009018406546038638,-0.2825433909893036,-51.23776626586914,-7.483719825744629,18.06952667236328,1.9115091562271118,-0.7038071155548096,0.03300629183650017,,,,,,,,,
1739303551.5499701,-0.10611521039151162,1.063504057356414,-0.39707934973889203,-1.4271996205759094,1.527295034559993,1.1548599415694158,1.3563352711405054,0.0002478313250758293,0.00018697362366641457,0.0008221357232311791,0.00015968711873843281,-0.0001394369777503642,-0.000576878410876199,0.0006660315868352649,-0.2825433909893036,-51.23776626586914,-7.483719825744629,18.04572296142578,1.9252420663833618,-0.7102158069610596,0.026597600430250168,,,,,,,,,
1739303551.5608854,-0.1061155936614408,1.063502222528978,-0.39708042263085297,-1.4272073187718513,1.5272970109507904,1.1548599415714098,1.3563364650366239,-0.00040056548266414354,-0.0008131433657427149,-0.0004549354795264875,-0.0016500951215884727,0.0014370470826619226,0.0002099115229701821,0.0006782765849776424,-0.3063471019268036,-51.21396255493164,-7.459916114807129,18.14490509033203,1.9179178476333618,-0.7102158069610596,0.03941498324275017,,,,,,,,,
1739303551.5709028,-0.10611175032218008,1.063503447874349,-0.39708266627713923,-1.4272044907669108,1.5272927724170957,1.1548599415714098,1.3563364245445892,0.0007458990070981815,-0.00014498741534336567,-0.0006657096996636456,-0.0004647216970963022,-0.0007533975693512597,-0.00018682331818397705,0.0011410994326191853,-0.3301508128643036,-51.19015884399414,-7.436112403869629,18.06952667236328,1.9179178476333618,-0.7102158069610596,0.03941498324275017,,,,,,,,,
1739303551.580918,-0.10611175027406568,1.0635022739112094,-0.3970811063100539,-1.4271995849905228,1.5272961290115317,1.1548599415714098,1.3563305904817675,-1.2875199312812106e-05,-0.0001062728769509396,-0.0005620804514817663,0.0010880440308547634,0.0018893050626205379,-0.0003455815501717479,1.7556897571547854e-05,-0.3301508128643036,-51.21396255493164,-7.459916114807129,18.04572296142578,1.9252420663833618,-0.7102158069610596,0.08610688149929047,,,,,,,,,
1739303551.5919662,-0.1061171771176255,1.063501523846517,-0.397081128347521,-1.4272034461447478,1.527294585300727,1.1548583085136832,1.3563327089660733,-0.0008069221580794778,0.0010278704843563746,-0.0002018449786094044,0.0005071502763645183,-0.0007322615272648594,-0.0007851059850080798,-0.0007433128820034569,-0.2547723948955536,-51.19015884399414,-7.459916114807129,18.09729766845703,1.9115091562271118,-0.6973984241485596,0.05955658480525017,,,,,,,,,
1739303551.6029587,-0.10611517531554904,1.06350273276969,-0.39708496867311405,-1.4272016246710226,1.5272958447243081,1.1548594706204653,1.3563348402253739,-0.000987409500536859,-9.471356347900894e-05,-0.00246202120310645,0.0006677468076668798,0.0012451846844419043,-8.873456719235806e-05,0.00014034346927656966,-0.2825433909893036,-51.19015884399414,-7.408341407775879,18.04572296142578,1.9316507577896118,-0.7102158069610596,0.05314789339900017,,,,,,,,,
1739303551.613983,-0.10611517531552725,1.0634985889473216,-0.397080817503484,-1.4271995864418758,1.5272977700909702,1.1548638650559484,1.3563355978932063,-9.716894154020541e-05,-0.0011712196633757452,0.00022532574752089999,0.0008625538271034494,0.0011906505659677459,0.0013964884560497656,0.00033345180369556373,-0.2825433909893036,-51.16238784790039,-7.459916114807129,18.04572296142578,1.9115091562271118,-0.7166244983673096,0.04673920199275017,,,,,,,,,
1739303551.6239836,-0.10611693649348579,1.063504011893296,-0.39707934988113913,-1.4272002808409558,1.5272953888658611,1.1548615651465917,1.356336503826919,-0.0005302577425767708,0.00143312298990294,0.0006636102658177337,0.0015059799398663763,0.0008156502659626318,5.875293403054363e-05,-0.00042477855859891886,-0.2547723948955536,-51.23776626586914,-7.483719825744629,18.04572296142578,1.9316507577896118,-0.7239487171173096,0.06596527993679047,,,,,,,,,
1739303551.634952,-0.10611174962317306,1.0635040125595063,-0.3970793497389085,-1.4272055352933055,1.527294322929014,1.1548591839113316,1.3563313481604555,0.0005122392449545404,0.00014248594667486288,-0.00033969123394283866,-0.0012931425073914986,-3.4855015847394595e-06,-0.0002922543742591635,-0.0006567468367578243,-0.3301508128643036,-51.23776626586914,-7.483719825744629,18.12110137939453,1.9316507577896118,-0.7038071155548096,0.07969819009304047,,,,,,,,,
1739303551.645968,-0.10611335756683928,1.0635023156159922,-0.3970829142648932,-1.4272016981940607,1.5272919470517556,1.1548607166740912,1.3563324590133048,0.0008137043183478564,0.0002552992944302534,-0.0007656292584095569,-0.0010737817491585755,-4.285364070195921e-05,0.0009064970784457473,0.00019615567995474664,-0.3063471019268036,-51.21396255493164,-7.436112403869629,18.06952667236328,1.9252420663833618,-0.7166244983673096,0.07328949868679047,,,,,,,,,
1739303551.6568937,-0.10611227897972943,1.0635005834737667,-0.39707722401991746,-1.4272025723513175,1.5272945129061548,1.1548606992315866,1.3563318380427785,0.0002929815324977812,-0.0012735592299442716,0.0006769266049682682,-0.0005852414228022164,4.9631586669818804e-05,0.0006411485879216842,-0.0005944364502706216,-0.3063471019268036,-51.19015884399414,-7.483719825744629,18.04572296142578,1.9380594491958618,-0.7166244983673096,0.07969819009304047,,,,,,,,,
1739303551.6669998,-0.1061171732363323,1.0635022993725074,-0.39708291520095407,-1.4271979115939575,1.527295388702352,1.1548599415714098,1.3563341226118448,-0.0009541108404925768,-0.00036420369167844175,-0.0007816507352470967,0.001916883121850865,0.0004003971747897581,-0.00041773243115912303,-0.0005981745249405227,-0.2547723948955536,-51.21396255493164,-7.436112403869629,18.02191925048828,1.9316507577896118,-0.7102158069610596,0.08610688149929047,,,,,,,,,
1739303551.6779475,-0.10611346275870955,1.0635033218687682,-0.39707903493491786,-1.427205828355404,1.5272953495661683,1.1548606992314883,1.3563358868072501,0.0013923571210989341,-0.00018279772333435542,0.001073554231569762,-0.0008055523257171134,0.000305495551218817,0.0002220675634165227,-0.0003521854179390744,-0.3063471019268036,-51.23776626586914,-7.483719825744629,18.09729766845703,1.9316507577896118,-0.7166244983673096,0.05314789339900017,,,,,,,,,
1739303551.6879897,-0.10611346279479546,1.0635043298820652,-0.39708042392160403,-1.4272005843395783,1.527296968815999,1.1548615651287206,1.3563324609710894,0.0008899149295149636,0.0016371771410700255,-0.0005086552879741226,-0.00017128745792991816,0.00038950126918622756,0.0005050475553895397,0.0012402207660258053,-0.3063471019268036,-51.23776626586914,-7.459916114807129,18.02191925048828,1.9179178476333618,-0.7239487171173096,0.07328949868679047,,,,,,,,,
1739303551.6980414,-0.10611517531552725,1.0635022993779497,-0.397079320709065,-1.427202386689316,1.5272964872062778,1.1548630804488773,1.3563293201378643,-0.0008373802047379744,-0.0005217787407220454,0.0005451216937198108,-0.00048507564847132575,-0.00013116445694868215,-0.0005695617214992788,-0.0004032130187788709,-0.2825433909893036,-51.21396255493164,-7.483719825744629,18.06952667236328,1.9179178476333618,-0.7367660999298096,0.09983979165554047,,,,,,,,,
1739303551.7089005,-0.10611346279479607,1.06350058696085,-0.3970804209022516,-1.4272016149107813,1.5272953844963157,1.1548615607680697,1.3563300760213481,0.0003752135329899885,0.0007055999410231597,-0.0007570959548642111,-0.00040805395630689144,4.557676809670569e-05,-5.479674680114352e-05,-0.0011389716064728562,-0.3063471019268036,-51.19015884399414,-7.459916114807129,18.09729766845703,1.9316507577896118,-0.7239487171173096,0.09343110024929047,,,,,,,,,
1739303551.7189355,-0.10611446372773314,1.0634993042757357,-0.3970811061942112,-1.4272013662188952,1.5272945456242135,1.1548599415713359,1.3563364637904087,-0.0011519964319910026,-0.0005890046875430338,-0.0008241993971777317,0.0001064799090410827,-0.00039827376816321304,-0.0003531896308426857,0.0017185056792754063,-0.2825433909893036,-51.16238784790039,-7.459916114807129,18.06952667236328,1.9115091562271118,-0.7102158069610596,0.03941498324275017,,,,,,,,,
1739303551.7298853,-0.10611003775199469,1.0635062483877649,-0.3970784050388693,-1.4272013337630574,1.5272913982886274,1.1548599415714098,1.3563313481425106,0.0007539517106734872,0.0019746600652863705,0.001193258574939523,0.0006006379057864744,-0.0007942260740358795,-0.00019680935477873118,-0.0015208577043067228,-0.3539545238018036,-51.26553726196289,-7.483719825744629,18.06952667236328,1.9380594491958618,-0.7102158069610596,0.07969819009304047,,,,,,,,,
1739303551.7400043,-0.10611717325638029,1.0635022993766046,-0.39708291522095474,-1.4272035257179903,1.527292913613937,1.1548599401178594,1.356333964829498,-0.0009689069164738591,0.00012440515781736168,-0.001183650783047331,0.00021549561578681692,9.134917946937554e-05,0.00022834609071939493,-0.0006248804890655146,-0.2547723948955536,-51.21396255493164,-7.436112403869629,18.09729766845703,1.9252420663833618,-0.7102158069610596,0.05955658480525017,,,,,,,,,
1739303551.7509844,-0.10611175027406487,1.0635023111463215,-0.397079034934918,-1.4272041327521623,1.5272961464538546,1.1548599241287985,1.3563355964389916,0.0008897474874505001,-0.0007873312751078799,-0.0005863319513057232,-0.00013132839999175643,0.0015372003490775866,-0.00023935109967078688,-0.00017584013048232787,-0.3301508128643036,-51.21396255493164,-7.483719825744629,18.06952667236328,1.9252420663833618,-0.7102158069610596,0.04673920199275017,,,,,,,,,
1739303551.7620618,-0.10611166236758551,1.0635005868518999,-0.39708110598847157,-1.4271978777908336,1.5272953883813438,1.1548591438743123,1.3563379728118696,0.001486630674180025,-7.3097764505454e-06,-0.0009545242005700534,0.000669308849755385,0.001935449758878305,-1.8993364511754574e-05,0.003332993412359814,-0.3301508128643036,-51.19015884399414,-7.459916114807129,18.02191925048828,1.9316507577896118,-0.7303574085235596,0.026597600430250168,,,,,,,,,
1739303551.7729838,-0.1061134614951893,1.063504443880033,-0.39708042086659334,-1.427200615408264,1.5272970122078284,1.1548610941604958,1.3563348358724416,0.0004396303841300655,-7.786716394904417e-05,-0.00041932032438429107,-0.00021096736613209258,0.0013062335424057622,0.00022152323980039802,0.0014254052062904375,-0.3063471019268036,-51.21396255493164,-7.459916114807129,18.04572296142578,1.9179178476333618,-0.7239487171173096,0.05314789339900017,724,735,725,39.002,0,0
1739303551.783908,-0.10611517531551991,1.0635023091961346,-0.3970829152329382,-1.4271978131841918,1.5272953757839076,1.1548615651260619,1.3563348408791258,-0.0002268375247311575,0.00045480781030838896,-0.0012674814323012003,0.0017554299038816724,8.187645104581188e-05,-0.00017467859999982413,0.0018249053057490185,-0.2825433909893036,-51.21396255493164,-7.436112403869629,18.02191925048828,1.9316507577896118,-0.7239487171173096,0.05314789339900017,723,734,729,39.002,0,0
1739303551.7948873,-0.1061170594037767,1.0634998990682514,-0.3970829152369557,-1.427199978677593,1.527293213994219,1.1548606934172871,1.3563372170898702,-0.0002341166122959889,0.00044641261742155196,-0.0015927084636377915,0.0004955965325110534,-0.0012942056915457184,6.714722339994721e-06,0.001194127891114623,-0.2547723948955536,-51.19015884399414,-7.436112403869629,18.02191925048828,1.9380594491958618,-0.7166244983673096,0.03300629183650017,724,735,731,38.893,0,0
1739303551.8049624,-0.10611693551336858,1.0635039098191255,-0.397081496998896,-1.4272036738957898,1.5272928007536208,1.1548615651284253,1.356336817002927,-0.0005573986132309511,0.0007171349467681978,-0.0009622167741016395,-0.0002137318208707777,-0.0010808074197385608,0.0007260303804375461,0.001600004274659425,-0.2547723948955536,-51.23776626586914,-7.436112403869629,18.06952667236328,1.9444681406021118,-0.7239487171173096,0.03941498324275017,723,735,731,38.893,0,0
1739303551.8159947,-0.1061105950078485,1.0635033714541864,-0.3970811324492612,-1.4272082515224196,1.5272953883793257,1.1548606595011148,1.3563317013558849,0.0006628147306979857,-7.011329552927717e-05,-0.0007334272511142266,-0.00208415708135388,0.0012869432989772536,-0.00041728025978893235,-0.0012265549482381557,-0.3063471019268036,-51.19015884399414,-7.459916114807129,18.12110137939453,1.9316507577896118,-0.7166244983673096,0.07969819009304047,722,732,729,38.893,1,0
1739303551.8279386,-0.10611072428533319,1.0634968764059682,-0.3970792447922436,-1.4272044448235002,1.527293976015019,1.1548615651284964,1.3563340825730499,0.0020591655017535514,-0.0013461259692587278,-0.00038640547705614343,4.6926410860322466e-05,-0.0015229667488959539,0.00037848520095261237,0.0006252643340168838,-0.3301508128643036,-51.13858413696289,-7.483719825744629,18.09729766845703,1.9316507577896118,-0.7239487171173096,0.05955658480525017,723,734,728,38.893,1,0
1739303551.8380451,-0.10611717325058857,1.0635005528387578,-0.39708113122725885,-1.427198836869646,1.5272970124151963,1.1548599808172664,1.3563333249125311,-0.0007259665513005245,-0.0012510512922697492,0.00048475679394071,0.001200833005528439,0.001054071465037257,0.000872343922136741,-0.001272166932816722,-0.2547723948955536,-51.19015884399414,-7.459916114807129,18.02191925048828,1.9179178476333618,-0.7102158069610596,0.06596527993679047,723,735,728,38.893,0,0
1739303551.848953,-0.10611346275870963,1.0635023053682673,-0.3970811208591862,-1.4272065426352183,1.5272953845052102,1.1548597845882047,1.356335234732953,-0.00041068228866583375,2.6187824181885444e-05,-0.0006196074911152998,-0.0019315821017547269,0.0005131654514446593,-0.0010056461370183199,0.0005971785425590511,-0.3063471019268036,-51.21396255493164,-7.459916114807129,18.09729766845703,1.9316507577896118,-0.7102158069610596,0.03941498324275017,722,736,726,39.002,0,0
1739303551.8599534,-0.10611517628985995,1.063504724314644,-0.39708042392687165,-1.427202321782866,1.5272910990786601,1.1548607001996356,1.356332460461911,-0.00041945008508487505,0.0017670973104398392,0.0006748095707538108,0.00017722951206327,-0.0016395286335313959,0.00015190048079505249,0.000963653085076756,-0.2825433909893036,-51.23776626586914,-7.459916114807129,18.06952667236328,1.9380594491958618,-0.7166244983673096,0.07328949868679047,724,735,726,38.893,1,0
1739303551.8708806,-0.10611493725352769,1.0635068729202666,-0.3970810275732699,-1.4272008743605793,1.5272960878256387,1.154864820046441,1.356332475973393,-0.0008160413103286964,0.0009471805813137189,0.0004431226595704433,0.0005214453667585807,-9.643015385448475e-05,0.0010826778885483742,-0.0005244729154070614,-0.2825433909893036,-51.23776626586914,-7.459916114807129,18.02191925048828,1.9252420663833618,-0.7166244983673096,0.07328949868679047,724,734,725,38.785,1,0
1739303551.880904,-0.10611322505353704,1.0634985521119333,-0.3970828099284907,-1.427202453320735,1.5272953491344936,1.154861565198507,1.3563339646742614,0.00029147658805376474,-0.0009698792186940889,0.00027285251519423674,0.0020496078234214683,-2.066736492871823e-05,0.0008258603511595321,-0.0010282937514310571,-0.3063471019268036,-51.16238784790039,-7.436112403869629,18.04572296142578,1.9316507577896118,-0.7239487171173096,0.05955658480525017,724,734,729,38.893,1,0
1739303551.891966,-0.10611345109877511,1.0635023006801365,-0.397079323311447,-1.4272044544588685,1.5272952711276182,1.154859941571411,1.3563356196944636,0.0006137979156960989,0.00023520735049268026,3.5574382101652316e-05,1.8926436532297724e-05,0.0011734018686333375,-0.00010424090107797473,0.0005734474501840881,-0.3063471019268036,-51.21396255493164,-7.483719825744629,18.06952667236328,1.9316507577896118,-0.7102158069610596,0.04673920199275017,724,734,728,39.002,1,0
1739303551.9019988,-0.10611504228200436,1.0634985889109876,-0.3970801523975453,-1.427206532992807,1.5272961274676162,1.1548606992314883,1.356333442650224,-0.0011432016153229533,-0.001148028399858592,-0.00025479099521883943,-0.0002459588211906143,0.0007186738519920316,0.00018698118855987726,-0.00012501748573684013,-0.2547723948955536,-51.16238784790039,-7.459916114807129,18.09729766845703,1.9252420663833618,-0.7166244983673096,0.06596527993679047,724,736,728,38.785,1,0
1739303551.9130511,-0.1061171732804373,1.0634983092842518,-0.3970765513018853,-1.42720446443162,1.5272953363226038,1.1548606992314883,1.3563292931835274,-0.00172815449058396,-0.0004439160472546063,6.65479263665975e-05,-0.0007548083272445434,-0.0005335291456813053,-0.0001362379890190761,-0.000310942703098819,-0.2547723948955536,-51.16238784790039,-7.511490821838379,18.06952667236328,1.9316507577896118,-0.7166244983673096,0.07328949868679047,725,733,729,38.893,1,0
1739303551.9239483,-0.10611717325638045,1.0635004632258065,-0.39708291519689587,-1.4272023508351792,1.5272961319363052,1.1548599415714098,1.35632932011996,-0.0008113746763872467,-0.001378103378410924,-0.0014194883064718097,0.0011848509147402446,-0.0008177165260532883,5.119730136173256e-05,-0.0008721392619039561,-0.2547723948955536,-51.19015884399414,-7.436112403869629,18.02191925048828,1.9252420663833618,-0.7102158069610596,0.09983979165554047,724,733,728,38.893,1,0
1739303551.9349358,-0.10611346279479607,1.0635013032333744,-0.39708197039295684,-1.4272044647548143,1.5272946268450498,1.154859941356069,1.3563300773133928,0.0006741373557893823,-0.0005316971653061989,0.0002176251037609949,0.00016728201242936978,0.0007393191745689556,-6.469627701354252e-05,0.00013515699208438393,-0.3063471019268036,-51.19015884399414,-7.436112403869629,18.06952667236328,1.9380594491958618,-0.7102158069610596,0.09343110024929047,724,734,729,38.785,0,0
1739303551.945896,-0.10611517531552725,1.0635022993766086,-0.39707794516420014,-1.4272026830144098,1.527296146525915,1.154860699231487,1.3563372214505147,0.00046727924489421046,-0.0003739850925931245,0.0011321891659527529,-0.0001627492258849337,0.0007045182505893342,0.00036162165947854053,0.0009417097391817004,-0.2825433909893036,-51.21396255493164,-7.459916114807129,18.04572296142578,1.9252420663833618,-0.7166244983673096,0.03300629183650017,723,735,728,39.111,0,0
1739303551.956902,-0.10611717325638031,1.0635022993725647,-0.3970798352593819,-1.4272009002324173,1.5272961009813653,1.1548599415714098,1.3563348400716224,-0.000612585906125074,0.0005385390734582258,9.158624549159174e-05,0.0003435329698634289,-0.0011072628657959425,-0.0007447295980996871,0.0003457232720092175,-0.2547723948955536,-51.21396255493164,-7.436112403869629,18.02191925048828,1.9252420663833618,-0.7102158069610596,0.05314789339900017,723,734,727,39.002,1,0
1739303551.9669561,-0.10611346279479607,1.0634994668392002,-0.39708181882064947,-1.4272029214329889,1.5272961285965059,1.1548599415714098,1.3563346059707855,0.0005337271674253179,-0.0007904629919802115,-0.0011112264358420759,-0.0006318800675941968,0.0005347465703752677,-0.00022011326785085646,0.00028229984846547644,-0.3063471019268036,-51.21396255493164,-7.408341407775879,18.04572296142578,1.9252420663833618,-0.7102158069610596,0.019273381680250168,724,734,731,38.893,0,0
1739303551.9779232,-0.10611685464952225,1.0634985889177633,-0.397084678620743,-1.427203396999193,1.5272961465259058,1.1548599415714098,1.356332418970842,-0.0010845526087731548,-0.001599927819183931,-0.0013963025577009712,-0.0008652184549719452,0.0006834040041543742,-0.000384881177381843,0.0008112994346075199,-0.2547723948955536,-51.16238784790039,-7.408341407775879,18.04572296142578,1.9252420663833618,-0.7102158069610596,0.04673920199275017,725,733,732,38.893,0,0
1739303551.987999,-0.1061164629623011,1.063502299481581,-0.3970793498775593,-1.4272006138977311,1.527294578877974,1.1548615651287206,1.3563285624239176,-0.0007996941683104361,0.00032862410942411963,-0.0006554837758290477,0.0008092947359573215,0.0010901973564991937,-0.0004204929382627373,-0.0007355678916181356,-0.2547723948955536,-51.21396255493164,-7.483719825744629,18.04572296142578,1.9380594491958618,-0.7239487171173096,0.10624848306179047,723,734,731,39.111,1,0
1739303551.9980423,-0.10611517530349834,1.0635016106077824,-0.3970789715587106,-1.4272026829793742,1.527293833346392,1.1548596265114066,1.356327764780753,-0.0005817934583188801,-0.0009893293740096984,3.845616389713791e-05,0.00010849763701508764,-0.0002058042714091803,-0.0009039897071861167,-0.0012233431222365338,-0.2825433909893036,-51.21396255493164,-7.459916114807129,18.04572296142578,1.9179178476333618,-0.7166244983673096,0.08610688149929047,724,735,729,39.002,1,0
1739303552.0088983,-0.10611275153177953,1.063503015060479,-0.3970822036755726,-1.4272026820696073,1.5272956348583069,1.154859143868355,1.3563278061994444,0.00047620651933535745,-0.0001372822085559548,-0.002017613420341215,-0.0007831843249936807,0.0010450731687926822,-0.0007451829119450448,-0.0017511377457463627,-0.3063471019268036,-51.21396255493164,-7.436112403869629,18.04572296142578,1.9252420663833618,-0.7303574085235596,0.11265717446804047,724,734,729,38.893,0,0
1739303552.0189538,-0.10611517530348194,1.063504625121926,-0.3970782887273005,-1.427204465691418,1.5272953743216935,1.1548623227349635,1.3563269389204655,-0.0012536673996987311,0.0001556668115302771,0.0011237548317629843,-0.00038181910234834154,-0.0004276260813517619,0.0008409444921726361,-0.002812776079668569,-0.2825433909893036,-51.23776626586914,-7.459916114807129,18.06952667236328,1.9316507577896118,-0.7303574085235596,0.11998139321804047,725,734,730,38.893,1,0
1739303552.029879,-0.106113356159473,1.0635040128848272,-0.39707828923122457,-1.427204457188165,1.5272977686294535,1.1548606817888845,1.3563324590152988,-1.4624621396973618e-05,7.498259337851746e-05,0.0003424065388552686,-0.0004934538962179725,-8.502494601047715e-05,-0.0005037193305811341,0.0004521977821532934,-0.3063471019268036,-51.23776626586914,-7.459916114807129,18.06952667236328,1.9115091562271118,-0.7166244983673096,0.07328949868679047,726,731,728,38.893,1,0
1739303552.0399637,-0.10611514023894092,1.06350229937257,-0.39708078148559345,-1.4272045019938033,1.5272949833253342,1.1548599895384695,1.3563315836176504,-5.764835919105248e-05,-0.00010704844341478373,-0.0003052456583300216,-0.00023618650716106132,0.00036454341514411727,0.0004202085266176512,-2.1577454419616465e-05,-0.2825433909893036,-51.21396255493164,-7.459916114807129,18.06952667236328,1.9316507577896118,-0.7102158069610596,0.07969819009304047,726,734,728,38.893,1,0
1739303552.0499833,-0.10611662080903239,1.0635002330782124,-0.39708081371774473,-1.4272065454819043,1.5272920355185755,1.1548615636759827,1.3563309432086312,-0.0005707685141097897,-0.000447975494326759,0.00035534040207257857,-0.0012350909680435259,-0.001307838265813634,-0.00027746513855018604,-0.00047195451774740513,-0.2547723948955536,-51.21396255493164,-7.459916114807129,18.09729766845703,1.9316507577896118,-0.7239487171173096,0.08610688149929047,725,733,730,38.893,0,0
1739303552.0619538,-0.10611424105253095,1.0635040118466386,-0.3970762788141015,-1.427202605225251,1.5272909927726352,1.154861563675162,1.3563258392453894,0.0003390346945716697,-6.003450010004307e-06,0.0007970214325693432,0.00023207089518914676,-0.0022489243636606526,0.0007737418345251084,-0.001793601927256554,-0.2547723948955536,-51.23776626586914,-7.483719825744629,18.04572296142578,1.9316507577896118,-0.7239487171173096,0.09343110024929047,726,734,731,38.893,0,0
1739303552.071977,-0.10611793481164944,1.063500595682151,-0.3970801875905949,-1.427204465376059,1.527295976220404,1.1548583862143242,1.3563285224169055,-0.0010774964771484655,-0.0011708158536356175,0.0012065576838530094,-0.0005567909492966304,-0.0006132333217391018,-0.00033979095461827025,-0.0012823665415690748,-0.2309686839580536,-51.19015884399414,-7.459916114807129,18.06952667236328,1.9252420663833618,-0.7239487171173096,0.07969819009304047,725,734,732,38.893,1,0
1739303552.0829434,-0.10611716578112652,1.0635023007171482,-0.3970811325186,-1.4272044656914322,1.5272945875983142,1.1548575202991551,1.356334538237132,-0.0003140877160471091,-0.0004654776730882976,-3.170867435325469e-05,-0.0003468982554588276,-0.0003510890911717584,-0.00028277247811802746,0.0013273886052827951,-0.2547723948955536,-51.21396255493164,-7.459916114807129,18.06952667236328,1.9380594491958618,-0.7166244983673096,0.04673920199275017,725,734,729,39.002,1,0
1739303552.0939336,-0.10611517531540066,1.0634986183453956,-0.3970804150703746,-1.4272044921823872,1.5272918556448745,1.1548583861604969,1.3563316613007947,0.00028230120425468813,-0.0008778359861376208,0.0006154241807500517,-0.00023350433563076712,-0.00042095695067291295,0.0002594786260197583,0.0010464906502392392,-0.2825433909893036,-51.16238784790039,-7.459916114807129,18.06952667236328,1.9252420663833618,-0.7239487171173096,0.05314789339900017,726,733,730,38.893,0,0
1739303552.1039577,-0.1061134622535,1.0635005849637302,-0.39708291382881633,-1.4272033982703018,1.5272957957235584,1.1548606992135428,1.3563366400707877,8.466657705693821e-05,-0.0004271813976470304,-0.000750740619679897,0.00010455538285141115,0.0006044417611834327,5.590628282751788e-05,0.0017850813616670967,-0.3063471019268036,-51.19015884399414,-7.436112403869629,18.04572296142578,1.9179178476333618,-0.7166244983673096,0.04673920199275017,725,734,729,38.893,1,0
1739303552.1148834,-0.10611864901421392,1.0635030185528769,-0.3970821278669489,-1.4272009003414337,1.5272968925253259,1.154860699231488,1.3563316613246232,-0.002122731748242593,0.0005228456269480669,-0.0004562312566380688,0.00013288301839386958,0.00045159502057974727,0.00011065712504110318,-0.0009047321427972219,-0.2309686839580536,-51.21396255493164,-7.436112403869629,18.02191925048828,1.9179178476333618,-0.7166244983673096,0.05314789339900017,725,733,733,39.111,1,0
1739303552.1248877,-0.10611588169485042,1.0635040119298338,-0.3970772210277329,-1.4272044571881652,1.5272943146861377,1.1548606992314883,1.3563300771518876,-0.001441131011683229,0.000616791600246376,0.0008566576451042775,-0.0005740366556992253,-0.000322351394006856,-0.00014422396241417325,-0.0018848937579829098,-0.2825433909893036,-51.23776626586914,-7.483719825744629,18.06952667236328,1.9316507577896118,-0.7166244983673096,0.09343110024929047,725,736,731,38.893,1,0
1739303552.1348958,-0.10611642789569989,1.063500156548792,-0.3970793500149093,-1.427204235158317,1.5272949689288358,1.1548598892436008,1.3563316490274078,0.00014016763289932232,-0.0010606006168316078,-0.00010398807559058951,0.0003975047528365327,0.0004973298630974208,-0.0005873505412200329,0.00039721980063476734,-0.2547723948955536,-51.21396255493164,-7.483719825744629,18.06952667236328,1.9252420663833618,-0.7102158069610596,0.07969819009304047,724,733,729,38.893,0,0
1739303552.1459653,-0.10611338386962364,1.0635040118462065,-0.39708113353199914,-1.4272094065029375,1.5272929974953864,1.154860699231193,1.35633090444899,-0.0004181435917797843,0.0005964580786803654,-0.0007165350224039444,-0.001704677243492643,0.0009094331198686738,0.0003009578934685175,-0.0017243647245263347,-0.3063471019268036,-51.23776626586914,-7.459916114807129,18.09729766845703,1.9508768320083618,-0.7166244983673096,0.08610688149929047,725,733,728,39.002,1,0
1739303552.1579816,-0.1061142193862483,1.06350230329715,-0.39707548709202795,-1.4272035524056261,1.5272937214232407,1.1548606595011148,1.3563286467834457,4.084753466564265e-05,7.34697518530799e-05,0.0010295049543527477,0.0006804484505672046,0.00022656147994559316,0.0007061538713420064,0.0005629826488049157,-0.2825433909893036,-51.21396255493164,-7.535294532775879,18.06952667236328,1.9179178476333618,-0.7166244983673096,0.10624848306179047,725,733,728,39.002,1,0
1739303552.1689281,-0.10611109126672047,1.063501302107578,-0.3970771189652512,-1.4272065464607175,1.5272949283908055,1.1548615651286458,1.3563339241362316,0.0016851022315274781,-0.00025071280931893527,0.0006945983844028854,-1.459022489518156e-06,0.0003548330147477721,0.00038841925669015425,0.00042605129977314553,-0.3063471019268036,-51.19015884399414,-7.483719825744629,18.09729766845703,1.9252420663833618,-0.7239487171173096,0.05955658480525017,725,733,726,38.893,0,0
1739303552.179891,-0.10611509526249654,1.0635040110978806,-0.39707934843023257,-1.4272056300716889,1.5272949770197484,1.1548614415769496,1.3563322652735073,0.00043735882687554356,0.00039364594268239837,0.000534052664382274,-0.0012090894692100348,0.0003452508311555734,0.0003399711739624001,-0.0007964262789138127,-0.2825433909893036,-51.23776626586914,-7.483719825744629,18.09729766845703,1.9316507577896118,-0.7239487171173096,0.06596527993679047,730,732,728,39.002,1,0
1739303552.1899745,-0.1061122552384724,1.0635022993725511,-0.39708038796062917,-1.4272025721414803,1.527291149821852,1.1548599415693173,1.3563364623189436,0.000963742525270055,-0.0005555152266945223,0.00042984662071901374,0.0005538653744998687,-0.00235421815230478,0.00029695012895180456,0.0007063337351781188,-0.2825433909893036,-51.21396255493164,-7.459916114807129,18.04572296142578,1.9316507577896118,-0.7102158069610596,0.03941498324275017,724,733,724,39.111,1,0
1739303552.2019498,-0.10611224349526299,1.0635023111463215,-0.39708112078298585,-1.4272026826988533,1.5272919062806014,1.1548603285761754,1.3563306015190968,0.0011925101944269567,-0.0006242890608571342,-0.0008476509100180177,0.000509354633656668,-0.001255457782463495,-0.00020481069843017796,0.0005306290313921636,-0.2825433909893036,-51.21396255493164,-7.459916114807129,18.04572296142578,1.9252420663833618,-0.7166244983673096,0.05314789339900017,726,733,734,38.893,1,0
1739303552.212082,-0.1061171732398301,1.0635027326191118,-0.39707983570933575,-1.4272014810440345,1.52729290939177,1.1548599408694598,1.3563347870903275,-5.195731177160649e-05,-0.00042377187826934774,-0.0004574787782878326,0.0011407227259856638,-0.0003443165395616898,-0.0005875048519763576,0.0019792184080214235,-0.2547723948955536,-51.19015884399414,-7.436112403869629,18.06952667236328,1.9252420663833618,-0.7102158069610596,0.026597600430250168,725,734,734,38.893,0,0
1739303552.2229571,-0.10611446206775847,1.063502288156002,-0.39707903491753405,-1.4272041082967435,1.5272941427407913,1.1548607384773408,1.356334820834439,0.00039325421173523704,-0.00046600919548636476,0.001041517628566841,3.9661374777051595e-05,-0.0006490220122940704,0.0003418895687411831,0.000449572806172371,-0.2825433909893036,-51.21396255493164,-7.483719825744629,18.09729766845703,1.9380594491958618,-0.7166244983673096,0.05314789339900017,725,733,730,38.893,1,0
1739303552.2339547,-0.10611434806678305,1.0635013021075075,-0.3970789016764952,-1.4272037674648153,1.5272970066062135,1.1548599415716314,1.3563333249124214,0.00023591969612597947,-0.0006253072669038366,0.00035411053177100124,0.0004990550368667375,0.0011584346752840273,-0.0003365442366029647,0.0005548183934425163,-0.2825433909893036,-51.19015884399414,-7.459916114807129,18.06952667236328,1.9179178476333618,-0.7102158069610596,0.06596527993679047,724,734,732,38.785,1,0
1739303552.244914,-0.1061096164803456,1.0635022993766021,-0.39707934954630364,-1.4272023993931402,1.527293833508751,1.1548599415714098,1.356331988065019,0.0004249455808336049,-0.0006120598069071417,0.0006767388197649214,-0.00033019300992153544,0.00012961153185537763,0.00031654387751501684,-0.0008151313001985554,-0.3301508128643036,-51.21396255493164,-7.483719825744629,18.06952667236328,1.9179178476333618,-0.7102158069610596,0.07328949868679047,725,733,729,38.893,0,0
1739303552.2549727,-0.10611446163467214,1.063501073500456,-0.39708047471397406,-1.4272044315383865,1.5272959506316346,1.1548606992314883,1.3563277652572951,-3.987231186036033e-05,-0.0007760393828936368,-0.0006095787369076679,-0.00012846571541908365,0.0004400543726551507,-0.00013444779682025967,-0.0007645403730903437,-0.2825433909893036,-51.19015884399414,-7.436112403869629,18.06952667236328,1.9179178476333618,-0.7166244983673096,0.08610688149929047,725,734,729,38.893,0,0
1739303552.2668931,-0.1061151753114985,1.0635024613734867,-0.3970828243534086,-1.4272044656912413,1.5272913796826666,1.1548599415714098,1.3563315835458727,-0.0005618399384918608,-8.843928888342223e-05,-0.000166454697169208,-0.0006556107180289806,-0.000712393429286477,0.0006016261986394002,0.00012275377200994338,-0.2825433909893036,-51.21396255493164,-7.436112403869629,18.06952667236328,1.9252420663833618,-0.7102158069610596,0.07969819009304047,726,733,728,38.893,1,0
1739303552.2769198,-0.1061133838738312,1.0635011956927773,-0.3970771521490595,-1.427200900302403,1.5272931649938208,1.1548567626570216,1.3563327034054729,0.0005852237624133316,-0.0005661935744092017,0.0005982556886311922,0.0015632396644502003,-0.0011531516768903132,-0.00010120317825613397,-0.002005076135005403,-0.3063471019268036,-51.21396255493164,-7.511490821838379,18.02191925048828,1.9115091562271118,-0.7102158069610596,0.08610688149929047,724,735,727,38.785,1,0
1739303552.2878995,-0.1061120973965619,1.0635005907577284,-0.39708078933596136,-1.4272026830144144,1.5272912821480282,1.154860699177653,1.3563317013850211,0.001605114480541063,-0.0017639894014940113,-0.001084915351919112,0.0003914319022685236,-0.0009117049170112901,0.00040507949305499075,-0.001006373089815367,-0.2825433909893036,-51.19015884399414,-7.436112403869629,18.04572296142578,1.9380594491958618,-0.7166244983673096,0.07969819009304047,724,734,730,38.893,1,0
