IITGN-Robotics/Franka_IITGN_ROBOTICS/franka_ros/franka_iitgn/data01/s_f_007.csv
time,fr3_joint1_pos,fr3_joint2_pos,fr3_joint3_pos,fr3_joint4_pos,fr3_joint5_pos,fr3_joint6_pos,fr3_joint7_pos,fr3_joint1_vel,fr3_joint2_vel,fr3_joint3_vel,fr3_joint4_vel,fr3_joint5_vel,fr3_joint6_vel,fr3_joint7_vel,fr3_joint1_eff,fr3_joint2_eff,fr3_joint3_eff,fr3_joint4_eff,fr3_joint5_eff,fr3_joint6_eff,fr3_joint7_eff,flexpin1,flexpin2,flexpin3,Force,ContactMic,ContactMic_gt
1739303384.6461964,-0.10421835343660453,1.0594190841135718,-0.39611929173726956,-1.4287565004361713,1.5198689563043475,1.161946245885788,1.3630388097646988,0.000815837447097539,0.0009581295567064331,0.0001175169802647831,0.00048321501116939196,-0.00017019618706958964,0.0002457650747477741,0.0009131774140017817,-0.5285150408744812,-51.13858413696289,-7.586869239807129,18.09729766845703,1.9444681406021118,-0.5985214710235596,0.07328949868679047,,,,,,,,,
1739303384.658123,-0.10421180036480082,1.0594154179125899,-0.39611936973840967,-1.4287597966052576,1.5198692560977232,1.161944730557656,1.3630386982620302,0.0029738796755014955,-0.001662650912348045,0.00022887901153693235,-3.942572794560532e-05,0.0010130475610041244,-7.233930169311006e-05,0.00021615450627877019,-0.5800897479057312,-51.08700942993164,-7.586869239807129,18.14490509033203,1.9380594491958618,-0.5857040882110596,0.07328949868679047,,,,,,,,,
1739303384.6682007,-0.10422277665423958,1.0594149408423172,-0.39612083305359125,-1.428758287009369,1.5198663446484562,1.1619454882177342,1.363037182957836,-0.0006624384347940689,-0.000414876292353169,-0.0011089068937944733,-0.0014436609559766666,-0.0004218135132158735,-0.00027376089911924234,0.00014292498543053698,-0.4571039378643036,-51.11081314086914,-7.563065528869629,18.12110137939453,1.9636942148208618,-0.5921127796173096,0.08610688149929047,,,,,,,,,
1739303384.6791716,-0.1042171341856091,1.059418472827031,-0.3961220755298028,-1.4287593656869761,1.5198720011169349,1.1619469716887298,1.3630358303668133,0.001062714399430089,0.0008305221111312731,-0.0008758726995209832,-0.0013670012596735171,-0.00026940598380198423,-0.0007542834184412839,-0.0008779910369745088,-0.5047113299369812,-51.08700942993164,-7.511490821838379,18.09729766845703,1.8785501718521118,-0.6772568225860596,0.05955658480525017,,,,,,,,,
1739303384.6901624,-0.10421771510965168,1.0594094589192429,-0.3961206367681301,-1.4287724719610353,1.5198700315136469,1.161855165017529,1.3630317463337798,0.0002700362544976084,-0.0008350963737912775,0.0005265496406816666,-0.00036687325371313056,-0.00047058408468817473,-0.007937548025683954,-0.0010626036679532913,-0.3301508128643036,-50.96005630493164,-7.483719825744629,17.94654083251953,1.8135477304458618,-0.7633163928985596,0.07969819009304047,,,,,,,,,
1739303384.7011702,-0.10421887984115506,1.0594166337689914,-0.39611539192579387,-1.428786491681571,1.519875669218652,1.1618038703328912,1.3630268995287578,-0.0010194949205306007,0.00016276482890547136,0.0007566311472015902,-0.0011381223646126386,0.000334044848526718,-0.004883360440881465,-0.0016334883773729061,-0.2547723948955536,-51.03543472290039,-7.483719825744629,17.92273712158203,1.7613626718521118,-0.7962753772735596,0.09343110024929047,,,,,,,,,
1739303384.7121658,-0.10421367836578457,1.0594206048457622,-0.3961163612711094,-1.4287952474853411,1.5198741538954932,1.1617918566356504,1.3630252583357232,0.00021547830711436604,0.0005793452775529986,-0.0003344138351566734,-0.0006563835900065894,0.0008503180095929041,-0.0007804893755095829,0.0011408780416945724,-0.2825433909893036,-51.05923843383789,-7.459916114807129,17.92273712158203,1.7741800546646118,-0.7825424671173096,0.06596527993679047,,,,,,,,,
1739303384.7232175,-0.10421614404911934,1.0594213619187127,-0.39611641968149663,-1.4288019648639172,1.5198709762193148,1.1617843395256036,1.3630212493413087,-0.001772647596899861,-0.0004286947031793369,0.0007950274251349039,-6.192198689434543e-05,-0.0006419110997774231,-0.00014585917724814842,-1.2587447858875087e-05,-0.2071649730205536,-51.03543472290039,-7.483719825744629,17.92273712158203,1.7741800546646118,-0.7697250843048096,0.05955658480525017,,,,,,,,,
1739303384.73425,-0.10421418966061669,1.0594261190597303,-0.39611423184372513,-1.4288090976424044,1.5198741347660611,1.1617803239619695,1.3630209111095974,-0.0002943715244323499,2.9035692277351257e-05,-0.0006600946807495803,0.000347105350098669,0.0012290910531634366,-9.52711100942435e-05,0.000413793913953522,-0.2309686839580536,-51.05923843383789,-7.483719825744629,17.94654083251953,1.7741800546646118,-0.7761337757110596,0.05955658480525017,,,,,,,,,
1739303384.7442508,-0.10421754622147596,1.0594207190242197,-0.39611604111509685,-1.428806954520505,1.5198741146493124,1.1617788083995297,1.3630187304760015,-0.0005663298986351445,-0.0012344854891881657,-0.0005847373697510304,-0.00031600050179050903,-0.00044795199312755104,0.0009660974923930866,0.000730583265881503,-0.1793939769268036,-50.98386001586914,-7.459916114807129,17.87512969970703,1.7741800546646118,-0.7633163928985596,0.07969819009304047,,,,,,,,,
1739303384.7562385,-0.10421271595436112,1.0594249213677323,-0.3961167073317272,-1.4288112617849267,1.5198741146316177,1.161774680713566,1.3630152138588716,0.0005893673699554751,0.0002712735064655455,-0.0006797044031049699,-0.0015240313975567231,0.00037273311279628494,-0.0012608019050248777,0.0004041823805501952,-0.2071649730205536,-51.00766372680664,-7.459916114807129,17.92273712158203,1.7741800546646118,-0.7697250843048096,0.07969819009304047,,,,,,,,,
1739303384.7671323,-0.10421278503043704,1.059427637330753,-0.3961160102284522,-1.4288126032745032,1.5198748546516971,1.16177619876519,1.3630158911304102,0.0010409320591109905,0.0009096616412555213,0.00021461977143553702,-0.00018930766981973732,-0.00044593852847581064,0.0005478765961555403,0.0015570131124679094,-0.2071649730205536,-51.03543472290039,-7.459916114807129,17.94654083251953,1.7677713632583618,-0.7825424671173096,0.06596527993679047,,,,,,,,,
1739303384.7771997,-0.10421641526392468,1.0594276383253627,-0.3961160141515342,-1.4288119810452427,1.5198713736113816,1.1617781984963147,1.3630083297401316,-0.0005834949528931686,0.001178284407408276,-0.0002103992105577659,0.0002791615137874659,-0.0007550871492260415,0.0007858654037760425,-0.001095099317405746,-0.1555902659893036,-51.03543472290039,-7.459916114807129,17.89893341064453,1.7677713632583618,-0.7889511585235596,0.13279877603054047,,,,,,,,,
1739303384.788137,-0.10420857044249518,1.0594222938347668,-0.39611918760379733,-1.4288103940930015,1.519875012336026,1.1617806940671804,1.3630138481274336,0.000490956633015318,8.10566656522116e-05,-0.0011976557598995443,0.00036903351959763315,-0.00019522539075424639,-7.570418232406998e-05,-0.00028771699977838013,-0.2547723948955536,-50.96005630493164,-7.436112403869629,17.87512969970703,1.7549539804458618,-0.7889511585235596,0.07328949868679047,,,,,,,,,
1739303384.798165,-0.10420924174583945,1.0594218605896264,-0.3961219484216466,-1.4288144529669848,1.5198741543560546,1.1617797868436217,1.363014097273228,3.6548880060183165e-05,0.0013661770006992459,-0.001082265520467833,-0.001369819786006441,0.0014203508040041106,-3.131546996818299e-05,-1.050121841075297e-05,-0.2547723948955536,-50.98386001586914,-7.408341407775879,17.92273712158203,1.7741800546646118,-0.7761337757110596,0.07969819009304047,,,,,,,,,
1739303384.8102412,-0.10420787621655167,1.059421260235519,-0.39611601420318643,-1.4288147639480266,1.519874793764167,1.1617801567959227,1.3630118090417915,2.125799944317883e-06,-0.0005868288574914966,0.0009817137841697714,-0.0017987952606769793,-0.0007640638443113601,-0.00011343273809366229,-0.001227041064219679,-0.2309686839580536,-50.96005630493164,-7.459916114807129,17.92273712158203,1.7677713632583618,-0.7761337757110596,0.08610688149929047,,,,,,,,,
1739303384.8222163,-0.10421150741457273,1.059425642345008,-0.3961179008778272,-1.4288122130496508,1.5198718176676764,1.1617806999494684,1.3630157077627574,-0.0012372925022253712,0.0015405188148147008,-0.0005076842813015507,0.0011050643226047342,-0.001629942277853784,-0.0002592389659390671,0.0018679826659009566,-0.1793939769268036,-51.00766372680664,-7.436112403869629,17.89893341064453,1.7549539804458618,-0.7825424671173096,0.06596527993679047,,,,,,,,,
1739303384.8322358,-0.10420779695283935,1.0594222143619514,-0.3961188231575154,-1.4288167611690512,1.5198762517256188,1.1617797852011202,1.3630104594141916,-0.000875502451476916,-0.00013508089587333872,0.00022920243249613363,0.0006666980630591387,-0.001142272767396841,-0.000455647972133066,-0.000242357338319765,-0.2309686839580536,-50.96005630493164,-7.459916114807129,17.92273712158203,1.7549539804458618,-0.7761337757110596,0.07328949868679047,,,,,,,,,
1739303384.842246,-0.10421069379875807,1.0594293523723224,-0.39611423195027506,-1.4288161720758188,1.519875512229257,1.1617774180522447,1.3630148548759184,-0.000558592976836415,0.0010986344697178911,0.0006199582837597389,-0.000218113699403802,0.0008466280213452972,0.00021266895947867723,0.0007337648987484621,-0.1793939769268036,-51.05923843383789,-7.483719825744629,17.92273712158203,1.7613626718521118,-0.7559921741485596,0.07328949868679047,,,,,,,,,
1739303384.8531892,-0.1042048050212707,1.0594276373442217,-0.3961160141517345,-1.4288132983214368,1.5198753154463476,1.1617746786524856,1.3630126036317722,0.0005922860090953609,8.42494572469881e-05,3.7599034471050096e-05,0.00038682865453121973,0.0014940680487770248,0.0001134110404134315,0.00157847983580845,-0.2309686839580536,-51.03543472290039,-7.459916114807129,17.87512969970703,1.7613626718521118,-0.7697250843048096,0.05314789339900017,,,,,,,,,
1739303384.8642116,-0.10420584806243299,1.0594312819764027,-0.3961160141517336,-1.428812992205042,1.5198764079735836,1.1617757981818413,1.3630095035085323,0.00014323998646472672,0.0016729682026353785,0.00029500267767540255,0.0007236992950624268,0.00239456218654813,0.0010058042314261867,0.00012598847815721939,-0.2547723948955536,-51.00766372680664,-7.459916114807129,17.87512969970703,1.7549539804458618,-0.7761337757110596,0.07969819009304047,,,,,,,,,
1739303384.8761423,-0.1042056710173953,1.0594277868164375,-0.39611424431440834,-1.4288150819439887,1.5198712224450115,1.1617765222869683,1.3630088617790592,0.00024446019411498505,-0.0006196978144604404,1.0179761709674961e-05,-6.607588572028403e-05,-0.0005332993385857201,0.0008102413482710271,-0.0008097736940099653,-0.2309686839580536,-51.00766372680664,-7.483719825744629,17.89893341064453,1.7677713632583618,-0.7761337757110596,0.11998139321804047,,,,,,,,,
1739303384.8861759,-0.10420385062225848,1.059423325722502,-0.39611423147478697,-1.4288142539230104,1.5198746081031451,1.1617761938050206,1.3630135827308212,0.0015909756425210799,-0.0003199481560661714,0.0006199432732598607,-0.0005426582209826576,0.0006175037188387058,2.0093064792068844e-05,0.00039708242706980074,-0.2547723948955536,-50.93228530883789,-7.483719825744629,17.87512969970703,1.7613626718521118,-0.7825424671173096,0.07969819009304047,,,,,,,,,
1739303384.8971968,-0.10420754903926918,1.0594157505452102,-0.39611779682875264,-1.4288132988638003,1.5198746081060002,1.1617769514589675,1.3630110413312395,0.00045067206433392073,-0.0015952446055811603,-0.0007299793874353942,0.0003810357152351208,-0.0001201925080980334,0.00017392460130391123,-0.0002625720589398277,-0.2309686839580536,-50.85690689086914,-7.436112403869629,17.87512969970703,1.7613626718521118,-0.7889511585235596,0.09343110024929047,,,,,,,,,
1739303384.9081898,-0.10420876584494988,1.059424717417167,-0.3961201106220284,-1.4288172239325456,1.5198745583368716,1.1617794521861369,1.3630137892746002,-0.0011112300197069604,0.001115638024018778,-0.0011864592676228008,-0.0008223784622132372,-0.0006542192490124685,0.00033703948680184316,0.0008874457991323755,-0.2071649730205536,-50.96005630493164,-7.408341407775879,17.89893341064453,1.7677713632583618,-0.7825424671173096,0.07328949868679047,,,,,,,,,
1739303384.919233,-0.10420778784286167,1.0594239397633753,-0.3961160102275882,-1.428816864637729,1.5198723142595119,1.1617754361633357,1.3630059929799743,-0.0012096652921233602,0.00045612276891382085,0.0008759514709103951,5.6307431364968717e-05,-0.0002493851857457468,-0.0007392482317294779,-0.0012597490738618488,-0.2309686839580536,-50.98386001586914,-7.459916114807129,17.92273712158203,1.7613626718521118,-0.7761337757110596,0.11998139321804047,,,,,,,,,
1739303384.930173,-0.10420676912351959,1.0594242712650976,-0.39611777033777723,-1.4288154011442005,1.519874909383225,1.1617739252883212,1.363012223069406,0.0005495167561245276,-0.00026515773834433627,-0.0005390679348732302,0.0009389349013650661,0.00012071527379640615,-4.01823124099284e-05,0.0035280995335570165,-0.2309686839580536,-50.98386001586914,-7.436112403869629,17.89893341064453,1.7677713632583618,-0.7633163928985596,0.08610688149929047,,,,,,,,,
1739303384.9402106,-0.10420576946670221,1.0594246715785947,-0.3961159875513154,-1.4288136171643921,1.5198724378119106,1.1617715396013406,1.3630156683393662,0.0006528661051880357,-0.001209572797411608,0.00035096168982486054,0.0005051758805517379,0.00022759494119962655,-0.00047262797104552956,0.0008697597585587716,-0.2547723948955536,-50.98386001586914,-7.459916114807129,17.87512969970703,1.7613626718521118,-0.7431747913360596,0.06596527993679047,,,,,,,,,
1739303384.9511306,-0.10421055965246176,1.0594268938735987,-0.39611602281837677,-1.4288150823824262,1.5198747486858672,1.1617700242811084,1.363008233080582,-0.0010475287917303274,-0.0013281305278002292,-0.0006313147085605297,0.0002488675234201432,-0.0003261300401319912,-0.0005042492096954899,0.0015199935702160017,-0.1793939769268036,-50.98386001586914,-7.459916114807129,17.89893341064453,1.7677713632583618,-0.7303574085235596,0.09343110024929047,,,,,,,,,
1739303384.9611797,-0.10420755780960406,1.0594280358492234,-0.3961160131707339,-1.428815320363153,1.5198720168015236,1.1617746784787326,1.3630118692284625,0.0003577950241363547,-0.0004682160243325004,0.0008657814679626448,-0.00014203003931242963,-0.0011366521879020161,0.0001201558193219241,0.0022652540986593246,-0.2309686839580536,-51.00766372680664,-7.459916114807129,17.89893341064453,1.7549539804458618,-0.7697250843048096,0.05955658480525017,,,,,,,,,
1739303384.973206,-0.1042071473622239,1.0594271062829528,-0.3961144654781292,-1.428819125511323,1.519878050408144,1.1617754361388108,1.3630104400077239,-0.0005680444368293462,-0.00024146301595148566,0.00011669135846621291,-0.0011006812695549988,0.0016167342788850204,0.0003919682217969158,0.0006651559584719407,-0.2071649730205536,-50.98386001586914,-7.483719825744629,17.92273712158203,1.7412210702896118,-0.7761337757110596,0.07328949868679047,,,,,,,,,
1739303384.9842105,-0.1042039545204119,1.0594203356302643,-0.3961198766190485,-1.4288141764651494,1.5198739960671677,1.1617746784787326,1.3630100872254627,0.0005990538562032534,-0.002620366726322765,-0.000993283985563556,0.0007907456941837915,8.01978419051972e-05,8.166722283225764e-05,0.0005565280794008592,-0.2547723948955536,-50.93228530883789,-7.408341407775879,17.87512969970703,1.7476297616958618,-0.7697250843048096,0.07328949868679047,,,,,,,,,
1739303384.9951453,-0.1042094714431329,1.059423467993113,-0.3961181201825156,-1.42881540997947,1.5198720191708666,1.1617761937988893,1.3630130452613167,-0.001539799057643071,0.0007395868040429951,-0.00013129180346329857,-0.00018387109095587077,-0.0014323766840552974,2.4855818573121292e-05,0.0012452231609775461,-0.2071649730205536,-50.90848159790039,-7.459916114807129,17.89893341064453,1.7613626718521118,-0.7825424671173096,0.06596527993679047,,,,,,,,,
1739303385.0052407,-0.10420727826595429,1.0594224684042755,-0.396121579929765,-1.4288134052480264,1.5198731954480897,1.1617754361388108,1.363004433671462,0.0002844632556551093,0.0006845418737830165,-0.00018506754824064854,0.0014581087178123172,-0.00127256557171183,0.00035655278315312796,0.0005917523747580256,-0.2071649730205536,-50.93228530883789,-7.384537696838379,17.87512969970703,1.7549539804458618,-0.7761337757110596,0.09343110024929047,,,,,,,,,
1739303385.0161846,-0.1042053636621403,1.0594247177551632,-0.39611602238231247,-1.4288135498961483,1.5198703147775907,1.1617754361388108,1.363011109453278,0.0011565716420424627,0.0005512624378963953,0.00033328857390489886,0.0005936673453717446,-0.0013175259812665322,0.00017340376903736648,0.0020652656733889316,-0.2547723948955536,-50.96005630493164,-7.459916114807129,17.87512969970703,1.7677713632583618,-0.7761337757110596,0.06596527993679047,,,,,,,,,
1739303385.0271542,-0.10420747876056527,1.0594271453423356,-0.3961160131706336,-1.4288175047235312,1.5198745016284532,1.1617730505607708,1.3630038131853774,-0.00023342618393315623,-0.0002943082548374698,0.00042915645554128436,-0.0001117238623805195,0.001344232584807232,-0.0005562787870211745,-0.0006347291906483288,-0.2309686839580536,-50.98386001586914,-7.459916114807129,17.89893341064453,1.7677713632583618,-0.7559921741485596,0.12639008462429047,,,,,,,,,
1739303385.0371745,-0.1042071081516956,1.0594287102278197,-0.39611987661859155,-1.4288157987245642,1.5198753628700057,1.1617728611804508,1.3630038131845652,-6.033018806183665e-05,0.0013148062822758565,-0.0007885494903077717,0.0013456607426721773,0.0012744205389954345,-0.00013800488823318546,-0.0010663586574221554,-0.2071649730205536,-51.03543472290039,-7.408341407775879,17.87512969970703,1.7549539804458618,-0.7633163928985596,0.12639008462429047,,,,,,,,,
1739303385.0472505,-0.10420513943943603,1.0594307763768203,-0.3961142314747145,-1.428820082933175,1.5198740361399041,1.161776193780944,1.3630073433184324,0.0016896542753940742,0.0003736061324775821,0.0010795596624053965,-0.00050043718332789,0.0004642811421754863,0.0010961461174044495,0.0002081385554898835,-0.2547723948955536,-51.03543472290039,-7.483719825744629,17.92273712158203,1.7741800546646118,-0.7825424671173096,0.09343110024929047,,,,,,,,,
1739303385.058169,-0.10420495031874069,1.059421722550686,-0.39611600237797656,-1.4288165179183636,1.5198737987440516,1.1617727017087118,1.3630054323791074,0.0009245903401001897,-0.002166492125671919,-0.0009899826109745617,-0.00023363299036827242,-0.0005060625316665196,-0.0003137323520730224,-4.997888301133219e-06,-0.2309686839580536,-50.90848159790039,-7.459916114807129,17.87512969970703,1.7741800546646118,-0.7559921741485596,0.11265717446804047,,,,,,,,,
1739303385.0682313,-0.10420747018388421,1.0594271458483866,-0.3961203667720092,-1.4288142271820303,1.519875938476831,1.161775436132829,1.3630093289186969,-0.00023338941639675383,-0.0002477162390902618,-0.0010554058187525733,0.0010842884155182883,0.001240737314659487,0.0006029802556369436,0.00019318177433376416,-0.2309686839580536,-50.98386001586914,-7.436112403869629,17.84735870361328,1.7549539804458618,-0.7761337757110596,0.07969819009304047,,,,,,,,,
1739303385.07921,-0.1042056320615218,1.0594271455334525,-0.39611593469338124,-1.4288200924285792,1.5198756164005671,1.1617729371838519,1.3630085707619888,0.0002038376928644359,0.00028229084389957005,0.0012012445142350753,-0.001069148589428141,0.00028820352854483757,-0.00033821685892844444,0.0006885407554984304,-0.2309686839580536,-50.98386001586914,-7.459916114807129,17.92273712158203,1.7613626718521118,-0.7559921741485596,0.08610688149929047,,,,,,,,,
1739303385.0892398,-0.10420505660217949,1.0594234349628502,-0.39611565106019503,-1.4288228639935154,1.5198747749209538,1.1617730549194278,1.3630060571224396,0.0016776003695191757,-0.0015010313737122457,-0.0004583974710995396,-0.0020226909582536285,0.0005213690056644574,8.399776453532235e-05,0.0008580762273795978,-0.2547723948955536,-50.93228530883789,-7.436112403869629,17.94654083251953,1.7677713632583618,-0.7559921741485596,0.07969819009304047,,,,,,,,,
1739303385.1002042,-0.10420461686509841,1.0594234321284266,-0.39611779681663967,-1.4288200896050187,1.5198716870420026,1.1617719952832923,1.3630061898572168,0.0013120331981314511,-0.0012549953412633946,-0.0005336319956690211,-0.0005008532680468127,-9.551054137261377e-05,-0.0010316271844480155,-0.00013335961296024408,-0.2309686839580536,-50.93228530883789,-7.436112403869629,17.92273712158203,1.7677713632583618,-0.7559921741485596,0.10624848306179047,,,,,,,,,
1739303385.1111357,-0.10421115309797355,1.0594288580541653,-0.39611986778829034,-1.4288171315871268,1.519870464066909,1.1617746784727507,1.363003051163761,-0.0013715501632646345,0.002448577876377718,-0.0005117638858251123,-0.0002806390707965737,-0.0012819915936383962,3.373945216640311e-05,-0.00180635811925138,-0.1793939769268036,-51.00766372680664,-7.408341407775879,17.87512969970703,1.7741800546646118,-0.7697250843048096,0.13279877603054047,,,,,,,,,
1739303385.1211622,-0.10420313227464281,1.0594249997662388,-0.3961168201633648,-1.4288190423524674,1.5198712678030175,1.1617728611805247,1.3630100850888862,0.0013184803611010726,-0.00025911194145894695,-0.0008929790000404804,-0.0005736477977846398,0.00032589841925367337,-0.0014880858368233872,0.0010892285205480207,-0.2547723948955536,-50.98386001586914,-7.459916114807129,17.89893341064453,1.7613626718521118,-0.7633163928985596,0.07328949868679047,,,,,,,,,
1739303385.132273,-0.1042084322984863,1.0594247603544003,-0.39611708157756526,-1.42881793718233,1.5198761105272478,1.1617691183409737,1.3630100329427628,-0.0002531794289346117,-0.00026130365065206483,-0.0002618126415750914,0.00034126376336068143,0.00040407726763599553,-0.0014199493765201419,0.0009331401123153478,-0.1793939769268036,-50.98386001586914,-7.436112403869629,17.92273712158203,1.7476297616958618,-0.7495834827423096,0.07328949868679047,,,,,,,,,
1739303385.1432014,-0.10420632094973763,1.0594288834051693,-0.39611423114362804,-1.4288218516198379,1.5198706156618984,1.1617739207468738,1.3630121057532743,-0.001320856304822834,-0.0001055433995725471,0.0006614235800666374,-0.0009147978421013443,-0.0012989156657251851,7.979438571122238e-05,0.0003479782681633315,-0.2071649730205536,-51.00766372680664,-7.483719825744629,17.94654083251953,1.7677713632583618,-0.7633163928985596,0.05314789339900017,,,,,,,,,
1739303385.1532156,-0.1042046082123562,1.0594254339579563,-0.3961157757331488,-1.4288182887123684,1.5198710759241212,1.1617715221586609,1.3630076874765868,0.0003710302356901155,-0.00017569973759079874,0.00022729477117246636,0.00011383610708834387,-0.002829439833740642,-0.0010234639786735056,0.0016006534462403852,-0.2309686839580536,-50.96005630493164,-7.459916114807129,17.89893341064453,1.7613626718521118,-0.7431747913360596,0.09343110024929047,,,,,,,,,
1739303385.164214,-0.10420332144444672,1.059430847090699,-0.39611601415038766,-1.4288200796869124,1.5198763028135112,1.161773868275406,1.36300543238105,0.0004166951303737659,0.0004527446938111392,-0.001200261124611887,-0.00034727427617375927,0.0011034010334264996,0.000709274530334907,-0.0007009460188637595,-0.2071649730205536,-51.03543472290039,-7.459916114807129,17.92273712158203,1.7549539804458618,-0.7633163928985596,0.11265717446804047,,,,,,,,,
1739303385.1751301,-0.10420632352432975,1.059423435106809,-0.3961160010334426,-1.4288168445310856,1.5198753608843456,1.1617714995102126,1.3630038088238405,-9.814620684045526e-06,-0.0006436521145807458,0.0004926454210571796,0.0003609259897362406,-0.00013078140140300204,0.00035484996216687847,-0.0027720872304613925,-0.2071649730205536,-50.93228530883789,-7.459916114807129,17.87512969970703,1.7549539804458618,-0.7697250843048096,0.12639008462429047,,,,,,,,,
1739303385.185137,-0.10420632192120644,1.0594271455334512,-0.3961177967195142,-1.4288182916615815,1.5198712485908987,1.1617707416889245,1.3630061900412296,0.000500813554334877,0.0012869971581156076,0.0007601622924053337,0.0009073800151449822,-0.0012722221708875566,-0.00020939831563080523,-0.0004954349953326196,-0.2071649730205536,-50.98386001586914,-7.436112403869629,17.89893341064453,1.7677713632583618,-0.7633163928985596,0.10624848306179047,,,,,,,,,
1739303385.1961837,-0.10420460680525527,1.0594271442252554,-0.3961118059942698,-1.4288183004862167,1.5198732086534508,1.1617704397108708,1.3630066147626367,0.0010662102836118028,0.0006668504557298715,0.0017932677407296307,0.0006380604017531462,0.001662344308178963,-0.0006208684459766453,0.0005185523244285094,-0.2309686839580536,-50.98386001586914,-7.511490821838379,17.89893341064453,1.7549539804458618,-0.7697250843048096,0.09343110024929047,,,,,,,,,
1739303385.2062993,-0.10420460911240054,1.0594234425939815,-0.3961142324357401,-1.4288190423420744,1.5198725287707802,1.1617751166403938,1.3630091680045282,0.0009409395239491983,-0.00021637402316698035,0.0009600847856217195,3.917606965005957e-05,4.9954361827410105e-06,0.001076735484537016,0.0010763899014724007,-0.2309686839580536,-50.93228530883789,-7.483719825744629,17.89893341064453,1.7476297616958618,-0.7825424671173096,0.07969819009304047,,,,,,,,,
1739303385.2171679,-0.10420464324258086,1.0594270657335847,-0.396117761362132,-1.4288165169414062,1.519874107532962,1.1617718966137647,1.3630073433174503,0.0006004944973437221,0.0009544082175616442,-4.8473860509991166e-05,0.0007575711755853982,0.0010746777121392328,0.0003822012174225653,0.0001151532446535386,-0.2309686839580536,-50.98386001586914,-7.436112403869629,17.87512969970703,1.7476297616958618,-0.7825424671173096,0.09343110024929047,,,,,,,,,
1739303385.2272427,-0.10420831564352447,1.0594271455320994,-0.3961156157396691,-1.4288240911894776,1.5198760609159376,1.1617718710127258,1.363007699395699,-0.0007688758926225288,0.0004253050454207229,0.0004022629867551614,-0.0018090258289815307,0.000814961486824881,-0.0007315536441837454,0.0014705049696877833,-0.1793939769268036,-50.98386001586914,-7.436112403869629,17.94654083251953,1.7476297616958618,-0.7559921741485596,0.09343110024929047,,,,,,,,,
1739303385.237267,-0.10420460842831494,1.059430217268718,-0.3961142274041756,-1.4288208251698324,1.5198742514987817,1.161772243459935,1.3630019650345784,-0.0008066877026466228,0.001372661459531277,0.0009022539691802428,-0.0011206439275781152,-1.2452615115699569e-05,-0.0003075408532802877,-0.001755838434426182,-0.2309686839580536,-51.03543472290039,-7.483719825744629,17.92273712158203,1.7613626718521118,-0.7495834827423096,0.13279877603054047,,,,,,,,,
1739303385.248318,-0.10420831845767071,1.059425433009114,-0.3961160141517106,-1.428818328071672,1.5198756498269768,1.1617718256647378,1.3630044457967783,-0.0007004375519620341,-0.0009902720301444546,-0.00010692762498568022,0.0006699060294290321,0.0011196468746280798,0.0006953333831475762,-0.000558118626809392,-0.1793939769268036,-50.96005630493164,-7.459916114807129,17.89893341064453,1.7613626718521118,-0.7495834827423096,0.11998139321804047,,,,,,,,,
1739303385.2592087,-0.10420744263633802,1.0594225716627212,-0.39611601415173353,-1.4288219488184024,1.5198716979919327,1.1617696423662711,1.3630075846783332,-0.0006917215917171749,-0.0016167646938825258,0.0003392934969841476,-0.0004620648938515477,0.001584924368266882,-0.0010184041447148797,-0.00019631907483492838,-0.2309686839580536,-50.96005630493164,-7.459916114807129,17.94654083251953,1.7549539804458618,-0.7633163928985596,0.09343110024929047,,,,,,,,,
1739303385.270147,-0.10420461200859177,1.0594274992909192,-0.3961198765095919,-1.4288219615934965,1.5198764208194915,1.1617738028954265,1.3630091680100034,0.00013065702771610318,-0.0009942091106996463,-0.0009829562294173294,-0.0010345945795625327,0.0011662739442543388,0.0010136271863656402,-0.00020123635985934207,-0.2309686839580536,-50.96005630493164,-7.408341407775879,17.94654083251953,1.7549539804458618,-0.7633163928985596,0.07969819009304047,,,,,,,,,
1739303385.280208,-0.10421003108668134,1.0594271568828069,-0.3961160128435377,-1.4288204417668857,1.5198753234157165,1.1617675744605878,1.3630050905022377,-0.0013309923567611285,0.0005493303715142731,-0.0003797355713579801,-0.001391126845318771,-0.00028177916808983693,-0.00035376289842956857,0.001872006295716247,-0.1555902659893036,-50.98386001586914,-7.459916114807129,17.92273712158203,1.7549539804458618,-0.7495834827423096,0.10624848306179047,,,,,,,,,
1739303385.2911289,-0.10420831813289126,1.0594309271830211,-0.39611697560919495,-1.4288183010496238,1.5198733416612416,1.1617746646702625,1.3630077038652901,-0.0013815640683993336,0.0012963678381765033,0.0004157408823149034,0.0001100306695860895,-0.0009909703333090157,0.0016162507096227107,0.0015145190975228017,-0.1793939769268036,-51.00766372680664,-7.436112403869629,17.89893341064453,1.7677713632583618,-0.7697250843048096,0.09343110024929047,,,,,,,,,
1739303385.3011801,-0.1042031858712848,1.0594253270839473,-0.3961177968148452,-1.4288183046653329,1.5198760584549071,1.1617691539811412,1.3630027092857315,0.0005135589113284092,-0.0004937048382099158,-0.0004890535032955419,0.00048439027968728767,0.0013770389856917003,-0.0010384147240605993,-0.002148647216504403,-0.2309686839580536,-50.96005630493164,-7.436112403869629,17.89893341064453,1.7549539804458618,-0.7633163928985596,0.12639008462429047,,,,,,,,,
1739303385.311196,-0.10420450285230509,1.0594271464764644,-0.3961160141517333,-1.4288205258355249,1.51987519280533,1.161770722927386,1.3630075422826913,0.0005874258581035329,0.0006137938032322885,0.00025765727299963104,-0.0008972977082070787,0.00039776351260613514,0.0006489874470082435,-1.7880044251105342e-05,-0.2309686839580536,-50.98386001586914,-7.459916114807129,17.89893341064453,1.7549539804458618,-0.7633163928985596,0.09343110024929047,,,,,,,,,
1739303385.3221657,-0.10420113385316511,1.0594256626009861,-0.3961160142943968,-1.4288165179309271,1.5198717154278978,1.1617711463335825,1.3630065811876926,0.002083005056402778,0.00021883704768112992,-0.0006355832463245488,0.0009606930293855868,-0.0022737018196110413,0.0012350698666168738,0.00045315443769288616,-0.2825433909893036,-50.96005630493164,-7.459916114807129,17.87512969970703,1.7549539804458618,-0.7697250843048096,0.09983979165554047,,,,,,,,,
1739303385.3331685,-0.10420624170544361,1.0594271710445535,-0.39611779595460445,-1.4288197444769006,1.5198760559784783,1.1617686806304404,1.3630097230437896,0.00020164335647232805,0.00040555150282086896,-0.00013009865398397173,-0.00032335415559771276,0.00046777018993338597,-0.0018482550701717933,0.0003983958848370455,-0.2071649730205536,-50.98386001586914,-7.436112403869629,17.87512969970703,1.7549539804458618,-0.7559921741485596,0.07328949868679047,,,,,,,,,
1739303385.3431814,-0.10420632094508607,1.0594271455347468,-0.3961170021001112,-1.4288215153341313,1.5198753623735877,1.1617686457208884,1.363006131917089,-0.00016800303604796123,-0.0006078768679835552,-0.0005017221628395732,-0.0010250150948161094,0.0010553985373169177,-0.0012095533228456022,-0.0002832168120412158,-0.2071649730205536,-50.98386001586914,-7.436112403869629,17.89893341064453,1.7549539804458618,-0.7495834827423096,0.10624848306179047,,,,,,,,,
1739303385.35513,-0.104208446199295,1.0594282493231686,-0.3961138683466875,-1.4288218659680332,1.5198733410732803,1.1617713362035489,1.3630054322154985,-0.0005435542394289635,0.00019959107372602983,-0.00025513931639843895,-0.00014557858131591982,-0.0013039170572809553,0.0015083240803952084,-0.0016845215866266507,-0.2071649730205536,-50.98386001586914,-7.459916114807129,17.94654083251953,1.7677713632583618,-0.7697250843048096,0.11265717446804047,,,,,,,,,
1739303385.3651938,-0.10420529455627181,1.059428168419461,-0.39611779681663944,-1.428818274217485,1.5198753520472086,1.1617723706692022,1.3630037620854696,0.0010516531834199607,0.0004219387573386233,-0.0002199850861784916,0.001238425246418416,-0.0001583726741480153,0.0007447471775865596,-0.0019989144360526463,-0.2071649730205536,-51.00766372680664,-7.436112403869629,17.89893341064453,1.7549539804458618,-0.7633163928985596,0.12639008462429047,,,,,,,,,
1739303385.3752015,-0.10420632060769847,1.0594274992953925,-0.3961174524463604,-1.428823062468541,1.519874854687404,1.1617706981100013,1.3630021995773833,-0.000718156766067988,0.0004956202130392044,-0.00010852366515905009,-0.0005073737766645926,-0.00047697739694924524,0.0006306889211145039,-0.001529260974674084,-0.2071649730205536,-50.96005630493164,-7.436112403869629,17.92273712158203,1.7677713632583618,-0.7633163928985596,0.12639008462429047,,,,,,,,,
1739303385.3861744,-0.10420502148260956,1.059425197860142,-0.39611352400018557,-1.4288208260533968,1.5198703023474205,1.1617728783237922,1.3630097039399396,0.0011258147194500004,-0.0010532479411412053,0.0015379632680064515,-0.00024412576521103403,0.0005429263345616323,0.001792313513836101,0.0007249083646935354,-0.2547723948955536,-50.96005630493164,-7.459916114807129,17.92273712158203,1.7677713632583618,-0.7559921741485596,0.06596527993679047,,,,,,,,,
1739303385.396179,-0.1042062154331242,1.0594263513617825,-0.3961160136734975,-1.4288167737217747,1.519871076726343,1.1617707223590998,1.3630065856371363,-0.00023264024646000935,-0.0005307414913150204,-0.00013035548339011902,0.000692462417106428,-0.0003301389479456626,0.0001321658291975816,0.0002355715645246512,-0.2071649730205536,-50.96005630493164,-7.459916114807129,17.84735870361328,1.7613626718521118,-0.7633163928985596,0.09983979165554047,,,,,,,,,
1739303385.407144,-0.10420347932540132,1.059423469230098,-0.3961141520018521,-1.428816801809913,1.5198717127710148,1.1617714797020453,1.3630082368280143,0.00041878940035546236,-0.0012677900347468287,0.0009482252258117357,0.00036274560435158314,-0.0014453309601049208,0.0005659831398873705,-0.00030572801374335857,-0.2071649730205536,-50.93228530883789,-7.483719825744629,17.87512969970703,1.7549539804458618,-0.7825424671173096,0.07969819009304047,,,,,,,,,
1739303385.4172254,-0.10420632046869817,1.0594271455340292,-0.39611771441110777,-1.4288208253630634,1.519872018625126,1.1617710253415083,1.363006619213809,-0.0006363029224998823,0.0001892925676026709,-0.00047656401920914915,-0.00030254721060702126,-0.0008019622799910019,0.00018567518625434897,-0.00041299485156380566,-0.2071649730205536,-50.98386001586914,-7.436112403869629,17.92273712158203,1.7613626718521118,-0.7761337757110596,0.09343110024929047,,,,,,,,,
1739303385.4281645,-0.10420176586701657,1.0594254330127195,-0.3961198766181429,-1.4288200954864148,1.5198739939305232,1.1617734086057165,1.3630058265021816,0.0012920755893281437,-0.0010978528013964126,-0.0012883865557821914,0.0005367235310450532,-0.00046834007979681844,0.0011983448069524927,0.0006485310610424771,-0.2309686839580536,-50.96005630493164,-7.408341407775879,17.92273712158203,1.7741800546646118,-0.7633163928985596,0.10624848306179047,,,,,,,,,
1739303385.4382048,-0.10420460794795111,1.0594273760665198,-0.39611803083217284,-1.4288200836117722,1.5198730537332177,1.1617675696612468,1.362998688762607,0.0011131325011296694,-0.0008809019654669201,-0.0013068893830329928,0.0009908710422913817,-0.00032543012886649715,-0.001614344669978115,-0.002701024021377542,-0.2309686839580536,-50.98386001586914,-7.436112403869629,17.92273712158203,1.7476297616958618,-0.7495834827423096,0.13279877603054047,,,,,,,,,
1739303385.449195,-0.10420632051681494,1.05942752481818,-0.3961156509175066,-1.4288192896286585,1.5198724707351567,1.1617676472735838,1.3630031185509752,-0.0006052311348062092,-0.0012345615844190614,8.552861158347687e-05,0.00015538334565727232,0.001260146829620313,0.0002515782714053945,-0.002453246078390047,-0.2071649730205536,-50.96005630493164,-7.436112403869629,17.89893341064453,1.7613626718521118,-0.7495834827423096,0.11998139321804047,,,,,,,,,
1739303385.4592729,-0.10420452907511796,1.0594309498937657,-0.3961159748695357,-1.428818752332553,1.5198709008706541,1.1617667770458888,1.3629981283055066,-2.5079033596896188e-05,0.0008766503851447483,0.0009216299280170883,0.0007052593109071095,-0.0014665916193702527,-0.0013469641326275918,-0.0033371834580668796,-0.2309686839580536,-51.00766372680664,-7.459916114807129,17.87512969970703,1.7613626718521118,-0.7431747913360596,0.14653168618679047,,,,,,,,,
1739303385.4701567,-0.10420831726637145,1.059428165937532,-0.3961160127343003,-1.4288183020023293,1.519877247039963,1.1617683277337962,1.36300380234903,-0.0012350754053400029,0.0010079976322440619,0.00041451529254883505,0.0005448929900949303,0.0019908118771635773,-0.00044486807532808433,-0.0014189438581295277,-0.1793939769268036,-50.98386001586914,-7.459916114807129,17.89893341064453,1.7476297616958618,-0.7559921741485596,0.12639008462429047,,,,,,,,,
1739303385.4801795,-0.10420560741337075,1.0594275419338834,-0.3961163286751548,-1.428818300595408,1.519872173302417,1.1617675661982485,1.3630030511636524,0.0004868047070345225,0.0006338550771773485,0.001037263835554611,0.00015422574851752844,-0.0005987070875256408,-0.0012568990473932516,-0.00014439872999351205,-0.2071649730205536,-50.98386001586914,-7.483719825744629,17.89893341064453,1.7549539804458618,-0.7495834827423096,0.13279877603054047,,,,,,,,,
1739303385.4921281,-0.1042083175875691,1.0594273793230948,-0.3961150472982874,-1.4288187431584372,1.5198733009605163,1.161769910107361,1.3630060157242163,-0.000964131944616389,-9.12194194095893e-05,0.0004461625248482668,0.001494555327180368,-0.00032818564879732185,0.00034710508182317514,0.0004119028247469537,-0.1793939769268036,-50.98386001586914,-7.459916114807129,17.87512969970703,1.7412210702896118,-0.7697250843048096,0.10624848306179047,,,,,,,,,
1739303385.5021784,-0.10420216155442824,1.0594187770580263,-0.3961184988335554,-1.4288209440774207,1.51987589705677,1.1617691524470721,1.3630049817402647,0.0006496945538335979,-0.0025863068620079976,0.0003664568008978861,-0.0013073243713339975,-0.000845012242954287,0.00010103297260426249,-0.0005983300642562887,-0.2309686839580536,-50.85690689086914,-7.436112403869629,17.92273712158203,1.7549539804458618,-0.7633163928985596,0.10624848306179047,,,,,,,,,
1739303385.5131972,-0.10420831851603085,1.0594274526002583,-0.3961177963966504,-1.4288126569260509,1.5198716587434136,1.1617687992343624,1.3630049843955456,-0.00041606200782890406,0.0008535183580839408,-0.00022506413608895898,0.001966713849071508,-0.0013741346540449128,-0.0011491033179504542,0.0009604485321084749,-0.1793939769268036,-50.98386001586914,-7.436112403869629,17.82355499267578,1.7549539804458618,-0.7633163928985596,0.07969819009304047,,,,,,,,,
1739303385.5241868,-0.10420624170410991,1.0594254330144528,-0.39611987661860576,-1.428823329389273,1.5198723529946,1.1617699101051566,1.3630075305232183,0.0002398500538237108,-0.0014354836232928771,-0.0005984169265881568,-0.0003984704638472622,-0.00017251190941345527,-0.00022543005860437606,0.000698130914037647,-0.2071649730205536,-50.96005630493164,-7.408341407775879,17.92273712158203,1.7613626718521118,-0.7697250843048096,0.09343110024929047,,,,,,,,,
1739303385.5342276,-0.10420247745271796,1.0594284434848598,-0.39611601415173353,-1.4288250844230495,1.5198748773350055,1.1617699105916672,1.3630061900382686,0.0003556155677424606,0.0012361432781079237,0.0009640571665208846,-0.002670235859624653,-6.689809310241632e-05,0.00018569714646769775,0.0008399672179220815,-0.2309686839580536,-50.96005630493164,-7.459916114807129,17.94654083251953,1.7549539804458618,-0.7697250843048096,0.10624848306179047,,,,,,,,,
1739303385.5442517,-0.10420630303055953,1.059425433063702,-0.3961160048853507,-1.4288198422099823,1.5198716774548104,1.161769923189111,1.3630093227935975,-4.502433449577717e-05,-0.0004782069933677543,0.0006622481816248698,-0.0002378807498523009,-0.0006900352498625006,-0.0002656725587980323,0.0013765511431657659,-0.2071649730205536,-50.96005630493164,-7.459916114807129,17.87512969970703,1.7549539804458618,-0.7697250843048096,0.07969819009304047,,,,,,,,,
1739303385.5552,-0.10420460420671429,1.0594280898162183,-0.396114971847034,-1.4288165275842448,1.5198765919571935,1.1617699101073722,1.3630086377443886,0.00022843290007412226,0.0003337253684536248,0.0006559019204958794,0.0011333524902605774,0.0010141966025169484,-0.0003954444668900197,0.002124553787506324,-0.2309686839580536,-50.98386001586914,-7.459916114807129,17.87512969970703,1.7412210702896118,-0.7697250843048096,0.07328949868679047,,,,,,,,,
1739303385.5661263,-0.10420830979691,1.0594316244913333,-0.3961198500127548,-1.4288190423421294,1.51987646535518,1.1617691524470721,1.3630088327222993,0.00021526891345685086,0.0011246906187191677,-0.0013289083797462364,0.0005417240679352763,3.3533202953167244e-06,0.00028066539663019585,0.0010402248184194509,-0.1793939769268036,-51.00766372680664,-7.408341407775879,17.89893341064453,1.7412210702896118,-0.7633163928985596,0.07969819009304047,,,,,,,,,
1739303385.5761309,-0.104208314668547,1.0594316163832722,-0.39611577573300427,-1.428821975879693,1.5198720138343982,1.1617675288897615,1.3630076806769578,0.0002506380840315985,0.0012471613012325095,0.00066322533843473,-0.00025097657301986754,-0.00040396492021129755,-0.0003172193882191649,0.001096923746191978,-0.1793939769268036,-51.00766372680664,-7.459916114807129,17.94654083251953,1.7549539804458618,-0.7495834827423096,0.06596527993679047,,,,,,,,,
1739303385.5862482,-0.10420631921763929,1.0594257684661512,-0.396116118149216,-1.4288200832742652,1.5198739372582353,1.1617691524470721,1.3630054144470747,-0.0008241113917042673,-0.000692617974255908,-0.000272405179338753,0.000509214180750928,0.0006802790756729831,-8.18841728355788e-05,0.00048087440589013157,-0.2071649730205536,-50.96005630493164,-7.459916114807129,17.92273712158203,1.7476297616958618,-0.7633163928985596,0.11265717446804047,,,,,,,,,
1739303385.5972195,-0.10420460795999029,1.0594291216574128,-0.39611574041247055,-1.428814561394954,1.5198755449450794,1.1617682865498398,1.3630060688207346,0.00034078392378836307,0.00018719686110018057,0.00011292766021911806,0.0010065049968954617,0.0012894349160372253,-0.00037120271003381354,0.0013524116670729906,-0.2309686839580536,-51.00766372680664,-7.459916114807129,17.84735870361328,1.7613626718521118,-0.7559921741485596,0.07969819009304047,,,,,,,,,
1739303385.608237,-0.10420632159713594,1.0594255105934143,-0.3961148295133964,-1.4288198277983266,1.51987287914769,1.1617699101071506,1.3630052515343678,-0.0007913890928102626,-0.0007304851332660681,9.717223935064436e-05,-0.0007825472933684685,0.00013752153365913597,-1.8254144046627746e-05,-0.0007243841246449492,-0.2071649730205536,-50.96005630493164,-7.436112403869629,17.87512969970703,1.7476297616958618,-0.7697250843048096,0.11265717446804047,,,,,,,,,
1739303385.619182,-0.10420729259339065,1.0594276052309461,-0.3961177929230822,-1.4288176026892974,1.5198749553196123,1.1617706677672288,1.3630045664828978,-4.787648929442396e-05,0.00037632186092757233,-0.0002836161105016537,0.0015216790755895467,-0.000520101272497662,-0.0006405874839515353,0.0009519775100328344,-0.1793939769268036,-50.96005630493164,-7.436112403869629,17.87512969970703,1.7549539804458618,-0.7761337757110596,0.11998139321804047,,,,,,,,,
1739303385.6301658,-0.10420632060770009,1.059423469121729,-0.3961138683844555,-1.4288197733240178,1.519871658559978,1.1617699101071506,1.3630045262569157,-0.0005275861022528527,-0.0014811626674303567,0.001368044968355909,0.00024064512798768414,-0.0023629404113924527,-0.0002208507274066638,0.0009352304336611342,-0.2071649730205536,-50.93228530883789,-7.459916114807129,17.87512969970703,1.7549539804458618,-0.7697250843048096,0.11998139321804047,,,,,,,,,
1739303385.6401873,-0.1042038715086719,1.0594257731436691,-0.3961160111961814,-1.4288226413615572,1.519870905204719,1.1617709697452798,1.3630092752272847,0.001702397508337106,0.0003266516086020189,0.00023879792089097677,-0.00045020169145530643,-0.00028366343493281684,0.00034205811616123483,0.0014093103625175219,-0.2309686839580536,-50.96005630493164,-7.459916114807129,17.92273712158203,1.7613626718521118,-0.7697250843048096,0.07969819009304047,,,,,,,,,
1739303385.651126,-0.10420442596586588,1.059427605582357,-0.3961131521476212,-1.428818669994627,1.5198716087230624,1.1617699101131322,1.3630037037909453,0.00025157024322903344,-0.000489418050014147,0.0008956770138283069,0.0007438651919646562,-0.0007386432645916468,0.0005814738866983354,-0.002428436333118068,-0.2071649730205536,-50.96005630493164,-7.459916114807129,17.89893341064453,1.7613626718521118,-0.7697250843048096,0.08610688149929047,,,,,,,,,
1739303385.6611683,-0.10420571528697176,1.0594296583430625,-0.3961142304450998,-1.4288212771979845,1.5198728957147016,1.1617682850962896,1.3630077052789553,-8.868068778463602e-05,-0.0004383332610038444,0.0004924784139201362,0.001458390808075049,-0.0004400806670129937,2.4783269044715688e-05,0.0004377017462068348,-0.2071649730205536,-51.00766372680664,-7.483719825744629,17.89893341064453,1.7476297616958618,-0.7559921741485596,0.09343110024929047,,,,,,,,,
1739303385.6722248,-0.10420632062165788,1.0594336915073115,-0.3961184978578611,-1.4288216340443503,1.5198725289794663,1.1617699057464916,1.3630090850977554,-0.000710257457956323,0.0011241135788529171,-0.00025622257517200786,-0.0008112380875891661,0.00033362916531591065,0.00029221673356777427,0.0013527748787186694,-0.2071649730205536,-51.03543472290039,-7.436112403869629,17.89893341064453,1.7476297616958618,-0.7697250843048096,0.07969819009304047,,,,,,,,,
1739303385.6822822,-0.10420632062507497,1.0594277662107658,-0.39611423115953764,-1.4288215190704903,1.5198720117169333,1.1617706634065041,1.3630088456939013,0.00019920632538439388,-0.0007078528653073292,-0.00021032912719379297,-0.0001983392827373018,-0.0003686521174735803,-0.0002754039959944253,0.0014933519305685772,-0.2071649730205536,-50.96005630493164,-7.483719825744629,17.89893341064453,1.7549539804458618,-0.7761337757110596,0.07969819009304047,,,,,,,,,
1739303385.693189,-0.10420324270744621,1.0594299010606651,-0.39611601415173175,-1.4288204541450749,1.5198732820634508,1.1617691524470475,1.3630069293232823,0.0010252654745196291,-0.00010921901315752458,-0.0003323149130788676,0.0003178391505610892,-0.0015368861138974471,0.00047695068135312146,0.0015674554575861855,-0.2071649730205536,-50.98386001586914,-7.459916114807129,17.92273712158203,1.7412210702896118,-0.7633163928985596,0.09983979165554047,,,,,,,,,
1739303385.704149,-0.10420459931797282,1.0594288584896514,-0.3961177968287526,-1.428821638438743,1.5198702667357604,1.1617699101071506,1.3630100670445713,0.0008525898489567437,0.0007406451294283654,0.00033515565901110546,-0.0021775921990878615,-0.0020861830849811035,0.0004732103777562007,0.0015044531735730136,-0.2309686839580536,-51.00766372680664,-7.436112403869629,17.89893341064453,1.7677713632583618,-0.7697250843048096,0.07328949868679047,,,,,,,,,
1739303385.714188,-0.10420632062462863,1.059422040006531,-0.39611616868229405,-1.4288168765818878,1.5198743822273006,1.16176793333713,1.3630069074733122,-0.000223074194123899,-0.0014177054896751648,0.00011716645314699695,0.002232572002936409,-0.0004818851646591068,-5.477415221729674e-05,-0.001246253790585143,-0.2071649730205536,-50.90848159790039,-7.459916114807129,17.87512969970703,1.7677713632583618,-0.7559921741485596,0.09983979165554047,,,,,,,,,
1739303385.7252266,-0.10420460680523332,1.0594264632152592,-0.3961177967927046,-1.4288216292548348,1.5198737530914934,1.1617691524464073,1.3630082406374766,-0.0010415738824090988,-0.0008092462296240665,5.5611958214721714e-05,0.0004612673246462065,-0.000608517876088128,-0.0001310654586453156,0.0031532140322914444,-0.2309686839580536,-50.96005630493164,-7.436112403869629,17.89893341064453,1.7412210702896118,-0.7633163928985596,0.07969819009304047,,,,,,,,,
1739303385.7361631,-0.1042038973826161,1.0594292131983405,-0.3961184982858565,-1.428821867026216,1.5198757164003778,1.1617682865498398,1.3630091530504702,0.0008146189292414615,-4.0448772368049024e-05,-0.0012902745410164809,-0.00022136988525430483,2.04097748906867e-05,0.0005789990145952248,0.0021023883763942636,-0.2309686839580536,-50.98386001586914,-7.436112403869629,17.89893341064453,1.7476297616958618,-0.7559921741485596,0.07969819009304047,,,,,,,,,
1739303385.7461963,-0.10420176650453658,1.0594262271060844,-0.3961180302908955,-1.4288191105309822,1.5198736015361678,1.161766771229683,1.3630089647206292,0.0009325519624560949,4.572674644653602e-05,0.00018680254301460433,0.0008339376340173414,7.262516909532478e-05,-0.00045927255781261884,0.0014608992653759884,-0.2309686839580536,-50.96005630493164,-7.436112403869629,17.87512969970703,1.7476297616958618,-0.7431747913360596,0.07969819009304047,,,,,,,,,
1739303385.7562237,-0.10420608381405777,1.059424363306351,-0.3961177968327063,-1.4288198547483668,1.5198741967232032,1.1617691524470721,1.363003509031323,0.00012356390985702716,-0.0012201053689642129,0.0005695493310104538,3.901665630048879e-05,-0.0004876249329277703,0.0006672124728298438,-0.0009450871355416083,-0.2071649730205536,-50.93228530883789,-7.436112403869629,17.87512969970703,1.7348123788833618,-0.7633163928985596,0.09983979165554047,,,,,,,,,
1739303385.7672145,-0.10420604878485933,1.0594257679471901,-0.39611526357472526,-1.4288227308306556,1.519872642139835,1.1617682850962894,1.3630100264943872,-0.0004223266251573108,-0.0019065156243398475,0.0007568188257521325,-5.7179184674658245e-05,-0.0008523275651801086,-3.06861204703703e-05,0.0026025939059845325,-0.2071649730205536,-50.93228530883789,-7.459916114807129,17.94654083251953,1.7476297616958618,-0.7559921741485596,0.07969819009304047,,,,,,,,,
1739303385.7781518,-0.1042062943165522,1.0594302439208654,-0.39611703951152016,-1.4288215546309013,1.5198716586663163,1.1617699101071424,1.3630069073126994,0.0002791026135837215,0.0008268493576279008,-0.0008070735939755105,-0.0006715852572695118,-0.0009121037990444469,0.000504302124517374,0.00022244546973570768,-0.2071649730205536,-50.98386001586914,-7.483719825744629,17.89893341064453,1.7549539804458618,-0.7697250843048096,0.09983979165554047,,,,,,,,,
1739303385.7881727,-0.10420347946989521,1.0594289728482948,-0.3961142315222688,-1.4288198431150156,1.5198726421389515,1.1617683257956963,1.3630082090493638,0.0018411069074130851,-0.0004745330761683531,0.0005286351281524992,0.0008686512031703417,0.00014852509085600462,0.0004988820949769257,0.002356915382697248,-0.2071649730205536,-51.00766372680664,-7.483719825744629,17.87512969970703,1.7476297616958618,-0.7559921741485596,0.08610688149929047,,,,,,,,,
1739303385.8091264,-0.10420458174879405,1.0594237793453731,-0.3961198766186063,-1.4288215983197519,1.5198717151935657,1.1617691539006223,1.3630067861287396,-0.0005038931806553457,-0.0004212610629809452,0.00013037732947259828,-0.0002074866223648138,-0.0007178736752383565,0.0001287001383948613,0.00043172083084728856,-0.2309686839580536,-50.93228530883789,-7.408341407775879,17.89893341064453,1.7549539804458618,-0.7633163928985596,0.09983979165554047,,,,,,,,,
1739303385.820193,-0.10420842021693497,1.0594288080361578,-0.39611423136569823,-1.4288206406172472,1.5198757431002952,1.1617699101071586,1.3630053050775008,-0.0008674295443399486,0.0006075377232247843,0.00082328694572514,0.000693230827038532,0.0008762829660643092,0.00042378565982846827,8.071322366225348e-05,-0.2071649730205536,-50.93228530883789,-7.483719825744629,17.89893341064453,1.7476297616958618,-0.7697250843048096,0.11265717446804047,,,,,,,,,
1739303385.8311403,-0.10420336449858278,1.0594289119283264,-0.39611601456761025,-1.4288234180781778,1.5198757047753735,1.1617699101071506,1.3630130465961885,0.00035620275530189396,0.0012156726075826406,0.0001030574801916199,0.00011846606884822238,0.00011999683020418408,0.0004590485866882405,0.0014040070272266576,-0.2547723948955536,-50.98386001586914,-7.459916114807129,17.92273712158203,1.7476297616958618,-0.7697250843048096,0.04673920199275017,,,,,,,,,
1739303385.8411613,-0.10420459598725333,1.0594258428916123,-0.3961198766186152,-1.4288216384554402,1.5198786373548234,1.1617691518010498,1.3630097009662168,-4.3311207307993775e-05,-0.0015604109023970873,-0.000524855250253226,0.0002557469226940956,0.0018616502260641599,-0.00019335121796142124,0.0006244032093898501,-0.2309686839580536,-50.93228530883789,-7.408341407775879,17.89893341064453,1.7348123788833618,-0.7633163928985596,0.06596527993679047,,,,,,,,,
1739303385.8521583,-0.1042063164028974,1.0594262364277585,-0.39611849947494154,-1.4288191168662054,1.5198725774549988,1.161768286549836,1.3630074851224712,-0.0009000488427945396,-0.0020652693782544033,-0.0010610471521886548,0.0011198652452711036,-0.00018818683460281255,-0.00012346336032097752,0.0011309424665593793,-0.2071649730205536,-50.96005630493164,-7.436112403869629,17.87512969970703,1.7476297616958618,-0.7559921741485596,0.08610688149929047,,,,,,,,,
1739303385.862229,-0.10420457270351034,1.059431883874883,-0.39611755744092647,-1.4288237047373304,1.5198764609767432,1.1617682865498398,1.3630082027410115,0.000618123788053944,0.0005499534623751592,-0.0009130016710269042,4.295465027535027e-05,0.001308244108798417,-3.2911203345598197e-05,0.00015808515186871406,-0.2309686839580536,-51.00766372680664,-7.436112403869629,17.89893341064453,1.7412210702896118,-0.7559921741485596,0.08610688149929047,,,,,,,,,
1739303385.873144,-0.10420347849580801,1.0594302440297556,-0.39611771735454154,-1.42881985582513,1.5198787492961126,1.1617691524470721,1.3630065836696812,0.00023131901057923477,0.0005397624611562802,-0.0006896467258868993,-0.0003915782962855153,0.001658663811169367,0.0009346341829745051,0.0006636146462853744,-0.2071649730205536,-50.98386001586914,-7.436112403869629,17.87512969970703,1.7348123788833618,-0.7633163928985596,0.09983979165554047,,,,,,,,,
1739303385.8831913,-0.10420459538988446,1.059427488971019,-0.3961142314733686,-1.4288177769334256,1.5198725244811357,1.161769556409924,1.362999446257134,0.00020620219268841208,-0.0007154753743430216,-0.0003828012368936577,0.00032230262168691907,-0.0002478715390629655,1.6385294143074047e-05,-0.0022241550999465344,-0.2309686839580536,-50.98386001586914,-7.483719825744629,17.84735870361328,1.7476297616958618,-0.7697250843048096,0.12639008462429047,,,,,,,,,
1739303385.8941972,-0.10420828836153645,1.0594265089880301,-0.39611422751379005,-1.4288198517085375,1.5198734057747338,1.1617677395942363,1.3630044395980023,-0.00012319326470164234,-0.0010470413025604898,0.0005573424559354562,0.0007647185936982578,0.0009910675848211104,-0.0002498225644348697,-0.0007003546646055833,-0.1793939769268036,-50.93228530883789,-7.483719825744629,17.87512969970703,1.7412210702896118,-0.7633163928985596,0.11998139321804047,,,,,,,,,
1739303385.9042175,-0.1042041897585128,1.059431316386433,-0.3961159876607132,-1.4288224321368546,1.5198725244034739,1.1617682866874186,1.363009328916548,-0.0007288050063332264,0.0006192444481943281,0.000269933818823065,0.0008296903780997581,-0.000945665927147896,-1.0931685396607356e-05,-6.0865027266036035e-05,-0.2071649730205536,-50.98386001586914,-7.459916114807129,17.92273712158203,1.7476297616958618,-0.7559921741485596,0.07969819009304047,,,,,,,,,
1739303385.91518,-0.10420618765176216,1.05942653168502,-0.39611747893716426,-1.42881985577289,1.5198740528034875,1.1617682865498404,1.3630037889586537,-0.0002478600041372356,-0.0009241364740225241,-0.0003543326247885207,0.0007093106900674522,0.0008088351150820829,-0.0005895314803450505,-0.002756025216933153,-0.1793939769268036,-50.93228530883789,-7.436112403869629,17.87512969970703,1.7348123788833618,-0.7559921741485596,0.12639008462429047,,,,,,,,,
1739303385.9261665,-0.10420418842382656,1.0594278339264034,-0.396117452440977,-1.4288251577616673,1.5198745542785441,1.1617691524470721,1.363007169001009,0.0003896024456414123,0.0008688700862020281,-0.0008584432361185327,-0.00033862257552590234,0.0015560748680043908,-0.000312226716786295,-8.858595959075043e-05,-0.2071649730205536,-50.96005630493164,-7.436112403869629,17.92273712158203,1.7348123788833618,-0.7633163928985596,0.09343110024929047,,,,,,,,,
1739303385.9362488,-0.10420821289290179,1.0594285324503045,-0.3961141220123616,-1.4288216384652952,1.5198743467629992,1.1617691524470721,1.3630088052472753,-0.002248173125995925,0.0003790637604610647,0.0018161290964209898,-9.947395802445992e-06,0.0001600623298298425,-0.0004594567253974556,3.83950058550417e-05,-0.1793939769268036,-50.96005630493164,-7.483719825744629,17.89893341064453,1.7412210702896118,-0.7633163928985596,0.07969819009304047,,,,,,,,,
1739303385.9471302,-0.10420429227554234,1.05942853150944,-0.396117682034004,-1.4288234509249076,1.5198734012585875,1.1617691524470721,1.3630046221356584,0.00045433509615632085,0.0007936573380749505,-0.000220198448147154,-0.000390309827455513,0.0002831193827102878,0.0001692335921196653,0.0021247920277825193,-0.2309686839580536,-50.96005630493164,-7.436112403869629,17.92273712158203,1.7412210702896118,-0.7633163928985596,0.07969819009304047,,,,,,,,,
1739303385.9571455,-0.10420265880467236,1.0594301429357036,-0.3961152959467248,-1.4288237047513577,1.5198725287680854,1.1617682865498398,1.362999617723742,0.0005421460774654401,-2.850695286257707e-05,0.00017010370217563253,-0.00027478504366448776,-0.0008972081583984098,-0.0004431594847737503,-0.002123097607528472,-0.2547723948955536,-50.98386001586914,-7.459916114807129,17.89893341064453,1.7476297616958618,-0.7559921741485596,0.13279877603054047,,,,,,,,,
1739303385.967172,-0.10420831823981384,1.0594244679035307,-0.3961177927547576,-1.4288215560508573,1.5198734706626136,1.1617675274362111,1.3630038088044587,-0.0014717687902075537,-0.002146672828285664,-0.0002803006207639839,-0.00024657149507930146,-0.0004884089106658063,-0.0006658665452226652,0.0007798552730048374,-0.1793939769268036,-50.93228530883789,-7.436112403869629,17.89893341064453,1.7476297616958618,-0.7495834827423096,0.12639008462429047,,,,,,,,,
1739303385.9771945,-0.10420831856591153,1.0594319485725108,-0.39611718557432846,-1.4288208967046148,1.5198736353222417,1.1617681295663393,1.3630025282127214,-0.0011352492905925807,0.00036838395088641693,-0.0011934926272146565,6.508344144275503e-05,-0.00027812164800556456,-0.00032603724827644253,-0.001136249333737203,-0.1793939769268036,-51.00766372680664,-7.436112403869629,17.89893341064453,1.7412210702896118,-0.7559921741485596,0.13279877603054047,,,,,,,,,
1739303385.9882267,-0.10420561033639146,1.0594264578439525,-0.39611601400292795,-1.4288231738794268,1.5198750995769996,1.161769100118377,1.3630029954206044,-0.0003772527991201204,-0.0003555391443771053,0.0005234677692609968,0.0005592502400726772,0.0011389728379867553,0.00012931055796023313,-0.0016062033486612165,-0.2071649730205536,-50.93228530883789,-7.459916114807129,17.92273712158203,1.7348123788833618,-0.7633163928985596,0.11998139321804047,,,,,,,,,
1739303385.9986181,-0.10420608385817091,1.059428520801187,-0.3961160020509269,-1.4288216384540962,1.5198784139447252,1.161769910106855,1.363002836229715,-0.0001521098339705514,0.000377268975034274,-0.00041874716447250606,-0.0005272231214132763,0.0028274446817667547,0.0001648462685398212,-0.0006468845342080514,-0.2071649730205536,-50.96005630493164,-7.459916114807129,17.89893341064453,1.7348123788833618,-0.7697250843048096,0.09343110024929047,,,,,,,,,
1739303386.0092552,-0.10420418088043246,1.0594285286749514,-0.39611778799836656,-1.4288207163797428,1.5198724460958637,1.161769876675495,1.363006049964177,0.0006653263324299196,0.00029144750432929796,-0.0011342112591118713,0.0009524436485400837,-0.0004819308185330906,0.0007705056328469566,3.072496786791232e-05,-0.2071649730205536,-50.96005630493164,-7.436112403869629,17.89893341064453,1.7476297616958618,-0.7697250843048096,0.10624848306179047,,,,,,,,,
1739303386.0201585,-0.10420609997367968,1.0594227468800426,-0.3961112105290945,-1.4288206453743484,1.5198733997977008,1.1617691073864482,1.363006029639901,-0.0014818503114703183,-0.0010492646668613128,0.0017429062153661973,0.0009308926019278186,0.001427563225319181,0.00018989838504139273,-0.00042297750930384785,-0.1793939769268036,-50.90848159790039,-7.511490821838379,17.89893341064453,1.7412210702896118,-0.7633163928985596,0.07969819009304047,,,,,,,,,
1739303386.0312016,-0.10420758192164582,1.0594281757994968,-0.39611744949760846,-1.4288198557728669,1.5198716977506674,1.1617699101068961,1.3630042220332725,-0.0002275149902666348,-9.349058567838524e-05,4.2827033655540935e-05,0.0020466270034107453,-0.00047471941599594404,0.0005324105301119167,-0.00047636777116129764,-0.1793939769268036,-50.98386001586914,-7.436112403869629,17.87512969970703,1.7549539804458618,-0.7697250843048096,0.08610688149929047,,,,,,,,,
1739303386.041228,-0.10420900380253069,1.0594278408199989,-0.3961160053155337,-1.4288234211325108,1.5198732778629764,1.1617682865498398,1.363007755522256,-0.0011896319689776217,-0.0006240514737811446,0.000438465105234106,-0.0007024910698647798,0.00018171972218872706,-0.0011067583285562649,0.000629049527271142,-0.1555902659893036,-50.96005630493164,-7.459916114807129,17.92273712158203,1.7412210702896118,-0.7559921741485596,0.07969819009304047,,,,,,,,,
1739303386.0521936,-0.10420362257069762,1.0594300150704803,-0.3961131518084596,-1.4288206239071004,1.5198720177284446,1.1617706677672288,1.3630056477002783,0.00026003387635361306,0.0009449441000316812,0.0006578438373459457,-9.960523933650743e-06,3.247325407878176e-05,0.0012350605583030315,-0.00020953578784340115,-0.2309686839580536,-50.98386001586914,-7.459916114807129,17.87512969970703,1.7549539804458618,-0.7761337757110596,0.10624848306179047,,,,,,,,,
1739303386.0622272,-0.10420410757359304,1.0594312717794883,-0.39611987646111785,-1.4288216384685002,1.519873338756,1.1617671756770518,1.3630041671375437,-0.00016973403258579815,0.0014093517093444771,-0.0008333916679008044,1.8744150061706166e-05,-8.644213544490415e-05,-0.0006230593029145865,0.0008784437665890208,-0.2071649730205536,-51.00766372680664,-7.408341407775879,17.89893341064453,1.7412210702896118,-0.7495834827423096,0.08610688149929047,,,,,,,,,
1739303386.0731993,-0.10420176646799356,1.0594265348486855,-0.39611134396081116,-1.428819855778473,1.5198701218655726,1.1617656709066169,1.3629970234145183,0.0003447239228853607,-0.000696707542906306,0.00035094996163759294,0.0009772211471063643,-0.0002818821157216033,-0.000751918859972939,-0.0019952083157234266,-0.2309686839580536,-50.93228530883789,-7.483719825744629,17.87512969970703,1.7677713632583618,-0.7697250843048096,0.14653168618679047,,,,,,,,,
1739303386.084148,-0.10420533812060741,1.059426389630477,-0.3961149808792411,-1.428819828411352,1.5198725376447162,1.1617699100832202,1.3630027571465635,9.433917816640915e-05,-0.0006568301182127468,0.000823333570209006,0.0018490957260606554,-0.0003401023392645131,0.0006443820237323004,0.00031441120066561684,-0.2071649730205536,-50.96005630493164,-7.459916114807129,17.87512969970703,1.7476297616958618,-0.7697250843048096,0.10624848306179047,,,,,,,,,
1739303386.0951183,-0.10420410194416536,1.05942652620802,-0.39611779702323013,-1.4288254874263997,1.5198734056134522,1.1617682865498393,1.3630060161751356,0.0005481203428095243,-0.0013944461094733684,-0.001005044554800531,-0.0011642522991738885,0.0015962876470770504,-0.0006912905614946902,0.0013320002530775293,-0.2071649730205536,-50.93228530883789,-7.436112403869629,17.92273712158203,1.7412210702896118,-0.7559921741485596,0.07969819009304047,,,,,,,,,
1739303386.105134,-0.10420560740086825,1.0594265316789249,-0.3961177967197374,-1.4288216384671562,1.5198757207590672,1.1617683795187415,1.3630104632219036,5.371717455902441e-05,-1.5228292292723713e-05,-0.00020718917780286492,0.0002222131356329403,-0.00015449286727435958,-0.0005527204480988001,0.0030643258354830687,-0.2071649730205536,-50.93228530883789,-7.436112403869629,17.89893341064453,1.7476297616958618,-0.7697250843048096,0.06596527993679047,,,,,,,,,
1739303386.1152408,-0.1042063105448899,1.0594288621193955,-0.396117787998433,-1.4288198642817422,1.51987252881616,1.16176943913095,1.363000175276114,0.00013788712244229066,0.0013099044953834853,-0.0009301102158987616,0.0006524925230923708,-0.0005245924884365574,-0.0002266008587514726,-0.0017486870134504934,-0.2071649730205536,-50.96005630493164,-7.436112403869629,17.87512969970703,1.7476297616958618,-0.7697250843048096,0.11998139321804047,,,,,,,,,
1739303386.1271443,-0.10420437090835558,1.059429559302196,-0.39611577573310464,-1.4288198527260654,1.5198701606266174,1.1617687992317036,1.3630042725771556,0.00014074864792484933,0.000619850955744696,0.00020585765022039664,0.0002931032369027718,-0.0006294858215373289,-0.0003180512286087723,0.0008020090690171369,-0.2309686839580536,-50.98386001586914,-7.459916114807129,17.87512969970703,1.7677713632583618,-0.7633163928985596,0.09343110024929047,,,,,,,,,
1739303386.1371696,-0.10420624072843832,1.0594265334247448,-0.39611773085005036,-1.4288198547609705,1.5198713761550968,1.1617691001172694,1.3630028194993402,-0.0007224774105141524,-0.0008234280111371169,-0.0008545409368865113,0.001078011381375769,-0.0007577123235139997,0.00031149206603955454,-0.0008621590649998478,-0.2071649730205536,-50.93228530883789,-7.408341407775879,17.87512969970703,1.7613626718521118,-0.7633163928985596,0.09343110024929047,,,,,,,,,
1739303386.1482384,-0.10420324140788466,1.0594302450880266,-0.3961158950575167,-1.4288216385604648,1.51987328206414,1.1617691524467766,1.363007202689401,-0.0005810691797048864,-3.560589907806934e-05,0.0007029534076619355,7.533227526281846e-05,-0.0009423099487290413,-6.735210272419764e-05,0.0006758319469353637,-0.2071649730205536,-50.98386001586914,-7.459916114807129,17.89893341064453,1.7412210702896118,-0.7633163928985596,0.09343110024929047,,,,,,,,,
1739303386.1591327,-0.10420608251092316,1.059429202436576,-0.3961177968267357,-1.4288234211325128,1.519872506958776,1.1617682865498398,1.363009561632704,-0.0006414823930478783,-0.00039722348763655596,-0.00022881772720866652,-0.0012285665948068185,-0.0009989711066419518,7.698049668309825e-05,0.0009429907476040109,-0.2071649730205536,-51.00766372680664,-7.436112403869629,17.92273712158203,1.7476297616958618,-0.7559921741485596,0.07328949868679047,,,,,,,,,
1739303386.1692061,-0.10420621146235974,1.059430254116793,-0.3961150339864639,-1.428821638455492,1.519876480517922,1.1617691524470721,1.3630099287232595,-0.0011918366362493557,0.0007801557940639119,1.5664617166829894e-05,0.00021222508028056453,0.0008570550749093251,9.542270807770932e-05,0.0010272792799856803,-0.2071649730205536,-50.98386001586914,-7.459916114807129,17.89893341064453,1.7412210702896118,-0.7633163928985596,0.03300629183650017,,,,,,,,,
1739303386.1801481,-0.10420425730779748,1.0594281531358787,-0.3961135386047765,-1.4288208721761033,1.5198737530836273,1.1617682865498398,1.3630065654029813,0.00036044524622733484,-0.0008567929114245504,0.00021362002539579807,0.0009738213099212427,0.0013442666020375862,0.0005736681665083966,0.001931549566977753,-0.2309686839580536,-50.98386001586914,-7.459916114807129,17.89893341064453,1.7412210702896118,-0.7559921741485596,0.09343110024929047,,,,,,,,,
1739303386.1901984,-0.1042021586254943,1.0594361806412094,-0.3961156696184016,-1.4288234211195339,1.5198735840474848,1.1617691524470721,1.3629986465359367,0.0014696978260939908,0.0019137299495644155,0.001452706677832065,7.759160805030811e-05,0.0008940508418119003,0.00025934914279551627,-0.0010409538041469802,-0.2309686839580536,-51.03543472290039,-7.459916114807129,17.92273712158203,1.7476297616958618,-0.7633163928985596,0.13279877603054047,,,,,,,,,
1739303386.2002528,-0.10420831722533543,1.0594265345510787,-0.39611601414589886,-1.4288216384554917,1.5198772578997253,1.1617672267502046,1.3630028311976945,-0.0008171329035689351,-0.0008322181547673516,-0.0006841185185697155,0.0004836738195195604,0.0013127955821515742,-0.000343928096280053,0.00111498335315232,-0.1793939769268036,-50.93228530883789,-7.459916114807129,17.89893341064453,1.7348123788833618,-0.7559921741485596,0.09343110024929047,,,,,,,,,
1739303386.2111738,-0.10420631965073457,1.0594302417583263,-0.3961156697330027,-1.4288208967088012,1.5198713053096031,1.1617691480804389,1.362998182123807,-0.0014319721701516802,9.186292025619271e-05,0.0010582852332505306,-0.0001664964673695082,-0.0014719334924234546,-2.4702473118806754e-05,-0.003336554050435526,-0.2071649730205536,-50.98386001586914,-7.459916114807129,17.89893341064453,1.7549539804458618,-0.7633163928985596,0.13279877603054047,,,,,,,,,
1739303386.2222066,-0.10420757222692174,1.0594307946403698,-0.39611604881696266,-1.4288217149807252,1.5198740846016296,1.161768286549815,1.3630060763885914,0.00014022493522151193,0.000897237941895033,-0.0005274573466033772,-3.111539912890812e-05,0.001273878422119187,2.0725601357089453e-05,0.00027595569499387065,-0.1793939769268036,-50.98386001586914,-7.459916114807129,17.89893341064453,1.7613626718521118,-0.7559921741485596,0.09343110024929047,,,,,,,,,
1739303386.233152,-0.10420597863001428,1.0594286035359577,-0.39611755841036916,-1.428819773362606,1.5198736353459743,1.1617675288897615,1.3630088261547346,-0.0010849748772705661,-0.0006211309760703581,-0.0004300203346694931,0.0005448662352121083,5.900215978557701e-05,-7.893796197075024e-05,0.0022037638854698607,-0.2071649730205536,-50.96005630493164,-7.436112403869629,17.87512969970703,1.7412210702896118,-0.7495834827423096,0.07969819009304047,,,,,,,,,
1739303386.2431538,-0.10420456999130985,1.0594302193613971,-0.39611782314608734,-1.428823420000576,1.5198725229538115,1.1617682846117727,1.3630045620930915,-0.00039113474136708097,-6.768916026511445e-05,-0.001334756276419897,-0.00048348750466947966,-0.0014072015307020438,0.0003248375095574168,-4.744164362452722e-05,-0.2309686839580536,-50.98386001586914,-7.436112403869629,17.92273712158203,1.7476297616958618,-0.7559921741485596,0.07969819009304047,,,,,,,,,
1739303386.2531826,-0.10420630795810189,1.059426821338801,-0.39611769064533403,-1.4288204541457294,1.519874039721511,1.1617699101071177,1.3629996790706354,-0.0006147911564146513,8.695244041949607e-05,0.0004250833038436646,0.0001972485047325384,-0.00152413007722565,0.0008812968531014281,-0.000603844794844129,-0.2071649730205536,-50.93228530883789,-7.436112403869629,17.92273712158203,1.7348123788833618,-0.7697250843048096,0.11998139321804047,,,,,,,,,
1739303386.2641113,-0.1042026203884837,1.0594285314093188,-0.3961160131687889,-1.4288198560431626,1.5198725263394457,1.1617706676057231,1.3630028177805174,0.0010847881896141796,-0.00013762569144284585,-0.00019818179350656492,0.0013485053425171794,-0.000689769761908446,0.001318444444910543,-0.0001718402788976665,-0.2547723948955536,-50.96005630493164,-7.459916114807129,17.87512969970703,1.7476297616958618,-0.7761337757110596,0.09343110024929047,,,,,,,,,
1739303386.2741234,-0.1042045691294744,1.0594319849678038,-0.39611384189356286,-1.4288234299507172,1.5198731892540718,1.1617691524470712,1.363001421970138,0.0010327995789962338,0.0014444261923315482,-0.0010415231335626134,-0.0004969485434883527,0.00026351194714424825,-0.0005145343972593814,-0.0012965318480375983,-0.2309686839580536,-51.00766372680664,-7.459916114807129,17.92273712158203,1.7549539804458618,-0.7633163928985596,0.13279877603054047,,,,,,,,,
1739303386.2851918,-0.1042015262887234,1.0594285035048372,-0.39611414804048173,-1.4288216384556411,1.5198725244273021,1.1617691524470721,1.363003799449741,0.0005639054346805505,-0.0006554222135871265,0.000752586815330007,-0.00021774449559624337,-0.001273938124594912,-4.906673021790064e-05,0.0011649933794269153,-0.2309686839580536,-50.96005630493164,-7.483719825744629,17.89893341064453,1.7476297616958618,-0.7633163928985596,0.07328949868679047,,,,,,,,,
1739303386.296204,-0.10420395297830201,1.0594302449749244,-0.39611529845977417,-1.4288198567232806,1.5198716585579815,1.1617651076354516,1.3630047697687546,-0.0003764760357154277,-0.00016263736678302895,0.0006445623960572278,0.0009782232019210884,0.0003126094610830816,-0.00047181379030330865,0.002248885480736149,-0.2071649730205536,-50.98386001586914,-7.459916114807129,17.87512969970703,1.7549539804458618,-0.7559921741485596,0.08610688149929047,,,,,,,,,
1739303386.3071916,-0.10420436112498718,1.0594267858322322,-0.396116003892084,-1.428821638455508,1.519873282061458,1.1617649138407196,1.363002660815481,0.0017924055378029109,5.850019265451361e-05,-0.0008339651558914142,0.0006426711232341421,-0.0003249983397504881,-0.0008088384605162077,-0.0011164019201139817,-0.2309686839580536,-50.93228530883789,-7.459916114807129,17.89893341064453,1.7412210702896118,-0.7633163928985596,0.09343110024929047,,,,,,,,,
1739303386.3181882,-0.10420529028468305,1.0594324700764977,-0.396115899357545,-1.428821638455492,1.5198732822767977,1.1617649138706276,1.3630085780652745,0.0004996633806791953,0.0013242181033837075,0.00026526602577266813,-8.77568563457849e-05,-0.0007433770358915648,-0.0007137871952542113,0.0009956267768831944,-0.2071649730205536,-50.98386001586914,-7.459916114807129,17.89893341064453,1.7412210702896118,-0.7633163928985596,0.07328949868679047,,,,,,,,,
1739303386.3282118,-0.10420797624448652,1.0594294903257644,-0.39612259341238615,-1.428821638455492,1.519872541843983,1.1617691523693099,1.3630016650742711,-0.0003365725278203791,0.00030483311274219504,-0.0010997943140661514,0.0006486364857627148,-0.0001812846181571826,-0.00045504066101927754,3.6137981804783154e-05,-0.1793939769268036,-50.93228530883789,-7.408341407775879,17.89893341064453,1.7476297616958618,-0.7633163928985596,0.10624848306179047,,,,,,,,,
1739303386.3402064,-0.10420145093904015,1.059430753969459,-0.39611601416706993,-1.4288225569135158,1.5198739367677996,1.1617699101071501,1.3629965406072597,0.0008639873473296383,0.0007369409782694181,-0.0005845676519015048,-0.00025355438387155294,-0.0007350883233459028,0.0004477395182162755,-0.00025819748447936466,-0.2309686839580536,-50.96005630493164,-7.459916114807129,17.89893341064453,1.7476297616958618,-0.7697250843048096,0.13279877603054047,,,,,,,,,
1739303386.352143,-0.1042056093200314,1.059428533475913,-0.3961138770028633,-1.4288178769995261,1.5198772180105036,1.1617691393651197,1.3630035041881554,-0.0013732458872409805,-0.0004130369448864284,0.00029445402948062165,0.0013198235246816583,0.0002803338009373361,0.0006604231277692035,0.0017908835551179495,-0.2071649730205536,-50.96005630493164,-7.459916114807129,17.84735870361328,1.7348123788833618,-0.7633163928985596,0.08610688149929047,,,,,,,,,
1739303386.3621902,-0.10420433496233908,1.0594298912013638,-0.3961141508632891,-1.4288216384560621,1.5198725302335212,1.1617690347094283,1.3630044413368119,0.00043545470408137306,0.0008233178704600893,0.0005093581432129453,7.46238379607674e-05,-0.0014484008479177678,5.512736675035063e-05,-0.0004143776679102222,-0.2309686839580536,-51.00766372680664,-7.483719825744629,17.89893341064453,1.7476297616958618,-0.7633163928985596,0.07969819009304047,,,,,,,,,
1739303386.3722193,-0.10420386176071733,1.0594267816223202,-0.3961177585626772,-1.4288155507485456,1.5198732820615557,1.1617682850942956,1.3630005047633589,0.0009020036610234266,-0.0012192274564589876,-0.0006677232818154315,0.0021525412444841864,0.0012579669225683961,-6.869299118987331e-05,-8.493623511909409e-05,-0.2309686839580536,-50.93228530883789,-7.436112403869629,17.84735870361328,1.7412210702896118,-0.7559921741485596,0.08610688149929047,,,,,,,,,
1739303386.3842144,-0.10420320459599079,1.059428531195899,-0.3961131148638581,-1.428817801448178,1.5198733213073137,1.1617699096226255,1.3629981640077398,0.0005528537623281465,-0.0005729685334534388,0.002059292908566563,0.0014687628198258142,0.0008847645255822287,0.0007166531335160542,-0.000372765952891417,-0.2071649730205536,-50.96005630493164,-7.459916114807129,17.84735870361328,1.7412210702896118,-0.7697250843048096,0.13279877603054047,,,,,,,,,
1739303386.395219,-0.10420387134643422,1.0594305746051795,-0.39611565975854435,-1.4288216384555399,1.5198743417176053,1.1617682865498389,1.363006863003383,0.0005240839060076516,0.00020953799816126212,0.00032050029100561624,0.0009995425429721676,-0.00020417173667592386,-0.0001345347879952015,0.0021368838483530692,-0.2309686839580536,-50.98386001586914,-7.436112403869629,17.89893341064453,1.7412210702896118,-0.7559921741485596,0.05955658480525017,,,,,,,,,
1739303386.4061472,-0.10420214855085139,1.0594285338164768,-0.3961138388049214,-1.428823421132511,1.5198764609937903,1.161768286388334,1.3630012938487577,0.0011164860992686208,0.0001965958094484603,0.0007987992783651848,-0.0004656656625679906,0.001614545511933295,-0.0001582197384128734,-0.0006842622065511945,-0.2309686839580536,-50.96005630493164,-7.459916114807129,17.92273712158203,1.7412210702896118,-0.7559921741485596,0.10624848306179047,727,735,726,39.762,0,0
1739303386.4161468,-0.10420820993196878,1.059425213055881,-0.39611773083911633,-1.4288236520854944,1.5198727181602207,1.161770667767228,1.3630021796301681,-3.764720519930652e-05,-0.0006476904711034459,-0.0017746717041878656,-0.00065381447618135,0.0007694953884192537,0.0008857755183222539,-7.603389727512658e-05,-0.1793939769268036,-50.93228530883789,-7.408341407775879,17.92273712158203,1.7549539804458618,-0.7761337757110596,0.12639008462429047,729,735,727,39.654,1,0
1739303386.4262607,-0.10420212355361097,1.0594282881267318,-0.3961156417588189,-1.428821638459403,1.519873635292112,1.1617677763537033,1.3629981636380715,0.0008809827080924764,0.0003562743775669382,0.0002784695140148762,0.0003481914544342482,0.0007219270632030726,-0.0011951519040536162,-0.00214611690531358,-0.2309686839580536,-50.98386001586914,-7.436112403869629,17.89893341064453,1.7412210702896118,-0.7559921741485596,0.13279877603054047,728,737,726,39.654,0,0
1739303386.4372053,-0.10420749314759144,1.059426457657992,-0.3961156962481293,-1.428825564096255,1.5198751857880703,1.1617667311898825,1.3629972976856584,-7.052859723605742e-06,-0.0013783230325284937,0.0007663680982231656,-0.00021339725410648248,0.0010737957659847333,-0.0002095954076302305,-0.001271044192349201,-0.1793939769268036,-50.93228530883789,-7.459916114807129,17.92273712158203,1.7549539804458618,-0.7697250843048096,0.14012299478054047,728,735,726,39.762,0,0
1739303386.4482136,-0.10420425311773138,1.05943298205811,-0.3961175315903769,-1.4288234222293872,1.5198747351844688,1.1617697922978003,1.3630020604555602,0.0003750349090293659,0.0008250903054574873,-0.000790967022106993,0.00033608469134630204,0.0010281571993087843,0.000567977298160872,0.00016031064116580425,-0.2309686839580536,-50.98386001586914,-7.436112403869629,17.92273712158203,1.7677713632583618,-0.7697250843048096,0.09983979165554047,728,735,726,39.871,1,0
1739303386.4591994,-0.10420529450618257,1.0594284560183391,-0.3961160141502363,-1.4288198557004181,1.5198725302415017,1.1617682865491745,1.3630052182601382,-0.001279477675797101,-0.0008660894862378965,-0.0003940864158077448,0.00101509859394575,0.0002713899327404526,7.542260171807636e-05,0.0021746236068023897,-0.2071649730205536,-50.96005630493164,-7.459916114807129,17.87512969970703,1.7476297616958618,-0.7559921741485596,0.07328949868679047,728,734,726,39.654,0,0
1739303386.4692538,-0.10420622891214588,1.0594319619035182,-0.3961160091733239,-1.428822874753881,1.5198725302156786,1.1617659981398467,1.3630036778638723,-0.000765089613662816,0.0013020996682501155,0.000245085618841236,-0.0015020342676772143,-0.00016577745850673023,-0.001956996546595514,0.0002028522783185337,-0.2071649730205536,-51.00766372680664,-7.459916114807129,17.87512969970703,1.7476297616958618,-0.7495834827423096,0.08610688149929047,728,736,726,39.762,0,0
1739303386.480142,-0.10420387407464722,1.059430757807398,-0.3961177968287245,-1.4288234240889548,1.5198727181423084,1.1617699100985095,1.3630051989978709,-0.00043090305017995205,0.0003786093049111683,0.0006316838675488608,-0.0012749024111050706,-0.0007378540183278573,0.0016406067849017434,0.001570382613225105,-0.2071649730205536,-50.96005630493164,-7.436112403869629,17.92273712158203,1.7549539804458618,-0.7697250843048096,0.07328949868679047,727,729,726,39.762,0,0
1739303386.4901943,-0.10420425438006886,1.0594302450126654,-0.3961139398242022,-1.428819855778523,1.5198733213252587,1.1617650945534992,1.3629973658858914,0.0006767055607305025,0.0008374266101706003,0.0017293717785303944,0.0010170310389476882,-0.000594915552199076,1.9642193001848877e-05,-0.002130250701743176,-0.2309686839580536,-50.98386001586914,-7.511490821838379,17.87512969970703,1.7412210702896118,-0.7559921741485596,0.11265717446804047,728,736,726,39.654,0,0
1739303386.5011632,-0.10420526542054832,1.0594306329480487,-0.3961177963664429,-1.4288176305384013,1.5198725258551506,1.1617699050824586,1.362999678885102,0.0012728883183014497,0.0006596799240999005,9.662845185171855e-05,0.0005788169045068863,-0.0005250303957606869,-0.00016537252240331007,-0.0015876771610474761,-0.2071649730205536,-51.00766372680664,-7.436112403869629,17.87512969970703,1.7476297616958618,-0.7697250843048096,0.11998139321804047,728,737,727,39.979,0,0
1739303386.5121458,-0.10420560693831285,1.059428652510021,-0.396117761507479,-1.4288217149723508,1.5198725244013869,1.1617664692516039,1.3630005448002793,-6.790072885876693e-05,-7.666043331500583e-05,-0.0004990923653726417,0.0003753043659431329,-0.000601395235410079,-0.00017504046102557146,-0.0001373890160994123,-0.2071649730205536,-50.96005630493164,-7.436112403869629,17.89893341064453,1.7476297616958618,-0.7495834827423096,0.11265717446804047,727,738,727,39.762,2,0
1739303386.5222383,-0.10420049254181905,1.0594287597554997,-0.39611894918462004,-1.4288198527273133,1.5198717767262329,1.1617695554229455,1.3629981650727794,0.0018875292705513255,0.00015850885702089877,-0.0004418851108600253,-0.00043352334059931644,0.0003035344522739007,-0.000691788188745027,-0.0012662400842757225,-0.2547723948955536,-50.93228530883789,-7.436112403869629,17.87512969970703,1.7549539804458618,-0.7697250843048096,0.13279877603054047,728,738,725,39.654,1,0
1739303386.5332072,-0.1042052401656108,1.0594319578851181,-0.3961128872802765,-1.4288198547609705,1.5198726427856384,1.1617699101051482,1.363000564168845,-0.0006020129678993958,0.0010438267811229396,0.0005828816868007431,8.712475141616882e-05,0.0004956291868951644,0.0008821924428018319,-0.0002957060492058777,-0.1793939769268036,-51.00766372680664,-7.459916114807129,17.87512969970703,1.7476297616958618,-0.7697250843048096,0.11265717446804047,728,730,726,39.762,1,0
1739303386.5441782,-0.10420536962270127,1.0594295214498373,-0.39611894916756696,-1.4288211683826493,1.519873400015036,1.161769865047093,1.3629972976857674,-0.00013037153435248414,0.0018393656686135674,-0.000314195281001655,-0.000523722843504316,-2.5262952289768542e-05,-7.373744496729092e-05,-0.0026726316979074384,-0.2071649730205536,-50.96005630493164,-7.436112403869629,17.92273712158203,1.7412210702896118,-0.7697250843048096,0.14012299478054047,725,737,725,39.654,1,0
1739303386.5552206,-0.1042045775698779,1.0594265375714331,-0.39611601415823855,-1.4288254599420467,1.5198725288165305,1.161767226911456,1.3630045740951011,-9.931725969306314e-05,-0.00033932614238040254,0.0013913907851417797,-0.00025095257808867153,-0.0006204468729210938,-0.00027430103972232527,-0.0013728924768628644,-0.2309686839580536,-50.93228530883789,-7.459916114807129,17.92273712158203,1.7476297616958618,-0.7559921741485596,0.10624848306179047,726,736,726,39.654,0,0
1739303386.566151,-0.10420560936188619,1.059428889171646,-0.3961129121947558,-1.4288224321054352,1.519873282061482,1.1617682865438579,1.3630014678565057,0.00014709226203017472,0.0001400348298549903,0.0007522356498055112,-0.0002172485663668986,0.0003954117169154025,0.00030916656101571694,-0.0001845427422475754,-0.2071649730205536,-50.96005630493164,-7.459916114807129,17.89893341064453,1.7412210702896118,-0.7559921741485596,0.10624848306179047,726,730,726,39.654,0,0
1739303386.577239,-0.10420513443396796,1.0594317734052543,-0.39611700627674423,-1.4288234211459514,1.5198732835150073,1.1617673719063348,1.3629998503914258,0.0005517760955858882,-0.00022604156849375575,-0.001402987729848232,-0.0004758040402042864,-0.0009554875925980884,-0.000748488195439331,-0.0014417917958148637,-0.1793939769268036,-50.98386001586914,-7.408341407775879,17.92273712158203,1.7412210702896118,-0.7495834827423096,0.12639008462429047,729,729,726,39.762,1,0
1739303386.588212,-0.10420539848423746,1.0594339554394392,-0.39611492402664533,-1.4288226108376092,1.5198725248858982,1.1617681673584241,1.3630040868388569,-0.0010141815848577467,0.0012407983925865605,-2.3648239553794473e-05,-0.0011503781851986623,-0.0006932336235230932,0.0009736272457867574,8.804770579336674e-05,-0.1793939769268036,-51.03543472290039,-7.436112403869629,17.87512969970703,1.7476297616958618,-0.7559921741485596,0.07969819009304047,725,730,726,39.762,1,0
1739303386.5982177,-0.10420632046736399,1.0594248217907816,-0.3961131530801332,-1.428821638502149,1.5198740382679934,1.161769792367562,1.3630022195688947,-0.0012706231179778972,-0.0006902488609641106,0.000640221921830879,-1.3234087560868348e-05,-0.00038391648682180627,0.00010022882267067494,0.0008296621861861032,-0.2071649730205536,-50.90848159790039,-7.459916114807129,17.89893341064453,1.7348123788833618,-0.7697250843048096,0.09983979165554047,727,730,727,39.871,0,0
1739303386.6082506,-0.10420436993407692,1.0594265344084126,-0.3961120711824003,-1.4288234212374904,1.5198740397215107,1.1617691524450782,1.3630005850299827,-0.0006387756080363546,-0.0009698173887714245,0.0016742514841632792,-0.00015593844604120107,0.0002960564718418673,5.887131360727527e-05,0.0006595187001325752,-0.2309686839580536,-50.93228530883789,-7.511490821838379,17.92273712158203,1.7348123788833618,-0.7633163928985596,0.11265717446804047,726,731,726,39.654,1,0
1739303386.619141,-0.10420628507862294,1.0594284984411715,-0.39611422707727056,-1.4288216384554924,1.5198709785447173,1.1617691524470721,1.3630012632147284,-0.00043479663411419083,-0.00035901070184425507,0.001923058536526869,0.000250515672036276,-0.0001697221406918941,-0.00028662274893147017,-0.0005834827730518894,-0.2071649730205536,-50.96005630493164,-7.483719825744629,17.89893341064453,1.7348123788833618,-0.7633163928985596,0.10624848306179047,727,730,726,39.762,1,0
1739303386.6291866,-0.10420607119404687,1.0594285324525197,-0.39611493580558,-1.4288234979768673,1.5198666815166966,1.1617667319838263,1.3630028580055238,-0.0003456377163663328,-0.00029701139899571214,0.001025180067918362,-0.0006630141525243242,-0.00037445028731713766,-0.00010520017347692245,-0.00036337878410028094,-0.2071649730205536,-50.96005630493164,-7.436112403869629,17.92273712158203,1.7613626718521118,-0.7431747913360596,0.09343110024929047,726,730,723,39.654,1,0
1739303386.6401768,-0.10420315496890073,1.059426545027408,-0.39611779682336906,-1.4288240363649156,1.5198732839915845,1.1617698970071793,1.3630009882785352,0.0002973414905599303,-0.0006089295565799859,-0.0007400454687444284,0.0004837104442559435,-0.0004091800136654275,0.0006359892443435801,-0.0012733313090304524,-0.2071649730205536,-50.93228530883789,-7.436112403869629,17.89893341064453,1.7412210702896118,-0.7697250843048096,0.11265717446804047,726,728,725,39.654,1,0
1739303386.652137,-0.1042038385121871,1.0594339554366223,-0.3961157664667716,-1.4288234211460473,1.519874837418545,1.1617689954635715,1.3629981635853938,0.0002130420796358046,0.0015122130038514613,0.0005831324963268521,-0.0010150983480371198,-0.0004475233908964822,0.0004019994258208601,-0.0008116669623985375,-0.2071649730205536,-51.03543472290039,-7.459916114807129,17.92273712158203,1.7549539804458618,-0.7633163928985596,0.13279877603054047,725,729,726,39.762,1,0
1739303386.6621928,-0.10420149495237345,1.0594302816044452,-0.3961136294921405,-1.4288198432277772,1.5198709003774962,1.1617697923686943,1.3630051989979037,0.0012323549741147684,0.00029959819389582413,0.0005333733389972214,0.00043616559772675554,-0.0019188434059777626,0.0002908349775289211,0.0016951222242852278,-0.2309686839580536,-50.98386001586914,-7.459916114807129,17.84735870361328,1.7613626718521118,-0.7697250843048096,0.07328949868679047,727,730,726,39.654,1,0
1739303386.6722755,-0.1042042532861878,1.0594302449755992,-0.3961141518524541,-1.4288224028721987,1.5198704070631792,1.161768168325759,1.3630014297073059,0.0001977512490707106,-0.0010230988904975794,0.0013762012042537156,-0.00013336070507162322,-0.0011520990626290482,-8.202023726437208e-05,-0.0009457099996118147,-0.2309686839580536,-50.98386001586914,-7.483719825744629,17.89893341064453,1.7476297616958618,-0.7559921741485596,0.12639008462429047,727,732,725,39.762,0,0
1739303386.6823175,-0.10420410758427427,1.0594334939709977,-0.3961160141503851,-1.4288243944723813,1.519874839159238,1.1617668736969984,1.3630044415458495,0.0001210961508652664,0.0006372251825953025,0.00014520303543144556,-0.0006328638550716951,9.371947686874667e-05,-0.000621974573594406,0.00048668804641861747,-0.2071649730205536,-51.00766372680664,-7.459916114807129,17.89893341064453,1.7549539804458618,-0.7559921741485596,0.07969819009304047,729,730,725,39.762,1,0
1739303386.6931136,-0.10420316265531018,1.059430233683645,-0.3961177850549956,-1.4288234315032684,1.5198726422107387,1.161767057931506,1.362999445290774,0.0004652106504243102,-0.0007602647561757075,0.0003346432236970884,3.557930826009068e-05,-0.00040990812032201484,-0.00035052053418759466,-0.0012399027993328642,-0.2071649730205536,-50.98386001586914,-7.436112403869629,17.92273712158203,1.7476297616958618,-0.7495834827423096,0.08610688149929047,728,731,725,39.762,0,0
1739303386.7032018,-0.10420141278024977,1.059431944308588,-0.396113154091562,-1.42882439456459,1.519874039885036,1.1617682863803585,1.3630044412660478,0.0018873172393926265,0.0007893376007271357,0.00041655668534217505,-0.0013492838662965993,-0.0004490573573648424,0.0007095615496401266,0.0005185016648226802,-0.2309686839580536,-51.00766372680664,-7.459916114807129,17.89893341064453,1.7348123788833618,-0.7559921741485596,0.07969819009304047,726,731,725,39.762,0,0
1739303386.715176,-0.10420407152192816,1.0594264936319209,-0.39611779648555867,-1.428821651030801,1.5198740006371851,1.1617698968636918,1.3630044418344545,0.0004896280763847676,-0.0005288718539825242,-0.0009891908374810106,-0.000742792448560112,8.42430958345227e-05,0.0006558880112854106,0.00045351728142493204,-0.2071649730205536,-50.96005630493164,-7.436112403869629,17.89893341064453,1.7348123788833618,-0.7697250843048096,0.07969819009304047,727,731,726,39.762,1,0
1739303386.7252102,-0.10420247300348764,1.059428531182995,-0.3961138683845197,-1.4288218875966958,1.5198725244011582,1.1617686814967176,1.363004441337828,0.0005298499615072731,-0.00041982328680716856,0.0006979204564733555,-0.0005705143741312384,0.00034423229780431846,5.611417764219524e-06,0.0010472784523473835,-0.2309686839580536,-50.96005630493164,-7.459916114807129,17.92273712158203,1.7476297616958618,-0.7633163928985596,0.07969819009304047,727,729,726,39.762,1,0
1739303386.7362483,-0.10420312476502629,1.0594285359589117,-0.3961138679363436,-1.428823421123854,1.5198740397215353,1.1617643499188797,1.3630007656943026,0.00030341110251640917,-9.223549268205706e-05,0.0001640880240418869,0.00018652248354096492,-0.0002333935340540971,-0.0004566740228603062,-0.0004975960844864554,-0.2071649730205536,-50.96005630493164,-7.459916114807129,17.92273712158203,1.7348123788833618,-0.7495834827423096,0.11998139321804047,727,728,725,39.762,1,0
1739303386.7471488,-0.10420591147650292,1.059428349085187,-0.39611779634423333,-1.428823684733848,1.519871658504146,1.161764349957428,1.3629982828164844,-0.0010868413355748746,1.8725288902331997e-05,-0.0002657460738194191,-0.0012096148312194474,-8.847859485682234e-05,-0.001194168235400533,-0.0019836148945754336,-0.1793939769268036,-50.98386001586914,-7.436112403869629,17.92273712158203,1.7549539804458618,-0.7495834827423096,0.13279877603054047,727,729,724,39.762,1,0
1739303386.759107,-0.10420338740033687,1.0594300040033304,-0.3961142197009548,-1.4288198555457778,1.5198740397215353,1.1617678940194929,1.3630012633807176,-0.0007921739614890636,-0.0009755205385466273,-6.475201661125285e-05,0.0010467984155372086,-0.0005058519235042016,-0.0006237308127213607,-0.001122686352409335,-0.2071649730205536,-50.98386001586914,-7.483719825744629,17.87512969970703,1.7348123788833618,-0.7559921741485596,0.10624848306179047,727,729,725,39.654,1,0
1739303386.7692027,-0.10420320324844885,1.0594285069430804,-0.3961155446252575,-1.4288219513618612,1.5198725244013787,1.1617682860631071,1.3630014279294735,0.00024054965460873823,-0.0009892742827489842,-0.0009841599846015178,0.000497761393417518,-0.00014657390178864874,-0.0011714492369456321,-0.0015840427489167306,-0.2071649730205536,-50.96005630493164,-7.436112403869629,17.87512969970703,1.7476297616958618,-0.7559921741485596,0.13279877603054047,727,729,725,39.654,1,0
1739303386.7801323,-0.10420686239412755,1.0594285324541037,-0.3961188345920618,-1.428821639727065,1.5198725636472354,1.1617691522855638,1.3629973659043189,-0.001212653244871487,0.000619739059818806,-0.00028060830227310944,0.0001808428612489907,-5.2274872434592066e-05,0.0005005252014692541,-0.0010491371456986126,-0.1555902659893036,-50.96005630493164,-7.408341407775879,17.89893341064453,1.7476297616958618,-0.7633163928985596,0.11265717446804047,727,730,725,39.762,0,0
1739303386.7902083,-0.10420425588346828,1.0594307564345757,-0.396117054955399,-1.4288216384555132,1.5198725244020432,1.1617691524470695,1.3629996788492122,-0.00022126250735063162,0.0005936259467790052,-0.00010482228986746538,0.00034625729573733077,5.6850879742766374e-05,0.0011862730081494877,0.00015495110056234736,-0.2309686839580536,-50.96005630493164,-7.436112403869629,17.89893341064453,1.7476297616958618,-0.7633163928985596,0.11998139321804047,727,730,725,39.654,0,0
1739303386.8011694,-0.1042075460666546,1.059425182194969,-0.3961177928636403,-1.4288216325524628,1.5198732957894314,1.1617682865498398,1.363002382126543,-0.0005902591617726374,-0.001858665209872241,-0.000276606808851478,0.0007759137925526816,0.0015138361622893555,0.0005720120135818534,0.001768836444827406,-0.1555902659893036,-50.90848159790039,-7.436112403869629,17.89893341064453,1.7412210702896118,-0.7559921741485596,0.07328949868679047,726,727,724,39.871,1,0
1739303386.8121817,-0.1042037794382282,1.059427843691497,-0.396118530562725,-1.428822327069504,1.5198740397216128,1.1617691519625553,1.3630013026651808,-0.0002322922900795093,-0.00020062107213484427,-0.0013407923425404365,-0.0005317365392675975,-0.0007054470035972322,0.00020636297387251413,0.00046987761878123117,-0.2309686839580536,-50.96005630493164,-7.436112403869629,17.89893341064453,1.7348123788833618,-0.7633163928985596,0.10624848306179047,728,729,725,39.654,2,0
1739303386.8231394,-0.10420336113834523,1.0594284833930387,-0.39611771736003487,-1.4288234212413768,1.5198775031713712,1.1617679331756217,1.3629989038003671,-0.00041883136108327693,0.00043527322260479453,-0.0007269355002819675,-0.0002735690917069085,0.001662426902311706,0.00033822230434845676,-0.00041466252148656584,-0.2071649730205536,-50.96005630493164,-7.436112403869629,17.92273712158203,1.7412210702896118,-0.7559921741485596,0.12639008462429047,727,729,725,39.762,1,0
1739303386.8331985,-0.10420336110092479,1.0594265829141254,-0.3961134014208091,-1.4288211962073807,1.5198764597367493,1.1617682865318864,1.3630011847219017,-0.00012403059375060474,0.0005045741972106138,0.0012700370366624356,0.0003494789350419053,0.000546406602096966,-0.0006126074038904003,-0.0006169068747772944,-0.2071649730205536,-50.93228530883789,-7.483719825744629,17.92273712158203,1.7412210702896118,-0.7559921741485596,0.10624848306179047,726,730,726,39.654,1,0
1739303386.8441389,-0.1042031204561146,1.0594319579857014,-0.39611988103220513,-1.4288233937486419,1.5198762110474409,1.1617691132012153,1.3629981635288337,0.00032992165175553534,0.0005434680056310067,-3.398880614402584e-05,-0.00024286394715840407,0.0012837299348247573,0.001147369455361393,-0.0020539324959291576,-0.2071649730205536,-51.00766372680664,-7.408341407775879,17.92273712158203,1.7549539804458618,-0.7633163928985596,0.13279877603054047,727,729,724,39.654,1,0
1739303386.8541653,-0.10420236286237114,1.0594302449749873,-0.3961198501277297,-1.4288216381158663,1.5198725244784763,1.1617691524464073,1.3630013024603571,-0.001408786187109982,0.0009281531997706461,-0.0019771865045384108,6.101668726120541e-06,-0.001034986374556912,0.0008186050970937288,-0.0010037953205697006,-0.2309686839580536,-50.98386001586914,-7.408341407775879,17.89893341064453,1.7476297616958618,-0.7633163928985596,0.10624848306179047,726,729,721,39.545,1,0
1739303386.865186,-0.10420315454642506,1.0594284650821937,-0.3961138108779914,-1.4288198557784673,1.5198772186359246,1.1617682865498398,1.363001421970138,-7.220999854973338e-05,-0.0009577889833564015,-0.00019994050865645654,0.00042439999470055223,0.0009279076561936365,0.0009382372762315546,-0.0013320896177978843,-0.2071649730205536,-50.96005630493164,-7.459916114807129,17.87512969970703,1.7348123788833618,-0.7559921741485596,0.13279877603054047,727,730,722,39.654,0,0
1739303386.875228,-0.10420175379628602,1.0594299388569168,-0.3961191612050783,-1.428821638455492,1.5198737530296818,1.1617691524470721,1.3630051597704407,0.00035523106996473866,0.0002926071486006463,-0.0005574838221737228,0.0005026724869417745,0.0013563517808542216,0.000678330527893786,0.0011465941308997616,-0.2309686839580536,-50.98386001586914,-7.408341407775879,17.89893341064453,1.7412210702896118,-0.7633163928985596,0.07328949868679047,727,730,724,39.654,0,0
1739303386.8871067,-0.10420141278153122,1.0594302440661278,-0.39611350444118165,-1.4288223272202758,1.5198772229992326,1.1617688504690211,1.3630005047631375,0.0012303656626144674,0.00044315165416417663,0.00122110846647619,-0.00037544483195476604,0.001399449284259104,0.00023281970134277736,-0.0005728331539360677,-0.2309686839580536,-50.98386001586914,-7.483719825744629,17.89893341064453,1.7348123788833618,-0.7697250843048096,0.08610688149929047,727,730,724,39.762,1,0
1739303386.8972013,-0.10420725345768587,1.0594272762600803,-0.39611768155811394,-1.4288214291130807,1.519874838890054,1.1617676213681645,1.3630003234483719,-0.0005150288702135575,-0.001968001998924835,0.0007602515433277828,0.00011637510722457725,-0.000283690439253319,-0.0004775966473813715,-0.00023855355035154067,-0.1793939769268036,-50.93228530883789,-7.436112403869629,17.92273712158203,1.7549539804458618,-0.7633163928985596,0.07969819009304047,728,729,725,39.654,1,0
1739303386.908222,-0.10420141315249534,1.059426534517582,-0.3961143093661876,-1.4288199322589639,1.519872523019617,1.1617695394431948,1.363003683600666,0.0005148751771826768,-0.0008366187813097904,0.00038869974831983015,0.00046810845479362654,0.0002541900745088903,0.0010764711199632334,-0.00010796839480442435,-0.2309686839580536,-50.93228530883789,-7.483719825744629,17.87512969970703,1.7476297616958618,-0.7697250843048096,0.08610688149929047,727,732,725,39.654,0,0
1739303386.9191453,-0.1041996995731513,1.059427047571897,-0.39611778396527264,-1.4288217231494513,1.519873295035731,1.161769139201522,1.3630036836777466,0.002111926009659732,-0.0009748600739374199,4.2315834405331413e-05,0.00020643351229059206,0.000803184737956634,-0.0002027880432452441,0.001068214120240989,-0.2547723948955536,-50.90848159790039,-7.436112403869629,17.89893341064453,1.7412210702896118,-0.7633163928985596,0.08610688149929047,727,730,725,39.871,1,0
1739303386.9301014,-0.10420441162159604,1.0594302336498505,-0.3961177879983622,-1.4288219700834586,1.5198716585042193,1.1617682863882592,1.3630028177805147,-0.0007185977073873696,0.000748552472188973,0.000284527696796621,-0.0005999892756524171,0.0002492640445691453,0.0012001153209540156,0.00043407947536791656,-0.1793939769268036,-50.98386001586914,-7.436112403869629,17.89893341064453,1.7549539804458618,-0.7559921741485596,0.09343110024929047,727,730,725,39.654,1,0
1739303386.9401946,-0.10420310214369373,1.0594296038655586,-0.3961160102266993,-1.4288217150017608,1.5198757038002835,1.1617697923695722,1.3630020470384838,-0.00024745335691106723,9.53928576604255e-05,0.0008517716311891205,-0.001032796178646679,0.000756028616211362,0.00048507394684770325,-0.0005791799080547404,-0.2071649730205536,-50.96005630493164,-7.459916114807129,17.89893341064453,1.7476297616958618,-0.7697250843048096,0.09983979165554047,727,730,724,39.654,1,0
1739303386.9501956,-0.10420725313252709,1.059428551441223,-0.39611777022871664,-1.4288225653131026,1.519873288414018,1.161769139363126,1.363004402091747,0.0002291604220670184,-0.000563094036145745,-0.0007166512961610968,-1.5097201765220337e-05,-0.0007172475882529703,-0.0007906323654561858,7.092448034059086e-05,-0.1793939769268036,-50.96005630493164,-7.436112403869629,17.89893341064453,1.7412210702896118,-0.7633163928985596,0.07969819009304047,729,729,725,39.654,1,0
