IITGN-Robotics/Franka_IITGN_ROBOTICS/franka_ros/franka_iitgn/data01/s_f_011.csv
time,fr3_joint1_pos,fr3_joint2_pos,fr3_joint3_pos,fr3_joint4_pos,fr3_joint5_pos,fr3_joint6_pos,fr3_joint7_pos,fr3_joint1_vel,fr3_joint2_vel,fr3_joint3_vel,fr3_joint4_vel,fr3_joint5_vel,fr3_joint6_vel,fr3_joint7_vel,fr3_joint1_eff,fr3_joint2_eff,fr3_joint3_eff,fr3_joint4_eff,fr3_joint5_eff,fr3_joint6_eff,fr3_joint7_eff,flexpin1,flexpin2,flexpin3,Force,ContactMic,ContactMic_gt
1739304889.3116195,-0.05264195766371079,1.10594514035877,-0.48153741661612,-1.4138859059242268,1.6231706118143414,1.0683247596496004,1.3583174324626845,-0.0007136483720832669,0.00039182288065214637,-0.00044906477939926675,-0.00044134269226900775,-0.0022096891338231105,-0.0006247377948414999,0.0009075434900621298,-0.2547723948955536,-50.98386001586914,-9.491166114807129,17.10944366455078,1.8785501718521118,-1.2036850452423096,0.03300629183650017,,,,,,,,,
1739304889.321645,-0.05263537930200638,1.1059451532846027,-0.48153091933101555,-1.4138933686519801,1.6231736423828758,1.0683218773279632,1.3583099086488848,0.0010135195980611376,1.3324545832297217e-07,0.0005456701870129452,-0.0012391967665537288,0.0006464524920175563,0.000399725829287934,-0.0015892859168780249,-0.3063471019268036,-50.98386001586914,-9.542740821838379,17.08167266845703,1.8529154062271118,-1.2165024280548096,0.09343110024929047,,,,,,,,,
1739304889.33261,-0.052640473448817185,1.105941955542131,-0.4815358722324443,-1.4139040375079905,1.623175695156222,1.0683218767151361,1.3583068582991733,-0.001473031291301149,-0.0020923325766641124,6.221306288259579e-05,-0.0022556643396165754,0.0014233279400871174,0.0015080754860694171,0.001565216804248982,-0.2309686839580536,-50.90848159790039,-9.514969825744629,17.10944366455078,1.8465067148208618,-1.2165024280548096,0.10624848306179047,,,,,,,,,
1739304889.3436503,-0.052636754252466965,1.1059483322113244,-0.48154076550735325,-1.4139084287869506,1.6231718403602302,1.0683171110083927,1.3583071132290425,5.640213806498446e-05,0.0013764853876739522,-0.00020024450766305984,-0.001985623436132883,-0.0003804941267270518,0.00036472955321720696,0.00024820433088984365,-0.2825433909893036,-50.98386001586914,-9.439591407775879,17.10944366455078,1.8721414804458618,-1.2165024280548096,0.03941498324275017,,,,,,,,,
1739304889.3536773,-0.05263494133891705,1.1059530377061064,-0.48153363824908546,-1.4139182037131033,1.623169745384739,1.0683148224927774,1.3583036209014845,-0.00014664501228622227,0.001566780641372059,0.00050116317975405,-0.0009975987747308543,-0.0008127761627123662,-0.0010117563218644248,0.0003589170674020794,-0.3063471019268036,-51.03543472290039,-9.514969825744629,17.15705108642578,1.8858743906021118,-1.1972763538360596,0.06596527993679047,,,,,,,,,
1739304889.3646023,-0.05263427699241132,1.1059531441724717,-0.4815404726396971,-1.413921528327604,1.6231690012672,1.0683112490453428,1.358299205410974,-0.00038284557113518855,-0.00010853594053895579,-0.0010810654485780254,8.770506348292149e-05,-0.0007535393743933587,-0.0002059551845775321,-0.0023019055402497433,-0.2825433909893036,-51.00766372680664,-9.439591407775879,17.15705108642578,1.8922830820083618,-1.2036850452423096,0.10624848306179047,,,,,,,,,
1739304889.375572,-0.05263353165253386,1.1059573243469185,-0.4815386395531991,-1.4139286087053446,1.6231737906569739,1.0683140855651794,1.3583011112637833,0.00023104059969278253,0.0006666772898165209,6.275883124400392e-05,-0.0016088933839073143,-0.0003553114237557741,0.0008711580977343337,-0.0017554646292928188,-0.2825433909893036,-51.03543472290039,-9.467362403869629,17.18085479736328,1.8785501718521118,-1.2036850452423096,0.08610688149929047,,,,,,,,,
1739304889.3855963,-0.05263185124538413,1.1059562481634564,-0.481533369112607,-1.4139243725076733,1.623168988400591,1.0683090871160104,1.3583032476755779,0.00024848891766471965,-2.890153092146479e-05,0.0009021748632023266,0.00030537091030343334,-0.00015728770583771,0.0004337949979603968,0.0025762992334934396,-0.3063471019268036,-51.00766372680664,-9.514969825744629,17.10944366455078,1.8922830820083618,-1.1899521350860596,0.05955658480525017,,,,,,,,,
1739304889.3956513,-0.052631500894895246,1.105958508740409,-0.48153829918992014,-1.4139284608612601,1.6231731867008508,1.0683087292109361,1.358293757006863,0.0013328313561554762,0.0007300321799025932,-0.00019291622472801355,0.0003280989899844995,0.00022805365220854523,-0.0006321653766355116,-0.0015384238813466074,-0.3063471019268036,-51.00766372680664,-9.439591407775879,17.13324737548828,1.8657327890396118,-1.1899521350860596,0.11998139321804047,,,,,,,,,
1739304889.4056559,-0.052634877237327925,1.105961500075783,-0.48153621873688546,-1.4139292956257616,1.6231689481662748,1.0683095907414566,1.358304354814403,-0.0002092265663845743,0.0007939084879188048,0.0004041332243477492,-0.0003994336444652956,-0.0012016398703752651,6.193271297516583e-06,0.0016419425564244588,-0.2309686839580536,-51.03543472290039,-9.467362403869629,17.13324737548828,1.8657327890396118,-1.1972763538360596,0.04673920199275017,,,,,,,,,
1739304889.416598,-0.05263416384008814,1.1059578426138261,-0.481536141305045,-1.4139310518259645,1.62316910585104,1.0683086899629815,1.3582932657817453,0.0005904131106957563,-0.0009160791229335147,0.00015024146898551903,-0.0006373531323960628,-0.0010982296395898213,-0.0002489780571095914,-0.0011991203713613554,-0.2309686839580536,-50.98386001586914,-9.467362403869629,17.15705108642578,1.8922830820083618,-1.1899521350860596,0.11265717446804047,,,,,,,,,
1739304889.427682,-0.05263459585026253,1.1059579459494349,-0.481538373657991,-1.4139311087323072,1.623172865827307,1.0683066321244499,1.3582971050738735,0.0005686734659319562,0.0003495494872924307,-0.0022343737573994977,-0.00020234193456195642,-0.0008632571833143734,-0.0005444007426346727,-0.0009257572230769841,-0.2547723948955536,-50.98386001586914,-9.467362403869629,17.15705108642578,1.8593240976333618,-1.1972763538360596,0.07969819009304047,,,,,,,,,
1739304889.438573,-0.05263037704466012,1.1059572538339715,-0.4815362190730631,-1.4139285768528154,1.6231682152568128,1.0683062398108845,1.3582936945063036,0.001162401012352171,-0.0002735488008698425,0.0007338715461615988,0.00028213431588723317,-0.0012751295325885473,-0.0008269998449484096,-0.0015771105529522797,-0.2825433909893036,-50.93228530883789,-9.467362403869629,17.10944366455078,1.8858743906021118,-1.1972763538360596,0.11265717446804047,,,,,,,,,
1739304889.4486504,-0.052630400497024936,1.1059569138601761,-0.48154009330153213,-1.413929307540689,1.6231728827588086,1.0683082149681298,1.3582957431140137,0.0009495232917864256,-0.00033454835834304404,-0.0012881920937851197,-0.000747002874163083,-0.000833204285739424,-0.0004939851982976247,0.0004366306949377287,-0.2825433909893036,-50.93228530883789,-9.415787696838379,17.13324737548828,1.8593240976333618,-1.2229111194610596,0.09983979165554047,,,,,,,,,
1739304889.4595866,-0.05263166136952306,1.1059598144841114,-0.481535151639685,-1.4139303655619633,1.6231713694026284,1.0683098872657384,1.3583011634997195,-0.0004200659869815893,-8.725819880661223e-05,0.0012587381442723997,0.00019272997787811468,-0.0002630061227483889,-0.00011172406057171072,0.0011300745038160297,-0.2547723948955536,-51.00766372680664,-9.491166114807129,17.13324737548828,1.8721414804458618,-1.2100937366485596,0.04673920199275017,,,,,,,,,
1739304889.4696631,-0.05263026874988287,1.105960734710804,-0.48153265371897513,-1.4139340585127675,1.6231722825925943,1.0683074529835088,1.3582994861326179,0.001176287243089367,-0.00021092168976896583,0.0015043221149554308,0.0005314756475669888,0.001834762859587398,-0.0007647886212519098,0.0009526381367632568,-0.2825433909893036,-50.98386001586914,-9.514969825744629,17.15705108642578,1.8657327890396118,-1.2165024280548096,0.05955658480525017,,,,,,,,,
1739304889.480615,-0.05263060767246165,1.1059609682305005,-0.4815379559558269,-1.413930766606574,1.6231704634693644,1.068307049935634,1.3582961729349525,-4.524678915118993e-05,0.00021677404980861086,-0.0007619412140154938,0.0017154489520851478,0.0001945957899781656,0.0007655486388405193,-0.000418166366787745,-0.2825433909893036,-50.98386001586914,-9.415787696838379,17.10944366455078,1.8529154062271118,-1.2100937366485596,0.08610688149929047,,,,,,,,,
1739304889.4916406,-0.052632360349064475,1.10595919127036,-0.481532653658861,-1.413932275872335,1.6231675352257102,1.0683059376112973,1.3582977811359858,-2.5858551152441525e-05,-0.0007819676207076754,0.00023657068795036241,0.0013403362569160274,-0.0007694511673410718,0.00038692353552532196,0.0005420715947432568,-0.2547723948955536,-50.96005630493164,-9.514969825744629,17.13324737548828,1.8657327890396118,-1.2036850452423096,0.07328949868679047,,,,,,,,,
1739304889.501676,-0.052630137073474616,1.1059610489996659,-0.48153645758849484,-1.4139342970727145,1.623175607392877,1.0683059376092954,1.3582986703623046,0.0010693744647122428,0.0004239682368881044,-0.00035277279482295886,-0.00031721779942927035,0.0001402536071984441,-0.0002414573902439405,0.0009772633511155716,-0.2825433909893036,-50.98386001586914,-9.467362403869629,17.15705108642578,1.8721414804458618,-1.2036850452423096,0.06596527993679047,,,,,,,,,
1739304889.5134401,-0.05263237205202975,1.105961922221527,-0.4815362190622468,-1.413932514290717,1.62317049408275,1.068305179949217,1.3582932083741701,-9.16842429859359e-05,0.0004197534125099658,-0.0009291939451629603,0.0009255025974548971,0.000590670066174128,0.00026471058811534926,-0.00043418931882655,-0.2547723948955536,-50.98386001586914,-9.467362403869629,17.13324737548828,1.8785501718521118,-1.1972763538360596,0.11265717446804047,,,,,,,,,
1739304889.5236478,-0.05263163459919287,1.1059627075638243,-0.48153621776481803,-1.413926514886948,1.6231674197455566,1.0683043140519846,1.3582977028357794,-0.00032984062165058244,6.268928742175848e-05,0.00014356525460726356,0.0018935561393886027,-0.0013537911174917618,0.0006467392075211789,0.001269735867935694,-0.2547723948955536,-51.00766372680664,-9.467362403869629,17.08167266845703,1.8785501718521118,-1.1899521350860596,0.04673920199275017,,,,,,,,,
1739304889.5345762,-0.052632372481737036,1.105959364933427,-0.48153646296157726,-1.4139325142786534,1.6231686861891803,1.0683059238813206,1.3582887220283697,0.00011912055230459699,-0.0010967112972287384,-0.00035862228171001475,0.0007069083160000417,-0.0010028035519007738,-7.361116822746951e-06,-0.002132055059426587,-0.2547723948955536,-50.96005630493164,-9.467362403869629,17.13324737548828,1.8858743906021118,-1.2036850452423096,0.11998139321804047,,,,,,,,,
1739304889.545596,-0.052633847210103335,1.1059580531414326,-0.48153833417340364,-1.4139310053535477,1.6231712560197384,1.06830199645876,1.3582957741025077,-0.0011667348770055528,-0.0010499924075369508,-0.0007462196084014551,-0.0006765674332564974,3.523864988519371e-05,-0.0008473707198427883,0.0007264573024401018,-0.2309686839580536,-50.93228530883789,-9.439591407775879,17.10944366455078,1.8721414804458618,-1.1972763538360596,0.05314789339900017,,,,,,,,,
1739304889.5566092,-0.05263037411117486,1.1059572698634172,-0.4815385372695344,-1.4139325141832455,1.6231706131954715,1.0683051784238606,1.3582959846318958,-0.00021768253837206144,-0.0021254292449978804,-0.00017367196021840495,0.0001602596234738999,0.0007770623672997352,-0.00016609515976823716,-0.0008094554732577356,-0.2825433909893036,-50.93228530883789,-9.439591407775879,17.13324737548828,1.8785501718521118,-1.1972763538360596,0.08610688149929047,,,,,,,,,
1739304889.5676198,-0.052634075325212644,1.1059614060812768,-0.4815362192076012,-1.4139343322890061,1.623172113980774,1.068303767098369,1.358297741889066,-0.0009558969342778125,-0.0006406493757263214,0.0010259376874718422,-0.0003084197938301136,-0.0006460003977618507,0.0007980179040746433,-3.454837411625541e-05,-0.2309686839580536,-50.96005630493164,-9.467362403869629,17.15705108642578,1.8657327890396118,-1.1972763538360596,0.07328949868679047,,,,,,,,,
1739304889.577637,-0.052627283828196376,1.1059614326812524,-0.4815371766598049,-1.413935259472968,1.623168942333907,1.06830198792895,1.3582970855414431,0.0007023213348904721,-0.00015116735898820178,-0.0006581500126060719,-0.0001875177043145051,-0.0016434305484569675,0.00033067536250858733,0.0020049188465242384,-0.2825433909893036,-50.96005630493164,-9.467362403869629,17.15705108642578,1.8657327890396118,-1.1972763538360596,0.07969819009304047,,,,,,,,,
1739304889.587669,-0.052632372001033614,1.1059593747816034,-0.48153264497452364,-1.4139317117952674,1.6231713693487058,1.068300377423461,1.3582986688734666,-0.00044811421403972334,-0.00099736647438316,0.0022630349337324843,0.0009659257075012777,0.000681140268480536,-0.0008269323993003216,0.0027263086993745155,-0.2547723948955536,-50.96005630493164,-9.514969825744629,17.10944366455078,1.8721414804458618,-1.1835434436798096,0.06596527993679047,,,,,,,,,
1739304889.5986063,-0.052630362406892665,1.105961655785983,-0.48153622081722425,-1.4139325245801178,1.623168190488251,1.0683020107655328,1.358296342616419,0.001734982474268369,-3.226368314415553e-06,0.00026114881464663975,0.0013195168714093164,-0.0008554156623194761,-0.002779954603533902,0.0023124532536255423,-0.2825433909893036,-50.98386001586914,-9.467362403869629,17.13324737548828,1.8721414804458618,-1.1835434436798096,0.08610688149929047,,,,,,,,,
1739304889.6086483,-0.052633372156750284,1.1059658995664194,-0.48153619270725656,-1.413931764761048,1.6231718250308316,1.0682999045629962,1.3582994457372488,-0.00016778171904099773,0.0006909677034197513,0.00040372175937675116,-0.0007030276161528004,-0.0007932218898393238,-0.00242526196401125,0.0015745647718682242,-0.2309686839580536,-51.00766372680664,-9.467362403869629,17.10944366455078,1.8593240976333618,-1.1835434436798096,0.05955658480525017,,,,,,,,,
1739304889.6205845,-0.052634072864455594,1.105961219500165,-0.48153621906075156,-1.4139333447824818,1.6231713563147052,1.0683027543136419,1.3582971049118158,-0.00040841182059303224,-0.0009993464985058704,-0.0006861449897761559,0.0002033977787662536,-0.0009271225014589979,0.001418350240128186,0.0008705720874576501,-0.2309686839580536,-50.93228530883789,-9.467362403869629,17.13324737548828,1.8721414804458618,-1.2036850452423096,0.07969819009304047,,,,,,,,,
1739304889.6305842,-0.052634048481698975,1.1059678976633514,-0.48153409348895215,-1.4139339499239856,1.6231693911789946,1.0683056353979337,1.3582999197968857,-0.0005985365307115047,0.0014102616303662083,0.00028476332053239565,0.0009680761998473685,-0.0005224786316355272,0.0018216422288263353,0.0012544439520143953,-0.2309686839580536,-51.03543472290039,-9.467362403869629,17.10944366455078,1.8858743906021118,-1.2100937366485596,0.07969819009304047,,,,,,,,,
1739304889.6416376,-0.052634084465509906,1.1059645446740314,-0.48153621933994795,-1.4139339501554975,1.6231733288985362,1.0683004307100634,1.358295858619714,5.7773108229447896e-05,0.0008998114159436597,-0.0003426596850294399,0.0008267584652888388,0.0016881643035878478,-0.0013528098751475637,-9.086160763154265e-05,-0.2309686839580536,-50.98386001586914,-9.467362403869629,17.10944366455078,1.8529154062271118,-1.1972763538360596,0.05314789339900017,,,,,,,,,
1739304889.651677,-0.05263546933741729,1.1059633009538332,-0.4815382991778094,-1.413933843210538,1.6231717733601825,1.0682999575199628,1.35829422148086,-0.0014252578690112368,0.0006979768593534607,-0.0002965072697322929,7.203031877455683e-05,0.0004016460337649552,0.0003693664035019805,-0.0016626085237105665,-0.2071649730205536,-50.93228530883789,-9.439591407775879,17.10944366455078,1.8657327890396118,-1.1899521350860596,0.06596527993679047,,,,,,,,,
1739304889.661686,-0.05263237204781725,1.1059661471280846,-0.4815382988507614,-1.4139357329397215,1.6231717736825124,1.0683039021389698,1.3582943013175681,0.00042501343652942444,0.0010293972033537761,-0.000991292530401976,-0.0005539552494983522,0.00032840355771532266,-0.00031146511191999473,-0.00023614462573944302,-0.2547723948955536,-51.00766372680664,-9.439591407775879,17.13324737548828,1.8657327890396118,-1.1899521350860596,0.09983979165554047,,,,,,,,,
1739304889.672619,-0.05262936937740477,1.105971125014505,-0.48153621906090033,-1.4139357061235325,1.6231720804932799,1.0683050222636075,1.3582899607608627,0.0004620799021601243,0.004313668111283158,-0.0002304594013543636,-0.0010357984303190886,0.00011183568982046376,0.0012018979624827276,-0.0008059345292572421,-0.2547723948955536,-51.03543472290039,-9.467362403869629,17.13324737548828,1.8657327890396118,-1.1972763538360596,0.14012299478054047,,,,,,,,,
1739304889.6836686,-0.05263407577793247,1.1059644917466822,-0.4815330257406216,-1.4139339427422417,1.6231710654324234,1.0683059180662295,1.358289469201278,-0.00013851906464982486,0.0006912578860609503,0.0006722449609833024,-0.000439755036640395,0.00012495625798663072,0.0015031101239504246,-0.001737393375913855,-0.2309686839580536,-50.98386001586914,-9.491166114807129,17.10944366455078,1.8657327890396118,-1.2036850452423096,0.11265717446804047,,,,,,,,,
1739304889.6945922,-0.05263283412732037,1.1059607244388217,-0.4815345423397311,-1.4139317956669435,1.6231718250786737,1.0683028822510467,1.3582952935919241,-0.0005256453894906906,-0.0010160554583791576,0.0004023134964435241,0.0006759853068119982,0.001046832726443493,0.0003951775399128718,0.0005163555384139432,-0.2071649730205536,-50.93228530883789,-9.491166114807129,17.10944366455078,1.8593240976333618,-1.1899521350860596,0.06596527993679047,,,,,,,,,
1739304889.7055774,-0.05263494957738531,1.1059682470579961,-0.4815344363844794,-1.4139371604974071,1.623172127056736,1.0683005298185564,1.3582911341578952,-0.0005108886574973753,0.0019001254686869733,0.0007812993016471786,2.401385680887041e-05,0.0006016358270146752,0.001191571543315454,0.00015422067548282392,-0.1793939769268036,-51.00766372680664,-9.491166114807129,17.13324737548828,1.8657327890396118,-1.1972763538360596,0.11998139321804047,,,,,,,,,
1739304889.71571,-0.05262996248963541,1.1059661481374938,-0.48154008152777494,-1.4139339474542685,1.6231703112180602,1.068299545682405,1.3582933096476628,0.00039060531745901657,-0.0012914223511715445,-0.0011743400324764205,0.0008882451038263675,-0.0008917220903204812,-0.0005266561900574347,-0.0009114878009918203,-0.2547723948955536,-51.00766372680664,-9.415787696838379,17.10944366455078,1.8721414804458618,-1.1899521350860596,0.07969819009304047,,,,,,,,,
1739304889.726585,-0.052634058078334024,1.105965482703576,-0.48153443541181956,-1.41393573261447,1.6231729065200764,1.068300413031185,1.3582970854668814,-0.0003985173360001024,0.0012340301447963111,0.0004365637851395168,5.0488634494821194e-05,0.00039681644010692034,-0.0010756005918444807,0.0006803029910516247,-0.2309686839580536,-50.96005630493164,-9.491166114807129,17.13324737548828,1.8593240976333618,-1.1972763538360596,0.07969819009304047,,,,,,,,,
1739304889.7367182,-0.05263088568733051,1.10596381425135,-0.48153828718599867,-1.4139357331595614,1.623172109620484,1.0683020460889363,1.3582939655376176,3.259188049219058e-05,0.00031385863558990783,-1.0639186356430129e-05,-3.1663433550332616e-06,0.0001218861772837417,0.0004965080728220266,0.0009407091430950639,-0.2309686839580536,-50.93228530883789,-9.439591407775879,17.13324737548828,1.8657327890396118,-1.2100937366485596,0.10624848306179047,,,,,,,,,
1739304889.7476249,-0.0526323589929351,1.105965775417582,-0.4815316301257978,-1.4139374891276015,1.6231735399134586,1.0682995514952762,1.358299268966773,-0.0009521241462754654,-0.00020494497359185295,0.0013793075875889482,-0.0010247856207692093,0.0016259772122732752,-0.00033627301412938944,0.0027147498479465283,-0.2547723948955536,-50.96005630493164,-9.514969825744629,17.15705108642578,1.8657327890396118,-1.1899521350860596,0.07328949868679047,,,,,,,,,
1739304889.7585766,-0.05262749026631357,1.105965811180094,-0.48153621905512217,-1.4139318704745103,1.6231731714405704,1.0683000558765716,1.358300223932704,0.0014363407798532292,0.000855855368733715,-0.0006185842770054902,0.0009344605736945031,-1.259540781142223e-05,-6.799178101217761e-05,0.0016105542390360238,-0.2825433909893036,-50.96005630493164,-9.467362403869629,17.08167266845703,1.8529154062271118,-1.1899521350860596,0.05314789339900017,,,,,,,,,
1739304889.7686076,-0.05263201953525026,1.1059598768352716,-0.4815344101382145,-1.4139339311866685,1.623170885362432,1.0683011711844206,1.3582970915027066,-6.810507821191616e-06,-0.0011868341833822403,0.00010096709861111467,0.00038117923481881537,-0.0005423006466073888,0.00016759134077197512,0.0009787424557659884,-0.2547723948955536,-50.90848159790039,-9.491166114807129,17.10944366455078,1.8721414804458618,-1.2036850452423096,0.07969819009304047,,,,,,,,,
1739304889.779688,-0.05262919971549798,1.1059630697592666,-0.4815344363834368,-1.4139346642117345,1.6231728847145988,1.0682998869043432,1.3582954747327773,0.0013062799513384646,-0.00151532077926352,0.0010025201498676138,0.00014888875347465866,-0.00021162108782478884,-0.0012808917359989588,0.000984968462857836,-0.2547723948955536,-50.93228530883789,-9.491166114807129,17.10944366455078,1.8593240976333618,-1.1835434436798096,0.09343110024929047,,,,,,,,,
1739304889.790577,-0.0526299182624449,1.1059658484988044,-0.4815354645017996,-1.413937515619897,1.6231736409293243,1.0682997157478489,1.3582932024149297,0.001510058559379101,0.0007707312834733918,0.00029967870096372765,-0.0005524848224661706,5.993381634079268e-05,-1.2445093560172373e-05,-0.0009758707188125878,-0.2547723948955536,-50.96005630493164,-9.439591407775879,17.15705108642578,1.8529154062271118,-1.1899521350860596,0.11265717446804047,,,,,,,,,
1739304889.8006432,-0.052632837048348785,1.1059687630309065,-0.4815362218483328,-1.413937798908838,1.6231728847227715,1.0683004120650317,1.3582944830071348,-0.001026205243403027,0.0008057919638411403,-0.0001352601425869708,0.000522175837257446,0.0004978415276693775,4.22773887227414e-05,0.0006420378496675158,-0.2071649730205536,-51.03543472290039,-9.467362403869629,17.13324737548828,1.8593240976333618,-1.1972763538360596,0.07328949868679047,,,,,,,,,
1739304889.8116457,-0.052635547863986894,1.105963894017315,-0.48153443736504337,-1.4139339503125168,1.6231702585298515,1.068297948925096,1.3582921631196971,-0.0014906386741126818,-0.0015159218446807294,0.0005862388686936947,0.00018024678610302624,-0.0012629656434562137,4.542421897949314e-05,-9.328915328155117e-05,-0.2071649730205536,-50.93228530883789,-9.491166114807129,17.10944366455078,1.8785501718521118,-1.1771347522735596,0.11998139321804047,,,,,,,,,
1739304889.8225846,-0.052632253984145734,1.1059658084674582,-0.48153830277534704,-1.4139328280372234,1.623172009323154,1.068299545679943,1.3582978558941998,-0.0007155195284453948,-0.00041298143096650286,-0.0012816480077522195,0.00042457403114232303,-0.00048363394721113117,-0.00011721878162861254,0.002737488052898582,-0.2547723948955536,-50.96005630493164,-9.439591407775879,17.08167266845703,1.8657327890396118,-1.1899521350860596,0.07328949868679047,,,,,,,,,
1739304889.8326557,-0.05263228881139091,1.1059653263084943,-0.4815382466047757,-1.4139376079715493,1.6231714589495163,1.0682995456804025,1.3582930741188317,0.000465702625538825,-0.0001405283268149541,-0.0013273199303294497,-0.0005458439946793038,-0.0007361949658179791,3.387573321701152e-05,-0.0015675730030084972,-0.2547723948955536,-50.98386001586914,-9.439591407775879,17.15705108642578,1.8593240976333618,-1.1899521350860596,0.11265717446804047,,,,,,,,,
1739304889.843614,-0.052632597124186636,1.1059645298394227,-0.48153829888679966,-1.413937515619075,1.6231713693945908,1.0682995456804025,1.3582922162898177,0.00043536740454196924,0.0003407010663316936,-0.0011852222725041066,-0.000379408408330717,0.00049187066266339,-0.00011867098574004,-0.00022432609664668768,-0.2071649730205536,-50.93228530883789,-9.439591407775879,17.15705108642578,1.8721414804458618,-1.1899521350860596,0.09343110024929047,,,,,,,,,
1739304889.8545806,-0.05263022651043449,1.105966050959567,-0.4815362190609005,-1.4139357329415345,1.6231710161360944,1.0683000831086307,1.358296738325737,-0.0004178000646761799,-0.0003407832632912699,-0.0007355302709932423,-0.0013311529461545444,-0.0003706208221847857,-0.00013105160083817297,0.0013506219579399385,-0.2547723948955536,-50.96005630493164,-9.467362403869629,17.13324737548828,1.8721414804458618,-1.2036850452423096,0.07969819009304047,,,,,,,,,
1739304889.864653,-0.05262941244564816,1.1059638179796394,-0.48153829831475925,-1.4139378875390642,1.6231704634625037,1.0683011692193196,1.358295851247012,0.0005137621672882046,-0.0005428497642430495,-0.00100165058924105,-0.0002361838124313905,0.0007541751025420466,-6.867546621949e-05,0.0019582953841839577,-0.2547723948955536,-50.93228530883789,-9.439591407775879,17.13324737548828,1.8529154062271118,-1.2036850452423096,0.07969819009304047,,,,,,,,,
1739304889.8756475,-0.052631235719744554,1.105971319389134,-0.4815364574794764,-1.4139371634651718,1.623171364324186,1.0683004117929755,1.3582923926740713,-0.0009792923617011687,0.0014121678971035522,-0.0003290461506873113,-0.0009925157990689265,-0.00014975166581971435,0.0002515894033645609,-0.0011986252479555298,-0.2309686839580536,-51.03543472290039,-9.467362403869629,17.13324737548828,1.8721414804458618,-1.1972763538360596,0.07969819009304047,,,,,,,,,
1739304889.8865771,-0.05262918276340833,1.1059687540143792,-0.4815362189542393,-1.4139346546400184,1.623175254096396,1.0683030265728428,1.3582934825665853,0.00034350311220667916,0.0011810204360930292,8.404194153350186e-06,-6.356736454965809e-05,0.00036561437651850306,0.000769162817617207,0.0004958271183291731,-0.2547723948955536,-50.96005630493164,-9.467362403869629,17.15705108642578,1.8721414804458618,-1.1835434436798096,0.10624848306179047,,,,,,,,,
1739304889.8966029,-0.05263259707064563,1.105966157950303,-0.48153806166769264,-1.4139357328930835,1.6231720093909356,1.0683004290920182,1.3582954776268463,-0.000903679538516668,-0.0013461270858857333,-0.0001487734263614605,0.00023643460778672359,0.0005069167561797852,5.11210190494756e-05,0.002671933019793451,-0.2071649730205536,-50.96005630493164,-9.439591407775879,17.13324737548828,1.8657327890396118,-1.1972763538360596,0.05314789339900017,,,,,,,,,
1739304889.9066265,-0.05263374082984332,1.1059689388023304,-0.48153829884673915,-1.4139348920330364,1.6231748422806351,1.068300049534904,1.3582929751588502,-0.0010201585031257387,0.000528904300088,-0.0006335291407593526,-0.0006006926107840449,0.00196613676893102,-0.00029483180027684865,-0.0007266462652151315,-0.2309686839580536,-50.96005630493164,-9.439591407775879,17.15705108642578,1.8400980234146118,-1.1972763538360596,0.07328949868679047,,,,,,,,,
1739304889.9176493,-0.05262717410427219,1.1059702795735546,-0.4815383609398653,-1.4139374361308836,1.6231704549188597,1.0683019268957479,1.3582938811706684,0.0009531508173418728,0.0007219643608174587,0.00013625082600952955,0.0003417921093634255,-0.0009932275138468962,0.0007922188486471846,-7.894284761451442e-06,-0.2825433909893036,-51.00766372680664,-9.467362403869629,17.15705108642578,1.8785501718521118,-1.2100937366485596,0.06596527993679047,,,,,,,,,
1739304889.9285853,-0.05263088454973274,1.1059697003741844,-0.4815400815398659,-1.413933231955874,1.6231745090702854,1.0682993254485522,1.358291998017881,-0.00031427636965716257,8.25026821031489e-05,-0.0009905236208602385,0.0017443155146458574,0.0007509662756790978,-0.0005622206608733523,-0.0001170639572335666,-0.2309686839580536,-50.98386001586914,-9.415787696838379,17.10944366455078,1.8721414804458618,-1.1972763538360596,0.08610688149929047,,,,,,,,,
1739304889.938598,-0.052630569233803194,1.1059696986608811,-0.4815379840117728,-1.4139332439359475,1.6231713282718865,1.0683004095727224,1.3582947246891877,0.00027047719495073587,0.0003604746401399192,-0.00028060289055050733,0.0006172904485822379,-0.0009925174342396818,-0.0005269729304239611,-0.001774642762373859,-0.2309686839580536,-50.98386001586914,-9.439591407775879,17.10944366455078,1.8721414804458618,-1.1972763538360596,0.08610688149929047,,,,,,,,,
1739304889.9487197,-0.05262946727839476,1.1059666799074912,-0.48153622788588624,-1.4139360947115704,1.623170611580359,1.068300411577601,1.3582945440652066,0.00030937821892364106,-0.0006455582564670678,-0.0004966005944262513,0.0001473811878137326,-0.0015880711321654604,-0.00014799368095568162,0.0004386139513947642,-0.2309686839580536,-50.93228530883789,-9.467362403869629,17.10944366455078,1.8785501718521118,-1.1972763538360596,0.07328949868679047,,,,,,,,,
1739304889.9596863,-0.05262893553405383,1.10596021305794,-0.481532653706912,-1.413931804945474,1.623168948148329,1.0683006053185318,1.358294027149153,0.0006100073886628628,-0.0025481017770727994,0.0007207323958495016,0.0012538898478904334,-0.0004427868345433957,0.00017505435848565604,-0.0010269554545341345,-0.2547723948955536,-50.88071060180664,-9.514969825744629,17.10944366455078,1.8657327890396118,-1.1899521350860596,0.09343110024929047,,,,,,,,,
1739304889.9706078,-0.052629173003134924,1.1059721368666873,-0.48153621920625533,-1.4139358124022836,1.6231727667519404,1.0683004115836165,1.3582946607234943,-6.0442416502217415e-05,0.0008195284297106538,-0.00030861597781477727,0.0005480382622496923,0.0011860519266798004,1.7321975229247474e-05,0.00016800096200643563,-0.2547723948955536,-51.00766372680664,-9.467362403869629,17.13324737548828,1.8593240976333618,-1.1972763538360596,0.09983979165554047,,,,,,,,,
1739304889.9806464,-0.052629252017433764,1.105964645785228,-0.4815344717051547,-1.4139368366665794,1.623168594933622,1.068300411577635,1.3582927584081286,0.0004214247776620559,-0.0006678420831329419,-0.00030059021832335163,-0.0008098539140041444,0.0004939126701202942,0.00017977370877740313,0.0004993909977997386,-0.2547723948955536,-50.93228530883789,-9.491166114807129,17.15705108642578,1.8657327890396118,-1.1972763538360596,0.07969819009304047,,,,,,,,,
1739304889.991643,-0.052629172029453,1.105970742241472,-0.48153853726953433,-1.4139339355434866,1.6231721662348004,1.0682987865304352,1.3583005797317254,0.0002296267179184043,0.0008922983525142443,-0.0003879131137326394,0.0007091619544244887,-0.001433035113333825,-0.00021601326089818327,-4.490872675836982e-07,-0.2547723948955536,-50.98386001586914,-9.439591407775879,17.10944366455078,1.8657327890396118,-1.1835434436798096,0.04673920199275017,,,,,,,,,
1739304890.0025675,-0.052630884225333546,1.1059689517149003,-0.4815382988884405,-1.4139357329414515,1.6231707141582645,1.0682986673393067,1.358295309116533,0.0001944067458546576,-0.0007563605225275733,-0.00019012746863020864,-0.00042842683605796064,-0.001570064609004271,-7.535674455288498e-05,0.0024572673515322655,-0.2309686839580536,-50.96005630493164,-9.439591407775879,17.13324737548828,1.8657327890396118,-1.1835434436798096,0.06596527993679047,,,,,,,,,
1739304890.012644,-0.05262711876663018,1.1059658521630182,-0.48153621506464717,-1.4139393777684324,1.6231712516411418,1.0682995456783588,1.3582884956321342,0.0010144349096096556,-0.00124919652030826,0.000838993879481068,-0.0005995058915895005,-0.00037401125097476836,-0.000306795563535648,-0.0014290846318789378,-0.2547723948955536,-50.96005630493164,-9.467362403869629,17.18085479736328,1.8721414804458618,-1.1899521350860596,0.11265717446804047,,,,,,,,,
1739304890.0235689,-0.052630569222212466,1.105968701468288,-0.48153443512411515,-1.4139339502649642,1.6231721251239861,1.0682995456804025,1.358292223788345,2.364677113964053e-05,0.000130033710569112,0.000548558251457848,0.0004941804457467345,1.918880270082514e-05,0.0002868686526122155,-0.0003021780993156238,-0.2309686839580536,-50.96005630493164,-9.491166114807129,17.10944366455078,1.8657327890396118,-1.1899521350860596,0.07969819009304047,,,,,,,,,
1739304890.0335975,-0.05262917332428601,1.1059669979200606,-0.48153829593454933,-1.4139375126751144,1.623171643030453,1.068300411577635,1.3582943254376423,0.0005888000536237762,-0.0005116310364704613,-0.0004995784389210739,-0.0008470558443216901,-0.00037646801613556774,-0.00013229364743941161,0.002110941310994276,-0.2547723948955536,-50.93228530883789,-9.439591407775879,17.15705108642578,1.8657327890396118,-1.1972763538360596,0.06596527993679047,,,,,,,,,
1739304890.0436525,-0.0526315985926859,1.10596643954342,-0.4815404447269347,-1.4139321883660487,1.6231736359144542,1.0682987880203243,1.3582922173393783,-0.0011797207764897184,0.0005236921612565796,-0.0008276541045714337,0.0015558430226312824,0.0005863490510541245,-0.00019698428031410985,-0.0013477773169371025,-0.2309686839580536,-50.96005630493164,-9.439591407775879,17.08167266845703,1.8529154062271118,-1.1835434436798096,0.07969819009304047,,,,,,,,,
1739304890.053683,-0.05263087580304921,1.1059663090079541,-0.4815383253780497,-1.413935732946918,1.6231721270626083,1.0682987880203243,1.3582964487943485,-0.00020428494696282472,-0.0007941972670223688,-0.0009102096239443916,-0.0005289265366766927,0.00046215060286248724,-0.0005709496370525657,0.0011853861825622568,-0.2309686839580536,-50.93228530883789,-9.439591407775879,17.13324737548828,1.8657327890396118,-1.1835434436798096,0.05314789339900017,,,,,,,,,
1739304890.0646384,-0.05263089332889964,1.1059663188955586,-0.48153621906105004,-1.4139339502645156,1.6231718250308316,1.068300411577635,1.3582927047767477,-0.00018641190650348584,-0.0008048561645859591,0.0003511826245679555,0.000556705062172103,-0.0005129946542394024,0.00026387571971703397,0.0011618468644374958,-0.2309686839580536,-50.93228530883789,-9.467362403869629,17.10944366455078,1.8593240976333618,-1.1972763538360596,0.05314789339900017,,,,,,,,,
1739304890.075598,-0.05263088454978221,1.105972453281759,-0.48153621906090033,-1.4139375509398244,1.6231718250786846,1.0682984595513199,1.358291459440786,-7.664147654960762e-05,0.0022428932750954136,-0.00019911089425624177,-0.000667679441542369,0.0004391256435537327,-0.0003930166982419836,-0.0008750152260901405,-0.2309686839580536,-51.00766372680664,-9.467362403869629,17.15705108642578,1.8593240976333618,-1.1899521350860596,0.08610688149929047,,,,,,,,,
1739304890.0866199,-0.05263372804263879,1.1059653089524104,-0.48153620458899066,-1.4139341886832941,1.623172127056736,1.0682995456742712,1.3582938428750004,-0.0008413598998246167,-0.0017210355591165218,-0.0004419106773305463,-0.00032778592499929264,0.0005083642266724863,6.250234015289517e-05,-0.00017638875702180373,-0.2309686839580536,-50.90848159790039,-9.467362403869629,17.10944366455078,1.8657327890396118,-1.1899521350860596,0.06596527993679047,,,,,,,,,
1739304890.0975637,-0.05263672837694609,1.1059699495044084,-0.48153837821552703,-1.4139339590961792,1.6231707137273619,1.0682995456804025,1.3582960929628634,-0.00234290333452215,0.00020244312540087828,-0.0009503255817180896,0.0003895575829343154,0.0003675399398055695,-3.1343989882786174e-05,0.003286356675547355,-0.1793939769268036,-50.96005630493164,-9.439591407775879,17.10944366455078,1.8657327890396118,-1.1899521350860596,0.05955658480525017,,,,,,,,,
1739304890.1076906,-0.0526309635988087,1.1059707437240511,-0.4815404485438975,-1.4139357330507003,1.6231728846988611,1.0682987880203243,1.3582897689910447,-0.00011534867114243509,0.00256495558828822,-0.002425800614557583,0.000247105911491524,-0.0007774185408036297,0.0006696531550502905,-0.0019496096899495447,-0.2309686839580536,-50.98386001586914,-9.439591407775879,17.13324737548828,1.8593240976333618,-1.1835434436798096,0.11265717446804047,,,,,,,,,
1739304890.1185658,-0.052629488081236964,1.105969013235077,-0.48153589526847346,-1.4139342681922937,1.6231725980668328,1.068299584926259,1.358294598557177,0.00022316900829510685,0.0005930740287822999,0.0013223303271628554,0.0005303530742800323,0.0015299899570213806,0.0004968100743705156,0.0009251447012732508,-0.2547723948955536,-50.96005630493164,-9.467362403869629,17.10944366455078,1.8657327890396118,-1.1899521350860596,0.05955658480525017,,,,,,,,,
1739304890.1286209,-0.05262917333497848,1.1059707319344385,-0.4815362161392317,-1.4139378787141306,1.6231716890675536,1.068299545681067,1.3582922173311724,0.0005787865827178947,0.00036680944658368925,0.0004162647114254779,-0.0007669727513349006,-0.0009562931661606805,-0.00030834557662911166,-0.0002396976367387311,-0.2547723948955536,-50.98386001586914,-9.467362403869629,17.13324737548828,1.8657327890396118,-1.1899521350860596,0.07969819009304047,,,,,,,,,
1739304890.1406467,-0.0526291808082252,1.1059716600628469,-0.4815362103123283,-1.4139364482457235,1.6231721271140807,1.0682995456804025,1.3582961272781597,-0.0003234767213225856,0.0007558433554538475,-0.000260464595078438,-0.00023942767511053953,-0.0002669091448460604,0.0004026683759412676,0.001743355576069098,-0.2547723948955536,-50.98386001586914,-9.467362403869629,17.13324737548828,1.8657327890396118,-1.1899521350860596,0.04673920199275017,,,,,,,,,
1739304890.1516407,-0.052627174088164926,1.1059661711113509,-0.4815362190128808,-1.4139357339240268,1.6231698460685153,1.0682952011640723,1.3582929754879056,0.0005497179920388287,-0.0011802170887237468,-0.0003161922719899194,-0.0009720494755970015,-0.0006324292154643367,-0.000776418251176359,0.0015510200155091417,-0.2825433909893036,-50.96005630493164,-9.467362403869629,17.13324737548828,1.8858743906021118,-1.1899521350860596,0.07328949868679047,,,,,,,,,
1739304890.1616812,-0.052630884225333546,1.1059670331984797,-0.4815362200420459,-1.413934732478772,1.6231721270644153,1.06830041150406,1.3582905932893534,-4.1327175368191884e-05,-0.0015666579043211726,-0.0002291645406930585,0.00028748403642574996,0.0008319148210996558,0.0006826741132636032,-0.00035287314711232446,-0.2309686839580536,-50.93228530883789,-9.467362403869629,17.08167266845703,1.8657327890396118,-1.1972763538360596,0.09343110024929047,,,,,,,,,
1739304890.1725965,-0.052630875790954997,1.105969031187768,-0.4815392528521266,-1.413936122647853,1.6231728454769394,1.068299545680402,1.3582970992757282,0.0004783443111658751,-0.0009604761754971841,-0.0009503358566143929,0.0001551359317281909,0.0006487970352465015,-0.0018621445130731955,0.0008899215751806318,-0.2309686839580536,-50.96005630493164,-9.439591407775879,17.10944366455078,1.8593240976333618,-1.1899521350860596,0.06596527993679047,,,,,,,,,
1739304890.1836345,-0.052633017899260795,1.1059690311877683,-0.48153443638926663,-1.4139375126873774,1.6231728847225746,1.0682984193243168,1.3582929750096446,-0.0009032193779385676,-0.00036019362451374234,0.00022055937791470772,-2.535091364073923e-05,0.0010865155273408547,-0.0008838983015214834,-0.000411978086767945,-0.2309686839580536,-50.96005630493164,-9.491166114807129,17.15705108642578,1.8593240976333618,-1.1899521350860596,0.07328949868679047,,,,,,,,,
1739304890.194582,-0.05262727945078765,1.1059697199875451,-0.48153443638388127,-1.4139357240748613,1.623174547671005,1.0683011692313549,1.3582916740887434,0.0006622702569280434,5.0309517231231866e-05,0.0004461836920019588,0.00022959651555064725,0.0004959261120383552,0.0003511567599904566,0.0006576456258211443,-0.2825433909893036,-50.96005630493164,-9.491166114807129,17.13324737548828,1.8721414804458618,-1.2036850452423096,0.09343110024929047,,,,,,,,,
1739304890.2046359,-0.052630989362457636,1.1059690311994332,-0.48153621906090033,-1.4139318793048274,1.6231721256629918,1.0683003981686336,1.358290593792157,-0.0008943337406062694,0.00012410718871066643,-9.889244806884655e-05,0.001002167557295169,0.0008110166908088137,-0.00015419411734755915,-0.0003985283453835983,-0.2309686839580536,-50.96005630493164,-9.467362403869629,17.08167266845703,1.8657327890396118,-1.1972763538360596,0.09343110024929047,,,,,,,,,
1739304890.2156374,-0.05263159534245108,1.1059697539656281,-0.48153443638388127,-1.4139341886831445,1.6231737383291325,1.0682995456803268,1.3582951225057103,-0.00040391077160416473,0.000658687930699522,0.0006637791310510051,0.00014987202659335965,7.450458196600813e-05,2.7025397850992324e-05,0.00045625987015315123,-0.2309686839580536,-50.96005630493164,-9.491166114807129,17.10944366455078,1.8785501718521118,-1.1899521350860596,0.07969819009304047,,,,,,,,,
1739304890.2265906,-0.052630884553745094,1.1059697892549394,-0.48153265381587845,-1.4139318704760058,1.6231713693126186,1.068296766615712,1.3582926233400108,0.00012638460563242702,-0.0001798131009838545,0.0009719539092660559,-6.24893939447807e-05,0.00034243142780084014,-0.0008808088063310325,0.001532630190512192,-0.2309686839580536,-50.93228530883789,-9.514969825744629,17.08167266845703,1.8721414804458618,-1.2036850452423096,0.07328949868679047,,,,,,,,,
1739304890.2366028,-0.052630884549732714,1.1059687937606701,-0.4815362458789042,-1.4139375156185536,1.6231763656152336,1.0683000492945052,1.3582859395702824,-3.1199657659476e-05,0.00047260031727920497,0.00021860434429779807,-0.00016727991763947832,0.0018829279196301808,-0.0003971910540846634,-0.001159482550999502,-0.2309686839580536,-50.96005630493164,-9.467362403869629,17.15705108642578,1.8657327890396118,-1.1972763538360596,0.13279877603054047,,,,,,,,,
1739304890.2475972,-0.05262714781182095,1.105969108358132,-0.4815383027754929,-1.4139358124143941,1.6231736365926004,1.0683004115755899,1.358291924373945,0.0007929253450645913,-0.0008646533644175412,-0.0007892653403001043,4.86134996425446e-05,0.00038238997517846696,-6.153392335431419e-05,0.0004939294232142876,-0.2825433909893036,-50.93228530883789,-9.439591407775879,17.13324737548828,1.8529154062271118,-1.1972763538360596,0.09343110024929047,,,,,,,,,
1739304890.2576318,-0.052629172028556465,1.1059724817741796,-0.4815382726051557,-1.413934029738721,1.623172878908497,1.0683011692377133,1.3582929750137847,-3.3910063834697896e-05,0.0011735239994205655,-0.0008925024219614516,0.001200595314607088,0.0007189782272800839,0.0008258975845560322,0.0011512590507437846,-0.2547723948955536,-51.00766372680664,-9.439591407775879,17.10944366455078,1.8593240976333618,-1.2036850452423096,0.07328949868679047,,,,,,,,,
1739304890.2676404,-0.05262916294582653,1.1059700261756453,-0.4815374203107179,-1.4139357371945147,1.623171369402541,1.0682987820607683,1.3582906335163485,0.00038056893373651196,0.0012297682854623684,-6.660515838368802e-05,-0.0004638606276182799,0.000401826205287146,-0.0008796232638762251,-0.0009387793678659181,-0.2547723948955536,-50.96005630493164,-9.467362403869629,17.13324737548828,1.8721414804458618,-1.1835434436798096,0.09343110024929047,,,,,,,,,
1739304890.2783382,-0.05263267608325734,1.1059690313095971,-0.4815382949828522,-1.413937874893249,1.623171466057756,1.0682995456803015,1.3582914596717672,-0.0008358106875441166,0.0004281668575854821,-0.0003008954575644528,4.055723817556019e-05,0.0002033657023813801,0.00044273686727003405,0.0010147241445349615,-0.2071649730205536,-50.96005630493164,-9.439591407775879,17.13324737548828,1.8593240976333618,-1.1899521350860596,0.08610688149929047,,,,,,,,,
1739304890.2886908,-0.052630542957921765,1.1059690046968158,-0.4815362190972172,-1.4139342756901683,1.623173014494995,1.0683019669347122,1.3582923103000741,0.0005681130376838239,-0.00011880630560687913,-0.00022455329449213156,-0.00040942428324825984,0.0010687445925195767,0.0006491245185046504,-0.000284023197893253,-0.2309686839580536,-50.96005630493164,-9.467362403869629,17.10944366455078,1.8529154062271118,-1.1835434436798096,0.06596527993679047,,,,,,,,,
1739304890.2995908,-0.0526345937079356,1.1059670332464666,-0.48153868282856793,-1.4139399793917315,1.6231696946538894,1.0682987880741595,1.3582919782355625,-0.001386765470854557,-0.0010006453460714732,-0.0006801529208327954,-0.0007534400081398734,-0.0002725568445819187,0.00030372948215708865,0.0003458196570930508,-0.1793939769268036,-50.93228530883789,-9.467362403869629,17.15705108642578,1.8593240976333618,-1.1835434436798096,0.08610688149929047,,,,,,,,,
1739304890.309695,-0.052629171055796786,1.1059708542509956,-0.4815382988646639,-1.4139375161048655,1.6231710030899695,1.0682980288703572,1.3582890784566324,0.0003946264456723069,0.0005481164372181039,-0.0006938987633465468,-0.00027826050614216085,-0.0010050974181404538,-0.00032626030446228024,-0.00153045530362093,-0.2547723948955536,-50.98386001586914,-9.439591407775879,17.15705108642578,1.8721414804458618,-1.1771347522735596,0.10624848306179047,,,,,,,,,
1739304890.3205688,-0.052629174955401425,1.1059677220123234,-0.48153621920625544,-1.4139365315947199,1.6231728337014104,1.068299545680394,1.3582938901638366,5.936624991245515e-05,-0.0013784912556691093,-0.00020246606700077645,-0.00042001399252070273,0.0006271249633873386,-0.0005097968108748197,0.0011044151908946242,-0.2547723948955536,-50.93228530883789,-9.467362403869629,17.13324737548828,1.8657327890396118,-1.1899521350860596,0.06596527993679047,,,,,,,,,
1739304890.3306062,-0.05263088454978221,1.1059728440275918,-0.481536222004342,-1.413935974644127,1.623172713215834,1.0682987880203243,1.3582938413859473,-0.0005940830468320137,0.0002305494956318084,-0.000739789372781668,0.00012895165094174528,0.0007012387360873464,-0.0003686595464853447,0.0007504183002270869,-0.2309686839580536,-50.98386001586914,-9.467362403869629,17.13324737548828,1.8593240976333618,-1.1835434436798096,0.06596527993679047,,,,,,,,,
1739304890.3406198,-0.052629135696301774,1.105969108802544,-0.48153443638393106,-1.41393791697755,1.6231721270598134,1.0683011672511946,1.3582890784537136,0.0010653990001131515,-0.00018039182666705503,0.001052051797774811,-0.00025179767486716134,0.00029338737134796387,-0.0002746165924661759,-0.00038929104645379626,-0.2547723948955536,-50.96005630493164,-9.491166114807129,17.13324737548828,1.8657327890396118,-1.2036850452423096,0.10624848306179047,,,,,,,,,
1739304890.3516338,-0.05263259706984855,1.1059693376217004,-0.4815359828499006,-1.4139359744495559,1.623172280406294,1.0682982516602497,1.3582929764811398,-0.0006852917624450949,0.0008476828780507189,-0.00027837474998314656,-0.0007140238802449007,0.0016195942987823398,-0.00260568830393163,0.0004043728415160944,-0.2071649730205536,-50.96005630493164,-9.467362403869629,17.13324737548828,1.8529154062271118,-1.1835434436798096,0.07328949868679047,,,,,,,,,
1739304890.3626199,-0.05263080572075028,1.105966156102596,-0.4815383783231711,-1.41393676652523,1.623171316587751,1.0683011690711608,1.3582929691770527,-8.454408937251642e-05,-0.0009310506844645534,-0.0006311488514197475,-0.002134245481769313,9.324021668488615e-05,0.0007827196482192879,-0.0009159329986570628,-0.2309686839580536,-50.93228530883789,-9.439591407775879,17.13324737548828,1.8721414804458618,-1.2036850452423096,0.07328949868679047,,,,,,,,,
1739304890.3726296,-0.05262917202766648,1.105970743693645,-0.48153832534305496,-1.4139357332860871,1.6231703474318055,1.0682995456803996,1.3582912450399383,0.0007852695636671802,6.671668641002778e-05,-0.00014666304671112287,0.0011014165173998747,-0.000613903991169317,0.0008115127515695769,0.0003713240719463582,-0.2547723948955536,-50.98386001586914,-9.439591407775879,17.13324737548828,1.8657327890396118,-1.1899521350860596,0.09983979165554047,,,,,,,,,
1739304890.3835943,-0.0526345950113169,1.1059690313277397,-0.4815382988872442,-1.4139357358849756,1.623170609794448,1.0682987835506572,1.3582883272577657,-0.001585224711883124,-0.0006210535971398081,-0.0008826001588446183,0.0005972257472818437,-0.0008061156553128518,-0.0006015649609676756,-0.0021765555581119713,-0.1793939769268036,-50.96005630493164,-9.439591407775879,17.13324737548828,1.8785501718521118,-1.1835434436798096,0.11265717446804047,,,,,,,,,
1739304890.3936381,-0.0526315722936931,1.1059724565441738,-0.48153231048488615,-1.413933950264665,1.6231728847226972,1.0682987875234675,1.3582874548967228,-4.1057616518671994e-05,6.1034854495731726e-05,0.0016868901561281954,0.0013262088011536445,0.001011311785971732,0.00022859023539399133,-0.002302359873999243,-0.2071649730205536,-51.00766372680664,-9.491166114807129,17.10944366455078,1.8593240976333618,-1.1835434436798096,0.11998139321804047,,,,,,,,,
1739304890.4036455,-0.05262917202321657,1.105970428791457,-0.48153621904889954,-1.4139357329778732,1.6231728323949872,1.0682995054533966,1.3582945593031452,0.00037997023595022776,-0.000708126502856858,0.0003855751258622313,0.0004194960450932618,0.00015666355657431236,0.000754055720446406,0.0008381589241944437,-0.2547723948955536,-50.98386001586914,-9.467362403869629,17.13324737548828,1.8593240976333618,-1.1899521350860596,0.05955658480525017,,,,,,,,,
1739304890.4136708,-0.052630175088891264,1.1059707522064353,-0.4815362190609001,-1.4139364746882257,1.6231721270618318,1.068298734383639,1.3582953562084155,-0.0011513487876239996,-0.0003354174357335901,-0.0003125629179295212,0.0002586389924573606,-0.0002872876855418217,-7.434338800257987e-06,0.0025491407011456815,-0.2309686839580536,-50.98386001586914,-9.467362403869629,17.13324737548828,1.8657327890396118,-1.1835434436798096,0.05314789339900017,,,,,,,,,
1739304890.4246337,-0.05262993524581527,1.105971653231275,-0.48153829986824104,-1.4139358389095347,1.6231694037765219,1.0682971525279115,1.3582934876757735,-0.00017327264345916337,0.0007552477208440744,-0.001408704728798145,0.0008937340302232242,0.0003674635415826078,-0.000446415100571798,0.00031722272027492047,-0.2309686839580536,-50.98386001586914,-9.439591407775879,17.13324737548828,1.8529154062271118,-1.1972763538360596,0.06596527993679047,,,,,,,,,
1739304890.4355967,-0.05262917202364261,1.105971097160206,-0.481534436383887,-1.4139364168672037,1.6231697458214016,1.0683002893883393,1.3582922129685278,0.00023674195883772282,-0.0007274749441016276,-0.00024195442740838796,0.0008338590025906741,-0.0011691995309713009,0.0004745177289122754,0.0010012444713522117,-0.2547723948955536,-50.96005630493164,-9.491166114807129,17.10944366455078,1.8858743906021118,-1.1972763538360596,0.07969819009304047,,,,,,,,,
1739304890.4456143,-0.052627040402486475,1.105967034331689,-0.4815382985267353,-1.4139397792741237,1.623172531510086,1.0682984595492506,1.358290647409792,0.0006807396297453893,-0.0015281367019060479,-0.0003411983740182066,-0.00039868735447987503,-0.0003892556038718965,-3.227348470430787e-05,-0.00042308122822633536,-0.2547723948955536,-50.93228530883789,-9.439591407775879,17.15705108642578,1.8593240976333618,-1.1899521350860596,0.09343110024929047,,,,,,,,,
1739304890.456558,-0.05263108358580195,1.1059672883449896,-0.48153623083465547,-1.4139357594816049,1.6231756092452074,1.068301169231582,1.358288726731187,0.0005199871020686027,-0.00038532060911783254,-6.315350949843745e-05,0.00034147294142254414,0.0012823124767432732,0.0005200140072960434,-0.0018811914914713909,-0.2309686839580536,-50.93228530883789,-9.467362403869629,17.13324737548828,1.8721414804458618,-1.2036850452423096,0.10624848306179047,,,,,,,,,
1739304890.4665847,-0.05262714781519164,1.1059641731730938,-0.48153910657500215,-1.4139357458059036,1.6231739782247836,1.0682995456804023,1.3582874544059211,0.0013808303725841805,-0.0016334194687100904,-0.0006422266522687611,-8.876561753745572e-06,-1.183109081150357e-05,-0.0005607906131883082,-0.00030267726530627456,-0.2825433909893036,-50.93228530883789,-9.467362403869629,17.13324737548828,1.8529154062271118,-1.1899521350860596,0.11998139321804047,,,,,,,,,
1739304890.4766297,-0.0526260976982443,1.1059690576989258,-0.48153629858266034,-1.4139347318248758,1.6231728847284836,1.0682960491826365,1.3582945985489936,0.000997949235246739,-0.001025310432658192,-0.00013983714338907226,0.0008196228754175157,0.00029472353640370617,-0.00037351604965518297,0.0006834488684085142,-0.2547723948955536,-50.96005630493164,-9.467362403869629,17.08167266845703,1.8593240976333618,-1.1972763538360596,0.05955658480525017,,,,,,,,,
1739304890.4876573,-0.052630884532377964,1.1059707437086492,-0.4815365909818598,-1.4139375424890468,1.623172878908595,1.068300371326006,1.3582969936181866,-0.00027828610977237515,0.001566420982605453,5.7437463119554776e-05,-0.0008166464453016293,0.0009415620093231881,0.0006192273997249966,0.0020216761050564605,-0.2309686839580536,-50.98386001586914,-9.491166114807129,17.15705108642578,1.8593240976333618,-1.1972763538360596,0.03941498324275017,,,,,,,,,
1739304890.4985652,-0.0526288567130719,1.105969362815257,-0.4815362190730631,-1.4139339502646673,1.6231728847227633,1.0682990629561384,1.3582898186712586,0.0016008215056307906,-0.0005069764798602488,7.738083487276509e-05,0.0007378297065724444,0.00017630085525955133,-0.0002660446959140112,-0.00040858867065958113,-0.2547723948955536,-50.96005630493164,-9.467362403869629,17.10944366455078,1.8593240976333618,-1.1899521350860596,0.09983979165554047,,,,,,,,,
1739304890.5086317,-0.05263259717350933,1.1059724562348467,-0.48153868566299046,-1.4139339503735318,1.6231688958205208,1.0682976998965479,1.358286655426576,-0.0010418861699863426,0.0004016303312577294,-0.0009161323855978783,0.00044531658579095574,-0.0018418213867133974,-0.00047519517365156137,-0.00044421786973412435,-0.2071649730205536,-51.00766372680664,-9.467362403869629,17.10944366455078,1.8657327890396118,-1.1835434436798096,0.09983979165554047,,,,,,,,,
1739304890.5196767,-0.05263259707046442,1.1059707431822605,-0.4815362219822613,-1.4139360861905836,1.6231706117243208,1.0682990086520463,1.3582905937559067,-0.0011983753366010801,0.0007945145455747066,0.00025098825545032507,-0.0005168651250612561,0.00037499704301549895,-0.00035060296053742834,-0.00017069660177644835,-0.2071649730205536,-50.98386001586914,-9.467362403869629,17.13324737548828,1.8785501718521118,-1.1899521350860596,0.09343110024929047,,,,,,,,,
1739304890.5305877,-0.052629136993898186,1.1059691336943118,-0.4815362190609168,-1.4139357712082388,1.623170308095619,1.0682995412077039,1.3582898317531324,0.00029286852173141746,-0.00017728207999379313,0.000633427066601376,0.00044518782840600383,-0.0007863139310706005,0.000592951974007917,-0.0011029666213799127,-0.2547723948955536,-50.93228530883789,-9.467362403869629,17.13324737548828,1.8721414804458618,-1.1899521350860596,0.09983979165554047,,,,,,,,,
1739304890.540604,-0.05263088454913933,1.105969103461048,-0.48153693431663763,-1.4139377992365347,1.6231721270447446,1.06830041008767,1.3582890784536312,-0.0003500542607703549,-0.00027430209368962136,-0.0006138983026751658,-0.00010098661674806534,-0.0004627893613637422,0.0001145461255756479,-0.0007840985609086711,-0.2309686839580536,-50.93228530883789,-9.467362403869629,17.13324737548828,1.8657327890396118,-1.1972763538360596,0.10624848306179047,,,,,,,,,
1739304890.5516496,-0.052629408959710376,1.1059724817857168,-0.48153265338687923,-1.4139357725624428,1.623171055435786,1.068299505453391,1.358294598549002,-0.00048527114444523345,0.0009505234805462442,0.001283285038722839,-7.916571833261972e-05,1.883571698843575e-06,8.091638256747131e-06,0.0005238119188860633,-0.2547723948955536,-51.00766372680664,-9.514969825744629,17.13324737548828,1.8721414804458618,-1.1899521350860596,0.05955658480525017,,,,,,,,,
1739304890.561669,-0.0526282560853523,1.105971432474582,-0.48153231048486805,-1.4139379621082047,1.623172935456987,1.068296287291111,1.3582898361137834,-6.620674423731866e-05,0.0012577084728749954,0.0006269605261174305,-0.000995703498780234,0.0011178710989507299,-0.0010204748430427681,-0.00014371094615192663,-0.2071649730205536,-50.98386001586914,-9.491166114807129,17.13324737548828,1.8529154062271118,-1.1899521350860596,0.09983979165554047,,,,,,,,,
1739304890.571702,-0.05262917193236572,1.1059670598103966,-0.4815344100902116,-1.4139358510550757,1.6231728847188056,1.0682957049447022,1.358294598549002,-0.00034522997307135283,0.0005967605277611002,0.000769119532052105,-0.0007801346823066923,0.001820935332942195,-0.001190174572120866,0.002238799245732362,-0.2547723948955536,-50.93228530883789,-9.491166114807129,17.13324737548828,1.8593240976333618,-1.1972763538360596,0.05955658480525017,,,,,,,,,
1739304890.5825708,-0.052627173980014826,1.1059707729976869,-0.48153829885060745,-1.4139349926060638,1.6231721207640002,1.0682962465429529,1.3582913419335243,0.0007983097052668366,0.0005220936459280987,-0.0006363322611375527,0.0002714602383983625,-0.000267203330245261,-0.0014904752078564597,-0.0007333015915325871,-0.2825433909893036,-50.98386001586914,-9.439591407775879,17.10944366455078,1.8657327890396118,-1.1899521350860596,0.08610688149929047,,,,,,,,,
1739304890.593581,-0.05263088454973204,1.1059690396912025,-0.4815344364928975,-1.4139360892125838,1.6231721270088473,1.0682962852880122,1.3582883188548949,-0.0005697723927478122,0.00105509329921634,0.000976624101911341,-0.0006753263701315634,0.0013017294540265604,-0.00034281690382033684,-0.0015000597556744156,-0.2309686839580536,-50.96005630493164,-9.491166114807129,17.13324737548828,1.8657327890396118,-1.1899521350860596,0.11265717446804047,,,,,,,,,
1739304890.6047041,-0.052629171920868426,1.1059728140971623,-0.48153621776481986,-1.4139414441778344,1.6231736423828738,1.0682971529696288,1.3582945983874635,-6.047550933951083e-05,0.0005487707111021085,0.00012279635243469956,-0.0016177900998892623,0.001580511482579641,-0.00018405997245852902,0.0010840276659252984,-0.2547723948955536,-50.98386001586914,-9.467362403869629,17.18085479736328,1.8529154062271118,-1.1972763538360596,0.05955658480525017,,,,,,,,,
1739304890.6166384,-0.05262646462730692,1.105971403918634,-0.4815337277508798,-1.413934189813634,1.6231665102424808,1.0682999087854859,1.3582906474098655,0.001312981875396426,0.0007698919263707006,0.0013289395772102044,0.0010764509416055254,-0.0021405049211292637,-0.00015548470675707366,0.00019400734244284765,-0.2825433909893036,-50.96005630493164,-9.491166114807129,17.10944366455078,1.8858743906021118,-1.2036850452423096,0.09343110024929047,,,,,,,,,
1739304890.627629,-0.05262704364514263,1.1059679812200631,-0.4815382075486341,-1.413939670216534,1.6231691988676886,1.0682995390011207,1.358287324076973,0.0006905752408471508,-0.0003458727012574254,-0.00043286007072324115,-0.0014834368562354583,-0.002353418097968191,-0.0008641715093463125,-0.0014615620721593907,-0.2547723948955536,-50.93228530883789,-9.439591407775879,17.15705108642578,1.8785501718521118,-1.1899521350860596,0.11998139321804047,,,,,,,,,
1739304890.637652,-0.05262916312604824,1.1059699580601365,-0.481534436382335,-1.4139375159820906,1.6231696665386242,1.068301129010597,1.3582929749890353,0.0005205566566483897,-0.0005925800931789076,0.0013484623600424272,-0.0014755350928996038,-0.0011912231590860268,0.0011527956070504313,0.0009861798039994376,-0.2547723948955536,-50.96005630493164,-9.491166114807129,17.15705108642578,1.8593240976333618,-1.2036850452423096,0.07328949868679047,,,,,,,,,
1739304890.6476645,-0.05262917202885069,1.1059717428058071,-0.4815344360598606,-1.4139339505915705,1.6231727669307259,1.0682969922816936,1.3582897185417566,0.00018510547021563593,0.0008354587230612207,0.0004469664873096803,5.4448978794700575e-05,-0.0010270374218798249,0.00017960012316867296,-0.0005687994496019275,-0.2547723948955536,-50.98386001586914,-9.491166114807129,17.10944366455078,1.8593240976333618,-1.1972763538360596,0.09983979165554047,,,,,,,,,
1739304890.6585855,-0.05262917188482408,1.105975554364166,-0.4815344333596874,-1.4139339620382745,1.623171408647831,1.0683004113927896,1.3582893651628398,-0.0005394181473948885,0.002708953768424588,0.000495877687231603,0.0019062366424332758,0.0003901816968499,1.9245450576211724e-05,-0.0017323402885097644,-0.2547723948955536,-51.00766372680664,-9.491166114807129,17.10944366455078,1.8721414804458618,-1.1972763538360596,0.09983979165554047,,,,,,,,,
1739304890.6685922,-0.05262917202899902,1.1059691036879011,-0.4815344101381634,-1.4139357696802164,1.6231718250853313,1.0683003981686308,1.3582934577073118,0.00048135260458760095,-0.0009123024036291453,0.0021004766696306903,0.0015283012980228923,-0.0006985606856698473,0.0003519534311546862,0.0009773451020661955,-0.2547723948955536,-50.93228530883789,-9.491166114807129,17.13324737548828,1.8593240976333618,-1.1972763538360596,0.07328949868679047,,,,,,,,,
1739304890.67865,-0.05262716522123955,1.1059735329207532,-0.4815382988503114,-1.4139385782007443,1.6231728784061334,1.0682962871273844,1.3582937972901508,0.001017719845575399,0.0010072463830417258,-0.0013666929577887412,-0.000821464319254536,0.0013157833210683276,-0.0007286196128324183,0.001777150150790641,-0.2825433909893036,-50.98386001586914,-9.439591407775879,17.15705108642578,1.8593240976333618,-1.1899521350860596,0.06596527993679047,,,,,,,,,
1739304890.6896675,-0.05262845377328996,1.1059738422034688,-0.4815344363838812,-1.4139360783110713,1.6231698627917988,1.0682959237418437,1.3582946113117345,-0.0001751666995099925,0.001767502445003025,0.0006625983280852815,-0.0008549398339983487,0.00023883475372344368,-0.0008814342301026321,0.0015693631768618588,-0.2547723948955536,-50.98386001586914,-9.491166114807129,17.13324737548828,1.8593240976333618,-1.1899521350860596,0.05955658480525017,,,,,,,,,
1739304890.6996663,-0.052632489033398365,1.1059684192228887,-0.4815362190609003,-1.413938241127669,1.6231727087920396,1.068298627050974,1.3582922173313885,-0.001263901209182159,0.0006151622363383264,-0.00027192395787240474,-0.0002794769110373676,0.0006882765926095985,4.8023207318982305e-05,-3.08366459383259e-05,-0.2071649730205536,-50.90848159790039,-9.467362403869629,17.15705108642578,1.8593240976333618,-1.1835434436798096,0.07969819009304047,,,,,,,,,
1739304890.7105806,-0.05262875584219982,1.1059697572724496,-0.4815344363838812,-1.4139343710939212,1.6231725326022435,1.0682959207795515,1.3582929228841663,0.0007552771141995564,-0.0007730752169039881,0.0006958086772145154,0.0001146385836511203,0.00130535003220377,-0.0006297951382387855,0.0008621625887604595,-0.2309686839580536,-50.96005630493164,-9.491166114807129,17.08167266845703,1.8657327890396118,-1.1899521350860596,0.07328949868679047,,,,,,,,,
1739304890.7206125,-0.05263301483553542,1.1059683434931202,-0.48153629853376,-1.4139346659986662,1.6231681376827936,1.068299371136458,1.3582929207244925,-0.00077228627728659,-0.0011016627232541495,-0.0002836193146956307,0.0007183411574030298,-0.0010536033623814779,0.0008328493062207973,0.001148206003827753,-0.2309686839580536,-50.90848159790039,-9.467362403869629,17.10944366455078,1.8721414804458618,-1.1899521350860596,0.07328949868679047,,,,,,,,,
1739304890.731637,-0.052628046754521506,1.1059719794636758,-0.48153600901728194,-1.413940627164928,1.6231742822333046,1.0683004115766495,1.3582938014808146,0.0007469320825449941,0.0007699565682372351,-7.737073319768559e-05,4.693094689636377e-05,0.00020444991435448597,0.001377931974393169,6.938839352416121e-05,-0.2309686839580536,-50.96005630493164,-9.467362403869629,17.15705108642578,1.8465067148208618,-1.1972763538360596,0.06596527993679047,,,,,,,,,
1739304890.7416453,-0.052628046658309204,1.1059701333520942,-0.48153621905734323,-1.4139359725029705,1.6231732877146194,1.068295061114506,1.3582945985483346,-9.39471847508725e-05,-0.0001247526753979243,0.00016282590371034434,-0.0002647314677507746,0.0007362468774555746,-0.001648663230958375,0.0026317960738931794,-0.2309686839580536,-50.93228530883789,-9.467362403869629,17.13324737548828,1.8529154062271118,-1.1899521350860596,0.05955658480525017,,,,,,,,,
1739304890.7535806,-0.05262917190484845,1.1059675017096922,-0.4815362190609003,-1.4139379583283134,1.6231760500687131,1.068299492019083,1.358290593939405,0.0006082329204758128,-0.0009980282349029874,-0.0014484710469306016,0.0007415632971369338,-0.0001991320424787773,0.0005123502234159568,0.000804291407921557,-0.2547723948955536,-50.90848159790039,-9.467362403869629,17.13324737548828,1.8593240976333618,-1.1899521350860596,0.09343110024929047,,,,,,,,,
1739304890.7646005,-0.05263087579095659,1.1059722275793697,-0.4815382959345707,-1.4139350877063972,1.6231721226900784,1.0682971486470443,1.358290593773862,7.0788672687078065e-06,0.0004841141749820399,-0.0016064310219208694,-0.0002169095107338382,-0.00013236140456575752,-0.0003609776875436977,-0.0005990179755311942,-0.2309686839580536,-50.96005630493164,-9.439591407775879,17.08167266845703,1.8657327890396118,-1.1972763538360596,0.09343110024929047,,,,,,,,,
1739304890.7746668,-0.05262916035048537,1.1059728430522529,-0.48154008152772554,-1.4139366969178642,1.6231710161898556,1.068297339792956,1.3582968227829644,0.00011817027772586717,0.0003555656670646712,-0.0011676359439773399,-0.0002996409375989727,-0.0004008530266325815,-0.0013262131340301435,0.002216755366420477,-0.2547723948955536,-50.96005630493164,-9.415787696838379,17.13324737548828,1.8721414804458618,-1.1835434436798096,0.03941498324275017,,,,,,,,,
1739304890.7856376,-0.05262917105573822,1.1059699031042038,-0.4815355104279013,-1.4139362142471428,1.6231713694006455,1.0683004100795706,1.3582882684649316,2.1137692730049285e-05,-0.0009928082624994943,0.000490644665747932,0.0002854997727495524,0.0001547112453676845,0.0015747030826902327,-0.0008256625875490697,-0.2547723948955536,-50.93228530883789,-9.467362403869629,17.10944366455078,1.8721414804458618,-1.1972763538360596,0.11265717446804047,,,,,,,,,
1739304890.79566,-0.05262432651276069,1.1059680663824272,-0.4815356076071564,-1.4139381332677392,1.6231695506508814,1.0683000495345312,1.3582904000303062,0.0012250376231779376,0.0006301243458635647,0.0001498039250307957,-0.0008874475400911284,-0.0019382994299514031,0.00011761411584367633,-0.0020940568104968675,-0.2825433909893036,-50.93228530883789,-9.467362403869629,17.13324737548828,1.8785501718521118,-1.1972763538360596,0.08610688149929047,,,,,,,,,
1739304890.8056781,-0.05262422135927638,1.1059738317773429,-0.48153621959966425,-1.413936555618946,1.6231721270447483,1.0682977012229375,1.358295356191135,0.002606742325711885,0.0009618973211609577,-0.00028769549583316373,-0.00035383149102262505,0.00025593746556903984,-0.00028864443298625043,0.0020001751519710606,-0.2825433909893036,-50.98386001586914,-9.467362403869629,17.13324737548828,1.8657327890396118,-1.1835434436798096,0.05314789339900017,,,,,,,,,
1739304890.8165574,-0.052628019991951845,1.1059738431033492,-0.48153590411290176,-1.4139368509103698,1.6231744000429529,1.0682991657566618,1.3582905544562247,0.0012328665171392858,-0.00038445813892900357,-7.916045500416939e-05,-0.00043070324934170554,0.0009409856960003642,7.353114980032725e-05,-5.0678849591312305e-05,-0.2309686839580536,-50.98386001586914,-9.467362403869629,17.10944366455078,1.8465067148208618,-1.1899521350860596,0.09343110024929047,,,,,,,,,
1739304890.8276546,-0.05262717374757878,1.1059689432240511,-0.4815362190591224,-1.4139361884212198,1.6231721210331762,1.06829628729101,1.358296979766169,0.0005213081365909209,-0.0011903593039579894,-0.0001327575088781369,0.0003665137194426262,0.00028444533450711724,-0.0016279322477842839,0.0015530250769841421,-0.2825433909893036,-50.93228530883789,-9.467362403869629,17.10944366455078,1.8657327890396118,-1.1899521350860596,0.03941498324275017,,,,,,,,,
1739304890.8385959,-0.05262917073140312,1.105968420092358,-0.48153829885075583,-1.4139399835414732,1.6231713694026053,1.068301444155361,1.35828907839987,0.00047390747198520003,-0.0004970611968294065,-0.0005897648691885156,-0.0006812164865234425,0.0002677164273554956,0.0015456335706812208,-0.0007909873854184081,-0.2547723948955536,-50.90848159790039,-9.439591407775879,17.15705108642578,1.8721414804458618,-1.2100937366485596,0.10624848306179047,,,,,,,,,
1739304890.8505633,-0.05263088357652801,1.1059712090219134,-0.48153829885075583,-1.4139346777803452,1.6231724802754277,1.0682987686490422,1.3582872979129674,-0.0004333692226088647,-0.0009893182286404144,-0.0009884162691775938,0.0008871505052602965,-0.0003259036344124155,-0.000737364042643912,-0.0008061912797269668,-0.2309686839580536,-50.96005630493164,-9.439591407775879,17.10944366455078,1.8657327890396118,-1.1835434436798096,0.11998139321804047,,,,,,,,,
1739304890.8605862,-0.05262846159495737,1.1059663197151104,-0.4815382989961109,-1.4139385973844336,1.623169705810402,1.0682968245005493,1.3582911051490072,0.0010255795459951967,-0.001964865058226955,-0.0009200642514777436,-0.00022547782659800697,0.0005480031474613533,0.00036340166982235347,-0.00029902022342198024,-0.2547723948955536,-50.90848159790039,-9.439591407775879,17.13324737548828,1.8593240976333618,-1.2036850452423096,0.07969819009304047,,,,,,,,,
1739304890.8716192,-0.052630884537701386,1.1059700550736655,-0.48153621906090277,-1.4139385983736439,1.6231751574876905,1.0682977839707786,1.3582906619552602,0.00014906097576065352,0.0004665390136109681,0.0004790869994556147,8.414563831384532e-05,0.0013471705311648957,0.0005095347275429997,0.0017277243489668605,-0.2309686839580536,-50.93228530883789,-9.467362403869629,17.13324737548828,1.8400980234146118,-1.2036850452423096,0.06596527993679047,,,,,,,,,
1739304890.8835804,-0.05263088454973263,1.1059746373175676,-0.48153621916991657,-1.4139366959360773,1.6231728789085946,1.0682995321914566,1.3582844866107158,-0.0006973132836464099,0.0021262528130594894,-0.00039349453474225366,-0.0005236721061895451,-0.00014257674477367218,-0.0008700126512072801,-0.002873680266972025,-0.2309686839580536,-51.00766372680664,-9.467362403869629,17.13324737548828,1.8593240976333618,-1.1899521350860596,0.10624848306179047,,,,,,,,,
1739304890.8936398,-0.05263259696233081,1.1059755556655748,-0.4815344363838819,-1.413936769182941,1.6231733555115375,1.0682971531351297,1.3582938408625622,-0.0012970815263920418,0.0007504079721024313,0.00030568875614146664,-0.0004096783082758603,0.0024098905632924743,-0.00019239956684213402,0.0007636563417434345,-0.2071649730205536,-51.00766372680664,-9.491166114807129,17.13324737548828,1.8593240976333618,-1.1972763538360596,0.06596527993679047,,,,,,,,,
1739304890.9055805,-0.052629066455114545,1.1059731632155614,-0.4815390141064932,-1.4139389505988862,1.623171364990811,1.068297151019931,1.3582905690301559,0.0009392510670767614,2.757279272852013e-05,-0.0005657494960479876,-0.00013780522667448768,0.00026418652833728383,-0.0005477127262597246,0.0006219939338901848,-0.2547723948955536,-50.98386001586914,-9.439591407775879,17.13324737548828,1.8721414804458618,-1.1972763538360596,0.09983979165554047,,,,,,,,,
1739304890.9166138,-0.05263088487429284,1.105976270607722,-0.4815344363879189,-1.4139348505615381,1.6231721265781762,1.0682979108320596,1.358292974995388,-0.000464234344219534,0.0022502285376116635,0.0015040313344926908,0.00032110834361498343,-0.0003674747706565521,0.00015469655827701854,-0.00026304467834343886,-0.2309686839580536,-51.00766372680664,-9.491166114807129,17.08167266845703,1.8657327890396118,-1.2036850452423096,0.07328949868679047,,,,,,,,,
1739304890.9275897,-0.05263259707046446,1.1059721305256631,-0.48153443638388127,-1.4139371560509648,1.623171251503563,1.0683011284895556,1.3582938349127767,-0.00028762386321116637,-7.64012838307377e-05,0.0002668098428897853,-0.0006929229118023177,-0.0001125514593540653,0.00036506526395373276,0.0016037825603780406,-0.2071649730205536,-50.96005630493164,-9.491166114807129,17.10944366455078,1.8721414804458618,-1.2036850452423096,0.06596527993679047,,,,,,,,,
1739304890.9375925,-0.052632566901347135,1.1059701865465161,-0.48153443638388127,-1.4139388363619387,1.623169588230347,1.0682995322707114,1.3582929749911496,-0.0007915234800536641,0.00011676256649279062,-0.00015925731894105791,0.0005769894135170591,-4.736823621316502e-05,-0.0005074716888485806,-0.0006704682696416294,-0.2071649730205536,-50.93228530883789,-9.491166114807129,17.13324737548828,1.8593240976333618,-1.1899521350860596,0.07328949868679047,,,,,,,,,
1739304890.94862,-0.0526307795522973,1.1059722483680774,-0.48153535368976136,-1.4139341225852902,1.623170435807155,1.0682997076563752,1.358288202894551,0.0002285682508476196,-0.000328007535328112,0.0004948147535916881,0.0006854513777493907,-0.0008806695259539737,-0.0008424302584592496,-0.00037875210532486216,-0.2309686839580536,-50.93228530883789,-9.467362403869629,17.08167266845703,1.8785501718521118,-1.2036850452423096,0.11265717446804047,,,,,,,,,
1739304890.9596257,-0.052626937132427255,1.1059759851069972,-0.48153806260212556,-1.4139350876701087,1.6231710674242574,1.0682995404906312,1.358294585466828,0.0008592378467785211,0.0012726193873711948,-0.0006309801335453384,0.0009019337199221826,0.0004426023383816975,0.00038161500960865315,0.00021754859965438184,-0.2825433909893036,-50.98386001586914,-9.439591407775879,17.08167266845703,1.8657327890396118,-1.1899521350860596,0.05955658480525017,,,,,,,,,
1739304890.9705572,-0.05263248904154922,1.105970229240454,-0.48153622788721717,-1.41393894276201,1.6231725783661493,1.0683002500073617,1.3582898361135618,-0.0008591377047618175,0.0009233535841687888,-0.0004829877333609057,-0.0018126872016318376,-0.0003691201254801263,-0.00029641609556675056,0.0004884942891079098,-0.2071649730205536,-50.93228530883789,-9.467362403869629,17.13324737548828,1.8529154062271118,-1.1972763538360596,0.09983979165554047,,,,,,,,,
1739304890.980642,-0.05263076679224793,1.1059738770721288,-0.4815364226306621,-1.4139379974455824,1.6231734723114895,1.0683000831077185,1.3582953576989691,0.0006692862545518934,0.0009472682587341901,0.0003441889067760342,-0.0002254253208442627,0.00017798546512019932,0.0009113439617042205,-6.442541160622762e-05,-0.2309686839580536,-50.98386001586914,-9.467362403869629,17.13324737548828,1.8529154062271118,-1.2036850452423096,0.05314789339900017,,,,,,,,,
1739304890.9915583,-0.0526328075079145,1.105972130629488,-0.4815382200068983,-1.4139321486242826,1.6231687639068884,1.0682994235033731,1.3582883207936352,-0.0014298898198977163,1.4974606109466744e-05,-0.00028381466012060647,9.232085816937229e-05,0.00012543727642388145,-0.000532385948762738,0.000609170881337774,-0.2071649730205536,-50.96005630493164,-9.439591407775879,17.08167266845703,1.8593240976333618,-1.1899521350860596,0.11265717446804047,,,,,,,,,
1739304891.0016189,-0.052630884553296425,1.1059727892739308,-0.48153627196273757,-1.4139407214646704,1.6231728831994596,1.0682960084569346,1.3582945399224753,0.00017007113661123157,0.0008921771169961414,-0.00044742859788221773,-0.00022191728440076105,-0.000710500928252245,-0.00016659105864497443,2.4462366665967713e-05,-0.2309686839580536,-51.00766372680664,-9.467362403869629,17.15705108642578,1.8593240976333618,-1.1972763538360596,0.05955658480525017,,,,,,,,,
1739304891.0126207,-0.05262875616720882,1.105972184576733,-0.48153614032419906,-1.4139385487838267,1.6231689875556834,1.0682954082650387,1.3582961138688276,0.0001875902422519725,0.0006026680600105681,0.0008225576510596221,-0.0003588422884828609,-0.0006826277751189044,-0.00196819679159076,0.0015898515292004263,-0.2309686839580536,-50.96005630493164,-9.467362403869629,17.15705108642578,1.8657327890396118,-1.1835434436798096,0.04673920199275017,,,,,,,,,
1739304891.0236475,-0.05263228163438657,1.1059691379152985,-0.48153621906045585,-1.4139364271563057,1.6231736380583364,1.0683006417979277,1.358287849898528,-0.0008875806331446383,-0.0013964255007956718,-0.0006670426657435768,0.0008977387838376378,0.0003194125870546494,7.759135324560725e-05,-0.0018451169676720002,-0.2071649730205536,-50.93228530883789,-9.467362403869629,17.10944366455078,1.8529154062271118,-1.2036850452423096,0.11265717446804047,705,728,711,44.432,0,0
1739304891.0346189,-0.05262927737781724,1.1059721306236812,-0.4815382978786941,-1.4139388455880133,1.6231714061017715,1.068299384052059,1.3582942322516818,-0.0005075140005555041,0.00021938205299420685,-0.0011402463772109087,9.494757870161068e-05,5.829248762110719e-05,-0.0015105599923741374,0.0013504591328573064,-0.2547723948955536,-50.96005630493164,-9.439591407775879,17.13324737548828,1.8657327890396118,-1.1899521350860596,0.05955658480525017,705,724,711,44.432,0,0
1739304891.0456402,-0.05262493151773451,1.1059711812066146,-0.48153443623986664,-1.4139341898271671,1.6231706117384914,1.0683004113559982,1.35828966556182,0.0018979085834249037,-0.0008164783969760334,0.0007009653015732143,0.002025911791700522,-0.00015695281065136269,0.0024670565388270537,-0.0007322663217556608,-0.2825433909893036,-50.96005630493164,-9.491166114807129,17.10944366455078,1.8785501718521118,-1.1972763538360596,0.09983979165554047,706,730,711,44.541,0,0
1739304891.0575943,-0.052630963405843216,1.1059701317382764,-0.4815362190608995,-1.4139342960654715,1.6231712511805527,1.0682952009985278,1.3582958041864617,-0.0008608186627201626,0.00045898551929813935,-0.00011184519619246139,0.001415486269730963,-0.0003151741254042334,-0.00014492151217858866,0.00042429286785854983,-0.2309686839580536,-50.93228530883789,-9.467362403869629,17.10944366455078,1.8721414804458618,-1.1899521350860596,0.08610688149929047,705,728,710,44.323,0,0
1739304891.0676527,-0.05263085827385034,1.105971208497015,-0.4815362190609003,-1.413938925048843,1.6231721328762516,1.0682995261217763,1.3582874549209192,-0.00030241410223273956,0.00036001458067266737,-0.00025974570632282545,-0.0017400064211422922,-0.00026653532525962157,0.00177931970105006,-0.0013802358871106805,-0.2309686839580536,-50.96005630493164,-9.467362403869629,17.13324737548828,1.8657327890396118,-1.1899521350860596,0.11998139321804047,704,728,712,44.432,1,0
1739304891.0785503,-0.052630175052698694,1.105969135454583,-0.4815340918658211,-1.4139389132911535,1.6231713694565075,1.0682979721919625,1.3582946009190966,0.00044779899299353024,-6.0355958877961625e-05,0.001131734544942965,-0.0005805901159007272,-0.0003805536163798671,5.360247251669036e-05,0.0017025352857832883,-0.2309686839580536,-50.90848159790039,-9.467362403869629,17.13324737548828,1.8721414804458618,-1.1899521350860596,0.05955658480525017,705,729,711,44.432,0,0
1739304891.0886028,-0.05262842622344509,1.105974242395546,-0.4815355103918771,-1.4139350625248597,1.6231728714793392,1.0682962736919632,1.3582890372698215,0.000364225225518054,0.000340228350247299,0.00012587972919145152,0.001126851002190322,0.0006845499558292353,0.0007150572940911755,-0.0021993632146502396,-0.2547723948955536,-50.96005630493164,-9.467362403869629,17.08167266845703,1.8593240976333618,-1.1899521350860596,0.10624848306179047,705,728,710,44.432,0,0
1739304891.099617,-0.052630849501999095,1.1059720932566497,-0.4815372665092004,-1.413933279957055,1.623168138160218,1.0682966568363947,1.3582926869725593,-0.00012944132441983062,0.0003968223352159432,0.00019556886391035636,0.0026377383355180016,-0.000566634716513251,-0.00027179241572165933,0.0011317609917133663,-0.2309686839580536,-50.98386001586914,-9.439591407775879,17.05786895751953,1.8721414804458618,-1.1972763538360596,0.07969819009304047,704,728,711,44.649,0,0
1739304891.1097288,-0.05263427958666087,1.105972130599662,-0.48153624553437074,-1.4139389515919036,1.623172081463422,1.0682947117547197,1.3582969405284877,-0.0012254878370302898,-0.0005147555282007486,-1.2049635570410137e-05,-0.0007623280509332622,-0.00026783027456641896,-0.00119388597596374,0.0017287545206482887,-0.1793939769268036,-50.96005630493164,-9.467362403869629,17.13324737548828,1.8657327890396118,-1.1899521350860596,0.03941498324275017,706,728,710,44.432,0,0
1739304891.1216292,-0.05262905802014492,1.105972054099876,-0.4815400834872015,-1.4139321483026202,1.6231719418531174,1.0682993711151754,1.3582934876577546,0.00029981437745304373,0.0001350048884323129,-0.0012104707868662585,0.0008894644616637731,-0.0003982498198347042,-0.00013339983559550826,0.0018351800310606413,-0.2547723948955536,-50.96005630493164,-9.415787696838379,17.08167266845703,1.8593240976333618,-1.1899521350860596,0.06596527993679047,705,728,711,44.541,0,0
1739304891.1316886,-0.052629160241857084,1.1059701323730757,-0.48153160185189636,-1.413937158069783,1.6231686442268891,1.068299545679417,1.3582883212882624,0.0011162806299298848,0.00018026422040372313,0.0011027248167780367,-0.0001833723657533214,-0.000892828596208503,0.0014975540931893192,0.0009625006798165378,-0.2547723948955536,-50.93228530883789,-9.491166114807129,17.10944366455078,1.8593240976333618,-1.1899521350860596,0.11265717446804047,705,729,710,44.541,0,0
1739304891.142575,-0.052630805720683745,1.1059721309563435,-0.48153444018445907,-1.4139371689152722,1.6231728655873643,1.0682971062864741,1.3582922173311751,0.0004682351934374807,-0.00017868407770815837,0.001326659436569324,0.00016899702756325682,-0.0008203721315922247,3.20988042283503e-05,0.0005426757024487332,-0.2309686839580536,-50.96005630493164,-9.491166114807129,17.10944366455078,1.8593240976333618,-1.1972763538360596,0.07969819009304047,705,729,712,44.541,0,0
1739304891.152588,-0.05263080571941531,1.105971839334116,-0.4815362455519179,-1.4139350891254778,1.6231713694023153,1.0682939547644257,1.3582929619092985,-0.0016193985714143327,0.0007842540167632534,0.0002157756713804014,0.0017245528295976456,0.0006039523987682242,-0.0009665670763077411,0.0007802933746573187,-0.2309686839580536,-50.98386001586914,-9.467362403869629,17.08167266845703,1.8721414804458618,-1.1835434436798096,0.07328949868679047,706,730,710,44.432,0,0
1739304891.1635566,-0.052630884441154616,1.1059721050731852,-0.48153619281538323,-1.4139389427620346,1.6231676847066008,1.0683006282151783,1.3582858995392433,-0.0014255488384490532,9.829735485233958e-06,0.00033708566141055967,-0.000624234159116987,-0.0007686832090333448,0.0011474938915486722,-0.0014348749767980455,-0.2309686839580536,-50.96005630493164,-9.467362403869629,17.13324737548828,1.8721414804458618,-1.2036850452423096,0.10624848306179047,705,732,712,44.432,0,0
1739304891.1736434,-0.052625989673785636,1.1059701428265238,-0.48154008447076974,-1.4139364536594465,1.6231724091879594,1.0683000248282541,1.35829455924931,0.0015945540761741763,-0.0005093209892101364,-0.0016873544102894876,0.0005619671233500921,-0.0018535043693797698,0.0008166209962008719,0.0009197527255829598,-0.2547723948955536,-50.93228530883789,-9.415787696838379,17.10944366455078,1.8593240976333618,-1.2036850452423096,0.05955658480525017,704,731,711,44.432,0,0
1739304891.1845963,-0.05263225546024244,1.1059721277949308,-0.4815384052506505,-1.4139406283015208,1.6231728847201117,1.0682960529284893,1.3582898361135614,-0.0009448549064385239,-0.00027326041848373947,-0.0015299091598786538,-0.0007794269850770019,0.000679533407640756,-0.0004407104750367274,0.0008871023224043146,-0.2071649730205536,-50.96005630493164,-9.439591407775879,17.15705108642578,1.8593240976333618,-1.1972763538360596,0.09983979165554047,706,733,711,44.432,1,0
1739304891.19562,-0.052627043640692414,1.1059721306292487,-0.4815368782383472,-1.41393894276024,1.6231702585298513,1.068299182901388,1.3582929590385369,0.0009135865309640249,-0.0004175340793030234,-0.0003526468604821495,-0.00017356932375174448,-0.00031996812233920415,0.0008744594851348351,0.0010326804415930536,-0.2547723948955536,-50.96005630493164,-9.439591407775879,17.13324737548828,1.8785501718521118,-1.1899521350860596,0.07328949868679047,705,732,712,44.432,1,0
1739304891.2066243,-0.05262709384943164,1.105972130524318,-0.48153829841605533,-1.4139359725047678,1.6231721265057564,1.0682939590502676,1.3582878169393917,0.0005773329496644726,9.74644416672728e-05,-0.0008347043994922927,0.001963606085134129,-0.0009340122380364293,-0.0012728951641575062,0.000470670093799854,-0.2825433909893036,-50.96005630493164,-9.439591407775879,17.13324737548828,1.8657327890396118,-1.1835434436798096,0.11998139321804047,706,732,712,44.432,0,0
1739304891.2185512,-0.052630884441146664,1.1059755557797746,-0.4815362190972366,-1.4139379890709012,1.623171356320684,1.0682964028899924,1.3582889549039778,-0.0003890483086371677,0.0013081571868616385,0.0014513395507492026,-9.887867964924915e-05,0.0008036234757346954,-0.0007500199349467341,-0.0006155871319347864,-0.2309686839580536,-51.00766372680664,-9.467362403869629,17.13324737548828,1.8721414804458618,-1.2036850452423096,0.10624848306179047,705,731,711,44.432,0,0
1739304891.2295668,-0.05263077025311467,1.1059722788800566,-0.481536316264157,-1.4139406184559444,1.6231736409292996,1.0683011692287445,1.3582945985487695,-0.0004941361000482742,-0.00030440839058192584,-0.0005325428219984161,-0.0004035360667153763,0.0016700621881849613,0.0012003075405723855,0.0013130243146717174,-0.2309686839580536,-50.93228530883789,-9.467362403869629,17.15705108642578,1.8529154062271118,-1.2036850452423096,0.05955658480525017,705,730,710,44.432,1,0
1739304891.239577,-0.05263046868600437,1.105972129720835,-0.4815344363855274,-1.4139368028797399,1.6231724788218527,1.0682961114862524,1.3582892345877535,-0.0005687511573455079,0.00020254571687382692,0.0009490143891986345,-0.0012953568183817162,0.0014754443656754845,0.00025444835737250973,-0.0006036639507907501,-0.2071649730205536,-50.96005630493164,-9.491166114807129,17.13324737548828,1.8657327890396118,-1.1899521350860596,0.06596527993679047,707,732,711,44.432,0,0
1739304891.2496183,-0.05262717015931477,1.105968420603762,-0.48153819430415445,-1.4139402573958246,1.6231721125331724,1.0682962806132674,1.3582858842797843,0.0011949874463328056,-0.0019891286020348566,-0.00033752383700813,-0.0014844546455392506,-0.00028370020522202824,-0.0006408690323000224,-0.0010475083413039425,-0.2825433909893036,-50.90848159790039,-9.439591407775879,17.15705108642578,1.8657327890396118,-1.1899521350860596,0.10624848306179047,707,732,710,44.541,1,0
1739304891.2596376,-0.05262669816136491,1.1059686496631154,-0.48153539626288133,-1.4139407342612955,1.6231721256089215,1.0682999072464343,1.3582929749371573,0.0022253055864016593,-0.0006664912844310791,0.0006352783127228051,-0.0018809766954512475,0.0009566471495259043,0.0005132855540599286,0.0011610517599142216,-0.2547723948955536,-50.90848159790039,-9.467362403869629,17.15705108642578,1.8657327890396118,-1.2036850452423096,0.07328949868679047,706,731,710,44.541,1,0
1739304891.2705774,-0.052632596083301474,1.1059720937830932,-0.4815359797850616,-1.4139350230027663,1.6231728321796384,1.0682993234549096,1.3582929749912505,-0.0011444155162166586,0.0006474122812817527,0.0005824686822644826,0.0008190754247729382,-0.0008853930290096542,0.000769580159566295,0.0008735695999397123,-0.2071649730205536,-50.96005630493164,-9.467362403869629,17.10944366455078,1.8593240976333618,-1.1972763538360596,0.07328949868679047,706,732,710,44.541,1,0
1739304891.2816544,-0.0526305312791024,1.1059684204945532,-0.48153570262798145,-1.413937168866881,1.6231721251243543,1.068300371178946,1.3582890770001548,0.0014360720353346075,-0.0010051888703181114,-0.0003684539577427316,0.00015122564471195993,-0.00018872441980651237,0.0005221477303017662,0.0002475422753808967,-0.2309686839580536,-50.90848159790039,-9.439591407775879,17.10944366455078,1.8657327890396118,-1.1972763538360596,0.10624848306179047,707,733,706,44.649,1,0
1739304891.2925885,-0.05263043851682906,1.1059738433720998,-0.4815382988361001,-1.4139362152410166,1.6231744000429418,1.0683003976717762,1.35828907796918,-0.00022442138791802088,0.0004607250957647321,-0.0015704247329688704,0.0010033075670245523,0.002034215763569918,0.001320652200310146,-0.000229430780143255,-0.2071649730205536,-50.98386001586914,-9.439591407775879,17.10944366455078,1.8465067148208618,-1.1972763538360596,0.10624848306179047,705,731,707,44.323,0,0
1739304891.3036468,-0.05263056630202615,1.1059745583707736,-0.4815362190609002,-1.4139371689099498,1.6231736293009222,1.068299058321077,1.358288239411274,0.00031057113850836075,0.0005425960119386966,0.0003377921023496631,0.0002801712757626941,0.001932145418197292,0.000747002482750428,-0.0013141824941103586,-0.2309686839580536,-50.98386001586914,-9.467362403869629,17.10944366455078,1.8529154062271118,-1.1899521350860596,0.08610688149929047,705,727,710,44.541,0,0
1739304891.3145611,-0.052627043641088056,1.1059738443653566,-0.4815344263392434,-1.4139349965481518,1.623171369402418,1.0682971653574043,1.3582921780307804,-0.0005169161373434767,0.00095158933756024,0.0009503014283468947,0.0005702954319867743,-0.0002860820838272353,-0.0004085602123335123,0.0010393867723236926,-0.2547723948955536,-50.98386001586914,-9.491166114807129,17.10944366455078,1.8721414804458618,-1.1835434436798096,0.07969819009304047,707,729,711,44.541,1,0
1739304891.3245726,-0.052630874337168225,1.1059686510641757,-0.48153265374314425,-1.4139357383915958,1.6231721226482319,1.068298458052271,1.3582905937198047,-0.0011636014405786376,-0.0005684671523670668,0.0008878353192506224,-0.0004429652898185089,0.00014152004471740682,0.0008289296251780886,3.78431900247123e-05,-0.2309686839580536,-50.90848159790039,-9.514969825744629,17.10944366455078,1.8657327890396118,-1.1899521350860596,0.09343110024929047,705,731,708,44.432,0,0
1739304891.3355942,-0.05262792992263229,1.1059680653106156,-0.48153593674075945,-1.4139350889720474,1.6231704896443155,1.0683004787195418,1.3582904000329645,0.0007946442898390554,-0.001939171040530149,0.00024536663063426465,0.0007310200108586853,0.0008521496901324027,0.0004051774221176397,0.0002320945271895816,-0.2309686839580536,-50.93228530883789,-9.439591407775879,17.08167266845703,1.8785501718521118,-1.2100937366485596,0.08610688149929047,706,728,709,44.541,0,0
1739304891.3465488,-0.052630884388876316,1.1059721305826333,-0.48153629848442353,-1.4139360905694023,1.6231733066120786,1.0682998866319013,1.3582945811004172,0.0007348199328656188,-0.0006848042278697207,-6.92562823978947e-05,0.0002051379863593946,0.0005927338773355504,-0.000369642751492001,0.00125635212847334,-0.2309686839580536,-50.96005630493164,-9.467362403869629,17.13324737548828,1.8529154062271118,-1.1972763538360596,0.05955658480525017,706,728,708,44.432,1,0
1739304891.3566012,-0.05262885541547286,1.1059710880908906,-0.48153598285124566,-1.4139389247258987,1.623170611736875,1.0682991429048523,1.3582945985487065,0.00031343775731435404,-0.0005947034535653398,-0.0005442011595056734,6.454294337291029e-05,0.0011309204012759544,0.0002913308779860565,0.0012156832960405612,-0.2547723948955536,-50.98386001586914,-9.467362403869629,17.13324737548828,1.8785501718521118,-1.1899521350860596,0.05955658480525017,707,728,708,44.323,1,0
1739304891.3676176,-0.05262538262851452,1.105972139444062,-0.4815400815627803,-1.4139388720830022,1.6231706054438435,1.0682987475703232,1.3582945980644852,0.0012213133823125765,0.001584310387743217,-0.0012122715278447072,0.00045375212274556277,-0.00033277863808691706,0.0011663397240858644,0.0016737731504221508,-0.3063471019268036,-50.96005630493164,-9.415787696838379,17.13324737548828,1.8785501718521118,-1.1835434436798096,0.05955658480525017,707,728,708,44.432,1,0
1739304891.3785484,-0.05262952263068175,1.1059751500372033,-0.481534093161904,-1.413938951263957,1.6231721212484103,1.0682971728144175,1.3582922173311642,-0.0011664813383558013,0.0005524079729990589,0.0015216897436401181,-0.0015307753039822364,0.00024493077313029825,-0.0011885670333199932,0.0007800938935083641,-0.2071649730205536,-50.98386001586914,-9.467362403869629,17.13324737548828,1.8657327890396118,-1.1835434436798096,0.07969819009304047,706,727,707,44.432,0,0
1739304891.3885643,-0.05263088027914464,1.1059701355342817,-0.48153829894777134,-1.4139347624037193,1.6231696883657722,1.0682960536431856,1.3582929748297452,7.451284108470502e-05,-0.0006824175187576933,-0.00026846337007267875,0.0017881792965550305,0.00018956845364509454,0.0007287173867647108,0.0019305460341468676,-0.2309686839580536,-50.93228530883789,-9.439591407775879,17.08167266845703,1.8593240976333618,-1.1972763538360596,0.07328949868679047,706,728,709,44.432,1,0
1739304891.3985817,-0.0526266990264234,1.1059684466587139,-0.48154008152777655,-1.4139361357626243,1.6231713693485088,1.0682975399285943,1.3582929749912482,0.00025560248021699644,-0.001387797161168159,-0.0021166279039569994,0.00031698727110668313,-0.0009703865231990778,0.0008340117518696927,0.0007367084987157948,-0.2547723948955536,-50.90848159790039,-9.415787696838379,17.10944366455078,1.8721414804458618,-1.2100937366485596,0.07328949868679047,707,728,709,44.432,1,0
1739304891.4085891,-0.052630569191922674,1.10597014151921,-0.4815382974466667,-1.4139397011046988,1.6231703096030035,1.068295759632611,1.3582872611554972,0.0009871723483632112,-0.0003004371353852641,-0.0012819465147463573,-8.519963840433037e-05,-0.000296720320873786,-0.0017688384993303353,-0.0005397848507134188,-0.2309686839580536,-50.93228530883789,-9.439591407775879,17.15705108642578,1.8721414804458618,-1.1899521350860596,0.11265717446804047,706,727,708,44.432,0,0
1739304891.4206114,-0.05263054000005925,1.1059701326884934,-0.4815380626397483,-1.4139369211882005,1.6231738891948115,1.0682982643857393,1.358292058888214,-0.00035782676610699924,-0.001336170533615886,2.3192305467727397e-05,0.0005439986554266138,0.00029964316459841144,0.0007648658237040069,0.0007442715875571823,-0.2309686839580536,-50.93228530883789,-9.439591407775879,17.10944366455078,1.8465067148208618,-1.1835434436798096,0.07969819009304047,707,725,708,44.541,0,0
1739304891.4315896,-0.052629720142365694,1.1059684467071174,-0.4815362199335954,-1.413934307019788,1.6231721097806593,1.0682950381949812,1.3582920603474478,-0.00019740752712257045,1.5305278051400118e-05,-0.00026602205355308827,0.0010917606250964692,-0.0008302243125045996,0.0003019729972651928,0.0009788481125379018,-0.2071649730205536,-50.90848159790039,-9.467362403869629,17.10944366455078,1.8657327890396118,-1.1899521350860596,0.07969819009304047,709,729,709,44.541,1,0
1739304891.4420755,-0.052629511013062825,1.1059719275324378,-0.48154000279078985,-1.4139389515438858,1.6231721270624253,1.0683002727760798,1.3582949605893708,6.83622797087099e-05,-0.00016919930426578897,-0.0009020499018504048,-0.00018955367876616526,0.0003025030137396604,0.002148587839153664,0.0004524888211812395,-0.2071649730205536,-50.96005630493164,-9.415787696838379,17.13324737548828,1.8657327890396118,-1.1972763538360596,0.05955658480525017,708,729,709,44.432,1,0
1739304891.4525623,-0.05263079301571998,1.10597213062815,-0.48153844430052745,-1.4139370586998856,1.6231727669852263,1.0682938871197605,1.358288921418487,-0.00018644053463808138,0.00017541299543315055,-0.0007637807796576222,0.0012063148953855836,0.0003234262288857886,-0.00013436287218745644,-0.0008007424636873239,-0.2309686839580536,-50.96005630493164,-9.467362403869629,17.10944366455078,1.8593240976333618,-1.1707260608673096,0.10624848306179047,707,729,709,44.323,0,0
1739304891.4625878,-0.052628755733126524,1.1059756351436187,-0.4815362190985849,-1.4139371688044506,1.6231682798736227,1.068297320422322,1.3582978176877336,-0.0014278134676448703,0.0016187540233893578,0.0006205244209637247,0.00020057035883668526,-9.396160713067599e-05,-0.0007784822467581847,0.0026306465040673065,-0.2309686839580536,-51.00766372680664,-9.467362403869629,17.10944366455078,1.8593240976333618,-1.1835434436798096,0.05955658480525017,704,729,708,44.432,1,0
1739304891.472626,-0.05262875602302407,1.1059684242026602,-0.48154008152777555,-1.4139379095058402,1.6231697588492973,1.0682971531655332,1.3582852444030726,-7.286692064337348e-05,-0.0011848176808309707,-0.0006247543885908399,0.00028668815488522005,-0.00010756911087252607,0.0013462841990885014,-0.0025565732380016374,-0.2309686839580536,-50.90848159790039,-9.415787696838379,17.13324737548828,1.8858743906021118,-1.1972763538360596,0.09983979165554047,708,731,710,44.541,1,0
1739304891.4846241,-0.05262885529532695,1.1059684201677351,-0.48153443638388127,-1.4139389250955166,1.6231736378607917,1.068297976588165,1.358290988694894,0.00012705612265443984,-0.0006124863314113489,0.000710258083456674,-0.0007722279735462165,-0.00032065754424859174,-0.0005917993135364268,-0.001154381689978024,-0.2547723948955536,-50.90848159790039,-9.491166114807129,17.13324737548828,1.8529154062271118,-1.1899521350860596,0.08610688149929047,708,729,709,44.432,0,0
1739304891.4956028,-0.05262601789591356,1.1059721656239674,-0.48153621906090033,-1.4139385883567546,1.6231710157054045,1.0682939054119938,1.358287279769621,0.0014429584315179865,0.0005012145533450239,0.0009639525157894779,0.0003549267057726803,0.00016839224104889906,-0.0015583228323939847,-0.001758700942888007,-0.2547723948955536,-50.96005630493164,-9.467362403869629,17.15705108642578,1.8721414804458618,-1.1835434436798096,0.11998139321804047,707,731,709,44.432,1,0
1739304891.5065563,-0.05263011687776229,1.1059738460940596,-0.4815345511780119,-1.413940495378386,1.6231721256031777,1.0682970934496379,1.3582945679876892,-7.703143457840866e-06,0.0003586306432822533,-0.0009340651169071998,-0.0004920025522562156,0.0004953632149413201,-0.00036311897708575904,0.0007854613380811934,-0.2071649730205536,-50.98386001586914,-9.491166114807129,17.15705108642578,1.8657327890396118,-1.2100937366485596,0.06596527993679047,707,731,715,44.758,1,0
1739304891.5165691,-0.05263424028491767,1.1059738441311908,-0.48153829885140387,-1.413935062633176,1.6231694211114462,1.0682991433279059,1.358287454415982,-0.0011175922285080742,0.0003374887052278404,0.0001584524388078692,0.0006276649968789553,-0.0009735261181911393,-0.0006251727811481453,0.00048011069608612413,-0.1793939769268036,-50.98386001586914,-9.439591407775879,17.08167266845703,1.8529154062271118,-1.1899521350860596,0.11998139321804047,707,734,709,44.432,1,0
1739304891.5275655,-0.05262770475166471,1.1059711622377895,-0.48153060695670435,-1.4139389473405684,1.6231674965123215,1.0682972929420298,1.3582905806380716,-0.0008096318955617713,-0.00021598367670228107,0.0010484905070853078,7.83489899179072e-05,-0.0007929375574953083,-0.001212077209580005,-0.002013429984482027,-0.2309686839580536,-50.96005630493164,-9.514969825744629,17.13324737548828,1.8657327890396118,-1.1835434436798096,0.09343110024929047,707,735,709,44.541,0,0
1739304891.5385888,-0.05262943077322188,1.1059747968079445,-0.4815340931272415,-1.4139371689152616,1.6231721269842991,1.0682970131155016,1.3582921642125174,-0.0003735769935278817,0.002132661122766028,5.781050379708882e-05,0.00012318340604647955,-0.00048150125563370004,0.0011340470639376289,0.0008461441036266063,-0.2071649730205536,-50.98386001586914,-9.467362403869629,17.10944366455078,1.8657327890396118,-1.1972763538360596,0.05314789339900017,706,731,710,44.323,1,0
1739304891.5486233,-0.052629824251704975,1.105973843166178,-0.4815362189168906,-1.413937186575969,1.6231720093251467,1.068298507379435,1.3582889605005728,-0.0005941280219513472,0.00016147046619986857,0.000540474321250447,-0.0005924701407308402,-0.0003559837784049563,0.001373801476652242,-0.0019702972068660436,-0.2309686839580536,-50.98386001586914,-9.467362403869629,17.10944366455078,1.8657327890396118,-1.2100937366485596,0.10624848306179047,706,731,711,44.432,1,0
1739304891.5596166,-0.052626322457214304,1.1059721306292967,-0.4815404446179675,-1.4139407342330659,1.6231724232263463,1.0682946737185373,1.358293840834426,0.0005573137050982311,-0.00038978560010417097,-0.0004912928720445597,-0.0008064500182489024,0.00029214435826122856,-0.0015969699985637698,-3.184335277386593e-05,-0.2547723948955536,-50.96005630493164,-9.439591407775879,17.15705108642578,1.8721414804458618,-1.1899521350860596,0.06596527993679047,706,731,710,44.432,1,0
1739304891.56962,-0.05262952128616442,1.105972519817674,-0.4815359712214987,-1.4139371689153328,1.6231717593323522,1.068300299856494,1.3582895341357315,-0.0010271451554406264,0.00047271846103967303,0.00030231266943793445,-0.0002164497115254582,-0.00023763414464175473,0.0015504676886288955,8.92240419653763e-06,-0.2071649730205536,-50.93228530883789,-9.467362403869629,17.10944366455078,1.8657327890396118,-1.2100937366485596,0.09343110024929047,707,730,710,44.432,1,0
1739304891.580627,-0.052628673283896914,1.1059721306427721,-0.48153625438077224,-1.4139368045169451,1.6231686461682027,1.0682966973542791,1.3582944808054502,-0.0004048406814168747,0.00010844960409007529,-0.000841974685556957,-0.0001823257775686027,-0.0009782658853980822,0.000807070149769344,0.0006760653255719824,-0.2309686839580536,-50.96005630493164,-9.467362403869629,17.13324737548828,1.8593240976333618,-1.2036850452423096,0.05955658480525017,707,730,711,44.323,1,0
1739304891.5915644,-0.05262804536024409,1.1059673907112597,-0.4815382988509552,-1.4139387014605735,1.623174382522588,1.0682958881941993,1.3582889432728675,-0.00014813508547932154,-0.0008527934161138405,-0.0016563804557049315,0.00022441019604530963,0.0006810153765070459,-0.0002999506900179905,-0.0007041055193719606,-0.2309686839580536,-50.93228530883789,-9.439591407775879,17.13324737548828,1.8465067148208618,-1.1972763538360596,0.10624848306179047,707,730,711,44.541,0,0
1739304891.6025429,-0.05262792879327766,1.1059702124419164,-0.48153451585674095,-1.4139387131695371,1.6231667601945123,1.0682955642299339,1.3582905918335055,0.00035810073576845287,-0.0003858039879597384,-1.1178784954239229e-05,-0.00017277545512576448,-0.00224995635734619,-0.0010115640512106151,0.0006775510832716521,-0.2309686839580536,-50.93228530883789,-9.491166114807129,17.13324737548828,1.8721414804458618,-1.1972763538360596,0.09343110024929047,707,730,711,44.541,0,0
