IITGN-Robotics/Franka_IITGN_ROBOTICS/franka_ros/franka_iitgn/data01/s_f_003.csv
time,fr3_joint1_pos,fr3_joint2_pos,fr3_joint3_pos,fr3_joint4_pos,fr3_joint5_pos,fr3_joint6_pos,fr3_joint7_pos,fr3_joint1_vel,fr3_joint2_vel,fr3_joint3_vel,fr3_joint4_vel,fr3_joint5_vel,fr3_joint6_vel,fr3_joint7_vel,fr3_joint1_eff,fr3_joint2_eff,fr3_joint3_eff,fr3_joint4_eff,fr3_joint5_eff,fr3_joint6_eff,fr3_joint7_eff,flexpin1,flexpin2,flexpin3,Force,ContactMic,ContactMic_gt
1739302950.7110393,-0.12052599742013237,1.0675783290424092,-0.37879498086496594,-1.418494081001923,1.519705715390463,1.1536761832475317,1.3577446055047149,-0.0005484527710774977,-0.0013373708633653805,0.00042892722043363083,0.0008484402153962479,0.00033476376468519295,0.0001001416148458921,0.0017397346555745848,-0.7030755877494812,-51.31711196899414,-7.229813575744629,18.24408721923828,2.0232033729553223,-0.6314804553985596,0.05314789339900017,,,,,,,,,
1739302950.7220461,-0.12052252831640715,1.0675811899618752,-0.3787935958326292,-1.4185007719722906,1.5197087643232516,1.1536607853719152,1.3577378146699126,0.000982873314434121,-0.0011756830593432706,-0.0015950520965482586,0.0003957991815717707,0.0018844227492742346,-0.003314636557256838,-0.0007100303880541491,-0.6038934588432312,-51.31711196899414,-7.182206153869629,18.09729766845703,1.8858743906021118,-0.7431747913360596,0.07969819009304047,,,,,,,,,
1739302950.7340105,-0.12051683416741317,1.067571568637916,-0.3787949677520347,-1.4185309031290991,1.5197059074495467,1.1535838878538305,1.3577364594135302,0.0002799594721097883,-0.0002961712651980647,-0.0009950752680148406,-0.003365032088660625,0.00035445497144319035,-0.0058972941999322105,-0.0010214849948121168,-0.4571039378643036,-51.13858413696289,-7.130631446838379,18.04572296142578,1.8199564218521118,-0.8283188343048096,0.05314789339900017,,,,,,,,,
1739302950.7460558,-0.12050597660300653,1.0675773988542265,-0.3787939355498026,-1.4185564134973374,1.519707245931557,1.1535533219321152,1.3577322541633785,0.0009768288696353237,0.000316655849195107,0.0012999064908003502,-0.0029814341198440013,-0.0016226413365352803,-0.002035933159043594,0.0013360453202731814,-0.4293329417705536,-51.19015884399414,-7.130631446838379,18.06952667236328,1.8071390390396118,-0.8356430530548096,0.05955658480525017,,,,,,,,,
1739302950.7560604,-0.12050135093804766,1.067583601859907,-0.37879989633609584,-1.4185753843482405,1.519706500508002,1.1535418296521651,1.3577170580874716,0.0007218295785026507,-0.00048111781881841507,-0.0014386347231762151,-0.0026464510298014297,-0.00012577620686852022,0.00024365826446162144,-0.0013972373340679848,-0.4293329417705536,-51.26553726196289,-7.079056739807129,18.12110137939453,1.7869974374771118,-0.8420517444610596,0.11998139321804047,,,,,,,,,
1739302950.7670295,-0.12050188357289655,1.067583921205694,-0.37879776755679445,-1.4185796007166034,1.5197072478155538,1.153534981987073,1.3577226471497743,-0.0003702225915823929,-0.00019144754556655702,-0.00015230965144021129,-0.0029792821407511726,0.0002335740153225979,-0.00035903154784179477,-0.0003656264247872839,-0.3817255198955536,-51.26553726196289,-7.079056739807129,18.12110137939453,1.8071390390396118,-0.8155014514923096,0.05955658480525017,,,,,,,,,
1739302950.7780378,-0.12050046345294237,1.0675839212227665,-0.37879871322879477,-1.4185825762231037,1.5197088026252272,1.15353120503631,1.3577184453839581,-0.0002871200801340911,-0.0022668422699211955,6.148469626979529e-05,0.00011954851557641373,0.001894803798794064,0.000846734353072615,-0.0010504180710704317,-0.3539545238018036,-51.26553726196289,-7.079056739807129,18.04572296142578,1.7934061288833618,-0.7962753772735596,0.07969819009304047,,,,,,,,,
1739302950.7890704,-0.12049975008725744,1.067588358229777,-0.37879602816746144,-1.4185845656732659,1.5197056847580257,1.1535285771465085,1.3577176324190452,8.277333554308438e-05,0.0009230305577362808,0.0009090251397301126,-0.000499818144005925,0.0003183434721005293,-0.0002929360189007579,0.0012147655128409982,-0.3539545238018036,-51.31711196899414,-7.102860450744629,18.04572296142578,1.7934061288833618,-0.8026840686798096,0.04673920199275017,,,,,,,,,
1739302950.8000357,-0.12050017223258547,1.067588729063066,-0.3787998933118128,-1.4185867428201742,1.5197072922593888,1.153526913329396,1.357714611230632,-0.001123633921777507,0.002262358255519792,-0.0004176668436467908,-0.0005068122047010823,0.0006010027769958434,0.0009219351423156805,0.0023654720085063566,-0.3301508128643036,-51.28934097290039,-7.079056739807129,18.04572296142578,1.8071390390396118,-0.8155014514923096,0.07328949868679047,,,,,,,,,
1739302950.8110332,-0.12050092914919426,1.0675861019845796,-0.37879955887431094,-1.418588693760507,1.5197057211734768,1.1535268740297038,1.3577138010515517,-0.0008429550806091464,0.001055515365457423,-0.0007586045309108143,-0.0007776108523891332,-0.0006689228278677344,0.0002637291565628827,-0.0010911745791959589,-0.3063471019268036,-51.26553726196289,-7.055253028869629,18.06952667236328,1.7805887460708618,-0.8155014514923096,0.07969819009304047,,,,,,,,,
1739302950.8219829,-0.12049920456824949,1.067586641329024,-0.3787977674127837,-1.4185935960804088,1.5197032919085742,1.1535284286313854,1.357713026166913,-0.0006702235431632036,0.0016481987756581129,-3.417896022384393e-05,-0.0001507786190036828,-0.0006886879275377041,0.0012092508057647041,-0.00010469225671083096,-0.3301508128643036,-51.28934097290039,-7.079056739807129,18.09729766845703,1.8007303476333618,-0.8283188343048096,0.07328949868679047,,,,,,,,,
1739302950.8320057,-0.12049183952700743,1.0675815863208147,-0.3788018660906084,-1.4185900502611626,1.519706899114572,1.1535276703255064,1.3577130261582617,0.0005376039972595488,0.00025661847647293653,-0.0008136601810104892,-0.00022988506600140214,-3.19611729121972e-05,-0.0007055482936673357,-0.0007345807521509946,-0.4293329417705536,-51.19015884399414,-7.027482032775879,18.04572296142578,1.7805887460708618,-0.8219101428985596,0.07328949868679047,,,,,,,,,
1739302950.8420298,-0.12048845917368989,1.0675795912260007,-0.3788016773968395,-1.418586813417926,1.519702536368609,1.153530092189937,1.3577083275631154,0.0008244317938613896,-0.0008746653397312312,-0.00020140827251548433,0.0010499042722813025,-0.0002146139724209041,0.0009959184133294897,-0.0014432865721163892,-0.4055292308330536,-51.16238784790039,-7.055253028869629,18.02191925048828,1.8071390390396118,-0.8155014514923096,0.08610688149929047,,,,,,,,,
1739302950.8529654,-0.12049324770149912,1.0675827169610286,-0.37880126779750367,-1.4185918427833337,1.5197052686784087,1.1535297390310728,1.3577055974397583,-0.0004391411547771211,0.0009657478279825989,-0.0005078656562763319,0.00015505727194853105,-0.00022227131691735815,0.0005813975704405767,-0.001801655833327409,-0.3539545238018036,-51.23776626586914,-7.003678321838379,18.06952667236328,1.7869974374771118,-0.8155014514923096,0.10624848306179047,,,,,,,,,
1739302950.8629763,-0.12049147471733804,1.0675787278215285,-0.3787980037556357,-1.4185939130448162,1.5197032926101544,1.1535308479638011,1.3577083675800474,0.0010998674331482014,-0.0007820380055692448,0.0025655214537297147,-0.0007920027861851072,-0.0011053451128816743,0.0009229637684063082,-0.0005061502746636031,-0.3817255198955536,-51.19015884399414,-7.079056739807129,18.09729766845703,1.8007303476333618,-0.8219101428985596,0.11265717446804047,,,,,,,,,
1739302950.8750434,-0.12049454082572642,1.0675805171834316,-0.3787995627278897,-1.41859194631689,1.5197071216528053,1.153530849903851,1.357708782760552,-0.0006857309819343288,9.47255678383866e-05,0.000767547398993155,-0.0005489209216400196,0.0010582992703922728,0.0012684598300820064,-0.0011520227661134146,-0.3063471019268036,-51.21396255493164,-7.055253028869629,18.06952667236328,1.8071390390396118,-0.8219101428985596,0.07328949868679047,,,,,,,,,
1739302950.8859665,-0.12049452875956297,1.0675820340930722,-0.37879989345581155,-1.4185939127304648,1.5197034188775873,1.1535236508463218,1.3577137248732616,0.0005895740208945565,-0.0001386225834272519,-8.954441696864158e-05,-0.0014842996504138273,-0.0005399474860153112,-6.524097718626674e-05,0.00039231488610866306,-0.3063471019268036,-51.23776626586914,-7.079056739807129,18.09729766845703,1.8007303476333618,-0.7889511585235596,0.06596527993679047,,,,,,,,,
1739302950.896984,-0.12049210299099498,1.067584308280344,-0.378797768720818,-1.418594221786908,1.519705670703825,1.1535273463565592,1.3577161543758574,-0.0002432367969000031,0.0006205304462071572,0.0004018996760970502,-0.0008690514047397617,1.7676460243345982e-05,-0.0005171163398522607,0.001896320209845035,-0.3301508128643036,-51.23776626586914,-7.079056739807129,18.09729766845703,1.7805887460708618,-0.7962753772735596,0.04673920199275017,,,,,,,,,
1739302950.9070184,-0.12048900054519998,1.0675840331667767,-0.3788045723104637,-1.4185913665568002,1.5197049111049494,1.1535264242713568,1.3577124747901088,0.0016336352435814489,0.0002364549455346754,-0.0017368252877253104,0.0005085481691035041,-0.0003652610691532908,-0.001457280156700839,-6.997167300435954e-05,-0.3817255198955536,-51.26553726196289,-7.027482032775879,18.02191925048828,1.7869974374771118,-0.7889511585235596,0.06596527993679047,,,,,,,,,
1739302950.918,-0.1204928070349486,1.0675792591281965,-0.3788036497895194,-1.4185948265630315,1.5197067941733073,1.1535241170621118,1.357708051062481,0.0005017198719298687,-0.0017417171224803788,-0.0005667796748273477,-0.00019048105917872718,0.0010406058448710817,-0.0005428538986192464,-0.0015876647311642699,-0.3301508128643036,-51.16238784790039,-7.003678321838379,18.06952667236328,1.7741800546646118,-0.7962753772735596,0.10624848306179047,,,,,,,,,
1739302950.9290462,-0.1204891057771621,1.067581934613132,-0.37879955013820255,-1.4185913670272603,1.519703248302463,1.153525443621625,1.357707848985587,-0.00039114333845450996,-0.001184658434373496,0.0002464931215136122,7.793218913155388e-05,-0.0009600753901437153,0.00011463221037595602,-0.0006780255656878645,-0.3817255198955536,-51.23776626586914,-7.055253028869629,18.02191925048828,1.8007303476333618,-0.8155014514923096,0.07969819009304047,,,,,,,,,
1739302950.940016,-0.1204891311098348,1.0675805546596981,-0.37880238494577045,-1.4185895843504404,1.5197044063619383,1.1535264521896207,1.357712863124333,-0.00046086272554088034,0.0010391060890540163,3.198972585610409e-05,0.0005089974610656578,0.0003362897022599337,-0.00043025363192389143,-0.0014405602816096558,-0.3817255198955536,-51.21396255493164,-7.055253028869629,17.99811553955078,1.7934061288833618,-0.8219101428985596,0.07328949868679047,,,,,,,,,
1739302950.951001,-0.12048839418943297,1.067581931890808,-0.37880194484494334,-1.4185913670274595,1.5197041532838305,1.1535313593694416,1.3577148753584327,0.0009244180428556302,-0.0005580940173321468,-0.0009270145710447118,0.0008123163847163335,-6.076650114034593e-05,0.0001532185412841372,0.0019368364861099886,-0.3817255198955536,-51.23776626586914,-7.027482032775879,18.02191925048828,1.7934061288833618,-0.8356430530548096,0.05314789339900017,,,,,,,,,
1739302950.9620388,-0.12048910285016379,1.0675805772605946,-0.3788016760265303,-1.4185930467204435,1.5197032875476266,1.1535248833923275,1.357708051837123,3.892635709590569e-08,-0.0013634480605001233,-0.0002836860601740245,0.00012794849995103098,7.118380642421197e-05,0.00021827506591327677,6.555964355177359e-05,-0.3817255198955536,-51.19015884399414,-7.055253028869629,18.04572296142578,1.8007303476333618,-0.8026840686798096,0.10624848306179047,,,,,,,,,
1739302950.9729927,-0.12049216113053308,1.0675821531851823,-0.37880436065283307,-1.418594929546493,1.5197030938067306,1.1535238107115202,1.357702734805556,-0.00036583467294821863,0.0008620120519894652,-0.0006822261812785816,-0.0008722123453149248,-0.0018005246529445241,-0.0008532083246656272,-0.002901773778656645,-0.3063471019268036,-51.23776626586914,-7.003678321838379,18.06952667236328,1.7934061288833618,-0.8026840686798096,0.11998139321804047,,,,,,,,,
1739302950.9830713,-0.12049202395776133,1.067582617493457,-0.3788018661066645,-1.4185914014038747,1.5197041490662642,1.1535222431367804,1.3577124159752196,-0.0004976503442328877,0.00029261021996784136,-0.0011118939000583795,0.0005344778081366248,0.00044022350436951155,-0.00021894455406004155,0.0004345609667749479,-0.3301508128643036,-51.21396255493164,-7.027482032775879,18.02191925048828,1.7934061288833618,-0.7889511585235596,0.06596527993679047,,,,,,,,,
1739302950.9940703,-0.12049036675243753,1.0675839906551459,-0.3788002619669584,-1.4185949323820797,1.5197056687649426,1.1535221849957187,1.3577045148802838,-0.000220649168482094,-0.0007383457115607515,0.00019130124132685857,-5.657923310619479e-05,0.0012886726705219013,0.00017414269411198475,-0.0013692118161910568,-0.3301508128643036,-51.23776626586914,-7.055253028869629,18.06952667236328,1.7805887460708618,-0.7889511585235596,0.13279877603054047,,,,,,,,,
1739302951.004115,-0.12049101305515901,1.0675849461765308,-0.3787977674167527,-1.4185895843504404,1.5197075261001451,1.153523808552045,1.3577099555479148,-0.0008669342986097574,-0.0003579140664089691,0.0002552671184278854,0.0014319969544241628,0.0010767129376889736,3.9300681466531676e-05,0.0005829638303949716,-0.3539545238018036,-51.23776626586914,-7.079056739807129,17.99811553955078,1.8007303476333618,-0.8026840686798096,0.05955658480525017,,,,,,,,,
1739302951.014976,-0.12049014742782323,1.0675785024449964,-0.3787987122567328,-1.4185997750136419,1.5197041403868345,1.15352608153228,1.3577058722090587,0.00034398891827441304,-0.0007564207360978131,-0.0001831713619883549,-0.0017019832067673498,0.00029802628141206754,0.0009538489998973561,3.512783041078978e-05,-0.3539545238018036,-51.19015884399414,-7.079056739807129,18.12110137939453,1.7934061288833618,-0.8219101428985596,0.09343110024929047,,,,,,,,,
1739302951.0249994,-0.1204851746842417,1.0675828457175323,-0.37880170852359335,-1.4185931497210778,1.5197032933616075,1.15352608153228,1.35770507530268,0.0007095526836057111,-0.0002990826306148301,-0.001905866772537108,0.0008122600429398882,0.0016530078952289903,0.00011339943024564014,-0.000785416484806078,-0.4055292308330536,-51.23776626586914,-7.027482032775879,18.04572296142578,1.8007303476333618,-0.8219101428985596,0.09983979165554047,,,,,,,,,
1739302951.035033,-0.12048902259653363,1.0675819318941182,-0.3788016759900819,-1.418593150140544,1.5197056686036097,1.15352608153228,1.3577073401770707,0.0004084093884203809,-0.0004310075658790962,-0.0006482368638213722,-0.00011027735793949171,0.001000104595137562,-0.001180853719690427,0.0007879100564146701,-0.3817255198955536,-51.23776626586914,-7.055253028869629,18.04572296142578,1.7805887460708618,-0.8219101428985596,0.06596527993679047,,,,,,,,,
1739302951.0460422,-0.12048962883451653,1.067580552245046,-0.3788023501893492,-1.4185917301176547,1.5197032875476266,1.1535245662121234,1.3577033372772065,-0.000837168943294272,-0.00043139756955119443,-0.0008402729290697443,0.001197127424190604,0.00043519094827893244,-0.0006614383736996948,-0.0029099796456290837,-0.3301508128643036,-51.21396255493164,-7.027482032775879,17.99811553955078,1.8007303476333618,-0.8090927600860596,0.13279877603054047,,,,,,,,,
1739302951.0569694,-0.12048791719842199,1.067582517971751,-0.37880376496325485,-1.418594934392242,1.5197027773514913,1.1535253238722016,1.357702186335669,-0.0004118846812414818,0.0009935941218967423,0.00020432559253617257,-3.1340603859322986e-05,-0.0004275194362714462,-0.00018058863372992143,-0.002066639538825256,-0.3539545238018036,-51.21396255493164,-7.027482032775879,18.06952667236328,1.8007303476333618,-0.8155014514923096,0.11265717446804047,,,,,,,,,
1739302951.0669804,-0.12049003871820957,1.0675833190079476,-0.37880470400697475,-1.4185930476652853,1.5197049104502758,1.1535245662121234,1.357709876959828,9.848779213390279e-05,0.0006191465382757099,-0.001077839487008375,0.0008599714453330129,0.002316436443411234,0.0004620069534888019,0.0016358140554520563,-0.3539545238018036,-51.21396255493164,-7.027482032775879,18.04572296142578,1.7869974374771118,-0.8090927600860596,0.05955658480525017,,,,,,,,,
1739302951.0770712,-0.12049133347084541,1.0675810101094365,-0.37880554282795964,-1.4185931497027504,1.5197032869015943,1.153526987466433,1.3577014654749326,-0.0005916256855264807,-0.00018863546243994345,-0.0025276244227065694,0.0010924083949948797,7.99082646185187e-05,0.0003890135702454123,-0.002073583153185185,-0.3063471019268036,-51.21396255493164,-7.003678321838379,18.04572296142578,1.8007303476333618,-0.8026840686798096,0.12639008462429047,,,,,,,,,
1739302951.0889728,-0.12048961993969329,1.0675847891913297,-0.3788016308636959,-1.4185950128355036,1.519704557892225,1.1535245662300684,1.3577048807678391,-0.0002301024427429269,-0.00046392831434787093,4.611626613614634e-05,0.0003922630664669653,-0.0002341057287414853,-3.727179077941125e-05,-0.0001528144856326705,-0.3301508128643036,-51.23776626586914,-7.027482032775879,18.06952667236328,1.7869974374771118,-0.8090927600860596,0.06596527993679047,,,,,,,,,
1739302951.0990155,-0.12048814320751801,1.0675859781129071,-0.37879784614973955,-1.4185960107278819,1.5197032860920834,1.153523808552045,1.3577043566491909,1.893255521009105e-05,-5.723216290130708e-05,0.0004140272163320267,0.0008028084174970128,0.00034028569810859617,-0.00039570968699978806,-5.913484858267957e-05,-0.3539545238018036,-51.28934097290039,-7.079056739807129,18.04572296142578,1.8007303476333618,-0.8026840686798096,0.10624848306179047,,,,,,,,,
1739302951.1100373,-0.12048985670657521,1.0675850223501842,-0.37879956175582724,-1.4185960490405898,1.5197056293576299,1.153523808552045,1.3577112745663382,-0.0003754989523285996,0.0007078821469285503,0.0001953495172021455,-0.002145174210588528,0.0010351364384288914,-0.00045025683204235765,-0.0007405560927309374,-0.3301508128643036,-51.23776626586914,-7.055253028869629,18.04572296142578,1.7805887460708618,-0.8026840686798096,0.04673920199275017,,,,,,,,,
1739302951.1209717,-0.12048577664958159,1.067588033070885,-0.37879955300596024,-1.418594935366731,1.5197041054776277,1.1535253282328524,1.3577074956041988,0.0013729909989411522,0.0015681932691490735,0.00013793661094907775,-0.0013544661843006619,0.00046739527547821327,0.0008882347495941403,2.7497249083250144e-05,-0.3539545238018036,-51.28934097290039,-7.055253028869629,18.06952667236328,1.7934061288833618,-0.8155014514923096,0.07969819009304047,,,,,,,,,
1739302951.1319797,-0.12048567270318056,1.0675846793227302,-0.37880167642079393,-1.418591370952062,1.5197037952252064,1.1535230508919911,1.3577091192694006,0.0013909740740735933,-0.0003076462910934956,-0.00014309585777015177,0.0008219357059603547,-0.00010675100388244773,-0.0007469315485135233,0.0008335833724026888,-0.3817255198955536,-51.23776626586914,-7.055253028869629,18.02191925048828,1.7934061288833618,-0.7962753772735596,0.06596527993679047,,,,,,,,,
1739302951.1420202,-0.12048590947409353,1.0675825080435275,-0.3788002626470086,-1.4185931530840494,1.519704556432612,1.1535253232261793,1.3577085684860064,0.0003874108692783339,8.501462235059967e-06,-0.00012462532778119277,0.00046368451757448795,0.0012394942057364115,-0.00015618907437507364,0.0011107828453358224,-0.3817255198955536,-51.21396255493164,-7.055253028869629,18.04572296142578,1.7869974374771118,-0.8155014514923096,0.07969819009304047,,,,,,,,,
1739302951.1520581,-0.12048590947810327,1.0675794170406516,-0.3788016303237034,-1.4185935127947287,1.5197032875416212,1.1535253238721905,1.357704316223682,0.0005895483874330702,-0.0010596331108510561,5.390118591973471e-05,0.0007312104810785214,0.00010447173219350403,-0.00045884963235434857,-0.0006329305187917217,-0.3817255198955536,-51.19015884399414,-7.027482032775879,18.02191925048828,1.8007303476333618,-0.8155014514923096,0.07969819009304047,,,,,,,,,
1739302951.1630266,-0.12048745385330688,1.0675821558380916,-0.37880166584589514,-1.4185949677148812,1.5196995850859751,1.1535253238722016,1.3577043566551692,-0.00041744505754965814,-0.0010599090447153832,-0.0006533875796254815,-0.0007557994190503352,-0.001676350802807014,-0.00044816268645136883,-0.0008222993265439387,-0.3301508128643036,-51.23776626586914,-7.027482032775879,18.06952667236328,1.8007303476333618,-0.8155014514923096,0.10624848306179047,,,,,,,,,
1739302951.1730828,-0.12048787219802994,1.0675828797344753,-0.37880170861721774,-1.418591369971497,1.519704039359217,1.15352608153228,1.3577091193232327,0.0006386094700571674,0.00011308697935605478,0.0005779053077602704,0.0007817369819963381,0.0011161812146203045,0.000541857976843202,0.0024275870273286542,-0.3539545238018036,-51.23776626586914,-7.027482032775879,18.02191925048828,1.7934061288833618,-0.8219101428985596,0.06596527993679047,,,,,,,,,
1739302951.1840017,-0.1204859085035716,1.0675830040262742,-0.37879955041421814,-1.4185970121713696,1.5197044387004646,1.1535230508919667,1.3577113748613092,-0.00027363792577351847,0.00046255783027825305,0.0018754006333555544,0.0005091559875675929,0.0003997977948751824,-0.0003439320177397189,0.0005570695796846782,-0.3817255198955536,-51.21396255493164,-7.055253028869629,18.09729766845703,1.7869974374771118,-0.7962753772735596,0.04673920199275017,,,,,,,,,
1739302951.1940334,-0.12048969886063592,1.067587020227531,-0.3788045432566169,-1.4185951711271252,1.5197014185222444,1.153523808552045,1.3577035977745344,-0.001727375469841687,-0.00020299197502978192,-0.0005126822602946374,-6.436042883771215e-05,-0.00010210446607838221,0.0004829456028882362,9.518255373894909e-05,-0.3301508128643036,-51.26553726196289,-7.027482032775879,18.06952667236328,1.8135477304458618,-0.8026840686798096,0.11265717446804047,,,,,,,,,
1739302951.2049751,-0.12048790713071067,1.067582409685711,-0.3788037596832987,-1.4185941868139267,1.5197040357052933,1.153521427334656,1.3577098768222415,-0.0002573503154506793,-0.0016352876569570643,-0.0002825883116287726,-0.00025287233507467917,0.0009781419085426435,-0.00029363219438368173,0.0017177061988749574,-0.3539545238018036,-51.21396255493164,-7.027482032775879,18.04572296142578,1.7934061288833618,-0.7825424671173096,0.05955658480525017,,,,,,,,,
1739302951.2150767,-0.1204869563617826,1.067582947898906,-0.37879871240080804,-1.418595969579839,1.519704910618428,1.153523808552045,1.3577004140152715,0.00042341793967989535,-0.0002683156449838085,0.00010481531564816003,0.000648647961653594,0.0012173908096321491,0.0007208199110369613,-0.0024654706527200373,-0.3539545238018036,-51.23776626586914,-7.079056739807129,18.06952667236328,1.7869974374771118,-0.8026840686798096,0.11265717446804047,,,,,,,,,
1739302951.2260513,-0.12049101666293145,1.067582621943801,-0.37880265638212696,-1.4185938649660708,1.519699350973159,1.1535245662121234,1.3577064565178334,-0.0001781947072140613,1.2343631641201908e-06,-0.0014803573512059604,0.0008315302156841776,-0.0007950561384842364,0.0005800878803334259,-0.00013682339520911066,-0.3063471019268036,-51.23776626586914,-7.027482032775879,18.04572296142578,1.8071390390396118,-0.8090927600860596,0.09343110024929047,,,,,,,,,
1739302951.2369668,-0.12048419691950304,1.0675827268156113,-0.3787995505275752,-1.4185949498419628,1.5197049241689455,1.153523808552045,1.357707455732744,0.0017874252367255873,0.00012240300780142507,0.0004623613614661808,-0.00025489143252556434,0.0014818001700900624,-0.0006170038680832213,0.001328931523593423,-0.4055292308330536,-51.23776626586914,-7.055253028869629,18.09729766845703,1.7869974374771118,-0.8026840686798096,0.05314789339900017,,,,,,,,,
1739302951.2470067,-0.12048196086336765,1.0675833097322505,-0.3788016851693405,-1.418594945101475,1.519700815447694,1.1535253238722016,1.357702576293886,0.0017972398039225784,0.00042060535973979004,0.0009710148634851138,0.00011901374225344226,-0.00042250483842602,0.00031045564587277395,-0.0009342902299714986,-0.4055292308330536,-51.21396255493164,-7.055253028869629,18.06952667236328,1.7934061288833618,-0.8155014514923096,0.11998139321804047,,,,,,,,,
1739302951.258105,-0.12048774956440388,1.0675823139088625,-0.37880167988904956,-1.418593467595989,1.5196989312386975,1.1535245662121234,1.3577042630692921,-0.00043530186808774245,0.0002659954241744664,0.0006956024088132745,0.000515241812701163,-0.0017218991731087353,0.0007913261763923018,-0.0002750245434326563,-0.3539545238018036,-51.21396255493164,-7.055253028869629,18.04572296142578,1.8007303476333618,-0.8090927600860596,0.07969819009304047,,,,,,,,,
1739302951.2689638,-0.12048588219589106,1.0675832834158716,-0.3788044916773581,-1.4185950384561212,1.519699912875849,1.1535245662121234,1.3577035991562962,0.0011232745402235743,0.001213261327667687,-0.0005949040516572765,0.0005295972596970269,-0.0012757177557249071,0.0011893013653554013,-0.0014534102736434697,-0.3817255198955536,-51.21396255493164,-7.027482032775879,18.06952667236328,1.7934061288833618,-0.8090927600860596,0.11265717446804047,,,,,,,,,
1739302951.278978,-0.12048654191333752,1.067585022711324,-0.3788017086650734,-1.4185942279472263,1.51970055425852,1.1535230334493638,1.3577001168823897,0.0003366770318806639,0.0008163895945555744,0.00015212508737525408,0.0007796795235737004,-0.0017923267369172613,-0.0006315660553360317,-0.0020956568752242733,-0.3301508128643036,-51.23776626586914,-7.027482032775879,18.02191925048828,1.7869974374771118,-0.7962753772735596,0.10624848306179047,,,,,,,,,
1739302951.2890906,-0.12048767060393521,1.0675850227117774,-0.37879981254775363,-1.4185950240036127,1.519702815877542,1.1535230334490683,1.3577082533541993,-0.0004183223917157735,-0.0001700321226430265,0.001150738981880805,-0.00019498596486622747,-0.00016477400284925617,-0.0005502638984170422,0.0010132883792962099,-0.3539545238018036,-51.23776626586914,-7.055253028869629,18.06952667236328,1.8007303476333618,-0.7962753772735596,0.07328949868679047,,,,,,,,,
1739302951.301003,-0.12048574151167087,1.0675829523232585,-0.3787999760464663,-1.4185923210656806,1.519699971996854,1.1535230508918681,1.3577042979553842,0.0009029075396400181,-2.6823710853061673e-05,0.000986444831101311,0.002101525062652737,-0.0006879615939596969,-0.00011083000968946312,2.0484649324809174e-05,-0.3539545238018036,-51.23776626586914,-7.079056739807129,18.02191925048828,1.8007303476333618,-0.7962753772735596,0.07969819009304047,,,,,,,,,
1739302951.311066,-0.12048961981920175,1.0675815976949665,-0.3787999325306885,-1.418595295477076,1.5197049067255712,1.1535221449578135,1.3577047992551412,-0.001365318273352241,-0.002121324585157902,8.607248046651312e-05,0.0005957865847008982,0.0011165780321472426,-8.218269609762337e-05,-0.0006011322493199313,-0.3301508128643036,-51.19015884399414,-7.079056739807129,18.04572296142578,1.7869974374771118,-0.8155014514923096,0.09343110024929047,,,,,,,,,
1739302951.3220432,-0.12048937440779628,1.0675850217669698,-0.37880174362305297,-1.418595757574085,1.5197039905933725,1.1535245661941782,1.3577013073922994,-0.00042375436042092497,-2.2899900371817534e-05,-0.0014106582789765883,0.0005303414586015829,4.074828276181454e-05,0.0005581476419918863,-0.0013857011222492442,-0.3301508128643036,-51.23776626586914,-7.027482032775879,18.06952667236328,1.7934061288833618,-0.8090927600860596,0.11998139321804047,,,,,,,,,
1739302951.3320699,-0.120483068860507,1.0675841053398623,-0.378802620834675,-1.4185955368476835,1.5197027773487335,1.1535227489139153,1.3577072943612198,0.0009841854616154777,9.737320049984239e-05,-0.00052757000157865,0.0011521937361288859,-0.0004133427852711251,-0.0003217713212435128,0.0031196767899467374,-0.3817255198955536,-51.23776626586914,-7.055253028869629,18.04572296142578,1.8007303476333618,-0.8026840686798096,0.05314789339900017,,,,,,,,,
1739302951.3430123,-0.12048790693379777,1.0675826176418528,-0.3787996652784011,-1.4185917207260486,1.5196997971518929,1.1535260815262982,1.3577086952285493,9.027602888131642e-05,-0.0005175382177112917,8.188923286658615e-05,0.0007127690229941452,-0.00023782326488832185,0.0011680089621469894,0.0004553886023392315,-0.3539545238018036,-51.21396255493164,-7.055253028869629,18.02191925048828,1.7934061288833618,-0.8219101428985596,0.05955658480525017,,,,,,,,,
1739302951.353997,-0.12048590980287822,1.067587807096418,-0.37879800470445263,-1.4185979006784515,1.5197025296476172,1.1535245662121234,1.3577011234532903,-0.00010429823336316349,0.0009000032188190395,0.00046087583309310933,-0.0020109232312760295,-0.0018344590920058323,0.00045791530556278735,-0.002061808938125614,-0.3817255198955536,-51.23776626586914,-7.079056739807129,18.06952667236328,1.8071390390396118,-0.8090927600860596,0.09343110024929047,,,,,,,,,
1739302951.3640785,-0.12048583055714399,1.067581291599787,-0.3788026212687947,-1.4185931511719585,1.5196981735974582,1.1535229331543968,1.35770232504688,-0.00021441027736344542,-0.001209044300577027,0.00018117408755374213,0.0011324414784676699,0.00025656018232505737,-0.00039436006860166803,-0.0010472735919123098,-0.3817255198955536,-51.19015884399414,-7.055253028869629,18.04572296142578,1.8071390390396118,-0.7962753772735596,0.08610688149929047,,,,,,,,,
1739302951.3749974,-0.12048958096592609,1.0675870121476339,-0.37880472720962843,-1.4185931890593597,1.5197024505801808,1.1535253238715368,1.3577010020695788,0.00032383931363111134,0.00017541888502415443,-0.0013306504557331759,0.0023642792602687674,0.0008906706861052762,0.0009350640208512557,-0.0020713169627147848,-0.3301508128643036,-51.26553726196289,-7.027482032775879,18.04572296142578,1.7805887460708618,-0.8155014514923096,0.10624848306179047,,,,,,,,,
1739302951.3850245,-0.12048843612455494,1.067585018827424,-0.37879965490583123,-1.4185992679366464,1.5197003192852112,1.153523808552045,1.3577106155293606,-0.0019612089080346534,0.00026943800015113246,0.0015209121245920974,0.00025961392148379965,-0.0002513717803361656,-1.9189798789098318e-05,0.004651970298878993,-0.3301508128643036,-51.23776626586914,-7.055253028869629,18.09729766845703,1.7869974374771118,-0.8026840686798096,0.05314789339900017,,,,,,,,,
1739302951.396131,-0.12048788110528542,1.0675849542532776,-0.37879846430244274,-1.4185956429192719,1.5197056537190765,1.1535245642740564,1.3577043685825727,0.0008151846082974359,0.0006445632131752289,-0.0003626696920836444,0.0004557548972892689,0.0013185855887736428,-0.0008238985279557763,-0.0007104220879745333,-0.3539545238018036,-51.26553726196289,-7.055253028869629,18.04572296142578,1.7805887460708618,-0.8090927600860596,0.06596527993679047,,,,,,,,,
1739302951.4070127,-0.12048790449551207,1.0675870176782343,-0.3787980852585309,-1.4185963316045287,1.519704442092471,1.153523011646077,1.3577081937668942,-7.999696079411884e-05,0.0001882056364990159,0.001457210907216001,-0.0005147747661784879,0.001193786083685428,0.0006453725785654428,0.0005634950619102092,-0.3539545238018036,-51.26553726196289,-7.079056739807129,18.04572296142578,1.7869974374771118,-0.7962753772735596,0.04673920199275017,,,,,,,,,
1739302951.4180293,-0.12048579546911982,1.0675798152426559,-0.3788056204334284,-1.4185959689505039,1.5197029755837614,1.153523756224162,1.3577066287983963,-0.00021558852428649384,-0.0016159954963011407,-0.0007439355110799397,-0.00015453066668230024,-0.0004395363288367698,-0.00047572072125391066,0.0017457342513943221,-0.3817255198955536,-51.19015884399414,-7.003678321838379,18.06952667236328,1.7934061288833618,-0.8026840686798096,0.04673920199275017,,,,,,,,,
1739302951.4289682,-0.12048509246230758,1.067584997051937,-0.3787997876453009,-1.4185963679795908,1.519701508213047,1.1535218317817288,1.357702321734197,0.0006648860530697946,-0.0004966050557840098,-9.080445777528024e-05,-0.0006779827599411034,-0.0006347464196589769,0.00018534607626747256,-0.0009963393884079865,-0.3539545238018036,-51.23776626586914,-7.055253028869629,18.04572296142578,1.7805887460708618,-0.7889511585235596,0.11998139321804047,,,,,,,,,
1739302951.4390023,-0.12048590943043179,1.0675850227113426,-0.37879778048558704,-1.4185934278594812,1.519704035152314,1.153524566044636,1.3577059840836039,-4.045504207579793e-05,0.0006180887857864,0.00022105025068591873,-0.0001246469308029903,-0.0011089808061068094,0.00015320631500592293,0.0015919479050074176,-0.3817255198955536,-51.23776626586914,-7.079056739807129,18.04572296142578,1.7934061288833618,-0.8090927600860596,0.05314789339900017,,,,,,,,,
1739302951.4490209,-0.12048687852341232,1.0675813680820536,-0.3788016789055994,-1.4185979095209043,1.5197022274189718,1.153524566212115,1.3577022812187178,0.0007843091387771902,-0.0005261219983016127,0.00033381773933613504,-0.0013313878578760858,-0.0005188780924401855,0.0002739324367858642,-0.0006347156457368324,-0.3539545238018036,-51.19015884399414,-7.055253028869629,18.06952667236328,1.8007303476333618,-0.8090927600860596,0.09343110024929047,,,,,,,,,
1739302951.4600265,-0.12048958486176715,1.067583204372156,-0.378799972388758,-1.4185963555635999,1.5196994686549015,1.1535237954700925,1.3577090444516262,-0.0012834641054281842,-2.259991956368467e-05,0.0006987238915519566,0.00024980828846309414,0.00126776950250917,4.5804799676574996e-05,0.0024797596067215886,-0.3301508128643036,-51.21396255493164,-7.079056739807129,18.04572296142578,1.8071390390396118,-0.8026840686798096,0.026597600430250168,,,,,,,,,
1739302951.470058,-0.12048567238864903,1.067580478597113,-0.3787997864127772,-1.4185978733672298,1.5196990081401769,1.1535238085513801,1.3577003461789514,-0.000991564718446479,-0.0011192773569497487,0.0008285412365723262,-4.338511669006545e-05,0.00012695431055760484,0.0005756663657561675,-0.0014756513904459075,-0.3817255198955536,-51.21396255493164,-7.055253028869629,18.06952667236328,1.8007303476333618,-0.8026840686798096,0.09983979165554047,,,,,,,,,
1739302951.4810326,-0.12048859255932877,1.067587008014874,-0.3788026563772371,-1.4185960023090287,1.519704147120145,1.1535237954700925,1.3577003461948998,-7.930094665201695e-05,0.0010456779434234737,-1.1202659371036265e-06,0.000310992967634502,4.8621494331471096e-05,0.0005191297108992485,-0.0003867360752311316,-0.3301508128643036,-51.26553726196289,-7.027482032775879,18.06952667236328,1.7934061288833618,-0.8026840686798096,0.09983979165554047,,,,,,,,,
1739302951.4919949,-0.12048888029535904,1.0675829955698812,-0.3788037537676777,-1.418598147943471,1.5197017258917256,1.1535185351298447,1.3576996017603344,-0.00026814367189243057,-0.001024496964025707,-0.001346268837067024,-0.0006535694784805001,0.0007482044601973227,-0.0014921507720478946,-0.00046504629716460054,-0.3301508128643036,-51.21396255493164,-7.003678321838379,18.06952667236328,1.7869974374771118,-0.7889511585235596,0.10624848306179047,,,,,,,,,
1739302951.502004,-0.12048643383084522,1.0675833026671475,-0.37879801237421545,-1.4185943157969767,1.519701313248013,1.1535234553187315,1.3577054105898585,-0.00042244458661233115,-0.0009875335743719143,0.0007449255890761342,0.000956324632627383,-0.0011770898702404596,-0.00044026167827712447,0.0008231401443793275,-0.3301508128643036,-51.21396255493164,-7.079056739807129,18.04572296142578,1.8071390390396118,-0.8026840686798096,0.06596527993679047,,,,,,,,,
1739302951.512951,-0.12048716189195714,1.0675811131710202,-0.37879955397938286,-1.4185963654002705,1.5197036812495028,1.1535223956992118,1.357703084973686,0.0009775318674211022,-0.000461482617999283,-0.000557178071803239,0.00036222785078172113,0.0008374315780950877,0.0004678849815798906,0.0018033590316598167,-0.3539545238018036,-51.19015884399414,-7.055253028869629,18.04572296142578,1.7934061288833618,-0.8026840686798096,0.07969819009304047,,,,,,,,,
1739302951.523069,-0.1204855586803829,1.0675849206479349,-0.37879973004421136,-1.4185961211062494,1.5197031130976082,1.1535230508201864,1.3577058662904185,0.0017915202056878053,0.00036988001412751193,-0.0005259221574728698,0.001029069701117579,0.0004958299739091579,-0.00010579919629960001,0.0010705115114621221,-0.3817255198955536,-51.23776626586914,-7.027482032775879,18.04572296142578,1.8007303476333618,-0.7962753772735596,0.05314789339900017,,,,,,,,,
1739302951.5340216,-0.1204841177096494,1.0675887331727856,-0.37880025871202744,-1.4185974357751823,1.5197028165963633,1.1535237562242358,1.3577011038370332,0.0019592858762844446,0.0017551476474264773,0.0009127348890665672,-0.00028685765110755514,-0.0005180205003614716,0.0007427330166205814,-0.0008053324567496713,-0.4055292308330536,-51.28934097290039,-7.055253028869629,18.06952667236328,1.8007303476333618,-0.8026840686798096,0.09343110024929047,,,,,,,,,
1739302951.5449986,-0.12048687253292262,1.0675815721605082,-0.3788037950944356,-1.418595996397101,1.5197009215557546,1.153525323872103,1.3577051027064524,0.00011495717541721456,-0.0004871952945802284,-0.0012602397454079322,0.001261419790711111,0.0005564692239524276,0.0018745387820764616,0.0010315926152658999,-0.3539545238018036,-51.19015884399414,-7.027482032775879,18.06952667236328,1.7934061288833618,-0.8155014514923096,0.05955658480525017,,,,,,,,,
1739302951.5550075,-0.12048575022839149,1.0675832845758286,-0.37880162991627686,-1.4185963683188074,1.519704035168041,1.1535245662121234,1.3577003519910555,0.0005292728316946712,0.0010385217324547324,0.0008865583378819357,0.0011632580821895494,0.0018275320392769493,0.0006027840073602027,-0.00015271003658482926,-0.3539545238018036,-51.21396255493164,-7.027482032775879,18.04572296142578,1.7934061288833618,-0.8090927600860596,0.09983979165554047,,,,,,,,,
1739302951.566078,-0.1204878193676856,1.0675841615107655,-0.37879955008975374,-1.4185945591873235,1.5197031567261026,1.1535198719775785,1.3577042302707438,-0.0005237378357516632,0.0010383444089025122,0.002138272447309484,0.0010590663469493265,0.0014194821917130115,6.309060283608348e-05,0.0005720650646311881,-0.3539545238018036,-51.21396255493164,-7.055253028869629,18.02191925048828,1.8007303476333618,-0.7962753772735596,0.06596527993679047,,,,,,,,,
1739302951.5769584,-0.12048825356829138,1.067585014198446,-0.3788017358703393,-1.4185974357401894,1.51970222726323,1.1535251668289581,1.3577056188080825,-0.0010307009156136108,0.00022184922639329496,0.001629840030098188,0.0002079366825708886,0.0007824520683918561,0.0004040804679954935,0.0021546620037705072,-0.3063471019268036,-51.23776626586914,-7.027482032775879,18.06952667236328,1.8007303476333618,-0.8155014514923096,0.05955658480525017,,,,,,,,,
1739302951.5881338,-0.12048515974803911,1.067581959152287,-0.3788006096388305,-1.4185963683431828,1.519704153426904,1.1535219897976277,1.357700346185595,0.0010372939460380338,0.00018412910430878237,-0.0009327573917266109,8.418301220415917e-05,0.001979962624597877,0.0003279418604544703,5.452579750823725e-07,-0.3539545238018036,-51.21396255493164,-7.055253028869629,18.04572296142578,1.7934061288833618,-0.7962753772735596,0.09983979165554047,,,,,,,,,
1739302951.5989683,-0.12048817550839568,1.0675819360226102,-0.37880447651036653,-1.418598161933942,1.5197037826280417,1.15352305088997,1.3577093456748017,0.0003191266797264538,-0.001349719048402768,-0.0010579079091391926,-0.0008945632943626999,0.0013246385495195095,0.0005436045386338951,0.0031314608507356572,-0.3063471019268036,-51.23776626586914,-7.027482032775879,18.06952667236328,1.7934061288833618,-0.7962753772735596,0.05955658480525017,,,,,,,,,
1739302951.609034,-0.12049133208217788,1.0675847817335506,-0.3787996291989815,-1.4185945855694457,1.5196978203784728,1.1535203271750891,1.3577027290811545,-0.0009947211170669742,-0.0005233316010467968,0.00045986696388058295,0.000654205075744332,-0.001432429058686114,-0.0004844708728516862,0.0007626216480979704,-0.3063471019268036,-51.23776626586914,-7.055253028869629,18.02191925048828,1.8071390390396118,-0.8090927600860596,0.07969819009304047,,,,,,,,,
1739302951.6200619,-0.1204895819406981,1.0675850123511508,-0.37880238462308874,-1.4185981775232666,1.5197028950093052,1.1535238079957397,1.357704350951683,-0.0008014887449198727,-0.00020698854778506686,-0.000746560183742393,6.049493962491823e-05,-0.0008224069132369135,0.0007426612732777044,0.00012271657963683835,-0.3301508128643036,-51.23776626586914,-7.055253028869629,18.06952667236328,1.8007303476333618,-0.8026840686798096,0.06596527993679047,,,,,,,,,
1739302951.631028,-0.12048556733080977,1.0675815963055735,-0.37880265052250167,-1.4185963949553158,1.5197051540459854,1.1535201063595673,1.3577045445270084,0.00018112218653824018,-0.0014463923898763893,-0.0016385234398150355,0.0007794252915454955,-1.1715050010502282e-05,-0.0012346423965626627,0.00022249115289297363,-0.3817255198955536,-51.19015884399414,-7.027482032775879,18.04572296142578,1.7805887460708618,-0.8026840686798096,0.07328949868679047,,,,,,,,,
1739302951.6420035,-0.12048485676360383,1.06758149563108,-0.3788042271501165,-1.4185981510688042,1.5197006587677058,1.1535253093158002,1.3577043510114704,0.0025239500277509756,-0.0007385548371182134,-0.001329811565881711,0.00010585388884706788,-6.631169776961043e-05,0.0006776255602406856,0.0014548125212218925,-0.3817255198955536,-51.19015884399414,-7.003678321838379,18.06952667236328,1.7869974374771118,-0.8155014514923096,0.06596527993679047,,,,,,,,,
1739302951.6529937,-0.12048790726866816,1.0675830432998026,-0.3788016682626442,-1.4185979126137362,1.5197037926009374,1.1535213829370023,1.3577058664875927,-0.0008554017344238661,-0.0016369834382262,-0.0004731692823008637,0.0002683830542947896,0.0001755492680321054,-0.0008817702426693728,0.000876503499173035,-0.3539545238018036,-51.21396255493164,-7.027482032775879,18.06952667236328,1.7869974374771118,-0.8090927600860596,0.05314789339900017,,,,,,,,,
1739302951.663989,-0.12048954091046267,1.0675818364144365,-0.3787995617547105,-1.4185980712310609,1.519702932713548,1.1535245646867682,1.3577051086121745,4.492825423918327e-05,-0.0007777176162852579,-0.0001916835022694714,0.00010898391005889844,-0.0004843927660681087,0.0007745257634871338,0.0013726112073680899,-0.3301508128643036,-51.19015884399414,-7.055253028869629,18.06952667236328,1.8007303476333618,-0.8090927600860596,0.05955658480525017,,,,,,,,,
1739302951.6740272,-0.12048505457088894,1.0675767568072563,-0.37879955008995064,-1.4185981510309638,1.5197047345733272,1.1535203271750634,1.357704464048463,0.0005990860632371178,-0.0017367096625267794,0.0007516352140800488,-8.348499207566645e-05,0.0024702292264205572,0.00022156078756563888,0.0009013782300195572,-0.3539545238018036,-51.16238784790039,-7.055253028869629,18.06952667236328,1.7869974374771118,-0.8090927600860596,0.09983979165554047,,,,,,,,,
1739302951.6849551,-0.12048685476245671,1.067583284665191,-0.37880052117941837,-1.4185981510323153,1.5197017171740135,1.1535245655421715,1.357705826068494,0.0005553479184504722,-0.001182513133807139,-0.0010929905348996275,-0.0002671751236148109,-0.00037481219213562764,0.001600638457562159,0.00104357410186337,-0.3539545238018036,-51.21396255493164,-7.055253028869629,18.06952667236328,1.8007303476333618,-0.8090927600860596,0.05314789339900017,,,,,,,,,
1739302951.695023,-0.1204848202814678,1.067585022711345,-0.37880170863305407,-1.4186020134991901,1.519702570017531,1.1535207716593667,1.3576980826964546,0.0009354163524890439,0.00016856419053468634,-0.0002681569576850092,-0.0007116484904922218,-0.0022214679923661293,-0.0011389433431318273,-0.0016293617759374414,-0.3539545238018036,-51.23776626586914,-7.027482032775879,18.12110137939453,1.7934061288833618,-0.7889511585235596,0.11998139321804047,,,,,,,,,
1739302951.705049,-0.12048747992758219,1.0675869532805766,-0.3788026208340824,-1.4186012501467948,1.5196985192299832,1.1535206294522162,1.357703485056416,-0.00016770275077573047,0.0016122904359068086,-0.0006418756675264556,-0.0008824960911970824,-0.0023086236090241446,-0.000566806817431659,0.00037151478254580906,-0.3301508128643036,-51.26553726196289,-7.055253028869629,18.06952667236328,1.8007303476333618,-0.8026840686798096,0.07328949868679047,,,,,,,,,
1739302951.71505,-0.12048966862009125,1.067587016872259,-0.37879958059969054,-1.41860150244041,1.5197015949915589,1.1535223956473675,1.3577051086121734,0.00011186657349671183,0.00012964853900896396,-2.151895340093654e-05,-0.0021508208800561555,-0.0004618442670891611,0.00014718727051349356,0.0017220086576493839,-0.3301508128643036,-51.26553726196289,-7.055253028869629,18.09729766845703,1.7869974374771118,-0.8026840686798096,0.05955658480525017,,,,,,,,,
1739302951.7250643,-0.12048953679743792,1.0675849461822928,-0.3788034391268316,-1.41859459453013,1.5196970568543144,1.1535184198569552,1.357698824897242,-4.527875490157519e-05,-9.535872612636729e-05,-0.0006153571335267621,0.0014278421916183105,-0.0005673133600991788,-0.0018444186913174393,-0.0014350400913430434,-0.3301508128643036,-51.23776626586914,-7.003678321838379,18.02191925048828,1.8135477304458618,-0.7962753772735596,0.11265717446804047,,,,,,,,,
1739302951.7360587,-0.1204884782780234,1.0675843084367544,-0.37880165745750993,-1.4185981510323653,1.5197017125679213,1.1535198372486788,1.3577034850543885,-0.0006707150287163692,-0.00030719969466546195,-0.0017756085351417392,-0.0008975431557400584,9.555097788605066e-05,-0.0026858232194263867,0.0012973249193226804,-0.3063471019268036,-51.23776626586914,-7.027482032775879,18.06952667236328,1.7869974374771118,-0.8090927600860596,0.07328949868679047,,,,,,,,,
1739302951.748018,-0.12048927652535825,1.0675847836714072,-0.3787977674128898,-1.4185967314454893,1.5197021857549495,1.1535226845706095,1.357699729586915,-0.0012678910020185667,0.0001603813399808748,0.00021703620193209028,0.0005622511791365043,-0.0007756074002564942,-0.0002593168155833478,-0.0014381085278799557,-0.3301508128643036,-51.23776626586914,-7.079056739807129,18.02191925048828,1.7741800546646118,-0.7962753772735596,0.11265717446804047,,,,,,,,,
1739302951.758034,-0.12048567130202331,1.0675815972463525,-0.3787984847942886,-1.4185986279058123,1.5197017314727121,1.1535238085458412,1.3577000162332817,0.00012028109079044523,-0.0004499300224934652,0.0013353468765224938,-0.00025155743672152116,0.0007500719850573588,0.0005913526378618319,-0.001159725236306483,-0.3817255198955536,-51.19015884399414,-7.079056739807129,18.06952667236328,1.7869974374771118,-0.8026840686798096,0.09343110024929047,,,,,,,,,
1739302951.7680488,-0.12048577640721554,1.067582922404347,-0.3787995504178233,-1.418600296802219,1.5196995042733668,1.1535234546394775,1.3576995885107368,0.00022924901532005165,-5.702939392586252e-05,0.00035633078403058104,-0.0011094375150507677,-8.214599154651501e-05,0.0003934383942753813,-0.0017297560164977795,-0.3539545238018036,-51.23776626586914,-7.055253028869629,18.06952667236328,1.7934061288833618,-0.8026840686798096,0.10624848306179047,,,,,,,,,
1739302951.7780552,-0.12048745352852677,1.0675850225712298,-0.37879978630075833,-1.4185963685006515,1.5197001441889255,1.1535201517740328,1.3577043504550248,0.0002900019846823314,0.0006606609706309067,0.0006018565430272293,0.0007014652570082646,0.000508206083402222,-0.001150674419406336,0.0004108341463115136,-0.3301508128643036,-51.23776626586914,-7.055253028869629,18.04572296142578,1.7869974374771118,-0.8090927600860596,0.06596527993679047,,,,,,,,,
1739302951.7900565,-0.1204878807388746,1.0675870206526297,-0.3788023972598849,-1.4185960504638584,1.519699738285996,1.1535202096817756,1.3577027275558464,-0.0006959216124008359,0.0015271049455465764,-0.0005195577447890353,7.082602610930508e-05,-0.0008510371625141195,-0.00013220722634773362,-0.0002707918194422657,-0.3539545238018036,-51.26553726196289,-7.055253028869629,18.04572296142578,1.7934061288833618,-0.8090927600860596,0.07969819009304047,,,,,,,,,
1739302951.80099,-0.1204875798866776,1.0675850142085084,-0.3787995514271952,-1.4185981510317172,1.5197009158776926,1.1535225734732661,1.3576972072994877,0.0004914493152252249,1.8308485876901513e-05,-0.00045558633296933696,0.0009096941328013722,0.001975843490791376,-0.000575980027073948,-0.0009936642628871908,-0.3539545238018036,-51.23776626586914,-7.055253028869629,18.06952667236328,1.7934061288833618,-0.7962753772735596,0.12639008462429047,,,,,,,,,
1739302951.8110209,-0.1204847405067093,1.067583310190902,-0.3788006042367153,-1.4185963712987357,1.5197012174174294,1.1535198588875413,1.3577027273943438,0.0006615947096399954,-0.0009657875159275967,-0.0011009375218612272,0.0002967465840742812,0.0020102631528521975,-0.0014810839298129853,-0.000579657871886033,-0.3539545238018036,-51.21396255493164,-7.055253028869629,18.04572296142578,1.7869974374771118,-0.7962753772735596,0.07969819009304047,,,,,,,,,
1739302951.8220966,-0.12048789473475138,1.0675852611303565,-0.3787996550783703,-1.4185981510323318,1.5196982891607733,1.1535236515505993,1.3577002260050015,-0.0004483897009409761,0.001122772080842245,-7.631116045345095e-05,-0.00010261183985023968,-0.0011281130111817632,-8.766745069527346e-06,0.0003938826460213391,-0.3539545238018036,-51.23776626586914,-7.055253028869629,18.06952667236328,1.8071390390396118,-0.8026840686798096,0.07328949868679047,,,,,,,,,
1739302951.8329515,-0.12048790741888478,1.0675847931248619,-0.37879847604632577,-1.4185981510323153,1.519702632937378,1.1535234025261232,1.35770553778485,-0.001052381549076672,-0.0010776852669821214,0.0008539479108096747,0.0002251778098054541,-0.0003483923277124843,5.564630977312789e-05,0.001759459713294634,-0.3539545238018036,-51.23776626586914,-7.079056739807129,18.06952667236328,1.7934061288833618,-0.8026840686798096,0.04673920199275017,,,,,,,,,
1739302951.8429706,-0.12048695647004669,1.0675809883745027,-0.3788023885219967,-1.418598148088876,1.5197007981406256,1.1535243917792177,1.3576984687953764,-0.000490256172183201,-0.0007410736233431682,-0.001442353903773319,0.0001832049790329545,-0.0003366318287282898,-0.0010489756224049025,-0.00089583180985635,-0.3539545238018036,-51.19015884399414,-7.055253028869629,18.06952667236328,1.7934061288833618,-0.8090927600860596,0.11265717446804047,,,,,,,,,
1739302951.8530033,-0.12048950592663396,1.0675843311022517,-0.37879740447861715,-1.418600230822121,1.5197026207000561,1.1535229316978926,1.3577002249931842,-0.0010111259975657569,0.0007922136702900311,0.0004947424317921476,-0.0007254817817882187,0.0018950148247382141,-1.835333953585812e-05,0.00013189911671102636,-0.3301508128643036,-51.23776626586914,-7.055253028869629,18.09729766845703,1.7934061288833618,-0.7962753772735596,0.09983979165554047,,,,,,,,,
1739302951.8630235,-0.12048937927753063,1.0675832761662578,-0.37880092063562415,-1.4185981510323153,1.5196985722046725,1.1535233371152298,1.3577058662701993,-0.0007505280173432127,-0.0002402009532723301,-0.0008533657083298325,0.00020113024237519733,-0.0008538157561003443,0.00031410947131955985,0.0017659948152125393,-0.3301508128643036,-51.21396255493164,-7.079056739807129,18.06952667236328,1.8007303476333618,-0.8026840686798096,0.05314789339900017,,,,,,,,,
1739302951.8740544,-0.1204865152806751,1.0675842654883236,-0.37879966689896954,-1.4186003106220795,1.519702916165839,1.1535225783239698,1.3577003461769546,0.00030786463154745103,0.00030034235189101133,-0.0005552043712508305,-0.00046503401865167116,0.0015079149135973902,-0.0007217580633860516,-0.00024012803618570102,-0.3301508128643036,-51.26553726196289,-7.055253028869629,18.09729766845703,1.8007303476333618,-0.7962753772735596,0.09983979165554047,,,,,,,,,
1739302951.884952,-0.12048847847851991,1.067584793076857,-0.37879785824848033,-1.41860023147762,1.519705197646942,1.153523806928986,1.3577003461769546,-0.000452871097025828,-0.0004038260178691243,0.0006294095795361266,0.0001585882925432375,0.002407331988157019,-0.0010265920384197632,0.0006172864244872483,-0.3063471019268036,-51.23776626586914,-7.079056739807129,18.09729766845703,1.7805887460708618,-0.8026840686798096,0.09983979165554047,,,,,,,,,
1739302951.8949974,-0.12048574618812936,1.0675833098748138,-0.37880477936011697,-1.418598151032319,1.5196985387424793,1.1535213808375029,1.3576979649595655,0.000645103806025732,-0.0006358188600491797,-0.0023873590224289536,0.0003115163747527926,-0.0008453374580141635,-0.0004862083274197514,-0.000593310930426028,-0.3539545238018036,-51.21396255493164,-7.027482032775879,18.06952667236328,1.8007303476333618,-0.8090927600860596,0.11998139321804047,,,,,,,,,
1739302951.9059641,-0.12048542141440687,1.067585022785799,-0.3788002850942045,-1.418600230822171,1.519702605387041,1.153523764927556,1.3576985023877939,0.000660088342590393,-1.809891885901126e-05,0.00034298856128497153,-0.0008365584249922397,-0.00018211159654528958,0.0004863867012294659,-0.0026792367383460212,-0.3539545238018036,-51.23776626586914,-7.055253028869629,18.09729766845703,1.7934061288833618,-0.8026840686798096,0.10624848306179047,,,,,,,,,
1739302951.917023,-0.12048958926023015,1.0675853377687943,-0.3787977674251815,-1.418600230822171,1.519699029588224,1.1535183283064787,1.3577047667157742,-0.001382803258364817,0.00047121152034002473,0.0016652500830778216,0.0007535108616213303,3.4032230114500346e-05,-0.001974141711281499,0.0018436042733201942,-0.3301508128643036,-51.23776626586914,-7.079056739807129,18.09729766845703,1.8007303476333618,-0.7962753772735596,0.05314789339900017,,,,,,,,,
1739302951.9279966,-0.12048342491712365,1.0675830806033775,-0.3787978464857554,-1.4186001513493112,1.5197013217789073,1.1535212172055251,1.357698830854729,0.000544046419686829,0.0002640850184128189,0.0012372194769088311,-2.465673014843828e-05,0.00045260067774754265,0.00041132574162872955,-0.0008557261280660358,-0.3817255198955536,-51.21396255493164,-7.079056739807129,18.09729766845703,1.7869974374771118,-0.8090927600860596,0.11265717446804047,,,,,,,,,
1739302951.9380333,-0.12048345855574855,1.067583307352735,-0.3787999286313129,-1.418596369335097,1.5197004510300924,1.1535218728135292,1.357702036882312,0.00038990259332886984,0.00045347769853187035,0.0002646593957495933,0.00044913190680928713,-2.922843156473146e-05,0.00021993113698824652,0.0002919089202071121,-0.3817255198955536,-51.21396255493164,-7.079056739807129,18.04572296142578,1.7934061288833618,-0.7962753772735596,0.07328949868679047,,,,,,,,,
1739302951.948971,-0.12048927681632589,1.0675878582249037,-0.37880446543186885,-1.418594612169236,1.5197039380710697,1.1535187942441738,1.357701103828858,-0.0002983091427470419,0.0012650671395470516,-0.00045299360151428636,0.0007891891413960759,2.764958600664743e-05,1.0954607109259814e-05,0.0009811975881112273,-0.3301508128643036,-51.23776626586914,-7.027482032775879,18.02191925048828,1.7934061288833618,-0.7962753772735596,0.09343110024929047,,,,,,,,,
1739302951.9590707,-0.12048555577782842,1.0675833075006822,-0.3787995505578347,-1.4185963683566423,1.5197033746913864,1.1535251535905626,1.3577043519085745,0.0002617479304347372,0.0005887984466497884,0.0002082677362873785,0.0011013947948337397,-0.0005452141774010427,0.000396112160248589,0.001117852371135591,-0.3817255198955536,-51.21396255493164,-7.055253028869629,18.04572296142578,1.7869974374771118,-0.8155014514923096,0.06596527993679047,,,,,,,,,
1739302951.970026,-0.12048472023103168,1.0675870121493565,-0.37880435740062723,-1.418598154956901,1.51970177581511,1.153520589906963,1.3577027273943456,0.00011974785455185478,0.0017511928592968701,-0.0024718235598391227,-0.0005584028844325576,0.0004723837868936713,-0.0006681271653661647,-6.979839326300843e-05,-0.3539545238018036,-51.26553726196289,-7.003678321838379,18.06952667236328,1.7741800546646118,-0.8026840686798096,0.07969819009304047,,,,,,,,,
1739302951.9809704,-0.12048471111993174,1.0675826474652723,-0.3788005737120876,-1.4185963683553187,1.5197004580093652,1.1535240428620304,1.3577024272755442,0.0006261302738348904,-0.0003101536389125387,0.0003184512688232714,0.00020090257455389782,-0.0007785485600537371,0.0004598848271534867,0.0024902679608443438,-0.3539545238018036,-51.23776626586914,-7.055253028869629,18.04572296142578,1.7934061288833618,-0.8090927600860596,0.08610688149929047,,,,,,,,,
1739302951.9909916,-0.1204871439974017,1.067583004033139,-0.3788002588480941,-1.4185981598626332,1.5196989901444957,1.1535230357015789,1.3577093201304298,9.645052811595517e-05,-0.001604502214052811,0.00010061215826051803,-0.0006292376132415805,-0.00010241739144649037,0.0008752883733418396,0.0010667279311506294,-0.3301508128643036,-51.21396255493164,-7.055253028869629,18.06952667236328,1.8007303476333618,-0.7962753772735596,0.04673920199275017,,,,,,,,,
1739302952.0020235,-0.12048879127362318,1.0675813680803254,-0.3787987210092893,-1.4186020144803864,1.519700147096666,1.153524089807957,1.3577027229398968,-6.247846187554213e-05,-0.001545794166920199,0.0003177174941777611,-0.0011489930968960162,0.0013247203717120352,0.0014862358213685446,0.0005518199657508103,-0.3301508128643036,-51.19015884399414,-7.079056739807129,18.12110137939453,1.7869974374771118,-0.8155014514923096,0.07969819009304047,,,,,,,,,
1739302952.01203,-0.12048684245906394,1.067585031538207,-0.3788016760048993,-1.4186002967995437,1.519698519822142,1.1535234495042352,1.3577054105897084,0.00048376496319865844,2.695510641506223e-05,0.0002259543276395987,-0.0009729538582386761,-0.00044846528955505934,0.001076774214707369,0.0012091545604085317,-0.3539545238018036,-51.23776626586914,-7.055253028869629,18.06952667236328,1.8007303476333618,-0.8026840686798096,0.06596527993679047,,,,,,,,,
1739302952.0230205,-0.12048758444644526,1.0675863317479248,-0.3787996309178018,-1.4185966067859885,1.5196998574771117,1.153523336146188,1.3577003126002465,0.00014133610394132274,0.0019185877192643714,0.0014562894826303963,0.00024979783544193575,0.0003434120508479508,0.000990633628163288,-0.0017773887646697715,-0.3539545238018036,-51.26553726196289,-7.055253028869629,18.04572296142578,1.7934061288833618,-0.8026840686798096,0.09343110024929047,,,,,,,,,
1739302952.0340028,-0.12048642369291791,1.0675850113701963,-0.37880446441206095,-1.4185963694468051,1.5197005351945898,1.153524430544767,1.3577051086077068,3.276765004938661e-05,0.0001223659938310767,-0.001208897838329187,-0.00027993984739562073,-0.0003176681336282571,0.001815515802223575,0.0008722053700432101,-0.3301508128643036,-51.23776626586914,-7.027482032775879,18.04572296142578,1.7869974374771118,-0.8090927600860596,0.05955658480525017,,,,,,,,,
1739302952.044011,-0.1204833908965998,1.0675870093147466,-0.3788026208807518,-1.4185963693364614,1.5197020409360436,1.1535244087418826,1.3577042226864444,0.0006985778223248451,0.00032873262841019496,-0.000516273123972071,0.0006286343775395356,0.0010818444873525708,5.2307753405555335e-05,-0.00017136790040089248,-0.3301508128643036,-51.26553726196289,-7.055253028869629,18.04572296142578,1.8071390390396118,-0.8090927600860596,0.09983979165554047,,,,,,,,,
1739302952.0549498,-0.12048272203916263,1.0675832846461824,-0.3787969339173227,-1.4185945591509908,1.5196999378652432,1.1535244351763714,1.3577051086340564,0.0025502836938330704,0.0005891662400698468,0.001368903526084405,0.0013631728636467073,0.00036901128545537194,0.0020323852667138553,0.0006647488006106153,-0.3817255198955536,-51.21396255493164,-7.102860450744629,18.02191925048828,1.8007303476333618,-0.8090927600860596,0.05955658480525017,,,,,,,,,
1739302952.0649726,-0.12048813659452959,1.0675812438962613,-0.3787995764595011,-1.418600284130677,1.5197009004174604,1.1535199549025017,1.3577018490532566,8.557916538456099e-06,-0.0003063905407674538,-0.00010990224879084892,2.772558372590974e-05,-0.0011459104862608781,0.0001156366431205965,-0.0009614616779702558,-0.3063471019268036,-51.21396255493164,-7.055253028869629,18.09729766845703,1.7805887460708618,-0.8090927600860596,0.08610688149929047,,,,,,,,,
1739302952.0750628,-0.12048649381302813,1.0675850227858008,-0.3787995766598869,-1.4185985137963621,1.519700142733357,1.1535215924184603,1.3577003327659098,-0.00012264819590101182,0.0013021602845131094,0.0006125588707238765,-0.0007315806608979491,-0.0001670147196916054,0.000970561478122252,-0.0007208759539934616,-0.3301508128643036,-51.23776626586914,-7.055253028869629,18.04572296142578,1.7869974374771118,-0.7962753772735596,0.09983979165554047,,,,,,,,,
1739302952.0860364,-0.12048813616173883,1.067581596375579,-0.37880194482775825,-1.4185981510444263,1.5197016981442688,1.153522521253092,1.3577011038369573,0.0001217615307553094,-0.0019090544395634376,0.0010097123166635925,0.0005593704133641897,0.0005404372874129424,0.00025031898253558455,0.0005730293770807354,-0.3063471019268036,-51.19015884399414,-7.027482032775879,18.06952667236328,1.8007303476333618,-0.7962753772735596,0.09343110024929047,,,,,,,,,
1739302952.0960536,-0.12048473742686859,1.0675825959164333,-0.3787977716303353,-1.4185981510323153,1.5196993851271143,1.1535198153549275,1.357701636795594,-0.0003547846677271382,0.0003208245580709286,0.0007289224446513765,0.0008312108842684812,-0.0013792060872016689,0.0004677463784422525,0.0008759040618260876,-0.3539545238018036,-51.21396255493164,-7.079056739807129,18.06952667236328,1.7934061288833618,-0.8090927600860596,0.07969819009304047,,,,,,,,,
1739302952.1060598,-0.12048310852015678,1.0675833101789498,-0.3787995513859069,-1.4186002337656103,1.519704841328553,1.1535190421188264,1.3577027404578266,0.0002582297507801451,-0.00030501444577937505,0.002228851745215873,-0.0002737254246229651,0.0012586155814324094,0.001001796157975863,0.000234840215482086,-0.3817255198955536,-51.21396255493164,-7.055253028869629,18.09729766845703,1.7741800546646118,-0.8026840686798096,0.07969819009304047,,,,,,,,,
1739302952.1170352,-0.12048471112211202,1.0675795313759628,-0.37880187775535645,-1.4185945856782938,1.5197016981084033,1.1535232961755941,1.3577034835094257,0.0009384180943433564,-0.0018491082006993466,-0.0007489677650026962,0.0005287420603674635,-0.00048005220193687143,0.0010246641387250007,0.0006259342337273784,-0.3539545238018036,-51.19015884399414,-7.027482032775879,18.02191925048828,1.8007303476333618,-0.8026840686798096,0.07328949868679047,,,,,,,,,
1739302952.1280541,-0.12048447505322626,1.0675847931118516,-0.37880383581308713,-1.418600230822171,1.5196977641223528,1.153519838116828,1.3577039015813486,0.0009919966556587929,6.0291643476303135e-05,-0.001269393377621662,-0.0016324435501295898,0.00010246537023784824,0.0003545219541848031,0.0008387838411008335,-0.3539545238018036,-51.23776626586914,-7.027482032775879,18.09729766845703,1.7805887460708618,-0.7825424671173096,0.05955658480525017,,,,,,,,,
1739302952.1389573,-0.12048534266756618,1.0675796076955755,-0.3787962210920792,-1.418598230505175,1.5197001425147003,1.1535197995094364,1.3576955679794422,0.0004783664238059136,-0.0005290999204186745,0.0026193978154626036,0.0006072052316254326,0.0026010727377352534,0.0005579567015216601,-0.0018241409824815153,-0.3539545238018036,-51.19015884399414,-7.102860450744629,18.06952667236328,1.7869974374771118,-0.8090927600860596,0.11265717446804047,,,,,,,,,
1739302952.148965,-0.12048650353947435,1.0675869561777895,-0.3788026998951034,-1.4186002311496684,1.5197049511634095,1.1535197978405507,1.357705905444508,-0.00028460771168164545,8.755577989084549e-05,0.00039747877239447167,-0.0008047768685110304,0.003402121297478053,-0.00024712963496012453,0.0011646113693161988,-0.3301508128643036,-51.26553726196289,-7.055253028869629,18.09729766845703,1.7805887460708618,-0.8090927600860596,0.05314789339900017,,,,,,,,,
1739302952.1599827,-0.12048472248920762,1.0675849460762863,-0.3787963114017976,-1.4185981510323207,1.5197002610240433,1.1535241715732316,1.357698868613429,-2.1112575497049088e-05,4.0060641343567086e-05,0.001117956929688898,0.0010437204418911551,0.0006885055685177524,0.0017041541667251474,-0.0003458868683081491,-0.3539545238018036,-51.23776626586914,-7.102860450744629,18.06952667236328,1.7869974374771118,-0.8090927600860596,0.11265717446804047,,,,,,,,,
1739302952.1700747,-0.12048471111994448,1.0675833063064042,-0.3788005736725957,-1.4186002309675259,1.5196976420068549,1.153519803679432,1.3577043509518676,0.0009751534891114711,-0.0005457910216503218,-0.00014225816585994755,0.00019306189860631936,-0.000762310778661071,-0.0002457194904406118,0.0009246244706755455,-0.3539545238018036,-51.21396255493164,-7.055253028869629,18.09729766845703,1.7805887460708618,-0.8090927600860596,0.06596527993679047,,,,,,,,,
1739302952.1809678,-0.1204898457658887,1.0675870121493396,-0.37879777033469747,-1.4185970865544737,1.519701371325321,1.1535215137626145,1.3577034850544223,-0.0010158506394615109,0.001160556125111666,0.0008013000053194598,-6.565602686368692e-05,0.0005028255770001303,6.0260119262505195e-05,0.0016489890464839552,-0.2825433909893036,-51.26553726196289,-7.079056739807129,18.04572296142578,1.7805887460708618,-0.7962753772735596,0.07328949868679047,,,,,,,,,
1739302952.1910403,-0.12048813616129331,1.0675843339468492,-0.378799558946365,-1.4186002308343337,1.5196977615239429,1.1535195547919714,1.3576987639148344,-0.0009594359403380693,-0.0003084841395237123,0.0012145996294704005,-0.0010751448049641631,-0.0006666897817312177,0.0014199230030031325,-0.0012042180016327236,-0.3063471019268036,-51.23776626586914,-7.055253028869629,18.09729766845703,1.8071390390396118,-0.8026840686798096,0.09983979165554047,,,,,,,,,
1739302952.202028,-0.12048271411735786,1.067584793084635,-0.3788016298796587,-1.4186003632769373,1.5197003774423952,1.1535190401833677,1.3577034843833173,0.0017374860298822019,9.551642546105805e-05,-0.00010209773232608128,-0.0004385003558854691,-0.0001834324577254247,-0.0010620428782346185,0.0005127256308426612,-0.3817255198955536,-51.23776626586914,-7.027482032775879,18.09729766845703,1.7805887460708618,-0.8026840686798096,0.07328949868679047,,,,,,,,,
1739302952.212947,-0.12048642396539443,1.067583389522638,-0.37880344755084994,-1.4186009470598024,1.5196985193884345,1.1535182825203847,1.357698830856794,-0.001153077841996873,-0.00047752097448094846,-0.001675199116125202,-0.0003955772524468134,-0.0004744665697400754,0.0002338713777460858,-0.0009599132475763553,-0.3301508128643036,-51.21396255493164,-7.003678321838379,18.09729766845703,1.8007303476333618,-0.7962753772735596,0.11265717446804047,,,,,,,,,
1739302952.2240508,-0.12048076412328132,1.0675843339483366,-0.3788024672475885,-1.4186002311613493,1.5197008959237714,1.1535219323850523,1.35770267326171,0.002295709124072157,0.00010848088808134874,-0.0006364176087259653,-8.634696361713943e-05,0.0004289303948844704,0.0004622423324495983,-0.0005624782176568983,-0.4055292308330536,-51.23776626586914,-7.055253028869629,18.09729766845703,1.7805887460708618,-0.7962753772735596,0.07969819009304047,,,,,,,,,
1739302952.2360172,-0.12048737069174452,1.0675849971656814,-0.37880166489132083,-1.4185981511413321,1.519697755556403,1.153523016025599,1.3577019697341635,-0.00080253892584251,0.0004997030103530744,0.0001542229120703746,-0.0008696118648742445,-0.0015516174005620923,-0.00022155588040591854,-0.00026184795242555764,-0.3301508128643036,-51.23776626586914,-7.027482032775879,18.06952667236328,1.8071390390396118,-0.8090927600860596,0.08610688149929047,,,,,,,,,
1739302952.246052,-0.120486739329817,1.0675833101909018,-0.37880168473750325,-1.4185956530995596,1.5197006311262056,1.1535198109406601,1.3577027273943436,0.000257568461517004,0.001267809717791964,-0.0004172407749434402,0.0006022737769975203,0.0012521123238148362,-0.0009695269862325321,0.0007488932901517314,-0.3301508128643036,-51.21396255493164,-7.055253028869629,18.04572296142578,1.7869974374771118,-0.8090927600860596,0.07969819009304047,,,,,,,,,
1739302952.2570217,-0.1204805868497849,1.0675833101560532,-0.3787984774978747,-1.4186012982394152,1.5196985191788028,1.153519040826559,1.3577043509516544,0.0015410911277938789,-0.0008432365415870507,2.6892551085321947e-05,-0.0012255065637282207,-0.00016698397948374855,-0.0009438729646542866,0.00017415557159668372,-0.3817255198955536,-51.21396255493164,-7.079056739807129,18.12110137939453,1.8007303476333618,-0.8026840686798096,0.06596527993679047,,,,,,,,,
1739302952.267039,-0.12048471108387072,1.0675870202327153,-0.37879847702982017,-1.4186002337534973,1.5196993716642773,1.1535182999629985,1.3576979598277257,0.0006040852717790273,0.0005952419241541781,0.0006674611856649726,-0.0005782423902250563,-0.0006715212296849126,-0.001385294252722424,-0.0014140017190881569,-0.3539545238018036,-51.26553726196289,-7.079056739807129,18.09729766845703,1.7934061288833618,-0.7962753772735596,0.11998139321804047,,,,,,,,,
1739302952.2780395,-0.12048884645002607,1.0675825448968392,-0.37880163294380886,-1.4185953010793861,1.5196993850732023,1.153517939901339,1.3576975605121682,-0.0015488982305320476,0.00022262148212133826,-0.0008573322765806135,0.0013649373761531467,-0.0007953426773793801,-0.0004307603624446703,-0.0013188722948337312,-0.3063471019268036,-51.21396255493164,-7.027482032775879,18.02191925048828,1.7934061288833618,-0.7889511585235596,0.12639008462429047,,,,,,,,,
1739302952.2889562,-0.1204864236446211,1.0675842399743887,-0.37880164186838733,-1.4186001631271068,1.5196985191760457,1.1535193933961265,1.3577057455932362,-0.00020150430987671687,-0.0005202414728936038,0.00038794272323623274,0.0005388669896760706,-0.0005727680397030008,-0.00023755835463617494,0.0006814353629920307,-0.3301508128643036,-51.26553726196289,-7.027482032775879,18.09729766845703,1.8007303476333618,-0.8026840686798096,0.05314789339900017,,,,,,,,,
1739302952.2990305,-0.12048471111988036,1.0675847930764248,-0.3787977936586038,-1.418596356580393,1.5196965558771043,1.1535190582750698,1.357694468459756,-0.0003662179120680598,-0.0003368260593337652,0.0004059521720627628,0.00034911713188306894,-0.00238629867206641,0.0004221151218326011,-0.000637756376835195,-0.3539545238018036,-51.23776626586914,-7.079056739807129,18.04572296142578,1.7805887460708618,-0.8026840686798096,0.11265717446804047,,,,,,,,,
1739302952.3100142,-0.12048100033427547,1.0675833327964939,-0.37880166012167726,-1.4185962889913863,1.519699371801258,1.1535190794264216,1.3576970743560801,0.0017901948530033513,0.000535176427498403,-0.0005918668782066619,0.001414247761681451,-0.0002942252892006867,0.00019839088625817086,-0.0013549328577336093,-0.4055292308330536,-51.21396255493164,-7.027482032775879,18.04572296142578,1.7934061288833618,-0.8026840686798096,0.09983979165554047,,,,,,,,,
1739302952.320055,-0.12048471111987481,1.067583310191429,-0.3787978814684889,-1.4185945981047878,1.519697640338104,1.1535192102465064,1.3577058662168429,2.5856549877949805e-05,0.0006575823647596149,0.0011848463197719498,0.0007993642105511308,-0.0007940313094572161,-0.0005236122734000865,0.0011223002555116597,-0.3539545238018036,-51.21396255493164,-7.079056739807129,18.02191925048828,1.8071390390396118,-0.8026840686798096,0.05314789339900017,,,,,,,,,
1739302952.3301399,-0.12048684166191044,1.0675833101910461,-0.37879966771115364,-1.4185991047068423,1.5196994914651292,1.1535205947493563,1.3576961129669705,0.0011228351726271857,-4.764110456369566e-05,-0.0005709313523138179,-0.000866702706285618,-0.0012956260697938025,0.0002631274668273956,-0.002147202845873772,-0.3539545238018036,-51.21396255493164,-7.055253028869629,18.06952667236328,1.7805887460708618,-0.8155014514923096,0.11998139321804047,,,,,,,,,
1739302952.3409798,-0.12048271611405292,1.067585012843786,-0.37880557474659315,-1.4185966862521187,1.5196970038479356,1.153520557438908,1.3576971938800317,0.0007054412136344485,-0.000306537341755887,-0.00025236174894615357,0.0004421315401033748,-0.0019415735895577338,-0.00027186506319685144,-0.0023797625993643686,-0.3817255198955536,-51.23776626586914,-7.003678321838379,18.04572296142578,1.8135477304458618,-0.8155014514923096,0.12639008462429047,,,,,,,,,
1739302952.3510234,-0.12048642353265435,1.067584954358111,-0.3788037571113049,-1.4185984689291375,1.5197013715052201,1.1535213284289831,1.357705068384943,-0.00011241748914490941,0.0006080618617589884,0.0004969008464245137,-0.0005089825056110778,0.0014170265786283827,0.0017883080761869007,0.002065646934227766,-0.3301508128643036,-51.26553726196289,-7.027482032775879,18.06952667236328,1.7805887460708618,-0.8090927600860596,0.05955658480525017,,,,,,,,,
1739302952.3620362,-0.1204847111198797,1.0675870206059732,-0.37879598615181254,-1.4186004692788834,1.5196993865294879,1.1535205969997306,1.3576995877992954,0.0008391464300110296,0.001509884984961375,0.0018451881867237313,-0.0006389744578003569,0.00019989347484057656,-0.0011038953054053461,-0.0009341840763419047,-0.3539545238018036,-51.26553726196289,-7.102860450744629,18.09729766845703,1.7934061288833618,-0.7889511585235596,0.10624848306179047,,,,,,,,,
1739302952.3729577,-0.12048642317258178,1.0675810141684607,-0.37880171389916545,-1.4185981510336614,1.5196985189553296,1.1535230334613422,1.357702393959039,-0.0006201660561023969,0.0001225198480450804,-0.0004176514399195889,-0.00034315518901949964,-0.0006279365527936911,5.25873815355974e-05,-0.00017301613416524598,-0.3301508128643036,-51.21396255493164,-7.055253028869629,18.06952667236328,1.8007303476333618,-0.8090927600860596,0.07328949868679047,,,,,,,,,
1739302952.3830206,-0.12048634393154196,1.0675830010950793,-0.3787996668818115,-1.4185981510323153,1.519697985686763,1.153520203597361,1.357703814573136,-0.0005617700692728286,-0.000902157597333797,-0.0003212321270918302,0.00037468608911512397,-0.0013393986955763304,0.0009983809683011694,0.0002083191526699111,-0.3301508128643036,-51.21396255493164,-7.055253028869629,18.06952667236328,1.8007303476333618,-0.8090927600860596,0.06596527993679047,,,,,,,,,
1739302952.3939884,-0.12048467709864115,1.0675792252530465,-0.37880170861858653,-1.418600230822171,1.5196985191670112,1.1535190406718512,1.3577066239232463,0.0010385995555666203,-0.0020038378925092493,-0.0006907612272602343,-0.00011880509149046422,-0.0007598797566235849,-0.0005676677399209983,0.002262175192920495,-0.3539545238018036,-51.19015884399414,-7.027482032775879,18.09729766845703,1.8007303476333618,-0.8026840686798096,0.04673920199275017,,,,,,,,,
1739302952.404174,-0.12048471111968825,1.0675832328905028,-0.3788063525037621,-1.418596447828156,1.5196993830867593,1.1535186358946028,1.3576972072994873,0.0005841118166992126,-0.0009572700480546288,-0.0007288100958427616,0.0001442637665707892,0.00012832147423461006,0.0005894075256816702,-0.0008334611887364654,-0.3539545238018036,-51.21396255493164,-7.003678321838379,18.04572296142578,1.7934061288833618,-0.7962753772735596,0.12639008462429047,,,,,,,,,
1739302952.4150233,-0.12048279242476972,1.0675850227113408,-0.3788038607778683,-1.418598177523717,1.5196985322579868,1.1535191972197194,1.3577010636100302,0.000714123804538977,3.475145509572626e-05,-0.0008969675163186493,-0.00045063820693290224,0.0005360619262097948,-0.00015413372335318544,-0.0017244704178298073,-0.3817255198955536,-51.23776626586914,-7.027482032775879,18.06952667236328,1.8007303476333618,-0.8026840686798096,0.09343110024929047,,,,,,,,,
1739302952.4260983,-0.12048642364105884,1.0675847165940955,-0.3788019998419078,-1.4185963696636412,1.5197001427872656,1.1535222627022448,1.3577002266669473,-0.0003189007824779426,-0.000494849898537571,-0.0008332542582849186,0.0007369073824425865,0.00047476387849706893,0.00020626332359834106,4.36248044864097e-05,-0.3301508128643036,-51.23776626586914,-7.055253028869629,18.04572296142578,1.7869974374771118,-0.8026840686798096,0.07328949868679047,756,715,740,39.871,0,0
1739302952.436966,-0.1204847009672356,1.0675869176668675,-0.378801685183162,-1.4185981510323227,1.5196968843461092,1.1535197978587326,1.3576988308384044,0.0005164388843267267,0.0003865858749080648,-7.501681901838779e-05,-0.0011419963372391257,-0.0009412237005416897,-0.0010003391476411981,-0.0010281287447851894,-0.3539545238018036,-51.26553726196289,-7.055253028869629,18.06952667236328,1.7869974374771118,-0.8090927600860596,0.11265717446804047,756,716,740,39.871,0,0
1739302952.4469671,-0.12048813616117075,1.067584920670806,-0.3788044678999445,-1.4185981510323153,1.5196993893787478,1.1535229912904321,1.3577043464819871,-0.0003847035721682964,-0.0003213081217665939,-0.0012558026537479185,-0.0003225869030758794,-0.0008441686520199202,1.8733264247982164e-06,0.0019996702064400884,-0.3063471019268036,-51.23776626586914,-7.027482032775879,18.06952667236328,1.7934061288833618,-0.8090927600860596,0.06596527993679047,757,715,742,39.871,0,0
1739302952.4570317,-0.12048643240960759,1.0675815967237794,-0.3788047020747556,-1.4185981598626332,1.5196994098170566,1.1535193934472538,1.3577018043565106,-1.3233303061953625e-05,-0.00024240679344649175,-0.0004811771036216857,5.676591743586238e-06,0.0003230183934526109,-0.0005685636459375713,-0.0014083073591039136,-0.3301508128643036,-51.19015884399414,-7.027482032775879,18.06952667236328,1.7869974374771118,-0.8026840686798096,0.08610688149929047,756,715,741,39.979,0,0
1739302952.4680238,-0.12048642364066099,1.0675847928085747,-0.37880175798329835,-1.418596721568056,1.5196986369094783,1.1535229767569235,1.357704350950721,-0.00021957164145514947,-0.000921013950445653,0.00022471031700845872,0.00029799738169161396,0.000674843435398938,0.00012153816483182969,0.0012391243288126476,-0.3301508128643036,-51.23776626586914,-7.055253028869629,18.04572296142578,1.8007303476333618,-0.8090927600860596,0.06596527993679047,756,715,740,39.979,1,0
1739302952.4780898,-0.1204879350263274,1.0675826214223685,-0.3788000071883509,-1.4185981520194435,1.5197000220543413,1.153518335548051,1.3576979634696766,-0.00020176639709413747,-0.0003494075881790243,0.0016671813566802893,0.0008972561479527916,-0.00013375326704473438,0.0004349545491003491,-0.0013023382278375514,-0.3063471019268036,-51.21396255493164,-7.079056739807129,18.06952667236328,1.7869974374771118,-0.7962753772735596,0.11998139321804047,756,716,739,39.871,1,0
1739302952.48898,-0.12048471111874488,1.0675850113701972,-0.3788045811076578,-1.418594585678283,1.519703583398111,1.1535183217665406,1.3577025664863231,0.0012933070354233858,0.0011300858782188768,-7.030504009533157e-05,0.0001691302365202708,0.002652939076201574,0.0008191788176078122,-0.0007349671280526801,-0.3539545238018036,-51.23776626586914,-7.027482032775879,18.02191925048828,1.7934061288833618,-0.7962753772735596,0.07969819009304047,756,716,741,39.871,1,0
1739302952.4990199,-0.12049056286808899,1.0675870206520541,-0.3787980854268568,-1.4186002967995273,1.5196985178994538,1.1535201017586532,1.3577042977919922,-0.001750112367682828,0.0006555498247188154,0.0012092907126765415,-0.0005015531224548786,0.0003143606326154449,-0.00038863763019781277,0.00038737781524302386,-0.2825433909893036,-51.26553726196289,-7.079056739807129,18.06952667236328,1.8007303476333618,-0.8026840686798096,0.06596527993679047,756,715,739,39.979,0,0
1739302952.5100534,-0.12048642360595309,1.0675869186134033,-0.3788016798775954,-1.4185963683714469,1.5196977610193354,1.1535190925102692,1.3577065782301876,0.00027538662789505737,-0.00013340356908069363,-0.0007082581011453033,0.00011110048322098259,2.4590874318243625e-05,-0.0013447853567501123,0.0022293231055569417,-0.3301508128643036,-51.26553726196289,-7.055253028869629,18.04572296142578,1.8071390390396118,-0.8026840686798096,0.04673920199275017,756,715,738,39.762,0,0
1739302952.521016,-0.12048439617188055,1.0675815976697391,-0.37879955010177585,-1.4185963683552965,1.5197001446714207,1.153519057838702,1.3577003461766968,0.00010434890313184241,-0.0008847724383009104,0.0011463043334203737,0.00044946667334290496,-0.00020275993817149492,-0.0013237248957510784,-0.0006981581481448316,-0.3539545238018036,-51.19015884399414,-7.055253028869629,18.04572296142578,1.7869974374771118,-0.8026840686798096,0.09983979165554047,757,713,739,40.088,1,0
1739302952.5319765,-0.12048388972821425,1.0675805547119952,-0.37880446441160476,-1.4186005361992526,1.5197001427333674,1.1535190401805624,1.3577043464819873,0.00042901846235789587,-0.0010346649655426535,-0.00010378039601962376,-0.000627469635108853,0.00032357747655278456,-0.0008426464341207227,0.0006578999347646047,-0.3539545238018036,-51.21396255493164,-7.027482032775879,18.06952667236328,1.7869974374771118,-0.8026840686798096,0.06596527993679047,756,715,739,39.871,0,0
1739302952.5420375,-0.12048471110596996,1.0675870182076082,-0.3787995511098179,-1.4186012914818398,1.5197001382636897,1.1535186357330944,1.35769960093658,-0.000424646615243888,0.0008328038177161209,-0.00012141076627934285,-0.0012311802350467318,0.00039033871953984107,-5.505839523590358e-07,-0.00012265524985208943,-0.3539545238018036,-51.26553726196289,-7.055253028869629,18.09729766845703,1.7869974374771118,-0.7962753772735596,0.10624848306179047,755,715,737,39.979,1,0
1739302952.5529654,-0.12048855450666214,1.067582621426248,-0.37880179263616304,-1.418600231809305,1.5196985191760206,1.1535190464811744,1.3576989947167084,-0.0012293029992329221,-0.0009727177449641672,0.00011059647829985469,-0.000770045104388723,-0.0008291384530688375,-0.0007961845672569995,-0.0006179367009863111,-0.3301508128643036,-51.21396255493164,-7.055253028869629,18.09729766845703,1.8007303476333618,-0.8026840686798096,0.08610688149929047,756,719,736,39.979,1,0
1739302952.5629873,-0.12048471126422593,1.0675812070375308,-0.3787978025529409,-1.418598945760929,1.519699056604274,1.153523030536395,1.3577058660563261,-0.0005650689921817624,-0.000598168597865028,0.0019750390282122503,-0.0002096547439087049,0.000700952721201412,0.002010202224554225,0.001939060786829821,-0.3539545238018036,-51.21396255493164,-7.079056739807129,18.06952667236328,1.7869974374771118,-0.8090927600860596,0.05314789339900017,757,715,736,39.871,1,0
1739302952.5740607,-0.12048471079586218,1.0675826212856663,-0.3788039952304062,-1.4185981510457741,1.519699356162586,1.1535209768860424,1.3576992264738452,0.0005821503535495652,-0.0005133771855904429,-0.0011236406158800349,0.0007758411086419886,0.0002850951778816187,0.0013668028585106832,-0.0008352769266955158,-0.3539545238018036,-51.21396255493164,-7.027482032775879,18.06952667236328,1.7869974374771118,-0.8090927600860596,0.10624848306179047,757,714,737,40.088,1,0
1739302952.5849488,-0.12048641975236397,1.0675860219896378,-0.37880343892675283,-1.41860026123771,1.5196985193360713,1.15352055604119,1.3576996422552408,-0.00016911169956235103,0.0001348419081268424,-0.00021911438436153632,-0.0012357581679373756,0.0005022370131384928,-0.0003123368426079626,-0.0016817159431845921,-0.3301508128643036,-51.26553726196289,-7.003678321838379,18.09729766845703,1.8007303476333618,-0.8155014514923096,0.09343110024929047,756,712,739,39.871,1,0
1739302952.5950391,-0.12048634490354576,1.0675833101741337,-0.3788016386286108,-1.4186014229155817,1.5196984789490455,1.1535229961356084,1.3577016383220326,-0.00041610545219558843,-0.00041956852728849243,0.0008171085615218567,1.895614934353156e-05,0.0001657270321226201,0.0004900416177148943,0.0014485081249240458,-0.3301508128643036,-51.21396255493164,-7.027482032775879,18.09729766845703,1.8007303476333618,-0.8090927600860596,0.09983979165554047,756,716,739,39.871,1,0
1739302952.605946,-0.12048400378554737,1.0675887246700926,-0.3788037572187465,-1.4186002602632928,1.5196972787917038,1.1535178875914862,1.3576992198281632,0.0008700545093235771,0.0014881637947580474,-0.0005183663220539535,-0.0009982769874485632,-0.001311632996438285,-0.00045354579808028905,-0.00020606397700982096,-0.3539545238018036,-51.28934097290039,-7.027482032775879,18.09729766845703,1.8071390390396118,-0.7889511585235596,0.09983979165554047,755,715,738,39.871,0,0
1739302952.6169538,-0.12048400247490254,1.0675850240198284,-0.3787995588743353,-1.4185984718676918,1.5197002832199382,1.1535190968768985,1.3577058662531767,0.0008391956545962452,0.0008591538480918977,0.0002747479569959784,0.00010449861070701248,0.0006662853516294692,0.0012158700812883126,0.0015671659324385558,-0.3539545238018036,-51.23776626586914,-7.055253028869629,18.06952667236328,1.7805887460708618,-0.8026840686798096,0.05314789339900017,756,713,738,39.871,0,0
1739302952.627017,-0.12048460613321346,1.0675847836754466,-0.3787995500898027,-1.4185981514701915,1.51970090033477,1.1535187927168409,1.3576964496394088,0.0003386641403110305,0.00034927230215970906,0.0001929916143412936,0.0001887740117577216,-6.553552651688719e-05,0.0009657710477619274,-0.0016708168028526215,-0.3539545238018036,-51.23776626586914,-7.055253028869629,18.06952667236328,1.7805887460708618,-0.7962753772735596,0.13279877603054047,758,716,736,39.871,1,0
1739302952.6380095,-0.12048271285441403,1.067583273342198,-0.3788017115327938,-1.4185980715594582,1.5197001427333563,1.1535237358714379,1.3577029027795444,-2.3833838641764446e-05,0.0004899361719759086,-0.0009133805282910474,0.00026790387012858366,0.0001044990635819628,0.0003491579721620828,-0.0017495870778604897,-0.3817255198955536,-51.21396255493164,-7.027482032775879,18.06952667236328,1.7869974374771118,-0.8155014514923096,0.06596527993679047,755,717,736,39.871,1,0
1739302952.648046,-0.12048641975235909,1.067583307355999,-0.37880167696219463,-1.418602376588037,1.5196997397395382,1.1535222193102164,1.3576979604653736,-0.0007714698411106912,-0.0005383838367677292,0.00017994132284836014,-0.001507754471484578,0.0012495468423979743,-0.00012879169437491716,-0.0007755065907258808,-0.3301508128643036,-51.21396255493164,-7.055253028869629,18.09729766845703,1.7934061288833618,-0.8026840686798096,0.11998139321804047,755,715,738,39.979,1,0
1739302952.659034,-0.12048813616132074,1.0675833366819834,-0.3788024634067575,-1.418600257361576,1.5196993844131073,1.1535183006807914,1.357704310724626,-0.00010736203611188591,0.0001267692324201363,-0.0016440545864171237,-0.0003567127832643708,0.000440869869169828,-0.0002618281131488376,0.0009020095993427417,-0.3063471019268036,-51.21396255493164,-7.055253028869629,18.09729766845703,1.7934061288833618,-0.7962753772735596,0.06596527993679047,757,715,738,39.979,1,0
1739302952.6700065,-0.12048471079585972,1.067585098405556,-0.3788004950582044,-1.4185946164210148,1.5196984032977234,1.1535190401805655,1.3576994690068689,-0.0005381620707803964,0.0011900504147854206,-7.225911767698976e-05,0.0012605091889156485,0.0003145483864887363,-0.001107149801717195,0.0015673855154727237,-0.3539545238018036,-51.23776626586914,-7.055253028869629,18.02191925048828,1.8135477304458618,-0.8026840686798096,0.07969819009304047,755,717,739,39.979,1,0
1739302952.6809409,-0.12048601426793103,1.0675812435830399,-0.3788034128966514,-1.4185985180476146,1.5196994241772912,1.153521313160698,1.3576956395624158,-2.192567447026469e-05,-0.00044537766454966633,-0.000385602161035236,0.00021336282134939863,0.0008793295727661768,0.0001415319700037985,-0.0027457944142053377,-0.3063471019268036,-51.21396255493164,-7.003678321838379,18.04572296142578,1.7934061288833618,-0.8219101428985596,0.09983979165554047,756,713,738,39.871,1,0
1739302952.691028,-0.12048642362863335,1.067582618580173,-0.378800258722754,-1.4185981510444503,1.5196985147065996,1.153519040180463,1.3577075270623313,-1.3228948071214122e-05,-0.001193549099046808,0.0007345994085515283,-0.0007993173675348556,6.73878056778635e-05,-0.00040803400275468086,0.0024351188314335076,-0.3301508128643036,-51.21396255493164,-7.055253028869629,18.06952667236328,1.8007303476333618,-0.8026840686798096,0.03941498324275017,757,716,741,39.871,0,0
1739302952.7010336,-0.12048642656360999,1.067587012137649,-0.37880171531524737,-1.4186009460779083,1.5197001428947865,1.153520268790821,1.3577010634451172,-4.4232294118685705e-05,0.001055103453622492,0.0002920320199281285,-0.0018191951440918392,0.0004449434913302512,0.00045101322954598893,-0.0012171226380052035,-0.3301508128643036,-51.26553726196289,-7.055253028869629,18.09729766845703,1.7869974374771118,-0.8090927600860596,0.09343110024929047,756,716,738,39.871,1,0
1739302952.7120056,-0.1204847111198968,1.0675851286755422,-0.37879979509753336,-1.4185981539797923,1.5197001286621836,1.1535174166258104,1.3577043509514264,0.0005879226738344703,-0.0002215126284638184,0.0003522645014071927,-0.00034520886684355896,0.001287639331966167,-0.001094534451686408,0.0008905379288924411,-0.3539545238018036,-51.23776626586914,-7.055253028869629,18.06952667236328,1.7869974374771118,-0.7889511585235596,0.06596527993679047,756,716,737,39.871,1,0
1739302952.7220812,-0.12048494788277482,1.0675863309448332,-0.37879787574776247,-1.4186002308222208,1.5196985191758074,1.1535205511399689,1.3577022413723092,0.0002956585139883142,-0.00016070150931392954,0.0014644181501893454,-0.0011879916986385494,6.05892504414568e-05,0.0008169625750042559,-8.829779105779044e-05,-0.3539545238018036,-51.26553726196289,-7.079056739807129,18.09729766845703,1.8007303476333618,-0.8155014514923096,0.05314789339900017,758,716,738,39.871,0,0
1739302952.7330291,-0.12048189859530961,1.067587814808636,-0.3788020292810191,-1.4186020134991901,1.519699385073278,1.1535205555005457,1.3576962736227765,0.0009414266548744159,0.001395510255839606,0.00023406430033138175,-0.001044805947529519,-0.0006160684492365997,0.0004084099520433416,-0.0014033656629255215,-0.3817255198955536,-51.28934097290039,-7.055253028869629,18.12110137939453,1.7934061288833618,-0.8155014514923096,0.12639008462429047,756,716,736,40.088,1,0
1739302952.7439823,-0.12048471111834752,1.0675849972002425,-0.37880246438347875,-1.4186002572041079,1.5196981571330184,1.1535197980020468,1.357699966253502,-5.2016230360250215e-05,0.0004841843307879964,0.0010670127689611847,-0.00046615056732570885,-0.0008074627063527422,0.0007919465107953693,5.408747817566597e-05,-0.3539545238018036,-51.23776626586914,-7.055253028869629,18.09729766845703,1.8007303476333618,-0.8090927600860596,0.09983979165554047,756,715,738,39.979,0,0
1739302952.7549908,-0.12048376623987934,1.0675850227116332,-0.37880058675603284,-1.4185981510324641,1.5196993850712344,1.1535197978405423,1.357700345457456,0.0013866764665294547,-0.0003115738115837406,0.0006606438794784931,-5.707270983194249e-05,0.00019556560958650712,-0.00013644386085932055,-5.2786366780828995e-05,-0.3539545238018036,-51.23776626586914,-7.055253028869629,18.06952667236328,1.7934061288833618,-0.8090927600860596,0.09983979165554047,755,716,739,39.871,2,0
1739302952.765943,-0.12048542140323,1.0675812887182103,-0.3788027272253564,-1.418597110101987,1.5196985101276954,1.1535205555006196,1.3576995839920243,0.00031544970264843014,-0.0014336715596893067,-0.00041696436328750904,0.0005522938450028151,-0.0008081463086305853,-0.0004884720131398626,-4.5881207432775495e-05,-0.3539545238018036,-51.19015884399414,-7.055253028869629,18.04572296142578,1.8007303476333618,-0.8155014514923096,0.10624848306179047,756,717,739,39.871,1,0
1739302952.7759724,-0.12048852665594965,1.0675863318826144,-0.37879989133722436,-1.4185945856908388,1.5196990566041209,1.153519040180463,1.3577011038369564,-0.0007149578443877837,0.000844272046692009,-0.0002164759812538516,0.0013457108995112157,-0.001285990420478942,-0.0003538609346753465,-0.0002030771826993477,-0.3301508128643036,-51.26553726196289,-7.055253028869629,18.02191925048828,1.7869974374771118,-0.8026840686798096,0.09343110024929047,756,714,739,39.979,1,0
1739302952.7860358,-0.12048645875221062,1.0675833101793817,-0.3788037601046591,-1.418600242595928,1.5196993671762165,1.1535208967245274,1.3577058240587296,-0.0009665234153205153,-0.000735008703815318,-0.001199630404140824,-0.000996360142142361,-0.0005016433854013506,0.0012780430343144874,0.0006837625397064462,-0.3301508128643036,-51.21396255493164,-7.027482032775879,18.09729766845703,1.7934061288833618,-0.8090927600860596,0.05314789339900017,757,717,737,39.871,1,0
1739302952.7960737,-0.12048271328788109,1.0675870206526303,-0.37880449954990925,-1.4185981511415309,1.5196985170236808,1.1535205555192292,1.3576964092461479,0.0008195892548294809,0.0012898148412581964,8.119543795644579e-05,-0.0003098554916458017,-0.00012770355946719534,0.00015638029476919372,-0.002529593633027556,-0.3817255198955536,-51.26553726196289,-7.027482032775879,18.06952667236328,1.8007303476333618,-0.8155014514923096,0.13279877603054047,754,716,737,39.871,0,0
1739302952.8070042,-0.12048813616134331,1.067584793123516,-0.3787999014522634,-1.4186003367859845,1.5196985057670325,1.1535197978405414,1.3576995885166483,-0.0008376542151766908,0.0007124814165774137,0.00018939167954972776,-0.0007152065247150369,3.039470426985204e-06,0.00012657551491750292,0.0005880582824057255,-0.3063471019268036,-51.23776626586914,-7.055253028869629,18.09729766845703,1.8007303476333618,-0.8090927600860596,0.10624848306179047,757,715,737,39.871,1,0
1739302952.8181894,-0.12048429759760536,1.0675849543569822,-0.378800260164827,-1.4185981510329135,1.5197001432177977,1.1535209087133294,1.3577015200876223,-0.00026891482294991853,0.001224280823663231,0.0004437660573682152,5.083480932365346e-05,0.0017938620708163096,0.0006074253058985298,-0.000545992040621696,-0.3301508128643036,-51.26553726196289,-7.055253028869629,18.06952667236328,1.7869974374771118,-0.8155014514923096,0.07969819009304047,757,716,738,39.979,1,0
1739302952.8290508,-0.12048641181986006,1.067587100078833,-0.37879986633784335,-1.418600481014507,1.519694053978709,1.1535190401824569,1.3576968844955013,0.0004010677066021175,0.0007058640534533597,0.00048007162278141763,-0.000517683027042434,-0.0010746363679795317,0.00020231373255873082,-0.0015747972691721047,-0.3301508128643036,-51.26553726196289,-7.055253028869629,18.09729766845703,1.8007303476333618,-0.8026840686798096,0.12639008462429047,756,715,738,39.871,1,0
1739302952.8399792,-0.12048459350034461,1.0675849461828053,-0.3788017216872237,-1.4185963685020637,1.5196985193661805,1.153519040180463,1.3577025616966225,0.0013348166449493313,0.00011426142296996498,-0.0004168008072399045,0.0005969654492425356,-0.00023537948228039132,-0.0002569627645821184,0.00023692410082500558,-0.3539545238018036,-51.23776626586914,-7.027482032775879,18.04572296142578,1.8007303476333618,-0.8026840686798096,0.05314789339900017,755,717,740,40.088,1,0
1739302952.8509676,-0.12048981368718774,1.067583594068977,-0.3788016803095427,-1.4185960348448516,1.5196989022940615,1.1535197978405414,1.357697964940911,-0.001624937671551064,0.0004629692920895092,-0.00097395321365678,0.0002096576361290916,-0.0004720287319920422,1.3491602253019709e-05,-0.0009705538747196169,-0.2825433909893036,-51.21396255493164,-7.055253028869629,18.06952667236328,1.7934061288833618,-0.8090927600860596,0.11998139321804047,756,718,737,39.871,1,0
1739302952.862044,-0.12048471111968276,1.067582620972957,-0.3788026300613591,-1.4185983914012412,1.5197001427306314,1.1535162657134435,1.3577003446870655,0.00034236242002961,-7.55827375606701e-05,0.0007745634686666008,0.0002026866477126752,0.0013384302556012778,-0.0010486841011100774,-9.89471084872111e-05,-0.3539545238018036,-51.21396255493164,-7.055253028869629,18.06952667236328,1.7869974374771118,-0.8090927600860596,0.09983979165554047,755,716,738,39.979,1,0
1739302952.8729796,-0.12048642072442632,1.0675850338272472,-0.3788017907094204,-1.418600946079265,1.5196986945612465,1.1535205554806804,1.3576988308567897,-0.0007277678468147664,0.0011311045891240212,-0.0007938287059446074,4.33468310760309e-05,0.0010627661205144807,0.0004280687453397745,-0.0004300409408705784,-0.3301508128643036,-51.26553726196289,-7.055253028869629,18.09729766845703,1.7869974374771118,-0.8155014514923096,0.11265717446804047,756,718,738,39.871,1,0
1739302952.883008,-0.12048577405129665,1.0675849460437312,-0.3788019515521913,-1.4185963683674094,1.5196993850487532,1.1535201525068008,1.357703485054422,-0.0006369196844029463,-0.000444824552872634,-1.4554103412513399e-06,0.0012610851974648159,0.0006225977556183013,0.000564204799399632,0.0014516858428787432,-0.3063471019268036,-51.23776626586914,-7.055253028869629,18.04572296142578,1.7934061288833618,-0.8090927600860596,0.07328949868679047,756,717,740,40.088,1,0
1739302952.894027,-0.12048302881355015,1.0675833638387302,-0.37880273763772143,-1.418600230822171,1.519699385073278,1.1535182825223866,1.3577043509516544,0.0005793908577892047,4.759546200672947e-05,-0.0012918436617303701,-0.0011533742270282447,-0.0002500527740071826,0.0010932124730218238,-2.4986908771227352e-05,-0.3817255198955536,-51.21396255493164,-7.055253028869629,18.09729766845703,1.7934061288833618,-0.7962753772735596,0.06596527993679047,755,715,740,39.871,0,0
1739302952.9049637,-0.1204837662776634,1.067582956382735,-0.3788006130392442,-1.4185981598626332,1.519699932026885,1.1535205555006196,1.3577043509516544,0.0006418625012908658,0.0013561990553939804,0.0004366446126561854,0.00040217773990043365,-0.0001846820314785107,0.0009716943798592097,0.0017737585995988747,-0.3539545238018036,-51.23776626586914,-7.055253028869629,18.06952667236328,1.8007303476333618,-0.8155014514923096,0.06596527993679047,756,717,741,39.979,1,0
1739302952.9149768,-0.1204861870575883,1.0675833088263222,-0.3788026335235546,-1.4185992293786942,1.5196969515659355,1.1535182825203847,1.3576992259772191,-0.00030493848130168626,-0.001306234862672942,-0.0014971831670281361,0.00032412930246214483,-0.0005873604603694988,-0.0005473119665747412,-0.0009925512418679575,-0.3301508128643036,-51.21396255493164,-7.055253028869629,18.04572296142578,1.7741800546646118,-0.7962753772735596,0.10624848306179047,756,721,740,39.871,1,0
1739302952.9260347,-0.12048984866962795,1.0675854559582554,-0.37880273883004334,-1.41859780192461,1.5196961267310094,1.153519040180463,1.357702358532111,-0.001491549855270843,-0.0005007815258346694,-0.0005928662199417231,0.0001073757098071125,-0.0008067253677827935,0.00013233759666284012,-6.358809661432716e-05,-0.2825433909893036,-51.21396255493164,-7.055253028869629,18.04572296142578,1.7934061288833618,-0.8026840686798096,0.07328949868679047,756,717,737,39.871,1,0
1739302952.9369326,-0.12048481537577163,1.0675794180111566,-0.3788019243145184,-1.418598866296145,1.5196977608354012,1.1535197978405414,1.3577031039082004,-0.00024529722296029737,-0.0030978430525270104,-0.000650731685879148,-0.00037946677392489115,-5.3532954922340544e-05,0.00029150921122369356,0.0002617283583585689,-0.3539545238018036,-51.19015884399414,-7.055253028869629,18.06952667236328,1.8071390390396118,-0.8090927600860596,0.06596527993679047,759,715,740,39.871,0,0
1739302952.9469671,-0.12048684101563488,1.0675850226748647,-0.3787995511020225,-1.4186002968116402,1.5196974330469517,1.153519040180463,1.3577007417728868,0.0002656249925672042,8.410329856207008e-05,0.0008488325770203211,-0.0009795325010913607,-0.0005691960059157048,-3.697515223914835e-05,0.00026596469628247714,-0.3539545238018036,-51.23776626586914,-7.055253028869629,18.06952667236328,1.8007303476333618,-0.8026840686798096,0.09343110024929047,756,716,738,39.979,1,0
1739302952.9580128,-0.12048100052631024,1.0675833110322208,-0.3788017927801722,-1.418600504574134,1.5196977615098364,1.1535197978405414,1.3577016405458633,0.0019874574519850637,-0.00018109780619140578,0.0003139320587345149,-0.00041675748579020875,-0.0009050735195625596,0.0013933514878148908,0.0008112368513382411,-0.4055292308330536,-51.21396255493164,-7.055253028869629,18.09729766845703,1.8071390390396118,-0.8090927600860596,0.07969819009304047,756,717,736,39.871,1,0
1739302952.9699786,-0.12048471111987956,1.0675849461823617,-0.37879990429290467,-1.4186010121658261,1.519703502779243,1.153519040180463,1.3576999647592347,0.00016320282296987984,4.4491635598762564e-05,0.001119077504321805,-0.0011186113978962511,0.0019039343742323106,0.00016154191167131365,-0.0003082674513916964,-0.3539545238018036,-51.23776626586914,-7.055253028869629,18.06952667236328,1.7934061288833618,-0.8026840686798096,0.09983979165554047,756,715,738,39.871,1,0
1739302952.9809303,-0.1204847198888764,1.0675870206524865,-0.37879952878924994,-1.4186030918868426,1.5196985171972754,1.1535182844584517,1.3577033655443644,-0.0003543250659442693,0.0018280561458401791,0.001005046760389287,-0.001573524789005782,0.00041394201990119434,0.0001734735123345845,0.0014004549073109317,-0.3539545238018036,-51.26553726196289,-7.079056739807129,18.09729766845703,1.8007303476333618,-0.7962753772735596,0.04673920199275017,755,715,737,39.871,1,0
1739302952.9909937,-0.12048812741293566,1.067579599729462,-0.37880447740225676,-1.418599210718897,1.519698465540008,1.153519331250945,1.3577027273391626,-0.0012806288343507294,-0.002276620033416412,-0.0002699122419664759,-0.0019399056816240664,-0.0005809379415245515,-0.00040155082453346963,0.0011214492676369244,-0.3063471019268036,-51.16238784790039,-7.027482032775879,18.06952667236328,1.8007303476333618,-0.8090927600860596,0.07969819009304047,755,716,735,39.871,1,0
1739302953.0020268,-0.1204856017093779,1.0675850227117774,-0.3788063520873645,-1.4185966101957006,1.5196959177265037,1.1535190445384795,1.3576979634696762,4.0180029512126804e-07,0.0003180775540444254,-0.0007839853615555022,0.0010664152719507699,-0.0014070139853419848,0.00017529447212952863,-0.0010804124068257755,-0.3301508128643036,-51.23776626586914,-7.003678321838379,18.04572296142578,1.8135477304458618,-0.8026840686798096,0.11998139321804047,755,714,737,39.979,2,0
