IITGN-Robotics/Franka_IITGN_ROBOTICS/franka_ros/franka_iitgn/data01/us_005.csv
time,fr3_joint1_pos,fr3_joint2_pos,fr3_joint3_pos,fr3_joint4_pos,fr3_joint5_pos,fr3_joint6_pos,fr3_joint7_pos,fr3_joint1_vel,fr3_joint2_vel,fr3_joint3_vel,fr3_joint4_vel,fr3_joint5_vel,fr3_joint6_vel,fr3_joint7_vel,fr3_joint1_eff,fr3_joint2_eff,fr3_joint3_eff,fr3_joint4_eff,fr3_joint5_eff,fr3_joint6_eff,fr3_joint7_eff,flexpin1,flexpin2,flexpin3,Force,ContactMic,ContactMic_gt
1739304157.5437617,-0.0934847032684949,1.0798453786918742,-0.4204975506535045,-1.4151287112603415,1.5515488644210684,1.1279326473055284,1.3524424862593039,0.0014409502522182182,-0.0008020817009900165,-0.0007456155086455116,-0.0029946612012708863,-0.0007542349643344846,-0.007027226441709458,-0.0004348204011181417,-0.6038934588432312,-51.42026138305664,-8.146256446838379,17.97431182861328,1.9966531991958618,-0.7633163928985596,0.09343110024929047,,,,,,,,,
1739304157.5547614,-0.09348345936928541,1.079841803029575,-0.4204958371182502,-1.4151532531912105,1.551545160226573,1.1278779803240606,1.3524417187473983,-0.0002315456006546973,0.0002728981909997907,0.0011072012488760469,-0.0032464473684730164,-0.00024295715968720207,-0.007271744681324142,-0.0013432183201007061,-0.4571039378643036,-51.34091567993164,-8.070878028869629,17.84735870361328,1.9051004648208618,-0.8942368030548096,0.05955658480525017,,,,,,,,,
1739304157.565832,-0.09347707887156015,1.0798459428071674,-0.42049148746430504,-1.4151867247209309,1.5515409777402474,1.1278180338831554,1.3524369499302895,-0.0003861340623660406,0.001969043542818386,-0.0008394842685824615,-0.0026279667277936346,-0.0004970506292530348,-0.0026564944681931953,0.0005998361352242456,-0.3539545238018036,-51.34091567993164,-8.043107032775879,17.89893341064453,1.8986917734146118,-0.9006454944610596,0.05955658480525017,,,,,,,,,
1739304157.576697,-0.09346855400485642,1.0798549300229274,-0.4204861099021382,-1.4152025583614112,1.5515362820429541,1.127812405819522,1.3524288682035934,-0.00015326251551688866,-0.00025425097668920984,0.000999258608204359,-0.0024658148054521037,-0.0007227420843840787,-0.0003787367198560061,-0.0023155508759314645,-0.3539545238018036,-51.39249038696289,-8.070878028869629,17.92273712158203,1.9115091562271118,-0.9409286975860596,0.08610688149929047,,,,,,,,,
1739304157.5877576,-0.0934652616857017,1.079864880087609,-0.42048818920411274,-1.41522244524517,1.5515382273222846,1.1278032799214368,1.3524279888504298,0.00017846638084305225,0.0007305885697924967,-0.00062811234239441,-0.0012206956149522356,-0.0001681104371538826,-7.308457776897443e-05,0.0007558698205090144,-0.3539545238018036,-51.44406509399414,-8.043107032775879,17.97431182861328,1.9179178476333618,-0.9006454944610596,0.06596527993679047,,,,,,,,,
1739304157.5977633,-0.09346307832216606,1.0798754415126166,-0.4204842477842218,-1.415232179166747,1.551539415248494,1.1277974433870899,1.352423132582099,-0.00013612484285496892,0.0015533291078971847,0.0006449975928772998,-0.00038414406908830506,0.0014285060964595367,-0.001744242406023995,0.00048108437543730717,-0.3301508128643036,-51.49563980102539,-8.094681739807129,17.97431182861328,1.9115091562271118,-0.8548691272735596,0.09343110024929047,,,,,,,,,
1739304157.607765,-0.09346500738711756,1.0798687239640874,-0.4204837090658186,-1.4152367737254123,1.551540193979667,1.1277934503572626,1.3524278749784089,3.7065957858628784e-05,-0.0016169606127745587,-0.0005316263232074895,-0.0001007102840005594,0.0005425741540743731,0.00014288954878423024,0.00022733740560334711,-0.3301508128643036,-51.39249038696289,-8.070878028869629,17.94654083251953,1.8922830820083618,-0.8612778186798096,0.05314789339900017,,,,,,,,,
1739304157.617812,-0.0934673498382943,1.079878885181337,-0.42047936688091264,-1.4152408482273606,1.5515420154704227,1.127787167150928,1.352418833290248,-0.0017090765331045712,-0.0004678941989383806,0.0010070586534654661,-0.00029061873076181025,0.0011013816204341067,-0.0001965356649707414,-0.0009846525258555533,-0.3063471019268036,-51.49563980102539,-8.118485450744629,17.92273712158203,1.8858743906021118,-0.8484604358673096,0.09343110024929047,,,,,,,,,
1739304157.6297457,-0.09346442734331505,1.0798855536449112,-0.420478047195833,-1.415244175836664,1.5515418998503983,1.1277863082373412,1.3524270780472993,-0.0002565806408279058,-0.0004492958670311649,0.001178788211472042,-0.0008487762764664571,2.470175553050401e-05,0.0013161844185531658,0.0011861364524610373,-0.3063471019268036,-51.47183609008789,-8.094681739807129,17.92273712158203,1.8785501718521118,-0.8814194202423096,0.05955658480525017,,,,,,,,,
1739304157.6397667,-0.0934644888890445,1.079885309023676,-0.42048396577377983,-1.4152499361030253,1.5515382303722116,1.1277870522502706,1.3524249827187447,0.0005969171095235137,-0.0007976037961273782,-0.0007687922835672386,-0.001417229802956218,-0.0007604694549020465,0.00038731138877339037,0.00041211676718262203,-0.3063471019268036,-51.44406509399414,-8.043107032775879,17.99811553955078,1.8858743906021118,-0.8878281116485596,0.04673920199275017,,,,,,,,,
1739304157.650711,-0.09346369780392347,1.07988029593523,-0.4204830863965725,-1.4152434977305652,1.5515408977825922,1.1277860056940165,1.3524204398314796,0.0006518151677797637,-0.0014936133544954397,-0.00014961889360245675,-0.0001443833454130489,0.0010025248981792793,-0.0006387334985916899,-0.0014162158013547852,-0.3063471019268036,-51.34091567993164,-8.043107032775879,17.89893341064453,1.8858743906021118,-0.8878281116485596,0.08610688149929047,,,,,,,,,
1739304157.660718,-0.09345823363563542,1.0798785858425675,-0.42048428848996583,-1.4152407260747155,1.551539730610411,1.1277878084389983,1.3524258356727563,0.0004819708094707955,-0.0009962459339322087,5.658934099277667e-05,0.0014585094680750845,-0.0006791671831459717,0.00029822182623447606,-0.001285449066895245,-0.3539545238018036,-51.31711196899414,-8.019303321838379,17.87512969970703,1.8986917734146118,-0.8942368030548096,0.06596527993679047,,,,,,,,,
1739304157.6718073,-0.09346002273976169,1.079876416984136,-0.42048367133903786,-1.4152432606565282,1.5515369606189549,1.1277878099102472,1.352421685146957,-0.0004154937077702344,-0.00046519432220649504,0.0010020236045881308,-0.0011225874816364481,-0.0008622156949122924,0.0001520548233042927,0.0009332298991746765,-0.3539545238018036,-51.31711196899414,-8.019303321838379,17.89893341064453,1.8922830820083618,-0.8942368030548096,0.09343110024929047,,,,,,,,,
1739304157.6837924,-0.09345099286358524,1.0798803781470605,-0.4204858825904516,-1.415242509255006,1.5515292238440581,1.1277894334675829,1.3524177057079185,0.00038995019230916265,0.0008392393146321207,0.0001409129324052956,0.00033542282295939886,-0.001977525846305967,0.0002701223109450105,-0.0002543632955439747,-0.4055292308330536,-51.34091567993164,-7.991532325744629,17.89893341064453,1.9179178476333618,-0.9079697132110596,0.09983979165554047,,,,,,,,,
1739304157.693806,-0.09345690006300461,1.0798786656308592,-0.42048292051259667,-1.4152461601230457,1.5515369606941525,1.127786295074632,1.3524193408880176,0.0003066752463907783,-0.0014147911106104196,0.0010434027422753073,-0.0008374620746017581,0.0007890182610016229,-0.0005696964498411516,0.0016459302126550933,-0.3539545238018036,-51.31711196899414,-8.070878028869629,17.94654083251953,1.8922830820083618,-0.8814194202423096,0.08610688149929047,,,,,,,,,
1739304157.7047858,-0.09345811359770471,1.0798843271367324,-0.42048281781358104,-1.4152443289463827,1.5515346492900421,1.127786294590118,1.3524259990264775,3.412277364561183e-05,0.0006417119635322178,-0.00010968886249922833,0.00040239556705766856,-0.0001975711891447899,-0.00047269921593298886,0.0023325893556692123,-0.3063471019268036,-51.39249038696289,-8.043107032775879,17.92273712158203,1.9115091562271118,-0.8814194202423096,0.05955658480525017,,,,,,,,,
1739304157.7147934,-0.09345640268835947,1.0798880390204637,-0.42048567961950506,-1.4152468472223392,1.5515349625143708,1.1277839133727263,1.3524223446468941,0.00041159222988719284,0.0009260403834586722,-0.0004941834757809392,6.512351083463866e-05,-0.0005737369006084464,-0.0002566621703117355,0.001397261354027006,-0.3301508128643036,-51.44406509399414,-7.991532325744629,17.92273712158203,1.9051004648208618,-0.8612778186798096,0.05955658480525017,,,,,,,,,
1739304157.7257648,-0.09345810690924511,1.0798855119790611,-0.4204807733270275,-1.4152461876472546,1.5515362014065204,1.1277839264546785,1.352419980863664,0.00011506196819021442,7.950251304724359e-05,0.0005740388749096951,0.00014329852340753583,0.0007522815539792814,-0.0004146639672681041,0.0004005365780671066,-0.3063471019268036,-51.36868667602539,-8.070878028869629,17.94654083251953,1.8986917734146118,-0.8612778186798096,0.07969819009304047,,,,,,,,,
1739304157.7367039,-0.09345469016760871,1.07989140692498,-0.4204843954188782,-1.4152454767775535,1.5515353200883715,1.1277823978373027,1.352423106605883,0.0018106896912756863,0.0011737682964064948,-0.0004295720861553868,0.002277217236725435,9.4541798808701e-05,0.0003398159622814091,0.0007789562382284163,-0.3539545238018036,-51.42026138305664,-8.019303321838379,17.89893341064453,1.9051004648208618,-0.8484604358673096,0.05314789339900017,,,,,,,,,
1739304157.7477732,-0.09345663945128128,1.0798849161772843,-0.42048178181850415,-1.415246444168899,1.5515353245573404,1.1277847618273544,1.3524183441705904,0.0003732305536997642,0.0007393676039405687,0.0005891417064457096,0.0006444321295677841,-0.00044115809775547926,0.00042080140106037344,-0.00025685710131912083,-0.3301508128643036,-51.31711196899414,-8.043107032775879,17.94654083251953,1.9051004648208618,-0.8686020374298096,0.09343110024929047,,,,,,,,,
1739304157.7587814,-0.0934564026897233,1.0798827587505826,-0.4204906149567843,-1.4152476013310387,1.5515346874127531,1.1277862553441602,1.3524223494302472,6.492561355798737e-06,-0.001206993811890836,-0.0020840304995475845,-0.0007742097662014147,0.00019519283480187266,0.0013946670364976357,0.0010930156359252325,-0.3301508128643036,-51.31711196899414,-7.967728614807129,17.92273712158203,1.9115091562271118,-0.8814194202423096,0.05955658480525017,,,,,,,,,
1739304157.7697773,-0.09345640258012756,1.0798819629199432,-0.42048678005268314,-1.4152462316955716,1.5515339278771987,1.1277870503119052,1.3524239035117467,-0.0005317794511109327,-0.00030437959210214,-0.0015822074992386096,0.0003312289713956405,9.47205832812065e-05,0.0006196256480614276,0.002366557448296114,-0.3301508128643036,-51.28934097290039,-8.019303321838379,17.89893341064453,1.9179178476333618,-0.8878281116485596,0.04673920199275017,,,,,,,,,
1739304157.7798228,-0.09345097970606948,1.0798818416883416,-0.4204866905642735,-1.4152440621157334,1.5515381010368263,1.1277870520886555,1.3524160687684361,0.0012396874068393206,0.0003483683924447906,-0.0015759957615019493,2.76581618764306e-05,-0.000697715980911737,0.0003166613542476748,-0.0018558640445056522,-0.4055292308330536,-51.31711196899414,-7.991532325744629,17.87512969970703,1.9051004648208618,-0.8878281116485596,0.11265717446804047,,,,,,,,,
1739304157.7917662,-0.09345403213644282,1.079885525186604,-0.42048582934605466,-1.4152458461428623,1.5515361984982945,1.1277863076720667,1.352423106605795,0.000626642413361203,0.00046526553240888735,0.0012778747315350587,0.0001952555967266156,0.0007567105392571805,0.00014242824447630639,0.0008070850350820735,-0.3301508128643036,-51.36868667602539,-8.019303321838379,17.89893341064453,1.8986917734146118,-0.8814194202423096,0.05314789339900017,,,,,,,,,
1739304157.8017893,-0.09345637781583109,1.0798873045704944,-0.4204840110275947,-1.4152458461428699,1.551535118223577,1.127786294590189,1.352421469186991,0.00019060812138861258,5.000756499709612e-05,0.000652039878825131,0.000608661120658037,5.29036198806414e-05,-1.5975553353294225e-05,0.001106690854974942,-0.3063471019268036,-51.39249038696289,-8.043107032775879,17.89893341064453,1.8986917734146118,-0.8814194202423096,0.06596527993679047,,,,,,,,,
1739304157.8127084,-0.0934579981711032,1.0798873076960047,-0.42048670322714027,-1.4152477082927486,1.5515318582111375,1.127782998567716,1.3524196082700777,0.0001881756495915231,0.000320405491659966,-0.0001549808200411251,0.0003600807245602987,-0.0003022352894709148,-0.00031847996090178976,-0.0018530347404491568,-0.3063471019268036,-51.39249038696289,-8.019303321838379,17.92273712158203,1.8986917734146118,-0.8548691272735596,0.04673920199275017,,,,,,,,,
1739304157.8228037,-0.09345777289151062,1.0798920879509797,-0.42048178175795325,-1.415249411498254,1.5515322867539105,1.127783520426982,1.352421591213136,-0.0010534363322216413,-0.00012662845471167534,0.002994863020866677,-0.0010731355698788679,-0.0013680931771192944,0.000894846848768953,0.00022035039728909302,-0.3063471019268036,-51.42026138305664,-8.043107032775879,17.94654083251953,1.9316507577896118,-0.8612778186798096,0.06596527993679047,,,,,,,,,
1739304157.8337963,-0.09345906193398602,1.0798924087279855,-0.420482845703577,-1.4152458461428699,1.5515385839263303,1.127783913370508,1.3524167829993115,-0.0011402060751789886,0.0007328079943394624,1.8027807236066615e-06,0.00042761115901441464,0.0002720832575971954,0.0013418183543833563,-0.0016834217156227634,-0.3063471019268036,-51.42026138305664,-8.043107032775879,17.89893341064453,1.9051004648208618,-0.8612778186798096,0.07969819009304047,,,,,,,,,
1739304157.8447142,-0.09345608567467475,1.0798850291237938,-0.42048042026547894,-1.415249411496908,1.5515354450912309,1.1277823536549982,1.3524199676560877,-0.0003853382643931513,-0.000991719185661205,0.00039247117370507986,-0.0005182163226577204,-0.0007569845458275725,0.001293967225703116,0.0019840243964697017,-0.3301508128643036,-51.31711196899414,-8.070878028869629,17.94654083251953,1.9051004648208618,-0.8750107288360596,0.07969819009304047,,,,,,,,,
1739304157.8547642,-0.09345255626497828,1.0798870422026732,-0.4204829174709606,-1.415246879290046,1.551532573829358,1.1277810857448745,1.352413178824259,0.000441674680141363,2.7699548085639543e-05,-0.00018267491975952022,2.645802091791777e-05,-2.4327902980740242e-05,-0.0010984229805257849,-0.003829269965538608,-0.3539545238018036,-51.34091567993164,-8.070878028869629,17.89893341064453,1.8922830820083618,-0.8686020374298096,0.10624848306179047,,,,,,,,,
1739304157.865812,-0.0934536290709959,1.0798889636157394,-0.42048203195162337,-1.4152476317691602,1.5515343590852102,1.1277827617961451,1.352417529010384,0.0010114478384062368,0.0016445051608855216,0.0001824973907795655,-0.0007351692012293917,0.00045922525320593637,-0.0010175110844887483,-0.0008031416858934271,-0.3539545238018036,-51.36868667602539,-8.043107032775879,17.92273712158203,1.9051004648208618,-0.8814194202423096,0.07328949868679047,,,,,,,,,
1739304157.8767574,-0.09345565587427275,1.0798867006195672,-0.4204888598622932,-1.4152458461428863,1.5515361492569988,1.1277844232752652,1.3524175864924681,-0.0019139106599916958,0.0007352395123122933,-0.0012688730653607418,0.0005690327598749103,0.0013057040141417854,-0.0009648572304329132,-3.522277437281469e-05,-0.3301508128643036,-51.34091567993164,-7.991532325744629,17.89893341064453,1.8986917734146118,-0.8750107288360596,0.09983979165554047,,,,,,,,,
1739304157.8877766,-0.09345182161912509,1.0798830369608046,-0.4204836826099421,-1.4152439810495518,1.5515311005568795,1.1277846608800797,1.3524234931260577,4.148746939635313e-05,-0.0001447212187076968,-0.0006438514433225704,0.0009499748067108738,-0.0012362588152989862,-0.0005486915405339283,0.0005123511624218234,-0.3539545238018036,-51.28934097290039,-8.019303321838379,17.87512969970703,1.9051004648208618,-0.8686020374298096,0.04673920199275017,,,,,,,,,
1739304157.8986998,-0.09345157293574011,1.0798830254780218,-0.42048489044971393,-1.4152448699017206,1.5515316080932644,1.127780733919318,1.3524144017259925,-0.0005153406133239393,-0.0010701770942155456,0.0007504593566827395,0.0008808011927353364,-0.0017504957098463758,-8.561084441456086e-05,-0.0016989248486579357,-0.3539545238018036,-51.28934097290039,-8.043107032775879,17.89893341064453,1.8986917734146118,-0.8612778186798096,0.09983979165554047,,,,,,,,,
1739304157.9087427,-0.09345328541987374,1.0798933628403773,-0.4204849738628,-1.4152494114803753,1.5515329298538434,1.1277847659726565,1.3524184423120502,-0.0007768241476081646,0.002174765979930991,-0.00046337178184540446,8.402146142206482e-06,-0.001025027137622908,0.001027190311399594,-0.0008436817212530659,-0.3301508128643036,-51.42026138305664,-8.043107032775879,17.94654083251953,1.9252420663833618,-0.8686020374298096,0.09343110024929047,,,,,,,,,
1739304157.9197733,-0.09345666780631409,1.0798884416493022,-0.4204832104330965,-1.4152472777378484,1.5515354271940875,1.127783155712573,1.3524205184041784,-0.001115351690198531,-0.0010197732078686627,-0.000223688599793774,-4.291774180790672e-05,-0.0007332929348050094,0.001273274485925925,0.0015733388679884809,-0.2825433909893036,-51.36868667602539,-8.019303321838379,17.87512969970703,1.9051004648208618,-0.8548691272735596,0.06596527993679047,,,,,,,,,
1739304157.9308085,-0.09345663143138908,1.0798887595306055,-0.420484997351673,-1.4152454301252044,1.551535720174792,1.1277842514697138,1.3524194173156092,-0.0002586174880269426,-0.00044477605854662157,-0.00045497799664007897,0.0010971165252079515,0.0007293617099891099,0.001404773856889643,0.0003874129807495011,-0.2825433909893036,-51.36868667602539,-8.043107032775879,17.92273712158203,1.8986917734146118,-0.8686020374298096,0.05314789339900017,,,,,,,,,
1739304157.9417963,-0.09345890121050503,1.079888734025798,-0.420484919562441,-1.415246564337909,1.5515346875596756,1.1277836614708812,1.3524177444156609,-0.0013600795519649795,-0.0012341560166509566,-0.0010632909848856554,0.0006251935472362165,0.0013754865404746427,0.0002545193765371201,-0.000524903372773364,-0.2547723948955536,-51.36868667602539,-8.043107032775879,17.89893341064453,1.9115091562271118,-0.8686020374298096,0.08610688149929047,,,,,,,,,
1739304157.9527202,-0.09345328531181006,1.0798851000935863,-0.42048675643220795,-1.4152459256197838,1.5515333874337591,1.1277791626796954,1.3524104390935923,0.0003530443517987075,-0.001437123781542315,-0.0013155857584349424,0.0007946825533709095,0.00015412039027447956,-0.0007162713325211843,-0.0033609912097434915,-0.3301508128643036,-51.31711196899414,-8.019303321838379,17.89893341064453,1.9179178476333618,-0.8612778186798096,0.11998139321804047,,,,,,,,,
1739304157.9636998,-0.09345321938086153,1.079889664976663,-0.4204867127671538,-1.4152479919105303,1.5515306708112353,1.1277800167126772,1.3524183048978284,-0.00036108442778311895,0.0005597176473240828,-0.000601046795135046,-0.0011200689615509247,-0.0013979773653866206,-0.000374573167706906,0.0003664626269595785,-0.3301508128643036,-51.36868667602539,-7.991532325744629,17.89893341064453,1.9179178476333618,-0.8686020374298096,0.09343110024929047,,,,,,,,,
1739304157.9737594,-0.09344936300274878,1.0798867361006628,-0.4204887744829003,-1.4152458461792086,1.5515332194864875,1.1277801344502458,1.3524214733854711,0.0008122703271320618,-0.0009230517562672589,-0.0017419717790047948,0.00042870185695444943,-0.0012705685739591082,-0.0011199820864219619,0.0014851746309078597,-0.3539545238018036,-51.34091567993164,-7.991532325744629,17.89893341064453,1.9115091562271118,-0.8686020374298096,0.06596527993679047,,,,,,,,,
1739304157.9847405,-0.09345320637728188,1.0798816192202636,-0.42048428495402346,-1.4152497683731737,1.5515346186422079,1.1277815262192306,1.3524178826318463,-0.0002953088827839749,-0.002544156847473533,0.0002669049022543849,-0.0021735098316254774,0.0003097287311810824,-0.0011474012110801915,-0.001055458069088778,-0.3301508128643036,-51.26553726196289,-8.043107032775879,17.92273712158203,1.8986917734146118,-0.8814194202423096,0.06596527993679047,,,,,,,,,
1739304157.9947996,-0.09345491761093114,1.0798867361950597,-0.4204885436107397,-1.4152458474872984,1.5515343052815966,1.127785048294896,1.3524152052303164,-0.0006580042725240303,0.0005908244647529664,-0.0008985039706584138,-0.000504725774829716,0.0008361600758143054,0.00012694988725937004,0.0010648621062966561,-0.3063471019268036,-51.34091567993164,-7.991532325744629,17.89893341064453,1.9051004648208618,-0.8750107288360596,0.11998139321804047,,,,,,,,,
1739304158.0057154,-0.09345320638930335,1.0798935370123375,-0.4204884997304943,-1.4152444092654621,1.5515334270712655,1.127780525533158,1.3524133171642452,-7.297504731059629e-05,0.0026344974276482566,-0.001148860494441883,0.0005507848249276668,-0.0007489580128527684,0.00042596637293756956,-0.0013772281000135698,-0.3301508128643036,-51.39249038696289,-7.967728614807129,17.87512969970703,1.9115091562271118,-0.8686020374298096,0.13279877603054047,,,,,,,,,
1739304158.0177627,-0.09345358088964974,1.0798952798725674,-0.42048209050377805,-1.41524874575953,1.5515307384518582,1.1277827309125064,1.3524159587101012,-0.0002633679206340576,0.001429282510914584,0.0015849731533358691,-0.00015477893629298623,-0.000770721499286894,0.000545805318411539,-0.0016119710564688576,-0.3539545238018036,-51.42026138305664,-8.070878028869629,17.89893341064453,1.9051004648208618,-0.8612778186798096,0.07328949868679047,,,,,,,,,
1739304158.028813,-0.09345663144672896,1.0798925421468706,-0.42048065956678937,-1.4152441733718184,1.5515352991824953,1.1277776360043978,1.3524103349367431,-0.001406814638947009,0.0015277599830823797,0.0015856738408258691,0.00091943901210273,-0.0012958101300301643,-0.0004493042622010827,-0.001447903457094378,-0.2825433909893036,-51.39249038696289,-8.070878028869629,17.87512969970703,1.9051004648208618,-0.8484604358673096,0.13279877603054047,,,,,,,,,
1739304158.040702,-0.09345149386857958,1.0798928202300886,-0.42048463583544676,-1.4152480021582312,1.5515310828432332,1.1277783873411016,1.3524191555347742,0.0010473077300482067,0.001087054152785069,-0.0013052231089183638,0.000216784109973427,-0.0007457413027308908,-0.0011806641680020503,7.932212921647465e-05,-0.3539545238018036,-51.39249038696289,-8.019303321838379,17.89893341064453,1.9051004648208618,-0.8548691272735596,0.07328949868679047,,,,,,,,,
1739304158.050727,-0.09345491793570898,1.0798889082460996,-0.4204842752399533,-1.4152485839235875,1.5515352797815698,1.1277783873949012,1.3524178275053687,-0.0004127706346037943,0.0002218864630626277,1.2547196323623659e-05,-0.001207934390143038,0.0016816178018409813,-0.0002126342600456177,0.001067867127372528,-0.3063471019268036,-51.34091567993164,-8.043107032775879,17.92273712158203,1.9051004648208618,-0.8548691272735596,0.09343110024929047,,,,,,,,,
1739304158.0607693,-0.09345320346629549,1.0798926830355648,-0.42048209933392877,-1.4152458505196954,1.5515294178700259,1.1277791464546953,1.352417595181654,0.0005554245097583575,0.0006504812733219847,0.0006194011686492858,0.0004056963258647671,-0.001567403850516439,-0.0001056467173066961,0.00024807177885756643,-0.3301508128643036,-51.42026138305664,-8.070878028869629,17.89893341064453,1.9179178476333618,-0.8612778186798096,0.05955658480525017,,,,,,,,,
1739304158.0718071,-0.0934494170067451,1.0798888026955318,-0.42048472352233424,-1.4152468038871515,1.5515353185730203,1.1277800632261936,1.352415594274923,0.0017341735642377935,6.505489223945996e-05,-0.0008076003572659237,-2.345353330928643e-05,0.0009964034936112978,-1.2025328855424236e-05,-7.1301372520055995e-06,-0.3817255198955536,-51.34091567993164,-8.043107032775879,17.89893341064453,1.9051004648208618,-0.8686020374298096,0.10624848306179047,,,,,,,,,
1739304158.0828037,-0.09345320552279147,1.079886991334603,-0.4204828809912908,-1.4152461761405208,1.551531316062492,1.127778802986468,1.3524207763753646,-0.0003156741451687484,0.0010027546560093246,0.0011372579390338694,9.628899341031496e-05,-0.00018580702707474562,-0.0012675381534764548,0.0010541675259180794,-0.3301508128643036,-51.34091567993164,-8.070878028869629,17.89893341064453,1.8986917734146118,-0.8942368030548096,0.03300629183650017,,,,,,,,,
1739304158.092814,-0.09345039154154999,1.0798895166581628,-0.4204857557420977,-1.4152443017769647,1.5515335482590127,1.1277865228438655,1.3524152390876563,0.0015238285829255304,0.0005708944798713707,-0.0015094316904462617,0.0008766441472123099,0.00027740754571998935,0.0006734066822349546,-0.00261668854380974,-0.3301508128643036,-51.34091567993164,-8.070878028869629,17.87512969970703,1.9179178476333618,-0.8878281116485596,0.07969819009304047,,,,,,,,,
1739304158.1037295,-0.0934532065899392,1.0798876042698167,-0.42048285449539097,-1.415246209234408,1.5515333166945555,1.1277833075742636,1.3524169600320939,-0.0001870825541264829,0.0006763822964268816,0.0013110310456418118,0.0005275833317070293,0.0019578226002679865,0.0010020794741275123,0.0012262875796502024,-0.3301508128643036,-51.34091567993164,-8.043107032775879,17.87512969970703,1.9115091562271118,-0.8686020374298096,0.06596527993679047,,,,,,,,,
1739304158.1148658,-0.09345420569836074,1.0798881187589606,-0.4204828545399504,-1.4152497308176712,1.5515306290896669,1.1277808078767566,1.3524196123899332,-0.0009450291747261483,-0.00028510519261743493,-0.00021270866809826918,-0.001051606326238028,-0.0005207917945394066,8.899934237644355e-05,0.0035017666545161955,-0.3063471019268036,-51.31711196899414,-8.043107032775879,17.94654083251953,1.9179178476333618,-0.8750107288360596,0.04673920199275017,,,,,,,,,
1739304158.1257634,-0.09345149386455338,1.0798935455330783,-0.4204828545399506,-1.4152468002550538,1.5515335522409945,1.1277787536359498,1.3524167591307978,0.0007744907793237751,0.0016494916148045834,0.00046869084041030554,0.0008126111742167823,-0.0006999749732581368,-0.00021691450341867704,0.0010696641315590155,-0.3539545238018036,-51.39249038696289,-8.043107032775879,17.89893341064453,1.9179178476333618,-0.8548691272735596,0.09343110024929047,,,,,,,,,
1739304158.1366978,-0.09344912916263291,1.0798918334672758,-0.420482837810298,-1.4152501279505516,1.5515316773867487,1.1277783873431337,1.352418339705747,0.0013825089939055743,-2.6970118266248324e-05,-0.0005320392233890967,-0.000992270369295456,0.00046370433084089993,-0.0006170447404650883,0.0009397485273898263,-0.3539545238018036,-51.36868667602539,-8.070878028869629,17.92273712158203,1.8986917734146118,-0.8548691272735596,0.05314789339900017,,,,,,,,,
1739304158.1467981,-0.09345483984077133,1.079889394010538,-0.4204881422665505,-1.4152458495646971,1.5515321266204767,1.1277800108983767,1.3524187838112505,0.0001542625945788982,-0.0014741499434684625,-0.0016562844217225445,0.000832394582927095,0.0007434195401711454,-0.00017571976266567575,0.0021588120715254214,-0.3063471019268036,-51.34091567993164,-7.967728614807129,17.89893341064453,1.8922830820083618,-0.8686020374298096,0.07969819009304047,,,,,,,,,
1739304158.1577854,-0.09345491890959552,1.079891845674608,-0.42048384248635506,-1.4152441433747949,1.5515321133711901,1.1277800108983767,1.352415670380668,-7.952767851971845e-05,0.00047131788289346,-0.0006758671473364563,0.0010976029570971902,-0.000572632295995202,-0.0002732999358506814,0.0010941085299490268,-0.3063471019268036,-51.36868667602539,-8.019303321838379,17.87512969970703,1.8922830820083618,-0.8686020374298096,0.07969819009304047,,,,,,,,,
1739304158.1688018,-0.09345320638931068,1.0798890785214028,-0.4204821264189472,-1.4152525122479849,1.5515328306391034,1.127780768558455,1.352412936045982,-0.0005217867565951933,-0.00030131981504532076,0.00020764686347610374,-0.0015863925411192519,-0.0008321821884028222,1.1100094279401125e-05,0.00016136981447241688,-0.3301508128643036,-51.36868667602539,-8.043107032775879,17.94654083251953,1.8858743906021118,-0.8750107288360596,0.09983979165554047,,,,,,,,,
1739304158.1788092,-0.09345320249197908,1.0798889322424496,-0.4204810981905947,-1.4152486662362032,1.5515305578237275,1.1277815262185333,1.3524135757996738,-0.0009740619892819142,-0.0008924583634144355,0.001565339321085485,-0.00028777308735360955,-0.0008008564219564034,-0.00024141770691622538,-0.0015238457712619916,-0.3301508128643036,-51.34091567993164,-8.094681739807129,17.92273712158203,1.9051004648208618,-0.8814194202423096,0.09343110024929047,,,,,,,,,
1739304158.1897018,-0.09345117814861172,1.0798918334621794,-0.4204850003553904,-1.415246557981962,1.5515351165217377,1.127783947472843,1.3524144416962407,0.0005010331683822135,0.0008785416305832942,-0.0005411479876312657,0.0003209992627120278,0.0010008675558669036,0.0010934645976918777,4.820730721895306e-05,-0.3539545238018036,-51.36868667602539,-8.043107032775879,17.87512969970703,1.8986917734146118,-0.8750107288360596,0.08610688149929047,,,,,,,,,
1739304158.2007105,-0.09344877390917941,1.0798881240231795,-0.4204867702413914,-1.4152463161921038,1.5515314762477326,1.1277815262364783,1.3524115009203208,0.001527284294137896,0.0005417882004096144,-0.0011062832211743826,-0.0005266833236412659,-0.00047545341602916346,-7.405546090989907e-05,-0.0007138413868189834,-0.3817255198955536,-51.31711196899414,-8.019303321838379,17.87512969970703,1.8986917734146118,-0.8814194202423096,0.11998139321804047,,,,,,,,,
1739304158.2107558,-0.09345418227768769,1.079891144702546,-0.4204846693815736,-1.4152462122909524,1.551532072986517,1.1277800108983775,1.3524183382882833,-0.0007316246818673045,0.00044966629222560844,-3.4592794273172444e-05,-1.5893087799117157e-05,0.00028039882417991454,-0.00013002940083069577,0.001675044795386238,-0.3063471019268036,-51.36868667602539,-8.043107032775879,17.87512969970703,1.8922830820083618,-0.8686020374298096,0.05314789339900017,,,,,,,,,
1739304158.2217588,-0.09345278659914891,1.079892575212673,-0.42048220137270026,-1.415246084892541,1.5515320739657683,1.127780768558455,1.3524136933212374,0.00017506082130342435,0.0011817231359824527,0.0006981735792825046,0.00034605401684053254,-0.00021172491040292047,0.0006819613009279009,-0.0006232763123081721,-0.3063471019268036,-51.36868667602539,-8.070878028869629,17.89893341064453,1.8922830820083618,-0.8750107288360596,0.09343110024929047,,,,,,,,,
1739304158.2327504,-0.09345317116895623,1.0798860567239035,-0.42048452213206255,-1.415248823272188,1.5515308970925474,1.1277791450011443,1.3524104383770812,0.0006859468166341811,-0.002067639435667093,-0.0004885041650347974,-0.00035444017355490566,-0.0017888167121690756,2.9033003635344987e-05,-0.0011846349905561473,-0.3301508128643036,-51.31711196899414,-8.019303321838379,17.89893341064453,1.8922830820083618,-0.8612778186798096,0.11998139321804047,,,,,,,,,
1739304158.2438242,-0.09345491468786638,1.0798898354058943,-0.42048285409963154,-1.415250404434796,1.5515328713598393,1.1277793426256637,1.352413693536581,-0.0006202291302141278,-0.0018915738355629126,0.00039233546566281614,-0.0010188704492292548,0.0008721907085640995,-0.0007470820894165645,-0.00021281530726998126,-0.3063471019268036,-51.34091567993164,-8.043107032775879,17.94654083251953,1.8858743906021118,-0.8750107288360596,0.09343110024929047,,,,,,,,,
1739304158.2547073,-0.09345074709651796,1.0798881230056934,-0.4204870984070086,-1.4152462007783961,1.5515297999983357,1.127780010890327,1.3524207194522804,0.0023669273361183654,-0.0014212474850672876,-0.0006071072702961941,-9.493222633704193e-05,-0.0007128807128812614,0.0006803766287331836,0.002919700911667841,-0.3539545238018036,-51.31711196899414,-8.043107032775879,17.89893341064453,1.9115091562271118,-0.8686020374298096,0.03300629183650017,,,,,,,,,
1739304158.2647228,-0.09345244604049686,1.079888123118748,-0.42048462847063456,-1.4152504446500898,1.5515328308039624,1.127779145001144,1.3524168272742803,-0.0003304913595017737,-0.0013826251680531367,-0.00047443315707136163,-0.0017071750813529394,-0.0002272047360278943,-0.0004933573132029465,0.0017625868575971565,-0.3063471019268036,-51.31711196899414,-8.019303321838379,17.94654083251953,1.8858743906021118,-0.8612778186798096,0.06596527993679047,,,,,,,,,
1739304158.275723,-0.0934545769052348,1.0798924179414777,-0.42048499990738686,-1.4152460850033461,1.5515309060284193,1.1277800065377257,1.3524185363473082,-0.0012835525845608453,0.001960353597963341,0.00017650144291220493,0.0007987440848152932,-0.0009384484396164506,-0.0001170319648992021,0.0008582881548112537,-0.3063471019268036,-51.34091567993164,-8.043107032775879,17.89893341064453,1.9051004648208618,-0.8686020374298096,0.08610688149929047,,,,,,,,,
1739304158.2857955,-0.09345077144907239,1.0798891468053746,-0.4204847531067101,-1.415248001725591,1.5515316922660798,1.1277807685583812,1.3524135758683515,0.0003231116957193842,-0.0005355620065974672,-0.0010185429396569617,-0.00012209736913791936,-5.944613300005216e-05,3.068502383925313e-05,0.00024555388335418204,-0.3539545238018036,-51.34091567993164,-8.043107032775879,17.89893341064453,1.8986917734146118,-0.8750107288360596,0.09343110024929047,,,,,,,,,
1739304158.2967067,-0.0934500232314945,1.0798905772614524,-0.4204858254295443,-1.4152458461793749,1.5515309621119364,1.1277807685584549,1.3524135757990092,0.0008736463358219532,-0.00042162525624475823,-0.00029409639979293843,0.0013125168063825518,-0.0006861448628675511,0.00010018074265018257,-0.0009090640748790586,-0.3301508128643036,-51.34091567993164,-8.019303321838379,17.89893341064453,1.8986917734146118,-0.8750107288360596,0.09343110024929047,,,,,,,,,
1739304158.3068051,-0.09344732982337671,1.079889759001192,-0.4204859853551916,-1.415248072364088,1.5515331931760825,1.1277807685584549,1.3524128181389299,0.0019868636621218783,-0.00024033333388382404,-0.00044550978458852026,0.00044437039991711405,0.0008609363306975816,0.00022091595020938627,-0.0009718954968820481,-0.3817255198955536,-51.34091567993164,-8.019303321838379,17.89893341064453,1.8858743906021118,-0.8750107288360596,0.09983979165554047,,,,,,,,,
1739304158.3177276,-0.09345655246149409,1.0798898355259934,-0.4204821125101603,-1.415252378532576,1.5515321936613968,1.1277807685584549,1.3524183382342267,-0.0016823000998438754,0.00036016421821268696,0.0006258259577642947,-0.0009322741817462766,-7.209203899558381e-05,0.0007915192401538465,0.0011168644303855254,-0.2825433909893036,-51.34091567993164,-8.043107032775879,17.94654083251953,1.8922830820083618,-0.8750107288360596,0.05314789339900017,,,,,,,,,
1739304158.3277352,-0.09344856112521531,1.0798928025131875,-0.4204867034018517,-1.4152458739922653,1.5515320729803848,1.1277800108983764,1.3524194098611582,0.0014505342707447184,0.0004425770406869297,-0.001635381130534189,-0.00046259392297441377,0.000407662889238344,0.0003586811482336677,0.001233512174763632,-0.3539545238018036,-51.34091567993164,-8.019303321838379,17.89893341064453,1.8922830820083618,-0.8686020374298096,0.04673920199275017,,,,,,,,,
1739304158.338692,-0.09345304470919973,1.0798945350003457,-0.4204818874181333,-1.415246879617252,1.551532072978341,1.1277800108445413,1.3524174686525516,0.0006048075566171821,0.0011639067528906018,0.0010533718752449447,-7.50973127905943e-05,0.0007551064546215164,0.000652279993337609,0.0018234048622861468,-0.3301508128643036,-51.39249038696289,-8.070878028869629,17.89893341064453,1.8922830820083618,-0.8686020374298096,0.05955658480525017,,,,,,,,,
1739304158.3487625,-0.09345862904411043,1.0798898358823361,-0.4204840462277366,-1.4152490646476652,1.5515320734749707,1.1277791450011432,1.3524120997228126,-0.0015905062797380396,-1.2362660097719298e-05,0.0003168250746906735,-0.0005114976335984821,-0.00022319910257807455,-0.00013767983451808797,-0.0005702249130503294,-0.2547723948955536,-51.34091567993164,-8.043107032775879,17.89893341064453,1.8922830820083618,-0.8612778186798096,0.10624848306179047,,,,,,,,,
1739304158.3587897,-0.09345184099239642,1.0798918731492182,-0.42048382940639767,-1.4152461233167248,1.5515321132053692,1.1277783873410658,1.3524151814311929,-0.000915668361485844,-0.0008012271184436265,-0.000659430215309999,0.00024150611735737978,-0.00024270354197193135,-0.00044141557429462695,0.0010864616857261472,-0.3063471019268036,-51.36868667602539,-8.019303321838379,17.89893341064453,1.8922830820083618,-0.8548691272735596,0.07969819009304047,,,,,,,,,
1739304158.3698332,-0.09345459895016643,1.0798898629985998,-0.42048779136870623,-1.4152539549822745,1.5515301305088858,1.127779145001144,1.3524120585407509,-0.0011782477855696999,-0.00039008940578527543,-0.0013585443764565228,-0.0018340128377626738,0.000419476410882558,-0.00013916771433725953,-0.0003668544156259616,-0.3063471019268036,-51.34091567993164,-7.991532325744629,17.97431182861328,1.9179178476333618,-0.8612778186798096,0.10624848306179047,,,,,,,,,
1739304158.3807135,-0.09345024827673588,1.0798958815688504,-0.42048571997261275,-1.4152465712603177,1.5515309191165132,1.1277783873410658,1.3524144416962296,0.000919995033808011,0.0021900422577984095,-5.160382307580922e-06,0.0012881896823893112,0.0009243236285160332,-0.0007775037725419049,0.00023456977837860106,-0.3301508128643036,-51.39249038696289,-8.019303321838379,17.89893341064453,1.9051004648208618,-0.8548691272735596,0.08610688149929047,,,,,,,,,
1739304158.390737,-0.09345082604394185,1.0798884928445807,-0.42048190089608317,-1.415244302332775,1.551531026755334,1.1277807685584549,1.352408921601384,0.00025747164347269044,0.0004215760318316984,-4.430671299894269e-05,0.00137956880460328,-0.00020724372203107422,2.866962495233434e-05,0.00020448412211096934,-0.3301508128643036,-51.31711196899414,-8.043107032775879,17.87512969970703,1.8922830820083618,-0.8750107288360596,0.13279877603054047,,,,,,,,,
1739304158.4017692,-0.0934501279891215,1.0798882055748196,-0.4204848814740466,-1.4152459265982242,1.5515320739778073,1.1277807685584549,1.3524121782164216,0.0002768418176442675,-5.786201036011505e-05,-0.0015481979369762928,-0.0007548026200962579,0.0004841714484600696,0.00019831640730668478,-0.0011881440329617123,-0.3301508128643036,-51.31711196899414,-8.043107032775879,17.89893341064453,1.8922830820083618,-0.8750107288360596,0.10624848306179047,,,,,,,,,
1739304158.412758,-0.09345308844156582,1.0798918334677445,-0.4204867035591028,-1.415249729388801,1.5515324733103102,1.1277815262185331,1.352416822914294,0.00010629365032822753,0.0007103985291991655,-0.0012306353299551221,-0.0010083916971349873,0.0012429756610709678,0.0011206469736032712,0.0010933234292559522,-0.3301508128643036,-51.36868667602539,-8.019303321838379,17.94654083251953,1.8922830820083618,-0.8814194202423096,0.06596527993679047,,,,,,,,,
1739304158.423685,-0.09345354961514682,1.0798918375749038,-0.42048395445308634,-1.4152526480965213,1.5515297612511387,1.1277791448396386,1.3524135756375026,-0.00039427778938568383,-2.0932245995846288e-05,-0.0003161231258331107,-0.0010521026689080427,0.00019859740297569725,3.5381673110576506e-05,-0.000907248919187188,-0.2825433909893036,-51.36868667602539,-8.043107032775879,17.97431182861328,1.9115091562271118,-0.8612778186798096,0.09343110024929047,,,,,,,,,
1739304158.4337606,-0.09344838049799785,1.0798918338065098,-0.420484893938024,-1.4152504009481512,1.5515305243712274,1.1277759656022366,1.352415146076378,0.002570482028487926,-0.00011009890540268435,0.00018606571917477872,-0.0010810737860693506,0.0007221858147727148,-0.0013857049517926113,0.00012510221448952248,-0.3539545238018036,-51.36868667602539,-8.043107032775879,17.94654083251953,1.9051004648208618,-0.8612778186798096,0.05314789339900017,,,,,,,,,
1739304158.4437673,-0.09345439106193479,1.0798936285173681,-0.4204818880483643,-1.4152458553169927,1.5515306601269383,1.127780010844533,1.35241682285957,-0.001019081194172181,-0.00010737509566852415,-0.0009127504412914562,0.001809377533649027,-0.00013818261460870175,0.0004471100785509393,0.0011850671694051077,-0.2825433909893036,-51.39249038696289,-8.043107032775879,17.89893341064453,1.8922830820083618,-0.8686020374298096,0.06596527993679047,,,,,,,,,
1739304158.4537778,-0.09345483951809935,1.0798882054233907,-0.4204797941445051,-1.4152525413541306,1.5515291447834185,1.1277791450011432,1.3524106340615425,-0.0017386762231442982,-0.001577679873760896,0.0010027735972877266,-0.001416691836222439,-0.00023282310586294501,4.774579369150546e-05,-0.001596371045935376,-0.3063471019268036,-51.31711196899414,-8.070878028869629,17.94654083251953,1.9051004648208618,-0.8612778186798096,0.10624848306179047,,,,,,,,,
1739304158.4648042,-0.09345115054208673,1.079890911498618,-0.4204839658462557,-1.4152494468358472,1.5515305532895578,1.1277799978164242,1.3524112627738003,-0.0005103186487198273,0.0006900097402404064,-2.5984547998879294e-05,-0.0014803805586319368,-0.0009156438605777143,0.0004778527364078561,-0.00020641982273933847,-0.3539545238018036,-51.34091567993164,-8.043107032775879,17.94654083251953,1.9051004648208618,-0.8686020374298096,0.08610688149929047,,,,,,,,,
1739304158.4748485,-0.09345243305622393,1.0798940587255716,-0.4204835733581383,-1.4152465878901588,1.551531328565684,1.1277815262183117,1.352417552256836,4.793526713289131e-05,0.000606474720863326,0.0013787996767978803,0.0017178705685410305,-0.0006723393916423517,0.0005356309415901017,0.0023644952917199254,-0.3063471019268036,-51.36868667602539,-8.019303321838379,17.89893341064453,1.8986917734146118,-0.8814194202423096,0.05955658480525017,,,,,,,,,
1739304158.4857638,-0.09345172403036699,1.0798924026791998,-0.42048210264884295,-1.4152465980406348,1.5515306023550788,1.1277800108983764,1.3524120475579253,-0.0013364562728666138,0.0012629630328377802,0.0004395796258552796,0.0009552160169748142,0.000575746534205876,0.00034581611616300704,-0.0004970314621875172,-0.3063471019268036,-51.34091567993164,-8.043107032775879,17.89893341064453,1.9051004648208618,-0.8686020374298096,0.10624848306179047,,,,,,,,,
1739304158.4966872,-0.09345480150293019,1.0798898358829792,-0.42048416621824036,-1.415250131871166,1.551530919701296,1.127779145001144,1.3524175293390248,-0.0010015114338441842,-5.1167836809666394e-05,-0.0013432254105255645,-0.0010478132683480418,0.0008663331711393148,-0.0007304809811152708,0.0004972775223708639,-0.3063471019268036,-51.34091567993164,-8.043107032775879,17.92273712158203,1.9051004648208618,-0.8612778186798096,0.06596527993679047,,,,,,,,,
1739304158.506718,-0.09345196050859374,1.0798918334672845,-0.42048396392382414,-1.4152508091938778,1.5515305576643155,1.1277800108983764,1.3524054407209085,1.41652303244475e-05,0.00023299574149217642,0.0002651812011546501,-0.0015646874577779463,0.0011589506563703662,-0.00019441997095730003,-0.0028607336138397068,-0.3063471019268036,-51.36868667602539,-8.043107032775879,17.92273712158203,1.9051004648208618,-0.8686020374298096,0.12639008462429047,,,,,,,,,
1739304158.5177255,-0.09345457556729704,1.0798920807161754,-0.42048356475752197,-1.4152469255242386,1.5515289246004578,1.1277787917884343,1.3524120604010896,-0.00029611860367143787,0.0006538041901831475,-0.00041914025522119837,0.0003417302430822642,0.00010536478629214705,-0.00014266071412628292,-0.001131779664609141,-0.3063471019268036,-51.36868667602539,-8.019303321838379,17.87512969970703,1.9179178476333618,-0.8612778186798096,0.10624848306179047,,,,,,,,,
1739304158.527762,-0.09345180287935624,1.0798900949893315,-0.42048646377849774,-1.4152458471724854,1.5515305184103338,1.1277775117759303,1.3524159177705393,-0.000669898330602516,-0.0002242576169552428,-0.0014094042492633972,0.0008763952926593226,-0.0006249551586422182,-0.001192916029330806,-0.00037718576363164554,-0.3063471019268036,-51.34091567993164,-8.019303321838379,17.89893341064453,1.9051004648208618,-0.8484604358673096,0.07328949868679047,,,,,,,,,
1739304158.5378003,-0.09345468101178499,1.0798898355308193,-0.4204835644309172,-1.415247959575265,1.5515298004940707,1.1277791057532909,1.352417227360774,0.0005413888443200411,-0.0007024563344512048,-0.0004368723343705853,-0.0007461414437989625,0.001162295740456053,-0.0012914955062683572,0.0008090906368363505,-0.3063471019268036,-51.34091567993164,-8.019303321838379,17.92273712158203,1.9115091562271118,-0.8612778186798096,0.05955658480525017,,,,,,,,,
1739304158.5497909,-0.09345095715851297,1.0798930592586127,-0.4204817817047969,-1.415250763620894,1.5515320729783437,1.1277791449470875,1.3524128050011484,-0.00015249217174380164,-1.9650422563614054e-05,0.0001588166711295295,-0.001389936804905417,0.0005756826755744309,-3.614474061994955e-05,4.943101472722555e-06,-0.3301508128643036,-51.34091567993164,-8.043107032775879,17.92273712158203,1.8922830820083618,-0.8612778186798096,0.09983979165554047,,,,,,,,,
1739304158.5617177,-0.09345072916172514,1.0798898326980684,-0.42048476051376743,-1.4152465624341037,1.551529901821401,1.1277800108983764,1.3524135757989835,1.3811632344191461e-05,-0.0011225632503988625,-0.0011399197073061595,-0.0008185535386598552,-0.0007243805266629774,0.0004944399103233229,-0.0007424968906215054,-0.3301508128643036,-51.34091567993164,-8.043107032775879,17.89893341064453,1.8986917734146118,-0.8686020374298096,0.09343110024929047,,,,,,,,,
1739304158.5717783,-0.09345175783535496,1.0798948004540245,-0.42048571114698946,-1.4152501278831904,1.5515295679550556,1.1277789468995965,1.3524125161608789,-0.00013973002266918323,0.0007659404819910368,-0.0009048701328738685,-0.0006726182705774823,-0.0008526158694758552,-0.00027152064567145145,0.0002889372726428631,-0.3063471019268036,-51.36868667602539,-8.019303321838379,17.94654083251953,1.9115091562271118,-0.8686020374298096,0.09343110024929047,,,,,,,,,
1739304158.582712,-0.09345369820177862,1.079896513368367,-0.4204797023994634,-1.4152523638795342,1.551529780939137,1.1277807685524488,1.3524129888029395,-0.0002387043631209522,0.0011026790972468068,0.0004340981054190441,0.00042756558498542943,-0.00021691955171867673,-0.0009283464011567908,0.0006310006295470334,-0.2825433909893036,-51.39249038696289,-8.070878028869629,17.94654083251953,1.9115091562271118,-0.8750107288360596,0.05955658480525017,,,,,,,,,
1739304158.5927253,-0.09345457546215,1.0798864001752522,-0.4204818092859207,-1.4152479068613724,1.5515294027656765,1.1277800108983764,1.352416822674362,-0.0011168599920069748,0.00036229037485815193,0.0006806061236181509,-0.00036363755262688304,0.00028278297998925265,0.0010485079908878394,0.0010562802516163848,-0.3063471019268036,-51.28934097290039,-8.043107032775879,17.92273712158203,1.9179178476333618,-0.8686020374298096,0.06596527993679047,,,,,,,,,
1739304158.602824,-0.09345163225753847,1.079891090336277,-0.4204846819740696,-1.4152494383196188,1.5515312978817635,1.1277807293125983,1.3524135757990041,0.0005771383531390017,0.0009649082602808741,-0.00039580478933102684,-8.136044873162688e-05,0.00012517048273471355,0.0006018462294152797,0.0005011935778860378,-0.3063471019268036,-51.31711196899414,-8.043107032775879,17.94654083251953,1.8986917734146118,-0.8750107288360596,0.09343110024929047,,,,,,,,,
1739304158.613762,-0.09344924462057146,1.0798968426567184,-0.4204836478319719,-1.4152489586665018,1.5515291237730817,1.127780010898155,1.3524145441655582,0.00039016541710390517,0.0012280144948354156,-0.0008332268468025745,-6.989642271808011e-05,-0.000312250780249085,0.0005908739603128687,0.00017263202152744783,-0.3539545238018036,-51.39249038696289,-8.019303321838379,17.89893341064453,1.9179178476333618,-0.8686020374298096,0.07328949868679047,,,,,,,,,
1739304158.6247404,-0.09345312018904356,1.0798940709357818,-0.4204856471519203,-1.4152501576218197,1.5515281362428288,1.1277791319191919,1.3524124967722333,-0.00026540013093832653,0.00033928578335031397,-0.0009835373891859366,-0.0003863477881269579,-0.0006279769231628137,-5.1887040516997485e-05,-0.001028445424491157,-0.2825433909893036,-51.36868667602539,-7.991532325744629,17.94654083251953,1.8986917734146118,-0.8612778186798096,0.09343110024929047,,,,,,,,,
1739304158.6357517,-0.09345169635996559,1.0798923904695845,-0.42048393041549825,-1.4152487379210423,1.5515266124175948,1.127780010898155,1.3524144397399003,-0.0003451384978479588,0.00029852600927623676,0.0007577997868610028,0.0004860582734054272,-0.0015273452452027345,0.00037346731109686517,-0.0005442202819010521,-0.3063471019268036,-51.34091567993164,-8.043107032775879,17.89893341064453,1.9115091562271118,-0.8686020374298096,0.08610688149929047,,,,,,,,,
1739304158.6467576,-0.09345343805464629,1.0798921631372818,-0.4204818170301108,-1.4152459642129298,1.551526267668063,1.1277807683431142,1.352413643999238,-0.0008477913719171113,0.0001912726918884712,0.0003801562603594053,0.0012163686395622287,-0.0011031537877094735,0.000558789520211497,0.0010237079248920468,-0.2825433909893036,-51.36868667602539,-8.043107032775879,17.89893341064453,1.9115091562271118,-0.8750107288360596,0.06596527993679047,,,,,,,,,
1739304158.6576912,-0.0934500100902511,1.0798884110689129,-0.42048356569021034,-1.4152472542636787,1.5515294467116207,1.1277807685584538,1.3524168053992465,0.0006927191501159124,-0.0006117295545699877,0.0001554133918770887,-0.0005801729338324303,-0.0016887153394740506,0.0011148019757471696,-0.0005932091318386315,-0.3301508128643036,-51.31711196899414,-8.019303321838379,17.87512969970703,1.9115091562271118,-0.8750107288360596,0.06596527993679047,,,,,,,,,
1739304158.6678245,-0.09345172250295894,1.0798920820777005,-0.4204799521072993,-1.4152508460530235,1.5515290423320447,1.1277776296809874,1.3524135757987117,8.585825013025325e-05,0.0003557543886465583,0.0001128933526265949,-0.00024857164152020746,0.0003898533926653396,-0.0011116878050960362,-2.002112135699862e-05,-0.3063471019268036,-51.36868667602539,-8.070878028869629,17.92273712158203,1.9179178476333618,-0.8484604358673096,0.09343110024929047,,,,,,,,,
1739304158.6787593,-0.09345335675556052,1.0798920607679006,-0.42048451805754444,-1.415249055963362,1.551529688220092,1.1277791448396386,1.3524127779405037,-0.0002332373083239951,0.0006896984612491061,-0.0010779103466328755,-0.0007875649926708101,-0.0005331571621964034,0.0002571583522929534,0.00012268653881378807,-0.2825433909893036,-51.34091567993164,-8.019303321838379,17.89893341064453,1.9115091562271118,-0.8612778186798096,0.07328949868679047,,,,,,,,,
1739304158.6908352,-0.09344999264920803,1.0798948311042111,-0.4204818082011334,-1.4152443915502608,1.551530082346623,1.1277800108983755,1.3524157630960487,0.0007742305631939612,0.0019699239949582115,0.0006265231516117463,0.0009862180068731419,-0.0011901630743058316,-0.0002814502037829711,0.0007435699153051944,-0.3301508128643036,-51.36868667602539,-8.043107032775879,17.87512969970703,1.9051004648208618,-0.8686020374298096,0.06596527993679047,,,,,,,,,
1739304158.7017431,-0.09344829756940495,1.0798941686126704,-0.4204846437090418,-1.4152487016871775,1.5515327564046197,1.1277800108983764,1.3524111458293637,0.0007896008224096295,0.0013969706737568563,0.0003695677254059856,0.000193810691048495,0.0003467691292538857,0.0002915140899266551,-0.0006066079497443421,-0.3539545238018036,-51.36868667602539,-8.043107032775879,17.92273712158203,1.9051004648208618,-0.8686020374298096,0.11265717446804047,,,,,,,,,
1739304158.7117574,-0.09345343805469568,1.0798923081793144,-0.4204824653983109,-1.4152490294603037,1.5515289246128696,1.1277791445166274,1.3524163988369122,-0.000584719947220532,0.00024924677600115505,0.0003845404357479183,-0.0004879833569838267,-0.0003851758056245963,0.00012447106678609653,0.0005733056450985929,-0.2825433909893036,-51.34091567993164,-8.043107032775879,17.89893341064453,1.9179178476333618,-0.8612778186798096,0.05955658480525017,,,,,,,,,
1739304158.7217956,-0.09344997477204135,1.0798887198069589,-0.4204835997146651,-1.4152464069334674,1.5515297476683034,1.127781526218525,1.3524136218080864,0.0005870937071906232,0.00044138879109907576,0.00012025314966630546,0.0016867900002142432,0.00044291505195052157,0.0013832730347591946,0.001565878753213826,-0.3301508128643036,-51.28934097290039,-8.019303321838379,17.87512969970703,1.9115091562271118,-0.8814194202423096,0.09343110024929047,,,,,,,,,
1739304158.7327259,-0.09345172261076642,1.0798920930913833,-0.42048178170499606,-1.4152497691198362,1.551530540215286,1.1277786740508644,1.3524148573420476,0.00011450536608597221,0.0007442192404009442,0.00025480514621424566,7.343059500621734e-05,0.000719465327203658,-0.0013316758444935732,0.0003085586431102158,-0.3063471019268036,-51.36868667602539,-8.043107032775879,17.94654083251953,1.9051004648208618,-0.8612778186798096,0.04673920199275017,,,,,,,,,
1739304158.7427418,-0.09345456409047771,1.07989133724575,-0.42048178170479666,-1.4152470436496378,1.5515305574963834,1.1277800107288953,1.3524167049427738,-0.0014290606224687168,5.345689887526373e-05,0.0007050777104006972,-0.00026717322964448995,-1.3869925474364067e-05,0.0004076339850561916,0.0005195092043217935,-0.3063471019268036,-51.31711196899414,-8.043107032775879,17.87512969970703,1.9051004648208618,-0.8686020374298096,0.06596527993679047,,,,,,,,,
1739304158.7537599,-0.09345077789126659,1.079892184352563,-0.4204835643818157,-1.4152477427950514,1.5515314229173187,1.127778387341065,1.3524127782090138,0.0004021261773673342,-0.0014060025286509095,-0.0005330369577471374,0.0016761922307878183,0.001735585228915732,-0.0006594989130121714,7.317847128729442e-05,-0.3063471019268036,-51.34091567993164,-8.019303321838379,17.92273712158203,1.8986917734146118,-0.8548691272735596,0.07328949868679047,,,,,,,,,
1739304158.7647173,-0.09345435592160953,1.079892174764614,-0.42048564449872006,-1.4152490647411098,1.5515296827589877,1.1277799920022233,1.3524175742215971,-0.0007926915724688639,-0.0005849120579023633,-0.0014512367585618978,0.0014104524307242024,-0.0002474205952197564,-0.0006543609480551599,0.0011767682763508234,-0.2825433909893036,-51.34091567993164,-7.991532325744629,17.89893341064453,1.9115091562271118,-0.8686020374298096,0.05955658480525017,,,,,,,,,
1739304158.77475,-0.09345072034811377,1.079894060190256,-0.42048249696053575,-1.4152490572715648,1.551529798059377,1.1277791450010375,1.3524128137782432,8.595349781573617e-05,0.000883681572906644,5.352265904686758e-05,-0.0005011739347713951,-0.0005063860609542396,0.0008386057820559175,0.00024734085239839815,-0.3301508128643036,-51.36868667602539,-8.043107032775879,17.89893341064453,1.9115091562271118,-0.8612778186798096,0.09983979165554047,,,,,,,,,
1739304158.7847517,-0.09345171970680889,1.0798926150466543,-0.42048464284887505,-1.4152508474705794,1.5515288897032695,1.1277800108983764,1.3524157240295698,-0.0003527601617078022,-0.0002508728464361829,-0.0007092681827837082,-0.0006088082993925488,9.894695937716526e-05,0.0005544870934893379,-0.00044699976093955427,-0.3063471019268036,-51.36868667602539,-8.043107032775879,17.92273712158203,1.8922830820083618,-0.8686020374298096,0.06596527993679047,,,,,,,,,
1739304158.7957535,-0.09345172250290976,1.079891843994528,-0.4204835644302694,-1.4152515362354907,1.5515313133262865,1.1277800065377257,1.3524117583206852,-0.0005234996620821745,0.00011656969303195102,-0.0005919696861022869,-0.0012332600536234723,0.0013532716609606608,-0.00011089520058062154,-0.0006850828153867215,-0.3063471019268036,-51.36868667602539,-8.019303321838379,17.92273712158203,1.8986917734146118,-0.8686020374298096,0.09983979165554047,,,,,,,,,
1739304158.8077557,-0.09345343513169678,1.0798920362066022,-0.4204790756982411,-1.41525084745989,1.5515317197656275,1.127775966086748,1.352417580572154,-0.0008451230620188663,0.0007375497770720505,0.0008879984146289072,0.00036175250384677416,0.0006396281347322179,-0.000715963396223522,0.0013229080384719173,-0.2825433909893036,-51.36868667602539,-8.070878028869629,17.92273712158203,1.8922830820083618,-0.8612778186798096,0.05955658480525017,,,,,,,,,
1739304158.8187187,-0.09345036438870133,1.0798908250122945,-0.42048179053393603,-1.415250847434368,1.5515305576036844,1.1277791449772174,1.352413487015815,0.0005985343573405506,0.0010438391484238578,-4.907566441051753e-05,-0.00039869290400679414,0.0018886941290004744,-5.4255086460587145e-05,0.0014383383841321254,-0.2825433909893036,-51.34091567993164,-8.043107032775879,17.92273712158203,1.9051004648208618,-0.8612778186798096,0.06596527993679047,,,,,,,,,
1739304158.828855,-0.09345171867071558,1.0798919474423747,-0.4204797019150906,-1.4152508474707062,1.551529682260535,1.1277776296809872,1.3524128050004838,0.000667161603740068,-0.00017840907021851672,0.00045803553783620475,-7.680527802436817e-05,0.00036192684468571264,-0.0006554067634287394,-0.0016379518299176876,-0.3063471019268036,-51.36868667602539,-8.070878028869629,17.92273712158203,1.9115091562271118,-0.8484604358673096,0.09983979165554047,,,,,,,,,
1739304158.839773,-0.09345172553394225,1.0798951621518202,-0.42048178170479666,-1.4152469190264758,1.5515292254159219,1.1277799716525199,1.3524102431267344,6.0841529667079845e-05,0.000760194732617274,0.0010784594811329403,0.0005947730042462693,-0.0004883653269532198,0.00093641157178269,0.0007425105145621554,-0.3063471019268036,-51.36868667602539,-8.043107032775879,17.89893341064453,1.8858743906021118,-0.8686020374298096,0.11265717446804047,,,,,,,,,
1739304158.8508136,-0.0934535413339995,1.0798945472498942,-0.42048356441815443,-1.4152469156348586,1.5515297861044248,1.1277807641437474,1.3524168222616253,-0.000864260846903062,1.9304000770555647e-05,-0.00017416083415493325,0.0009558696006451077,-0.0002770406577448381,-6.149488274441992e-05,0.0010902208336212174,-0.2825433909893036,-51.39249038696289,-8.019303321838379,17.89893341064453,1.9115091562271118,-0.8750107288360596,0.06596527993679047,,,,,,,,,
1739304158.861803,-0.0934534351322965,1.0798929220545053,-0.4204842012118588,-1.415251562714312,1.5515255614455101,1.1277798931607816,1.352415076019885,-0.0009225691860077136,0.0004239486008728755,-0.0006015374363758403,-0.00040933618713292125,-0.0013634789348560476,-0.0003508655654777285,-0.0004589860031605368,-0.2825433909893036,-51.34091567993164,-8.043107032775879,17.92273712158203,1.9115091562271118,-0.8686020374298096,0.07969819009304047,,,,,,,,,
1739304158.8727567,-0.09345001009023461,1.0798899455829862,-0.42047791939693524,-1.4152490647977252,1.551529682182774,1.1277783682827425,1.352414709347684,0.0008247958259997167,-0.0016429782228133156,0.0018321494830625877,-0.0004082564165637724,5.768819133411223e-05,-0.0008301796897010364,0.0005168050069466092,-0.3301508128643036,-51.34091567993164,-8.094681739807129,17.89893341064453,1.9115091562271118,-0.8548691272735596,0.07969819009304047,,,,,,,,,
1739304158.8836823,-0.09344829756950342,1.0798898400868877,-0.42048488507091153,-1.415250484380514,1.551529799997441,1.127777623866679,1.3524103971884012,0.0007164523091342111,-0.0019388742782395247,-0.0005631807338094159,-0.000770117364488696,0.0016713230740247778,-0.0008463544635828413,-0.0011421928255954637,-0.3539545238018036,-51.34091567993164,-8.043107032775879,17.94654083251953,1.9115091562271118,-0.8484604358673096,0.11998139321804047,,,,,,,,,
1739304158.8937576,-0.09345179764368373,1.0798903761701584,-0.42047970196749684,-1.4152508387130665,1.5515313555452654,1.127780010898278,1.3524169341903034,-0.00019021640252154853,-0.0011177526269180046,0.0010535081420732354,-0.0007382948397155161,0.000941329350172163,4.235239480908503e-05,0.0009208110873480549,-0.3063471019268036,-51.31711196899414,-8.070878028869629,17.92273712158203,1.8986917734146118,-0.8686020374298096,0.06596527993679047,,,,,,,,,
1739304158.904737,-0.09344829756992697,1.0798920714439681,-0.42048356579902746,-1.4152490912845914,1.5515290404001878,1.1277800108983764,1.3524168229142577,7.464771793948212e-05,-0.0006205028857552508,0.00025591186332633414,-0.00037877251769682094,-0.0002771013251037269,0.00021178670167451598,0.0006302735207907822,-0.3539545238018036,-51.34091567993164,-8.019303321838379,17.89893341064453,1.9179178476333618,-0.8686020374298096,0.06596527993679047,,,,,,,,,
1739304158.9147837,-0.0934517226109658,1.0798944019768804,-0.4204835656900349,-1.4152490647941363,1.5515298402250761,1.1277800108983764,1.3524112897368208,-0.0002482357354196857,0.0010873324111076873,0.00034791384206947105,3.8765997309104995e-05,0.000213825117652266,0.0008152637062847171,0.0003110852498385006,-0.3063471019268036,-51.36868667602539,-8.019303321838379,17.89893341064453,1.9115091562271118,-0.8686020374298096,0.11265717446804047,,,,,,,,,
1739304158.9257917,-0.09345243289964937,1.0798951766486893,-0.42048178214086906,-1.4152508474707068,1.5515313153184898,1.127779145001144,1.3524113013651489,-5.2389295788700624e-05,0.0010139980621878832,-0.00010553913327118872,-0.000529253325294438,0.001558072507840349,0.00019487902058100133,-0.0012980493357283747,-0.3063471019268036,-51.36868667602539,-8.043107032775879,17.92273712158203,1.8986917734146118,-0.8612778186798096,0.11265717446804047,,,,,,,,,
1739304158.9367158,-0.09345000675405078,1.0798923172293775,-0.42048356438182305,-1.4152508474707068,1.5515266080017658,1.127775804742679,1.3524136309172647,0.0007388669758839829,-2.9361648293717583e-05,2.4741451655140438e-05,-0.0005965674613670197,-0.0018885658181737118,-0.0020360314182047957,0.0008828718771348009,-0.3301508128643036,-51.34091567993164,-8.019303321838379,17.92273712158203,1.9115091562271118,-0.8612778186798096,0.06596527993679047,,,,,,,,,
1739304158.9477508,-0.09345001009022832,1.0798968548544594,-0.42048194138637585,-1.4152444210937196,1.551529040467529,1.1277791449948589,1.352414323557873,0.0009482881640427742,0.0011864178843235423,0.0006800485603997398,0.0012724034106318183,0.0006630095891232482,0.00026704821978219676,0.0008810622468001577,-0.3301508128643036,-51.39249038696289,-8.043107032775879,17.87512969970703,1.9179178476333618,-0.8612778186798096,0.08610688149929047,,,,,,,,,
1739304158.9587798,-0.09345343516778339,1.0798951672572814,-0.42048270924336406,-1.415249073607855,1.551529042338017,1.1277752082651724,1.3524121627859966,-0.0008522211562229142,0.0012024610022126833,-0.00040239930024265876,-0.00044811374642003525,-0.0002047206120919052,-0.0009084074844000894,-0.0021781158959138245,-0.2825433909893036,-51.36868667602539,-8.043107032775879,17.89893341064453,1.9179178476333618,-0.8548691272735596,0.09343110024929047,,,,,,,,,
1739304158.9697576,-0.09345213091164768,1.0798894614552248,-0.4204835910233599,-1.4152490647937375,1.5515281898497961,1.1277791449831982,1.3524112496919238,0.0008932908681476222,-0.000255622722114647,-0.00045857788335207155,-0.0003931722677332759,-0.0004230222977393738,-0.00022315965304008586,-0.0004323243900520526,-0.3301508128643036,-51.28934097290039,-8.019303321838379,17.89893341064453,1.9252420663833618,-0.8612778186798096,0.08610688149929047,,,,,,,,,
1739304158.980685,-0.09344999856966939,1.0798888784884098,-0.4204835673257061,-1.4152508474707068,1.5515269192646777,1.127779969552947,1.3524109988485982,0.00021732677852420655,-0.001444484757299071,-0.00023667197547937087,-8.587161307998826e-05,-0.0020822915551643607,-8.344495037517359e-05,-0.0011806284813978144,-0.3301508128643036,-51.31711196899414,-8.019303321838379,17.92273712158203,1.9051004648208618,-0.8686020374298096,0.10624848306179047,,,,,,,,,
1739304158.9907477,-0.09344788462420943,1.079892427555324,-0.4204835643818323,-1.4152472821166688,1.5515278195090687,1.1277791450009107,1.352412778042181,0.0010070714152890473,0.000509452292105138,-5.09822125976378e-05,0.0011607753131940399,-0.0012162909537948331,-7.024052837038261e-05,0.0006428814043904599,-0.3301508128643036,-51.34091567993164,-8.019303321838379,17.87512969970703,1.9252420663833618,-0.8612778186798096,0.07328949868679047,,,,,,,,,
1739304159.002757,-0.0934499313412364,1.0798928226282365,-0.4204815464749434,-1.4152490625043461,1.5515309606499876,1.1277790926733353,1.352412060460906,0.0006606679327530023,-0.0009977864374720795,0.00010384858267792819,-0.00015402100362742514,0.000288975499058752,-0.0005022425566036364,0.0005707109056323768,-0.3301508128643036,-51.36868667602539,-8.043107032775879,17.89893341064453,1.8986917734146118,-0.8612778186798096,0.10624848306179047,,,,,,,,,
1739304159.013787,-0.09345169636515098,1.0798921568641802,-0.420481781704354,-1.4152526302567379,1.5515305387613636,1.1277807690428734,1.3524154099012848,-0.00011366589204664252,-0.0005146187319218282,0.00038075711468589393,-0.0012764878407931133,-0.0008106240054465842,0.0004955015435506178,0.0002827944461095114,-0.3063471019268036,-51.34091567993164,-8.043107032775879,17.94654083251953,1.9051004648208618,-0.8750107288360596,0.06596527993679047,,,,,,,,,
1739304159.0246744,-0.09345169636515101,1.0798929369242094,-0.420477919237922,-1.4152472821166693,1.5515297998916746,1.1277791387024292,1.352412307934817,2.4825706425692378e-05,0.0009330618753436246,0.0020009639476048125,0.0006937188835331643,-0.00022957522694626615,-0.00047297671355597435,-0.0025247053878831105,-0.3063471019268036,-51.36868667602539,-8.094681739807129,17.87512969970703,1.9115091562271118,-0.8612778186798096,0.09983979165554047,,,,,,,,,
1739304159.0347545,-0.09344661520405839,1.0798924314889486,-0.42047970191494105,-1.4152508473616905,1.5515284629348103,1.1277773146208778,1.3524081238957448,0.0013040552540442593,0.0006124928101735093,0.0009915311661876755,3.8839358654476274e-06,-0.00025043145860514547,-0.00047431158034919616,-0.0027725415038471765,-0.3817255198955536,-51.34091567993164,-8.070878028869629,17.92273712158203,1.9051004648208618,-0.8548691272735596,0.11265717446804047,,,,,,,,,
1739304159.045732,-0.09345343225337963,1.0798943166356532,-0.42048041673865094,-1.4152508386403884,1.551529446719736,1.127780010892321,1.3524067110356008,-0.0008495475888309618,-0.0002859200139711974,0.0008992329276429329,0.0004063220039228831,-0.0005799212653525927,0.0009434544183354416,-0.0022776249427077025,-0.2825433909893036,-51.36868667602539,-8.070878028869629,17.92273712158203,1.9115091562271118,-0.8686020374298096,0.11265717446804047,,,,,,,,,
1739304159.0567272,-0.09344959365175824,1.0798891532046062,-0.4204817817088318,-1.415249067737077,1.5515317154029862,1.1277776238667865,1.3524156023242164,0.0001719433342335786,-0.001388345590562977,0.0009454743733176665,0.00015587535861272362,-0.0011959804996084192,-0.0008686997469811949,0.0018992005547840388,-0.3063471019268036,-51.31711196899414,-8.043107032775879,17.89893341064453,1.8922830820083618,-0.8484604358673096,0.07328949868679047,,,,,,,,,
1739304159.0667346,-0.09344829742544243,1.0798948872968885,-0.4204804171706784,-1.4152490647937375,1.5515294442326404,1.127780010898278,1.35241833822822,0.0004087922530295908,-0.00025193849212684996,0.0014612559192282279,-2.642218433603373e-05,-0.0008957307451756995,0.0005799692693432127,0.0016060259323409918,-0.3539545238018036,-51.36868667602539,-8.070878028869629,17.89893341064453,1.9051004648208618,-0.8686020374298096,0.05314789339900017,,,,,,,,,
1739304159.0787492,-0.09345544476454402,1.0798931598184605,-0.4204818495169532,-1.4152472821166688,1.5515300867016193,1.1277747494652002,1.3524144416962405,-0.0011469120789390744,-0.0005819882669993655,0.0003383228034025663,0.0005467554505249195,-0.00125266273893945,-0.0010039938258975165,0.001696420093357662,-0.2547723948955536,-51.34091567993164,-8.043107032775879,17.87512969970703,1.9051004648208618,-0.8612778186798096,0.08610688149929047,,,,,,,,,
1739304159.0897057,-0.09345172261098779,1.0798931458013539,-0.42048180955252434,-1.4152501322149695,1.551529443753293,1.1277768275612317,1.3524163498458324,-0.0003430993819787737,0.0009715432336419043,0.0002314964221557498,-0.0004311637241942118,-0.0003634685498702452,-0.0016375539814421085,0.0005381621445091711,-0.3063471019268036,-51.34091567993164,-8.043107032775879,17.92273712158203,1.9051004648208618,-0.8686020374298096,0.06596527993679047,,,,,,,,,
1739304159.1006792,-0.0934483092614982,1.079896627441698,-0.42048184725028276,-1.4152497800453874,1.5515313153119745,1.1277768269593456,1.3524150423163865,0.0004863052406673457,0.0009530092147359251,0.0007858672126711094,-0.0007474991817147689,0.001584827216668293,-0.0001411655426224512,0.00010770568348955921,-0.3539545238018036,-51.39249038696289,-8.070878028869629,17.89893341064453,1.8986917734146118,-0.8686020374298096,0.07969819009304047,,,,,,,,,
1739304159.110757,-0.09345356691212299,1.0798909481421188,-0.42048178174112805,-1.4152506090642405,1.5515314631443224,1.1277800101984339,1.3524151979001091,-0.0006390749691680953,-0.00048667232815095504,-0.00036190431592800644,-0.0005318598619241912,0.001349465484456717,0.00012955889467031496,0.0018395486566020669,-0.2825433909893036,-51.34091567993164,-8.043107032775879,17.92273712158203,1.8986917734146118,-0.8686020374298096,0.07969819009304047,,,,,,,,,
1739304159.120773,-0.09345172553619621,1.0798920709601911,-0.420481896934993,-1.415250856296987,1.5515299795495168,1.1277807679124208,1.3524120604788268,-9.78292068029178e-05,-0.0005542606266143076,4.993481067765466e-05,-0.0005685055580258954,0.00019410831618715065,0.0012612991202881237,-0.0007625665388205582,-0.3063471019268036,-51.34091567993164,-8.043107032775879,17.92273712158203,1.8922830820083618,-0.8750107288360596,0.10624848306179047,,,,,,,,,
1739304159.1317596,-0.09345172293575994,1.0798936416088996,-0.4204810730724481,-1.4152490294724664,1.5515290423262103,1.127780362318075,1.352412161010102,-0.0008075356703035449,-0.00048344712075157716,0.0008389440712996987,0.00046044520498478276,0.0007206033227809023,0.0002687540167035366,0.0006163490896765209,-0.3063471019268036,-51.31711196899414,-8.043107032775879,17.89893341064453,1.9179178476333618,-0.8750107288360596,0.09343110024929047,,,,,,,,,
1739304159.1417723,-0.0934517265083029,1.0798892148045138,-0.42048356731325415,-1.4152490647930895,1.5515294931748873,1.1277791445097476,1.3524144016358008,4.4826571756802637e-05,-0.0014168406213139575,-0.0008330028629670639,0.00044393113520234097,0.000140177149370073,-8.035449443262121e-05,0.0010259322781424726,-0.3063471019268036,-51.28934097290039,-8.019303321838379,17.89893341064453,1.9051004648208618,-0.8612778186798096,0.05955658480525017,,,,,,,,,
1739304159.1518307,-0.0934515214760165,1.079893173382331,-0.42048842743881665,-1.4152490618502485,1.551529446767369,1.1277791450011359,1.3524151976874272,-0.00023156742830451844,0.0005575932219169031,-0.0016296202141974816,-0.0009877308181986434,0.0002646770320891326,-0.0009213620501017619,-0.00022876096935826756,-0.3063471019268036,-51.34091567993164,-7.991532325744629,17.89893341064453,1.9115091562271118,-0.8612778186798096,0.07969819009304047,,,,,,,,,
1739304159.162577,-0.09344633372916676,1.079896883848117,-0.42048439556898126,-1.415252630147676,1.5515296817700373,1.1277764773177286,1.3524120141431848,0.0018265849231768215,0.0012233101338811811,-0.0018186421908435988,-0.001807623954239365,0.00022501142558429952,7.84921804427582e-05,0.0006078168813695311,-0.3817255198955536,-51.39249038696289,-8.019303321838379,17.94654083251953,1.9115091562271118,-0.8686020374298096,0.07969819009304047,,,,,,,,,
1739304159.1726894,-0.09345172261154329,1.0798928895081699,-0.42048364386875164,-1.4152472821166688,1.5515305053283732,1.1277798924549427,1.3524116670137736,-0.0004473816449375211,0.00047052909931751387,-0.0003810591919212959,-0.00022441166520584363,0.0006143240861718852,0.00023360553159713872,-0.00045125211609030845,-0.3063471019268036,-51.34091567993164,-8.019303321838379,17.87512969970703,1.9051004648208618,-0.8686020374298096,0.07969819009304047,,,,,,,,,
1739304159.1827643,-0.09345001009023461,1.0798922043390211,-0.4204856707720895,-1.4152506091611439,1.5515319552404756,1.1277791450004755,1.3524116776906978,0.0005085488144692017,-0.001447441402657367,-0.0003634498951753209,-0.0004989414416066641,0.0005489644668129783,0.001264478630459444,0.001000157080991297,-0.3301508128643036,-51.36868667602539,-7.991532325744629,17.92273712158203,1.8922830820083618,-0.8612778186798096,0.07328949868679047,,,,,,,,,
1739304159.1936924,-0.09344857313097026,1.0798932087273938,-0.42047970195143,-1.4152472252088313,1.551525863422975,1.127778269603496,1.3524166991761961,0.0014510721774799737,0.0005151554055171262,0.0014710941668150733,0.00020124469143811277,-0.00014759942659595896,0.0002701758191058768,0.0016497461340055281,-0.3063471019268036,-51.34091567993164,-8.070878028869629,17.87512969970703,1.9179178476333618,-0.8548691272735596,0.06596527993679047,,,,,,,,,
1739304159.203737,-0.09344830130549142,1.0798921711642366,-0.4204857101490282,-1.4152452023258495,1.5515313152644272,1.1277768319819945,1.3524104369194452,0.0003623112462471042,0.0001965141855080493,-0.0007524952177359898,0.0016246881084539793,0.0019295712914393281,0.000486347945156396,-0.00034466112450135,-0.3539545238018036,-51.34091567993164,-8.019303321838379,17.84735870361328,1.8986917734146118,-0.8686020374298096,0.11998139321804047,,,,,,,,,
1739304159.213758,-0.09345169625735558,1.0798943259581901,-0.42048364389101417,-1.4152490647936877,1.5515272091750463,1.127779027209739,1.3524168170994286,-0.000917649816380308,-0.0008165966547323012,-0.0007109666400308047,-0.00023908652294634569,-0.000400426309618737,4.297110383676443e-05,0.0019281761947343384,-0.3063471019268036,-51.34091567993164,-8.019303321838379,17.89893341064453,1.9051004648208618,-0.8612778186798096,0.06596527993679047,,,,,,,,,
1739304159.2246866,-0.09345001009008584,1.079889462931455,-0.42048356438226453,-1.4152508474707068,1.551530809572891,1.1277786739963642,1.3524141265823693,0.00015491516137139264,-0.0014954591229900944,-0.00018742930417760728,-0.0004747616767395862,0.00022599028225527338,0.0011066796485960041,0.00016579492424811156,-0.3301508128643036,-51.28934097290039,-8.019303321838379,17.92273712158203,1.8986917734146118,-0.8612778186798096,0.07969819009304047,,,,,,,,,
1739304159.235744,-0.09344959660396195,1.079895169970739,-0.42048179064413066,-1.4152487469022488,1.5515257938809466,1.1277797089123491,1.3524157632573328,0.0002342614069748595,-0.0003169932218106076,-0.00045814111021149446,-0.00020979871874963823,-0.0023883803618111447,0.0009738439509108216,0.0014824102344277198,-0.3063471019268036,-51.36868667602539,-8.043107032775879,17.89893341064453,1.9051004648208618,-0.8750107288360596,0.06596527993679047,,,,,,,,,
1739304159.2457533,-0.0934533272208439,1.0798936066330058,-0.4204837940518897,-1.4152490647918932,1.55153131093072,1.1277804528464475,1.3524080513375192,-0.0005936276600843195,-4.162132581930018e-05,-0.0001918696579207486,0.0008758088920460366,0.00030192228108682264,0.0010766624326367321,-0.0011683836590788755,-0.2825433909893036,-51.31711196899414,-8.019303321838379,17.89893341064453,1.8986917734146118,-0.8814194202423096,0.14012299478054047,,,,,,,,,
1739304159.2566984,-0.09345171969417146,1.0798968808077745,-0.42047970191623757,-1.415249030308208,1.551530499031633,1.127778034122297,1.3524148915640422,-0.0008662543916011839,0.0014989929831894203,0.0002990275217145098,0.00041362276921052746,-0.0006124889399793521,0.00032737673483228583,-0.0009500673295685692,-0.3063471019268036,-51.39249038696289,-8.070878028869629,17.89893341064453,1.9051004648208618,-0.8548691272735596,0.07328949868679047,,,,,,,,,
1739304159.2677317,-0.09345172261094933,1.0798914873567378,-0.4204838021553819,-1.415250847470512,1.55153195524044,1.1277790271000747,1.3524093367559598,-0.00019500871316922798,0.000542895873704442,-7.72968025225691e-05,4.6562984851700564e-05,0.0015981792808497717,0.00010202813194679907,-0.0016147296019479054,-0.3063471019268036,-51.31711196899414,-8.019303321838379,17.92273712158203,1.8922830820083618,-0.8612778186798096,0.09343110024929047,,,,,,,,,
1739304159.2777457,-0.0934500100902346,1.0798914483172666,-0.4204835647128912,-1.4152508474707068,1.5515262798578164,1.1277791435455973,1.3524175628982513,0.0002251974962649842,-0.00020251232266138688,-0.0003272350743666597,-9.122815852656248e-05,-0.0007362251202264609,0.0009113741158819689,0.0006265838868274643,-0.3301508128643036,-51.31711196899414,-8.019303321838379,17.92273712158203,1.9051004648208618,-0.8612778186798096,0.05955658480525017,,,,,,,,,
1739304159.2877798,-0.09344930145723561,1.079895170309263,-0.4204835647088813,-1.4152465671879801,1.5515270253137519,1.127779704559601,1.3524143972982117,0.0009584035776574304,0.0007548820135859514,-0.00035045431333004734,0.0003891825393987578,-0.0013531464653589668,-0.00026881276586407203,0.00027124264162947025,-0.3301508128643036,-51.36868667602539,-8.019303321838379,17.87512969970703,1.9051004648208618,-0.8750107288360596,0.05955658480525017,,,,,,,,,
1739304159.2987711,-0.09345172217760495,1.0798882333651487,-0.4204845180561327,-1.4152481112270423,1.5515305440671234,1.1277776922025888,1.3524119426635115,-0.0003071670685196268,-0.0019275273310873685,-0.0008926015371347782,0.0009432264427719054,0.0010372970587460952,-0.002078943679345774,-0.000235287140052241,-0.3063471019268036,-51.31711196899414,-8.019303321838379,17.89893341064453,1.9051004648208618,-0.8612778186798096,0.10624848306179047,,,,,,,,,
1739304159.3097827,-0.09345001009023216,1.0798951621517998,-0.4204838648632891,-1.4152490647883047,1.5515297955835432,1.127779233601194,1.3524112984574572,-0.00025470589389731764,0.0005019923838664505,-0.000613332554929445,-0.00034490320016725617,-0.0008518381225053523,-0.0008786438637462267,0.0007436979775433839,-0.3301508128643036,-51.36868667602539,-8.019303321838379,17.89893341064453,1.9115091562271118,-0.8750107288360596,0.11265717446804047,759,687,781,38.568,0,0
1739304159.3207693,-0.09344977387923493,1.0798909481464094,-0.42048178464993213,-1.4152515549432916,1.5515313153182375,1.127776472948413,1.352415588622138,0.0008524472019604524,0.0003814998870397032,0.000200116046693295,-0.0009517080167328466,0.0016859227324635196,-0.001159402996775959,0.00041681122652237074,-0.3301508128643036,-51.34091567993164,-8.043107032775879,17.89893341064453,1.8986917734146118,-0.8686020374298096,0.07328949868679047,759,687,781,38.459,0,0
1739304159.3307745,-0.09345000079865393,1.0798968955841894,-0.4204820201234256,-1.4152472909891574,1.5515316730006394,1.1277789512003318,1.352414684793293,0.0005328969794948536,0.0011806959273756787,0.00044392452100798605,0.0007816731553923862,0.0005452397646424678,0.00046021202092312114,0.00032295197994393517,-0.3301508128643036,-51.39249038696289,-8.043107032775879,17.87512969970703,1.8986917734146118,-0.8686020374298096,0.07969819009304047,760,687,781,38.459,0,0
1739304159.3416774,-0.09345314469995593,1.0798857524634304,-0.42048178073408077,-1.415248985320878,1.5515305576602034,1.1277787912979356,1.352410383137277,-0.0010792058051422024,-0.003283995011624332,-6.309649105643836e-05,0.0009182388919394172,0.001465442132175959,0.0015372208513308675,-0.0008499843873305312,-0.3063471019268036,-51.23776626586914,-8.043107032775879,17.89893341064453,1.9051004648208618,-0.8612778186798096,0.11998139321804047,760,687,784,38.676,0,0
1739304159.351793,-0.09344806181562379,1.0798951713273859,-0.4204817817047802,-1.4152508474693608,1.5515277364261733,1.1277755605402475,1.3524133282758413,0.0015902213462244514,-0.00045939205683201043,-0.000676438484666951,-0.00010404022211481565,-0.000320723404770447,5.776432596277142e-05,-1.1990081654757661e-05,-0.3539545238018036,-51.36868667602539,-8.043107032775879,17.92273712158203,1.9051004648208618,-0.8612778186798096,0.08610688149929047,761,688,783,38.459,0,0
1739304159.3627186,-0.09344886183197235,1.079895170988224,-0.42048356438181567,-1.4152490768944934,1.5515289229156408,1.1277761747810913,1.3524120604725662,-1.8228350579272226e-06,4.0285412701053167e-05,-0.00029518097804331867,-0.0006083242361172082,0.0007078220114121374,-0.00030753803732050654,0.0007900213459976079,-0.3063471019268036,-51.36868667602539,-8.019303321838379,17.89893341064453,1.9179178476333618,-0.8750107288360596,0.10624848306179047,760,688,783,38.459,1,0
1739304159.3737051,-0.09344830632235032,1.079896128926286,-0.42047970191494105,-1.41524528183608,1.5515297940217252,1.1277775894566293,1.3524134517627204,9.69258926240672e-05,0.002152340672977193,7.431996304177517e-05,0.0012366741435749394,0.00013426814020956994,0.0001205503272959329,-1.3174761588809398e-05,-0.3539545238018036,-51.36868667602539,-8.070878028869629,17.84735870361328,1.9115091562271118,-0.8750107288360596,0.09343110024929047,760,687,785,38.676,1,0
1739304159.3837876,-0.09345172261111402,1.0798951978345561,-0.42048083675279113,-1.4152490651220828,1.5515305511978599,1.1277769739518717,1.3524150423707917,0.0003169932328318877,0.0014524690504247183,0.0011404561540950733,-0.0001785347721861522,0.0006043681625463215,-0.0004704654160446961,0.00035668083152154927,-0.3063471019268036,-51.36868667602539,-8.043107032775879,17.89893341064453,1.9051004648208618,-0.8548691272735596,0.07969819009304047,761,688,787,38.568,1,0
1739304159.3948178,-0.09345003769633341,1.0798931734230213,-0.4204835673562594,-1.4152526301477277,1.5515297607522127,1.1277768044168694,1.352417578635195,-0.0001029705989517468,5.924846683962738e-05,-0.0012761611457648618,-0.0011532961794276813,0.0006333786696640421,-0.0014515909137397857,0.0016909972459781591,-0.3301508128643036,-51.34091567993164,-8.019303321838379,17.94654083251953,1.9115091562271118,-0.8548691272735596,0.05955658480525017,760,690,781,38.676,0,0
1739304159.4056993,-0.09345172261112163,1.0798914608658017,-0.42048343413464573,-1.4152472821166688,1.5515258634234181,1.127778387278295,1.3524116665831878,-0.001542562188004712,-0.0010047452484757784,-0.0009250490046031709,0.0013389712480302066,-0.0006896407829347548,0.0026888270105548434,-0.0005293170480477482,-0.3063471019268036,-51.31711196899414,-8.019303321838379,17.87512969970703,1.9179178476333618,-0.8548691272735596,0.07969819009304047,761,687,783,38.568,1,0
1739304159.4157782,-0.0934517226109658,1.0798916992843808,-0.4204856441694655,-1.4152490647936877,1.5515262634565221,1.127778949806696,1.352414283199436,-9.956082102179688e-05,0.00038849924575155327,-0.0017825098989783543,-4.101288883529432e-05,-0.001351130600964099,0.001947269883445747,-0.0009389073965746861,-0.3063471019268036,-51.31711196899414,-7.991532325744629,17.89893341064453,1.9115091562271118,-0.8686020374298096,0.08610688149929047,759,688,783,38.676,1,0
1739304159.425779,-0.09344829756950342,1.0798951713314235,-0.4204835614656305,-1.4152462033346733,1.5515297955775635,1.1277793498754451,1.352417567489512,0.0014250784526922645,0.0007056370739212425,-0.0002280618803713097,0.0009359444192130133,-0.0006222209769574784,-0.00012854126012764905,0.0002605033840858001,-0.3539545238018036,-51.36868667602539,-8.019303321838379,17.89893341064453,1.9115091562271118,-0.8750107288360596,0.05955658480525017,762,687,784,38.568,0,0
1739304159.4366717,-0.09344821850848294,1.0798929462326692,-0.42048572378986954,-1.4152523915313,1.551529492205829,1.1277733387926527,1.352407257522562,0.0017441599699545502,0.0001655571405861065,-0.0013074381401378399,-0.0009143267068389691,0.00034815823809598243,-0.0014495152464263107,-0.00033699498986876786,-0.3539545238018036,-51.36868667602539,-7.991532325744629,17.94654083251953,1.9051004648208618,-0.8484604358673096,0.11998139321804047,761,686,784,38.568,0,0
1739304159.4467328,-0.09344829789294214,1.079892961308171,-0.42048571015037595,-1.4152490647896465,1.5515308438654225,1.1277804146270562,1.3524126078212815,0.00039058803475455306,-3.723407178079363e-05,-0.001463026248867114,-9.187507629857564e-05,0.00109388682701808,0.0005165510961499775,-0.0010582501963798889,-0.3539545238018036,-51.34091567993164,-8.019303321838379,17.89893341064453,1.8986917734146118,-0.8750107288360596,0.07328949868679047,759,687,785,38.568,0,0
1739304159.4567547,-0.09344943942193946,1.0798931737099902,-0.42047973542401434,-1.415247476383659,1.551527027446069,1.1277759093923028,1.3524132209145237,0.000575493028988268,0.00026506099996808003,0.0009550017995133863,0.0011951949395912283,-0.00026031372794049507,-0.000858385619788963,0.0014045136651756394,-0.3063471019268036,-51.34091567993164,-8.043107032775879,17.87512969970703,1.8986917734146118,-0.8612778186798096,0.09343110024929047,759,687,784,38.568,1,0
1739304159.467694,-0.09344999837660292,1.0798968851563142,-0.42047791929938466,-1.4152508593545767,1.5515305973226303,1.1277760400874044,1.352413558354402,0.0007910801587617641,0.0006928932863290479,0.0016718713740445877,-0.0003186335586860572,0.0011156301841027164,0.00043582514475049835,-0.0002514895818867672,-0.3301508128643036,-51.39249038696289,-8.094681739807129,17.92273712158203,1.9051004648208618,-0.8750107288360596,0.09343110024929047,759,687,785,38.459,1,0
1739304159.4787474,-0.09345148639976776,1.079893173386555,-0.42047894587671936,-1.415250859244665,1.5515281762799615,1.1277798756381265,1.3524154666851522,0.0002504656165712885,0.00044754810237414614,0.0012181960590923451,0.0001427667237821791,0.00020606565721927993,0.0012893151012501448,-0.0007700757678414909,-0.3063471019268036,-51.34091567993164,-8.043107032775879,17.92273712158203,1.9252420663833618,-0.8686020374298096,0.07328949868679047,760,686,783,38.568,1,0
1739304159.4897652,-0.09345172257451904,1.0798948504157926,-0.4204796932700657,-1.4152472822257072,1.5515305183943822,1.1277744507483998,1.3524120583245212,0.00012861280118825735,-0.00020603300806430996,0.0005769498932342177,0.000605295551705963,0.0004937781320101172,0.0007316675650293328,4.050102103942397e-06,-0.3063471019268036,-51.36868667602539,-8.070878028869629,17.87512969970703,1.9051004648208618,-0.8484604358673096,0.10624848306179047,761,690,783,38.568,2,0
1739304159.5007381,-0.09345172261096558,1.0798921756675117,-0.4204817817047478,-1.4152472732863517,1.551529029255854,1.127779694366878,1.352417861830134,-0.0006937777030992513,-0.00023095023889628551,-0.0006316207318997266,0.0010197874698203622,-0.00046612343647832943,-0.00010506401824409665,0.0009575746044809623,-0.3063471019268036,-51.31711196899414,-8.043107032775879,17.87512969970703,1.9179178476333618,-0.8750107288360596,0.04673920199275017,760,688,785,38.568,1,0
1739304159.5127473,-0.09344959671196881,1.0798929460913493,-0.4204835653629621,-1.4152490647936378,1.5515308924680138,1.1277747369858178,1.352410841605715,0.0008550181008611837,-9.174336506960999e-05,-0.0006523308634721047,0.0003404099722182459,0.0016674502163276125,-0.0007166189871209773,8.215079493972245e-05,-0.3063471019268036,-51.36868667602539,-8.019303321838379,17.89893341064453,1.8922830820083618,-0.8548691272735596,0.07969819009304047,760,687,783,38.568,0,0
1739304159.52275,-0.09344717540222872,1.079888704884289,-0.4204799401185214,-1.4152526419214828,1.5515296820923663,1.1277802561883044,1.3524128695393662,0.001064948861659348,-0.001823232015695861,0.0020922614736328823,-0.0013545468708370191,0.00011734239924916518,-0.0012667908229588483,-0.0016525378520247166,-0.3301508128643036,-51.31711196899414,-8.070878028869629,17.94654083251953,1.9115091562271118,-0.8750107288360596,0.05955658480525017,759,687,784,38.568,1,0
1739304159.5337756,-0.09345075161355783,1.0798909480178498,-0.42048186154238854,-1.4152442621844055,1.5515290290939043,1.1277807627413616,1.3524137340972417,0.00047857634292145906,0.0003263791109601472,-0.00044417333505974434,0.0021017969193404045,0.0013325861673150207,0.0006290589977282627,-0.0003437728701847714,-0.3063471019268036,-51.34091567993164,-8.043107032775879,17.87512969970703,1.9179178476333618,-0.8750107288360596,0.07969819009304047,760,687,786,38.568,1,0
1739304159.5457413,-0.09344959822539704,1.0798969072740525,-0.4204835644186051,-1.4152508474536591,1.5515270767118352,1.1277780810023312,1.3524104323911128,-0.0002704370600579994,0.0012417606271707122,0.00023677320313269032,-0.000160135050792179,-5.576898391562881e-05,0.0007134200435870172,-0.0012383344325155557,-0.3063471019268036,-51.39249038696289,-8.019303321838379,17.92273712158203,1.8986917734146118,-0.8612778186798096,0.11998139321804047,758,688,784,38.568,0,0
1739304159.5566664,-0.09345172213094385,1.0798914608282493,-0.4204797028960877,-1.4152490647936875,1.551530242574254,1.1277787772469257,1.35241200235328,-0.0005745219319790377,-0.0007312873496028523,0.0011747790618993656,4.3078297153144806e-05,-0.00016815372874591137,-0.0008272433450968351,5.76707627200417e-05,-0.3063471019268036,-51.31711196899414,-8.070878028869629,17.89893341064453,1.8986917734146118,-0.8612778186798096,0.07969819009304047,762,687,786,38.459,1,0
1739304159.5667717,-0.09345090024674203,1.0798968838481169,-0.4204797019149466,-1.415250847143658,1.5515285700732013,1.1277754951344003,1.3524105931287487,-0.0002621731345972372,0.0008056503954050479,0.0017955929125131873,-0.00018400984146791272,-0.00018311400248700226,-0.0010092890112843292,-0.001121558334315953,-0.3063471019268036,-51.39249038696289,-8.070878028869629,17.92273712158203,1.9115091562271118,-0.8612778186798096,0.10624848306179047,761,687,786,38.459,1,0
1739304159.57771,-0.0934500880252109,1.0798914961870725,-0.4204797048583803,-1.4152508474707013,1.5515286752806612,1.1277790924500188,1.3524131148821024,0.0003247737694613384,0.00010662907221924275,0.0005776182137392355,-0.00030208601294173354,2.2509498501336643e-05,-5.292661395888429e-05,0.00029854128631336856,-0.3301508128643036,-51.31711196899414,-8.070878028869629,17.92273712158203,1.9115091562271118,-0.8612778186798096,0.06596527993679047,760,688,784,38.568,1,0
1739304159.5877402,-0.09344977387967489,1.0798961138825411,-0.4204817817048132,-1.4152452029809108,1.5515305570058129,1.1277764713791143,1.3524131026743889,0.0005978086152675371,0.0013207012412399081,-0.0003025452548708704,0.0011888287653576456,0.0005857367361131053,-0.0013927901247553413,0.0006945225636032131,-0.3301508128643036,-51.34091567993164,-8.043107032775879,17.84735870361328,1.9051004648208618,-0.8750107288360596,0.09343110024929047,760,686,787,38.568,1,0
1739304159.5977492,-0.09345001030300513,1.0798980324001326,-0.4204835643818157,-1.41524728211668,1.5515300678117403,1.1277756545355162,1.3524179283250448,0.0013470665530739513,0.0013596635003611142,-0.0007656734878270302,0.0004290736319096982,-0.0011010291379389,-0.0006977421558237505,0.000682491145266838,-0.3301508128643036,-51.36868667602539,-8.019303321838379,17.87512969970703,1.9051004648208618,-0.8686020374298096,0.05314789339900017,760,687,788,38.459,1,0
1739304159.6097023,-0.0934500100902358,1.0798932528755434,-0.4204835643818157,-1.415248235681969,1.5515266210809526,1.1277759601941282,1.3524112441360974,0.001351573618471128,-0.0004081020578729866,-0.0006296656511519895,0.00036204234978922897,-0.0010038153286198186,-2.8635823534447124e-05,-0.0005720862549556575,-0.3301508128643036,-51.34091567993164,-8.019303321838379,17.87512969970703,1.9115091562271118,-0.8612778186798096,0.11265717446804047,759,687,787,38.459,2,0
1739304159.6198022,-0.0934504547425424,1.0798931733869814,-0.4204835643818157,-1.415250847548767,1.5515269056221639,1.12777803086382,1.3524146872217842,0.0003842043381717849,-0.00029627174249528566,-0.0004805873125438108,-0.00029149805303077504,-0.0009463320107928204,3.605757275500866e-05,0.00043032634015313745,-0.3539545238018036,-51.34091567993164,-8.019303321838379,17.92273712158203,1.9051004648208618,-0.8612778186798096,0.07969819009304047,758,687,788,38.459,2,0
1739304159.630708,-0.09345330318876602,1.0798931728051127,-0.42048178170479666,-1.4152512105609,1.5515305576375684,1.1277798494941746,1.3524140989789608,-0.0010072941125718173,-0.000565854512206296,0.0002984338861312957,0.00028585294428621515,0.00091057712375853,-0.00030709463722558284,0.0006726552508968197,-0.2825433909893036,-51.34091567993164,-8.043107032775879,17.89893341064453,1.9051004648208618,-0.8686020374298096,0.05314789339900017,759,687,790,38.568,0,0
1739304159.6417744,-0.09345000717181495,1.0798971222666862,-0.42048250873429094,-1.4152501322513082,1.5515304006747574,1.1277775606286427,1.3524172596281518,0.00044506751175285835,0.0015390314319473155,0.000447848767528732,-0.000759483727551762,-0.0012868599348334203,-0.0011981289550681094,0.0006648403978973677,-0.3301508128643036,-51.39249038696289,-8.043107032775879,17.92273712158203,1.9051004648208618,-0.8612778186798096,0.05314789339900017,760,687,787,38.459,1,0
1739304159.6527207,-0.09344891438595261,1.0798961748228844,-0.4204818613980663,-1.4152490650103744,1.551529042265952,1.1277790097462097,1.3524155643225155,0.000829450825441241,0.0010598619807697897,-0.00012337049679702193,0.0002656012867519296,-0.00042684446929178713,-0.000594173429840164,0.0014645782818141972,-0.3063471019268036,-51.34091567993164,-8.043107032775879,17.89893341064453,1.9179178476333618,-0.8612778186798096,0.07328949868679047,760,686,789,38.568,1,0
1739304159.6627207,-0.09345000907061533,1.0798988692908158,-0.4204789589479072,-1.4152490647936913,1.5515289246004564,1.1277756529909428,1.3524077825123217,0.0010946527665655638,0.00046934045557317223,0.0006664821204046779,-0.00039900607899492717,0.0006003865442586458,-0.001297198159070746,-0.0002735907585275756,-0.3301508128643036,-51.42026138305664,-8.043107032775879,17.89893341064453,1.9179178476333618,-0.8686020374298096,0.10624848306179047,760,686,788,38.459,1,0
1739304159.6737034,-0.09345174891794832,1.079896883810362,-0.42048179041117295,-1.4152509534345197,1.5515275052887307,1.1277754190547138,1.3524127649959077,-0.0006521639959843321,2.102449741516626e-06,0.0003363401790994725,-0.000990262129151329,-0.0025062378496804663,-0.0007228386573053324,0.0006568977682728546,-0.3063471019268036,-51.39249038696289,-8.043107032775879,17.92273712158203,1.9179178476333618,-0.8686020374298096,0.07328949868679047,760,687,788,38.568,0,0
1739304159.6837082,-0.09345001009068012,1.0798953191537441,-0.42048356438196316,-1.4152508474725014,1.5515273787177664,1.127774391900804,1.3524094632909047,-0.00028050258545866236,-0.0007687643100367312,-0.0012132493824878808,-0.00041249193121157445,0.00021777714478770396,-0.0012635195670193426,-0.0012526198473501657,-0.3301508128643036,-51.34091567993164,-8.019303321838379,17.92273712158203,1.9051004648208618,-0.8484604358673096,0.09983979165554047,760,687,788,38.568,2,0
1739304159.6937788,-0.09345003250897597,1.0798931999138248,-0.4204796795938601,-1.4152508474707068,1.5515305445223966,1.1277782891073032,1.35241214916338,0.0005428338405426895,0.0008647708944664327,0.0022188470535734754,0.0004430729772318156,0.0006052692303414075,5.400175329542509e-05,-0.00165034225432524,-0.3301508128643036,-51.34091567993164,-8.070878028869629,17.92273712158203,1.9051004648208618,-0.8814194202423096,0.09343110024929047,759,686,789,38.568,2,0
1739304159.7046745,-0.09345001009036115,1.0798968838482668,-0.42048356449070595,-1.4152508474707068,1.5515266189840713,1.1277741074248457,1.352415763052106,-0.0002262162567978387,0.0012232102430559614,-0.0002659926082437129,-0.0004737082337721559,-0.0009429662081720477,-0.0011977440540724567,0.0012152587453228459,-0.3301508128643036,-51.39249038696289,-8.019303321838379,17.92273712158203,1.9115091562271118,-0.8548691272735596,0.06596527993679047,760,687,790,38.568,1,0
1739304159.714777,-0.09344759468130846,1.0798906184812656,-0.42048564722412857,-1.4152490646846714,1.5515273654464679,1.1277741031714936,1.3524103401782117,0.0011970546378756962,-0.0008907358754660182,-0.0006700814619576037,0.0005089516440287095,0.0004397060827705051,-0.001404139670472652,-3.3835372950167674e-05,-0.3539545238018036,-51.34091567993164,-7.991532325744629,17.89893341064453,1.9051004648208618,-0.8548691272735596,0.09343110024929047,761,686,786,38.459,1,0
1739304159.7257144,-0.09345307388158428,1.079897112077422,-0.4204820172072078,-1.415252993237918,1.5515313153002424,1.1277777183981463,1.3524139681809952,-0.00044061288425580936,0.0017257696243610297,-4.6720535698144684e-05,-0.001086149766653242,0.0017173702083729209,-0.00029096802283802646,-0.0001461139003116302,-0.2547723948955536,-51.39249038696289,-8.043107032775879,17.92273712158203,1.8986917734146118,-0.8612778186798096,0.07969819009304047,759,682,788,38.676,2,0
1739304159.735743,-0.09345342537112661,1.0798931733903978,-0.4204828586962442,-1.4152490648300264,1.551530557658184,1.1277755976683619,1.3524096929267369,-0.00022514402542840752,-6.310547463276553e-05,-0.0004992158118302225,0.00025490208771985226,0.0002473754635236941,0.00011595130511569501,-0.0021759848698198257,-0.2825433909893036,-51.34091567993164,-8.019303321838379,17.89893341064453,1.9051004648208618,-0.8612778186798096,0.08610688149929047,760,684,788,38.459,2,0
1739304159.7467542,-0.09344788419107232,1.0798914608658017,-0.4204817816928458,-1.415250856301025,1.5515266152695169,1.1277754053451006,1.3524133674421879,0.001079143265584732,-0.0010531424442506276,0.0004128130696170077,-0.0004260001389244701,-0.0006217265388575102,-0.000843021214757881,0.001050802313394758,-0.3301508128643036,-51.31711196899414,-8.043107032775879,17.92273712158203,1.9115091562271118,-0.8686020374298096,0.08610688149929047,759,690,788,38.568,1,0
1739304159.7577333,-0.09345172255896249,1.079899744289646,-0.4204856705546176,-1.4152472820076691,1.5515305576521916,1.1277782296311707,1.3524179457736387,0.00014557649809869742,0.00040651101324843455,-0.00029250154625744414,0.0007831952862217503,0.00036747683508557555,-0.0010723853949059828,0.0006469930265275787,-0.3063471019268036,-51.39249038696289,-7.991532325744629,17.87512969970703,1.9051004648208618,-0.8548691272735596,0.05314789339900017,760,685,788,38.568,1,0
1739304159.7697382,-0.093453827267436,1.0798951804632149,-0.42048274424591847,-1.415249065120736,1.551531315156757,1.1277792248333682,1.3524134869597644,-0.0018536627321644533,0.0020441451985545125,-0.0015384654264526763,-0.00016763050067949837,0.0012394061438126746,-0.0011825640974609149,0.0001422659906087949,-0.3063471019268036,-51.36868667602539,-8.043107032775879,17.89893341064453,1.8986917734146118,-0.8750107288360596,0.06596527993679047,760,686,789,38.568,1,0
1739304159.7808664,-0.0934514076748471,1.0798936067784202,-0.4204856441771048,-1.4152469612817926,1.55153055119796,1.1277764731472582,1.352412893646397,0.0007916007016163042,-0.0009495060544318911,-0.0018768481422572517,0.0011641144558327873,4.7905143711887466e-05,-0.0003041721751241087,-0.0009076471610185138,-0.3063471019268036,-51.31711196899414,-7.991532325744629,17.87512969970703,1.9051004648208618,-0.8750107288360596,0.08610688149929047,759,688,789,38.459,1,0
1739304159.791764,-0.09345214047566223,1.0798914965181592,-0.42048571014902764,-1.4152475206799993,1.5515305053303634,1.1277784228956227,1.3524144412088108,0.00033987408960203206,-0.0005719336567726928,-0.0004915162532545885,0.00033343201687038653,5.717450631270497e-05,0.0002740116313992274,-0.0004150664223718022,-0.3301508128643036,-51.31711196899414,-8.019303321838379,17.87512969970703,1.9051004648208618,-0.8686020374298096,0.08610688149929047,759,688,788,38.568,3,0
1739304159.8027563,-0.09345024592917989,1.0798931448971492,-0.4204818072721398,-1.4152480643322554,1.5515302039606624,1.1277760396660237,1.3524151601104595,-0.0002482412517857899,-0.0008167646129685153,-0.001275628481309491,0.00011999802713114234,0.00019165030566136002,0.001382231405382751,0.0012561795985779908,-0.3301508128643036,-51.34091567993164,-8.043107032775879,17.84735870361328,1.9051004648208618,-0.8750107288360596,0.07969819009304047,760,687,791,38.568,1,0
1739304159.8137126,-0.09344906524756726,1.0798931733863721,-0.42047972840603864,-1.4152491707736568,1.5515298574053693,1.1277791793168246,1.3524120075047987,0.0011760942241248894,0.00012513528444348603,0.0017290086664142807,-0.00026961605180013637,-0.0010200539224896115,-0.0010314132691450033,0.000331474950383128,-0.3301508128643036,-51.34091567993164,-8.070878028869629,17.89893341064453,1.8986917734146118,-0.8750107288360596,0.10624848306179047,754,688,790,38.568,2,0
1739304159.8246799,-0.09345169634929817,1.0798931642291663,-0.4204846993281212,-1.4152472821184634,1.5515291310546808,1.1277744349869163,1.352413693655777,-0.0003511764482902115,0.0009368735456662231,-0.00023697178945141601,0.0003046647180166375,-0.0009264108183145955,-0.000271386578615552,0.00016731271530825986,-0.3063471019268036,-51.34091567993164,-7.991532325744629,17.87512969970703,1.9051004648208618,-0.8612778186798096,0.05314789339900017,758,686,792,38.568,1,0
1739304159.8356752,-0.09345354035960068,1.0798958825131653,-0.42048178127099134,-1.4152547788583771,1.551529042263563,1.1277780663862187,1.3524183193293338,-0.0016993563039066615,0.0013532393804624098,0.0005730833613931264,-0.001963252844468141,5.494025365674346e-05,9.11813694829355e-05,0.0014487842909399254,-0.2825433909893036,-51.36868667602539,-8.043107032775879,17.94654083251953,1.9179178476333618,-0.8612778186798096,0.05314789339900017,759,687,790,38.568,1,0
1739304159.8457196,-0.09345001009201664,1.0798923217634877,-0.4204795973683323,-1.4152550143699056,1.5515288940639518,1.1277777146894357,1.3524104906442658,0.0008716479906538839,-0.0007804086796967031,0.0018504211113559712,-0.0018451393200503378,0.0006349604062468462,0.0013478125177574067,-0.0009660751234812409,-0.3301508128643036,-51.34091567993164,-8.070878028869629,17.94654083251953,1.8922830820083618,-0.8612778186798096,0.10624848306179047,760,687,790,38.568,1,0
