IITGN-Robotics/Franka_IITGN_ROBOTICS/franka_ros/franka_iitgn/data01/us_003.csv
time,fr3_joint1_pos,fr3_joint2_pos,fr3_joint3_pos,fr3_joint4_pos,fr3_joint5_pos,fr3_joint6_pos,fr3_joint7_pos,fr3_joint1_vel,fr3_joint2_vel,fr3_joint3_vel,fr3_joint4_vel,fr3_joint5_vel,fr3_joint6_vel,fr3_joint7_vel,fr3_joint1_eff,fr3_joint2_eff,fr3_joint3_eff,fr3_joint4_eff,fr3_joint5_eff,fr3_joint6_eff,fr3_joint7_eff,flexpin1,flexpin2,flexpin3,Force,ContactMic,ContactMic_gt
1739303871.2786505,-0.10092907124030606,1.0700028014851561,-0.40724948526877564,-1.420322381513196,1.5352876102691408,1.143900979782683,1.3508334336260233,0.0006150585261537927,-0.0014559713715402423,0.0006092029934230408,0.000494920329909847,0.00026900422910622,-0.00018544165031504,-0.0018291954067933228,-0.8062250018119812,-51.70193862915039,-8.019303321838379,18.39087677001953,2.2063088417053223,-0.6644394397735596,0.10624848306179047,,,,,,,,,
1739303871.2886412,-0.1009311508410092,1.070002711090187,-0.40724980905493585,-1.4203223035302992,1.5352852230921947,1.1438994683384387,1.3508333570562314,0.000589044708227553,-0.00029718693528970274,-0.00042359915619738405,0.00032854038078775993,-0.000876794720631781,6.191046187683171e-05,-0.0010516587037484332,-0.7784540057182312,-51.67416763305664,-8.019303321838379,18.39087677001953,2.2264504432678223,-0.6516220569610596,0.11998139321804047,,,,,,,,,
1739303871.2996843,-0.10092825849826695,1.0699978256587726,-0.40724968339186396,-1.4203463778116316,1.5352666266032682,1.1438499812652116,1.3508356912631359,0.0004219002636353243,-0.0019901264355370527,-0.0011088228966225247,-0.0025486231258728988,-0.0037135846225797436,-0.007098894861648847,0.00011916229121822218,-0.5562860369682312,-51.42026138305664,-7.864579200744629,18.06952667236328,1.9838358163833618,-0.8420517444610596,0.05955658480525017,,,,,,,,,
1739303871.3106828,-0.10091951418655037,1.0700051916532933,-0.4072457159188766,-1.4203851846624171,1.5352584994173248,1.1437915000147265,1.3508371886220676,0.0008207478018925128,0.00287555518667236,-0.0005654609105805582,-0.004864562306992053,-0.00011319225466924004,-0.003276544930452845,0.00035751894115635535,-0.4571039378643036,-51.44406509399414,-7.864579200744629,18.09729766845703,1.9252420663833618,-0.8942368030548096,0.04673920199275017,,,,,,,,,
1739303871.3215652,-0.1009086351692059,1.0700138880566301,-0.40723934741439205,-1.4204103490801134,1.5352530065439145,1.1437760190674877,1.350830147511967,0.00038860086108160935,0.0007024420962825847,0.0017414072799056299,-0.0030903185988140577,-0.0003897057177330379,-0.0012651596731889053,0.0003332549125423274,-0.4293329417705536,-51.42026138305664,-7.864579200744629,18.12110137939453,1.9316507577896118,-0.9006454944610596,0.06596527993679047,,,,,,,,,
1739303871.3316457,-0.10090394026408062,1.070025137443432,-0.4072397225352491,-1.420435215195199,1.535252574113355,1.143774376271155,1.350825868986822,0.0006260467619516125,8.153618537401963e-05,0.0011167365682358205,-0.003299648875721372,0.0008375750290608092,-0.000766912596049429,-0.0002059457882569729,-0.4055292308330536,-51.44406509399414,-7.816971778869629,18.19647979736328,1.9316507577896118,-0.8942368030548096,0.06596527993679047,,,,,,,,,
1739303871.3416512,-0.1009018636039154,1.0700421219681453,-0.40724442454839904,-1.4204513080823422,1.5352493096310735,1.143767863108357,1.3508237947564778,0.000651991376844185,0.0019980086614770328,-0.0002999598182789084,-0.002386851170922681,0.00023422655900239497,-0.00028209362357588935,0.00035400525251439254,-0.3817255198955536,-51.54721450805664,-7.789200782775879,18.19647979736328,1.9252420663833618,-0.8750107288360596,0.07969819009304047,,,,,,,,,
1739303871.3516524,-0.10090040185560606,1.0700483969611407,-0.40724255673057697,-1.4204587932163497,1.535249821762964,1.1437619437537445,1.3508233073631395,0.0005695413296448416,0.001196392800859197,-0.0007507455895559609,0.00015950617553460672,-0.0006358952889855326,-0.0008784059883872819,-0.0017216549874555273,-0.4055292308330536,-51.49563980102539,-7.816971778869629,18.16870880126953,1.9179178476333618,-0.8612778186798096,0.04673920199275017,,,,,,,,,
1739303871.3616822,-0.10090285215249266,1.070063002322707,-0.40724180188301,-1.4204585510057002,1.5352502175355294,1.1437561822549476,1.3508285177024597,-2.101072768271575e-05,0.0017072048118871193,-0.0006615578667514778,0.0002470037609947375,-0.0004156086540402767,-0.00032368205378822056,0.0010558017670535087,-0.3301508128643036,-51.57101821899414,-7.789200782775879,18.12110137939453,1.9115091562271118,-0.8548691272735596,0.03941498324275017,,,,,,,,,
1739303871.3726385,-0.1009026027061938,1.0700628929697593,-0.4072424387040238,-1.42046274583596,1.5352529875792909,1.1437534976690924,1.3508237548441857,0.000681536410336732,-0.00036982058406525187,-0.0003074622903463356,7.68279485435199e-05,-7.801221030332128e-06,-0.000563008377171115,0.0006914275199250671,-0.3301508128643036,-51.51944351196289,-7.789200782775879,18.14490509033203,1.9179178476333618,-0.8356430530548096,0.07969819009304047,,,,,,,,,
1739303871.3826716,-0.10090739310707564,1.0700730402803038,-0.4072416962426598,-1.4204705418293369,1.53525145497554,1.143754541390653,1.3508267715511706,-0.002146710414426539,5.5253955427236195e-05,-0.0005704454473916955,0.00012924245050784282,0.0006569559005756979,0.0007615444814149121,0.0012771110565688863,-0.3063471019268036,-51.57101821899414,-7.789200782775879,18.19647979736328,1.9051004648208618,-0.8484604358673096,0.05314789339900017,,,,,,,,,
1739303871.3936055,-0.10090602621537993,1.070080527964333,-0.4072422622761115,-1.4204740699221592,1.535250135939093,1.1437536979866547,1.3508168599011328,-0.00010085707424967974,0.002699000983039226,9.237310196497127e-05,0.0006240635098618843,0.00045355579189633064,0.0022003475600372094,-0.001061361504336983,-0.2825433909893036,-51.54721450805664,-7.816971778869629,18.19647979736328,1.9115091562271118,-0.8686020374298096,0.10624848306179047,,,,,,,,,
1739303871.403607,-0.10090260234389978,1.0700754551421976,-0.4072386471447636,-1.4204687837317476,1.5352498219109683,1.1437510147295162,1.3508201483902165,0.0007160299610737556,-0.0003225246463777087,0.0005095733321824491,-8.549415770156489e-05,-0.0011330373456955173,-0.0006920065737521676,0.0009022899670987366,-0.3301508128643036,-51.47183609008789,-7.840775489807129,18.09729766845703,1.9179178476333618,-0.8548691272735596,0.07328949868679047,,,,,,,,,
1739303871.4136543,-0.10090333637309848,1.0700746412487963,-0.4072415115612005,-1.4204702900712274,1.5352481937299978,1.1437520612677472,1.350821020733337,-0.0005166150437231243,-0.00141520677281942,0.0008513220702039332,-0.00011253135618714565,-9.304673800556443e-05,-0.000715740516947925,0.0006861533040914021,-0.3539545238018036,-51.42026138305664,-7.816971778869629,18.14490509033203,1.9316507577896118,-0.8548691272735596,0.06596527993679047,,,,,,,,,
1739303871.4236617,-0.10089645107677135,1.0700680550961204,-0.4072442981628223,-1.4204727274650855,1.5352463499407587,1.1437517593074193,1.3508225049319174,0.0005217209420298884,-0.0025147032877565188,-0.001145262513400358,-0.0013140163691504354,0.0013287290581716757,9.559600501688994e-05,0.0010266751249744007,-0.3817255198955536,-51.36868667602539,-7.765397071838379,18.16870880126953,1.9380594491958618,-0.8612778186798096,0.05314789339900017,,,,,,,,,
1739303871.434658,-0.1008978103178588,1.0700728166799691,-0.4072423342929809,-1.4204663275823628,1.5352460739865523,1.1437536803551691,1.350823630860149,-0.0006867182508579646,0.0002609333295529758,0.001295533325960442,-0.0008367319832404956,-0.0007554310064207413,0.00021209907349056172,0.001450542010402366,-0.3539545238018036,-51.42026138305664,-7.816971778869629,18.12110137939453,1.9115091562271118,-0.8686020374298096,0.03941498324275017,,,,,,,,,
1739303871.4456682,-0.10089510647699561,1.070072817667049,-0.40723968706165176,-1.4204703325400132,1.535243490340323,1.143754442490871,1.350818921892582,0.000539945443148755,0.0015748796741063545,0.0011011851187112927,-0.0014645596935492396,0.001060841393426992,0.00038447345978429547,-8.267640354597469e-05,-0.3817255198955536,-51.42026138305664,-7.816971778869629,18.14490509033203,1.9316507577896118,-0.8750107288360596,0.07969819009304047,,,,,,,,,
1739303871.4565942,-0.10089570302373713,1.070074725209494,-0.4072404382814401,-1.4204702560240015,1.5352455765462125,1.1437511193849113,1.3508204913181718,0.001399279833290143,0.0002191359609857979,-0.00011743138338012906,-8.303298072564029e-05,0.0006648265345292466,-0.0008701563028046496,-0.0003787237014093432,-0.3817255198955536,-51.42026138305664,-7.816971778869629,18.14490509033203,1.9252420663833618,-0.8548691272735596,0.06596527993679047,,,,,,,,,
1739303871.4666917,-0.10089938816049751,1.0700767025657356,-0.407241552732853,-1.4204684996912849,1.5352434895795284,1.1437511193676309,1.350823648073831,-7.758631609767629e-05,0.0002637570432314242,0.0001534318887291113,0.0007168813068245615,-0.00012723062022336874,0.00010847568797499019,0.0023879971076077875,-0.3301508128643036,-51.44406509399414,-7.789200782775879,18.12110137939453,1.9316507577896118,-0.8548691272735596,0.03941498324275017,,,,,,,,,
1739303871.477664,-0.1008967500256402,1.070080465901705,-0.4072441824608286,-1.42047029003593,1.535244765303278,1.143749486309904,1.350822006637953,0.0004606009472618756,-0.0006464198063811797,-0.00023304895456935696,0.00022704252017047532,-2.4214941219753797e-05,5.999599669828502e-05,0.000951719578202575,-0.3539545238018036,-51.49563980102539,-7.765397071838379,18.14490509033203,1.9316507577896118,-0.8420517444610596,0.05314789339900017,,,,,,,,,
1739303871.488635,-0.10089696257369106,1.0700808298141373,-0.4072414469864049,-1.4204670053947888,1.5352460761566429,1.1437478493429276,1.350823625834512,0.00027145821147385647,0.0007404932863582562,0.0002865294865293449,0.0021591711375627144,-0.0008738133680395517,-8.088200325614107e-05,0.00207100760075563,-0.3301508128643036,-51.47183609008789,-7.789200782775879,18.09729766845703,1.9179178476333618,-0.8283188343048096,0.03941498324275017,,,,,,,,,
1739303871.4986432,-0.10089870316523397,1.0700818571104966,-0.40724357404045225,-1.4204705621457172,1.5352473266854563,1.1437462919120636,1.35082166105322,-0.000712901037752457,-1.397929476524781e-05,-0.00010612635877270383,-0.00035211771293323327,-0.0009234922530485525,-0.0009849539549717915,0.0012474465976584088,-0.3301508128643036,-51.47183609008789,-7.765397071838379,18.14490509033203,1.9252420663833618,-0.8283188343048096,0.04673920199275017,,,,,,,,,
1739303871.5097048,-0.10090078402129783,1.0700853142205398,-0.40724239934909157,-1.4204702598386572,1.535245429873658,1.1437453042131935,1.3508194302193477,-0.0004504864266876244,0.0014123623736185167,-9.2765722570872e-05,0.000837144426964411,0.0005468207486761367,-0.0011332720531454488,3.137376734269122e-05,-0.3063471019268036,-51.51944351196289,-7.789200782775879,18.14490509033203,1.9444681406021118,-0.8356430530548096,0.06596527993679047,,,,,,,,,
1739303871.5205877,-0.10089770097276236,1.0700782954740975,-0.40723944550656643,-1.4204685498751286,1.535243311356662,1.1437515832425167,1.350813518328649,-0.0007657484950089569,0.0007298915996544484,0.0017642728657587658,0.001187371714116346,-0.0016315255949762067,0.0002631887544767775,-0.0013651929206765431,-0.3539545238018036,-51.42026138305664,-7.816971778869629,18.12110137939453,1.9316507577896118,-0.8612778186798096,0.08610688149929047,,,,,,,,,
1739303871.5306342,-0.10089724722861136,1.0700782532870399,-0.40724626181536316,-1.4204728039952252,1.5352433106188033,1.1437479600695375,1.3508164863032877,-0.00045975056260979315,0.0005371464163978286,-0.001466998188373151,-0.0002794492573054627,-0.0007290299808681181,-0.0016133128461169567,-0.0005114504511059386,-0.3301508128643036,-51.39249038696289,-7.737626075744629,18.16870880126953,1.9316507577896118,-0.8612778186798096,0.09983979165554047,,,,,,,,,
1739303871.5406578,-0.1008972474084439,1.0700784118254785,-0.4072482486516578,-1.420465296713117,1.5352433106187908,1.1437484455464502,1.3508203687345137,-0.0002421186238220829,0.000528518812510018,-0.0014359930163534654,0.000968847365700818,0.0008590830232045399,-0.0021513569872261416,-0.0001545299222254429,-0.3301508128643036,-51.42026138305664,-7.737626075744629,18.06952667236328,1.9316507577896118,-0.8612778186798096,0.06596527993679047,,,,,,,,,
1739303871.550679,-0.10090104727426896,1.0700761841602349,-0.40724152530449753,-1.4204687909877103,1.5352489502234274,1.1437497945976425,1.3508232769803772,-0.0013862502452617349,-0.0009347029201658428,0.0007393628058332653,5.420264853385492e-05,0.0005238893787251566,-0.00026122176753115686,0.001130469917822105,-0.3063471019268036,-51.39249038696289,-7.789200782775879,18.09729766845703,1.9115091562271118,-0.8548691272735596,0.03941498324275017,,,,,,,,,
1739303871.5617335,-0.10089767358466804,1.0700762340857954,-0.4072404203092495,-1.4204702560695548,1.5352449744766794,1.1437466375721517,1.3508192310213953,-0.000668008915919956,-0.0008522051937040055,0.001497443901426353,-6.570296809400682e-05,0.0010286234538736158,-0.0011637911686796772,-0.00025795602049303034,-0.3539545238018036,-51.39249038696289,-7.765397071838379,18.14490509033203,1.9179178476333618,-0.8548691272735596,0.07328949868679047,,,,,,,,,
1739303871.5717378,-0.10089762097067212,1.07008383466862,-0.4072405247443663,-1.420470256127685,1.5352433106194734,1.1437485895189483,1.3508156721873383,-0.0001305874182957389,2.376555767041465e-05,0.00022010302583574145,-0.0006096623748742835,0.000575945922240086,4.520164060958589e-05,-0.0009951192862609826,-0.3539545238018036,-51.49563980102539,-7.840775489807129,18.14490509033203,1.9316507577896118,-0.8356430530548096,0.10624848306179047,,,,,,,,,
1739303871.5826545,-0.10089845731353426,1.0700797468978445,-0.4072393786908154,-1.4204751430809988,1.5352433105649557,1.1437445989207162,1.3508156765543482,0.0010429383288833958,0.000379950443059738,0.00015446075216826271,-0.0012767864288762982,-0.0005348393684194702,-0.0004602971161019482,0.0012068711375885957,-0.3301508128643036,-51.47183609008789,-7.816971778869629,18.19647979736328,1.9316507577896118,-0.8420517444610596,0.10624848306179047,,,,,,,,,
1739303871.5926611,-0.10089938673920597,1.0700820374053643,-0.407245382626597,-1.4204712003228237,1.5352456659993232,1.143745397112082,1.350821843193316,-0.0006667759847709671,0.0004122634149803387,-0.001309185238312243,-0.0008178040793424857,0.0016722003446797563,-0.0006420212610345246,0.00035958313729515936,-0.3301508128643036,-51.44406509399414,-7.765397071838379,18.14490509033203,1.9115091562271118,-0.8484604358673096,0.05314789339900017,,,,,,,,,
1739303871.6035917,-0.1008956987754932,1.0700805863342104,-0.40724144568498466,-1.420472330930636,1.535243310618645,1.1437440791790374,1.3508214943412205,0.0009685505433840598,7.302160998957539e-05,-0.00022094716481359494,-0.00036920744724008273,-0.000895084557686097,-0.0002083107336924491,-0.0007555979782558926,-0.3817255198955536,-51.44406509399414,-7.789200782775879,18.14490509033203,1.9316507577896118,-0.8283188343048096,0.05314789339900017,,,,,,,,,
1739303871.6146624,-0.10089828486139699,1.0700820633753274,-0.4072393658829682,-1.4204684762268154,1.5352449342312826,1.1437438410745213,1.3508137099730715,-0.001113889216072555,-0.0004488809697773373,0.0005431412414518993,0.0016180935796136398,0.0003319251199650848,-0.000919970528327677,-0.0020055492158146133,-0.3063471019268036,-51.44406509399414,-7.816971778869629,18.12110137939453,1.9179178476333618,-0.8356430530548096,0.09343110024929047,,,,,,,,,
1739303871.6256902,-0.10089769983997601,1.070081280448693,-0.4072400840821447,-1.420472322317074,1.535243258290982,1.143746992389612,1.3508218888803314,-2.431317764055069e-05,0.0002991108826760592,0.0002463358142424561,-0.0008164058212268052,-0.0010442661128595208,-0.00032088338496984983,0.0016920467547882536,-0.3539545238018036,-51.42026138305664,-7.816971778869629,18.14490509033203,1.9316507577896118,-0.8612778186798096,0.05314789339900017,,,,,,,,,
1739303871.6366098,-0.10089932190812519,1.0700849550478264,-0.4072432284629133,-1.4204684733923438,1.535241677726312,1.143746871709284,1.3508134992763154,-0.0007498840896263132,0.000685621058998655,-0.00032079471775510227,0.0006766666276629933,-0.0008991893604222951,-0.00033677643004085807,-0.0016947947619661006,-0.3301508128643036,-51.47183609008789,-7.765397071838379,18.12110137939453,1.9444681406021118,-0.8612778186798096,0.08610688149929047,,,,,,,,,
1739303871.646616,-0.10089908568498208,1.0700782968907023,-0.4072461159727634,-1.4204702815325132,1.5352449341741103,1.1437504585648548,1.3508129881294286,-0.00042624426867862,-0.00013519609858816527,-0.001196323957778381,8.603123079988352e-05,0.0002449151623530705,0.0011152910770116018,0.00033375575891727113,-0.3301508128643036,-51.42026138305664,-7.765397071838379,18.14490509033203,1.9179178476333618,-0.8548691272735596,0.09343110024929047,,,,,,,,,
1739303871.6576385,-0.10089671852050232,1.0700812853414845,-0.40724155590457184,-1.420473241020176,1.5352433106187908,1.1437469924141368,1.3508150545561965,0.0007454604586619905,2.9045938386012724e-05,0.00011655804174529154,-0.0005850458821843052,0.0006084994623035168,0.00027309144207134767,-0.0028771450619243686,-0.3539545238018036,-51.42026138305664,-7.789200782775879,18.14490509033203,1.9316507577896118,-0.8612778186798096,0.09983979165554047,,,,,,,,,
1739303871.6686172,-0.10089693760172186,1.0700792552536647,-0.4072414469816412,-1.420473034963763,1.53524331040345,1.1437472001782885,1.350816239459361,0.0002473702922711988,-0.0005895784393735827,0.0015882732782749407,-0.0018712258024603478,-0.000753242623915475,0.0002763367526751215,-0.0005929076637053239,-0.3301508128643036,-51.39249038696289,-7.789200782775879,18.16870880126953,1.9316507577896118,-0.8548691272735596,0.06596527993679047,,,,,,,,,
1739303871.678625,-0.10089654588351286,1.0700819963420882,-0.40724355507162147,-1.420470573494951,1.5352449341760979,1.1437458391308764,1.350815203594316,-1.5140776661594238e-05,-0.0014223322426375467,-0.0012480305990072347,-0.001184418148409419,0.0017284276559965108,-0.00019708496985955946,-0.0025521599173508568,-0.3301508128643036,-51.44406509399414,-7.765397071838379,18.14490509033203,1.9179178476333618,-0.8484604358673096,0.10624848306179047,,,,,,,,,
1739303871.689587,-0.10089803537992466,1.0700832334535506,-0.40723926243644903,-1.4204743350390376,1.535244056686806,1.1437453578810601,1.350819979018581,4.781915869112995e-05,-8.617707410921879e-05,0.00083680634851866,-0.0009348459457920663,0.0007020380575805277,-0.0008332227086519599,0.0010250288626165711,-0.3063471019268036,-51.44406509399414,-7.816971778869629,18.16870880126953,1.9252420663833618,-0.8484604358673096,0.06596527993679047,,,,,,,,,
1739303871.6996322,-0.10089869979836481,1.0700895743783625,-0.4072414427821407,-1.4204666935419792,1.5352440537431704,1.143744598728393,1.3508207323127384,0.00010800542031135654,0.0016885294090634019,-0.000233928733055096,0.0020175193925121245,0.0003605264060270377,4.01610295919343e-05,0.001091170806674736,-0.3301508128643036,-51.49563980102539,-7.789200782775879,18.09729766845703,1.9252420663833618,-0.8420517444610596,0.05955658480525017,,,,,,,,,
1739303871.7106671,-0.10089914053383787,1.0700834286303336,-0.4072412113483948,-1.4204702903507334,1.5352433106187087,1.1437445987283679,1.3508152628283012,-1.5078612258259845e-05,-0.0009590732138745335,0.0016628236295497378,0.0003134041215618315,0.0008961339887784139,-0.00034965029300430676,-0.0006228243578642764,-0.3301508128643036,-51.42026138305664,-7.789200782775879,18.14490509033203,1.9316507577896118,-0.8420517444610596,0.07328949868679047,,,,,,,,,
1739303871.7216818,-0.10089459664027574,1.070087945408498,-0.4072393668627918,-1.420470497998639,1.5352425524741957,1.1437438410682894,1.3508174126945902,0.000933064767955952,0.0012789171178870583,0.0011511996943141568,-0.0011335825574656346,-0.00029083463616224437,0.0004094669797611813,-0.00036827964730948407,-0.3539545238018036,-51.47183609008789,-7.816971778869629,18.14490509033203,1.9380594491958618,-0.8356430530548096,0.05314789339900017,,,,,,,,,
1739303871.7317069,-0.100897357848681,1.0700790816407437,-0.40724144567284026,-1.4204705745319635,1.535239089944933,1.1437445987283679,1.3508197940741484,-0.0006812018933995304,-0.0008867017012248646,0.00048223569487157317,0.00037833454690080744,-0.0010094690673179037,-0.00016664121995210642,0.0014304991036781889,-0.3539545238018036,-51.39249038696289,-7.789200782775879,18.14490509033203,1.9316507577896118,-0.8420517444610596,0.03300629183650017,,,,,,,,,
1739303871.742645,-0.1008976090245994,1.0700797168795522,-0.40724537422607093,-1.4204667709791166,1.5352392164987199,1.1437461140485246,1.35081667778859,0.000576966077775464,0.00012767035339138395,0.0006137767026150527,0.0005621593431711413,-0.0007054458249139285,-0.0002798864392189705,-0.0006378658721240929,-0.3539545238018036,-51.36868667602539,-7.765397071838379,18.09729766845703,1.9380594491958618,-0.8548691272735596,0.08610688149929047,,,,,,,,,
1739303871.7526643,-0.10089348047068022,1.0700793987553916,-0.4072419981375939,-1.4204666906700276,1.535241808651132,1.1437461140485246,1.3508164070740163,0.0005402034439712901,-0.00024585095524561046,-0.0004256711573159248,0.0014944369737489743,6.18854583799511e-05,-0.000666604169094139,0.0006664078239497454,-0.3817255198955536,-51.39249038696289,-7.765397071838379,18.09729766845703,1.9444681406021118,-0.8548691272735596,0.07328949868679047,,,,,,,,,
1739303871.7636793,-0.10089447826586613,1.0700816024832702,-0.4072443067251671,-1.4204685073587624,1.53523890309412,1.143745356388446,1.3508172535966672,0.00044038900207224213,0.0007332776889521002,-0.00024522880723761866,0.0003838216881492908,-0.0018489842172298605,-0.00020472741586440702,-0.00013570679264168878,-0.3539545238018036,-51.42026138305664,-7.789200782775879,18.12110137939453,1.9380594491958618,-0.8484604358673096,0.06596527993679047,,,,,,,,,
1739303871.7745793,-0.10089621719619896,1.0700840566428376,-0.4072393668802653,-1.4204711776652732,1.53524143770467,1.1437445987283679,1.3508190999702494,0.00037178342649141823,0.0002978080563843191,0.001187294640579271,-0.00014038925913087473,-0.0007653446308191188,9.926653102074423e-05,0.0005223288538897648,-0.3301508128643036,-51.44406509399414,-7.816971778869629,18.14490509033203,1.9444681406021118,-0.8420517444610596,0.07328949868679047,,,,,,,,,
1739303871.784616,-0.10089621622201514,1.070083713257775,-0.40724322792186984,-1.4204714674567689,1.5352393725847182,1.143745356388446,1.350813032596186,0.0004806742261430534,-0.0007749195117608675,-0.0001479590358449117,0.00029144578046488026,-0.0008590578329925936,0.0004289699371883603,-0.0009715263390039388,-0.3301508128643036,-51.44406509399414,-7.765397071838379,18.12110137939453,1.9380594491958618,-0.8484604358673096,0.11998139321804047,,,,,,,,,
1739303871.7946525,-0.10089721845404627,1.0700916312896112,-0.40724554950170944,-1.4204687043493758,1.535240889310621,1.143744245515658,1.3508166500881342,-0.0007521061888002295,0.0023894885741439463,-0.0014163299915144283,0.0007571940376218028,-2.108300996214778e-05,0.0005510914805083419,0.0005396068680787341,-0.3063471019268036,-51.51944351196289,-7.737626075744629,18.12110137939453,1.9252420663833618,-0.8420517444610596,0.05955658480525017,,,,,,,,,
1739303871.804684,-0.10089080297098339,1.07008163916652,-0.40724359242526953,-1.4204749080844998,1.5352401301970162,1.1437438410623075,1.3508196194865296,0.001714568661499368,-0.0018072032955880712,-0.00012792283826978227,-0.0013016089092321122,-0.00011307412885462332,0.0001835129596464796,0.0003866981036809362,-0.4055292308330536,-51.42026138305664,-7.789200782775879,18.16870880126953,1.9316507577896118,-0.8356430530548096,0.03300629183650017,,,,,,,,,
1739303871.8156443,-0.10089521788734855,1.0700861332212648,-0.40724151166229855,-1.420473277988707,1.5352414415834539,1.1437442982402055,1.3508172382662702,0.0006457711637847723,0.00020741617313612757,0.0004986432770474269,-9.550031031091367e-05,-0.001828975728386199,1.3508921898123074e-05,-0.0009437519870226807,-0.3539545238018036,-51.44406509399414,-7.816971778869629,18.14490509033203,1.9444681406021118,-0.8484604358673096,0.05314789339900017,,,,,,,,,
1739303871.8266308,-0.1008925077131228,1.070084500189095,-0.4072416840328571,-1.4204733544140102,1.535242512257309,1.143746114042551,1.3508157214921228,0.0006339593472064477,-0.0004566990048849913,-0.000450573563392882,0.0002010878442924842,0.00011023824619708585,-1.4949691524782202e-05,0.0008201449578071617,-0.3817255198955536,-51.42026138305664,-7.789200782775879,18.14490509033203,1.9380594491958618,-0.8548691272735596,0.06596527993679047,,,,,,,,,
1739303871.837578,-0.10089450467562237,1.0700807898369757,-0.4072432283511883,-1.4204706804702094,1.5352410944015638,1.1437438410682892,1.3508140998728708,9.38491741720033e-05,-0.0010235992352254507,-0.00010418974502888264,0.0009074067130492055,-0.001979942434973976,0.0003989610864864953,-0.0009286625369795411,-0.3539545238018036,-51.36868667602539,-7.765397071838379,18.12110137939453,1.9380594491958618,-0.8356430530548096,0.07969819009304047,,,,,,,,,
1739303871.8476255,-0.1008944296519836,1.0700825022486926,-0.40724242583809334,-1.4204676210733942,1.53524331059409,1.1437445929141667,1.3508108675420014,0.00044385125976729826,-0.0006686636330871692,0.000592046875703747,0.001236235342845636,0.0010192209262712766,-0.00010203416630844741,-0.001943111227127682,-0.3539545238018036,-51.39249038696289,-7.789200782775879,18.06952667236328,1.9316507577896118,-0.8420517444610596,0.11998139321804047,,,,,,,,,
1739303871.8576615,-0.10089450467434631,1.0700851112095997,-0.40723936622661616,-1.4204706247237062,1.5352418348796144,1.1437438410681908,1.3508179959522693,0.0005627043116380476,7.298708452351216e-05,0.0011453159811237626,0.0012335678799664678,-0.0007438988308737746,-0.000411022588132554,8.08683265947237e-05,-0.3539545238018036,-51.47183609008789,-7.816971778869629,18.12110137939453,1.9444681406021118,-0.8356430530548096,0.04673920199275017,,,,,,,,,
1739303871.8686562,-0.10089656048630621,1.0700824845705588,-0.40724390933147636,-1.4204697845450143,1.5352444500902578,1.1437456963283843,1.3508148572099463,-0.0012947871530103734,0.0002589977660692229,-0.00028745689746535134,0.00010951845141157627,-0.00027044738638471106,8.981244461085493e-05,-0.0008355150979761629,-0.3301508128643036,-51.39249038696289,-7.789200782775879,18.09729766845703,1.9179178476333618,-0.8420517444610596,0.07328949868679047,,,,,,,,,
1739303871.8796954,-0.1008976929561226,1.0700845001531052,-0.4072415150435918,-1.4204772829636259,1.5352433120521118,1.1437445986807286,1.3508137936956839,-0.000803775763306705,-0.0004608668379883454,0.001105010418451962,-0.0025681077314391003,-0.00015307653968839,0.00021432943748679058,-0.0010360006363876566,-0.3063471019268036,-51.42026138305664,-7.816971778869629,18.16870880126953,1.9316507577896118,-0.8420517444610596,0.07328949868679047,,,,,,,,,
1739303871.8897092,-0.10089450467160728,1.0700882110871925,-0.407243228386239,-1.4204771074249352,1.5352432975368628,1.143742781430159,1.3508113137055968,0.0007556018656442232,0.0010541407716304452,0.0009761548488852008,-0.0019792102088188675,0.0002863677528994134,-0.00015344698190288973,-0.002081009324080118,-0.3539545238018036,-51.47183609008789,-7.765397071838379,18.19647979736328,1.9316507577896118,-0.8356430530548096,0.10624848306179047,,,,,,,,,
1739303871.9005744,-0.10089621719634802,1.0700862931642836,-0.4072454535899146,-1.4204715699521682,1.5352425529586387,1.143744598722386,1.3508148614110853,0.00039080851621312073,0.0004855366064774113,-0.000578127328046033,0.0009628350239102737,0.0008878683547014612,0.0011929644086140902,-0.00025164640807887203,-0.3301508128643036,-51.44406509399414,-7.765397071838379,18.12110137939453,1.9380594491958618,-0.8420517444610596,0.07328949868679047,,,,,,,,,
1739303871.9115582,-0.10089792971707924,1.070083070660578,-0.40724540991207536,-1.420471648480796,1.5352440634337017,1.1437410651477196,1.3508179959264224,-0.0005677514677357323,-0.0005197394314762682,-0.002007916977579287,-0.000166830025281924,0.0008823859471592966,-0.00012471334495971545,0.001612454813754796,-0.3063471019268036,-51.42026138305664,-7.765397071838379,18.12110137939453,1.9252420663833618,-0.8420517444610596,0.04673920199275017,,,,,,,,,
1739303871.9215996,-0.10089621730460725,1.0700847385637144,-0.4072432287255453,-1.4204744328657837,1.535237961193458,1.1437403584870123,1.350816480121675,0.0004439020445862529,-9.464903768370759e-05,0.0003302520219483056,-0.0009823842379110606,-0.0026396320878645184,-0.0005073339491331085,0.0005951808373089348,-0.3301508128643036,-51.42026138305664,-7.765397071838379,18.12110137939453,1.9380594491958618,-0.8420517444610596,0.05955658480525017,,,,,,,,,
1739303871.9316564,-0.10089450467561868,1.0700825022527276,-0.4072422259429467,-1.4204713432473892,1.5352432930984259,1.1437449840462686,1.3508164812522059,-0.00013037274567969027,-0.0009832450620354295,-0.0009377834143087916,0.0004653169463931746,-0.00044396843883140095,0.00018708466382813722,0.0007693844840728388,-0.3539545238018036,-51.39249038696289,-7.816971778869629,18.12110137939453,1.9316507577896118,-0.8484604358673096,0.05955658480525017,,,,,,,,,
1739303871.9416685,-0.1008962158972375,1.0700883018977447,-0.40724044684818855,-1.4204715727833277,1.5352431536350675,1.1437438410619836,1.3508168333343957,8.19698199759079e-05,0.0010133420707637904,0.00010269688352676775,-0.000617554825972283,0.0007760356974939538,-0.00029789273058332296,0.0006725723162417334,-0.3301508128643036,-51.47183609008789,-7.765397071838379,18.12110137939453,1.9316507577896118,-0.8356430530548096,0.05955658480525017,,,,,,,,,
1739303871.952635,-0.10089964223780308,1.070084500190059,-0.4072432283341411,-1.420473329954427,1.5352432707260257,1.1437445856464155,1.3508174677093805,-0.002236030074206973,-0.00047148903213523454,-0.0004737689726040282,-0.0010181442242549756,7.953935154697505e-05,0.00036218655232880007,0.002261241473649318,-0.2825433909893036,-51.42026138305664,-7.765397071838379,18.14490509033203,1.9316507577896118,-0.8420517444610596,0.03941498324275017,,,,,,,,,
1739303871.9636788,-0.10089008381708982,1.0700846657855545,-0.4072421638720002,-1.4204733542043462,1.5352402472135616,1.143742962089031,1.3508203728290522,0.001678741934619824,-0.00015630882341786763,2.3013080538418767e-05,-0.0003054379146101262,-0.0008164491768891504,-0.0011286842386254493,0.002555138031921832,-0.4055292308330536,-51.39249038696289,-7.789200782775879,18.14490509033203,1.9444681406021118,-0.8283188343048096,0.026597600430250168,,,,,,,,,
1739303871.9756296,-0.10089621715625142,1.0700807887953652,-0.407243228353897,-1.4204715723672934,1.5352431398448154,1.1437421760204338,1.3508136949409695,0.000591486110056748,-0.0006385808247417893,-0.0012189970009717054,-0.00014812211252769407,0.0007093648611755274,-8.238438921183251e-06,-0.001260618898835036,-0.3301508128643036,-51.36868667602539,-7.765397071838379,18.12110137939453,1.9316507577896118,-0.8484604358673096,0.08610688149929047,,,,,,,,,
1739303871.9865704,-0.10089450456735756,1.0700873612124913,-0.4072429683460425,-1.4204751381412521,1.5352394590707177,1.1437438016549426,1.350817995927013,-0.0003793745332136063,0.0007161483122050212,0.0006629320697237822,-0.0004418559135022231,-0.0012093485226404882,-0.0015479338915792686,0.0008957695252335414,-0.3539545238018036,-51.42026138305664,-7.765397071838379,18.16870880126953,1.9252420663833618,-0.8356430530548096,0.04673920199275017,,,,,,,,,
1739303871.9967003,-0.10089956331684374,1.0700865424239225,-0.4072405236973548,-1.4204731258759726,1.5352432711333712,1.143746096605254,1.3508125150769084,-0.0005505808647489124,0.001146581038998167,-0.00014256303167625673,0.0007602116590852213,-0.0008748826980411956,0.00107850599488018,-0.0002834902944676386,-0.2825433909893036,-51.44406509399414,-7.840775489807129,18.14490509033203,1.9316507577896118,-0.8548691272735596,0.09343110024929047,,,,,,,,,
1739303872.0076146,-0.10089450074175334,1.070088358806397,-0.40724534380461724,-1.4204716519438427,1.535243192396481,1.1437412962082751,1.3508178934572526,0.0015722297486326594,0.00021705836459859495,-0.001496355718268703,0.0012480313060387472,0.001488133300407633,-0.0006404259135063115,0.0014275504045446108,-0.3539545238018036,-51.44406509399414,-7.737626075744629,18.12110137939453,1.9316507577896118,-0.8420517444610596,0.05955658480525017,,,,,,,,,
1739303872.0176766,-0.10089831688367937,1.070084500225888,-0.4072414457824439,-1.420472517959603,1.5352425529567104,1.1437438410123608,1.3508150672947628,-0.0005932415546308995,-0.0008221141102412532,-0.0006072065413229632,0.00027089700571571857,0.0004870933667772735,0.000370736604485852,-0.0001515463259264072,-0.3301508128643036,-51.42026138305664,-7.789200782775879,18.12110137939453,1.9380594491958618,-0.8356430530548096,0.05955658480525017,,,,,,,,,
1739303872.0285773,-0.10089619090121256,1.0700829384386108,-0.4072439465490199,-1.4204722880482878,1.53524127880378,1.1437461077498063,1.3508120048727936,-4.848018319656078e-05,-0.0018626665334411812,-0.0006515242872907006,-0.00045148024039532277,-0.0017200557636949563,0.0005155719560974774,-0.001241898667806994,-0.3301508128643036,-51.36868667602539,-7.765397071838379,18.12110137939453,1.9444681406021118,-0.8548691272735596,0.09343110024929047,,,,,,,,,
1739303872.0386074,-0.10089550820632968,1.070088925943254,-0.4072432283620055,-1.420471572799328,1.5352435929591919,1.1437418719263135,1.3508146319843892,0.0002589221432076248,0.0019249870145819183,-0.001247365281882158,-0.00023203099543831694,-7.631308839919105e-06,-0.0012126834764543456,0.0017402016927355241,-0.3301508128643036,-51.47183609008789,-7.765397071838379,18.12110137939453,1.9252420663833618,-0.8283188343048096,0.03941498324275017,,,,,,,,,
1739303872.0496554,-0.10090006057912769,1.0700852242796366,-0.40724112231906073,-1.4204721831693021,1.5352435449980975,1.1437461139884615,1.3508150276407194,-0.0010578131789378766,0.0007443663946418598,-0.00026859014887791117,-0.00028038481790570915,0.0006442808002827889,0.0003682401769898686,0.0005584570582402879,-0.3063471019268036,-51.42026138305664,-7.765397071838379,18.12110137939453,1.9252420663833618,-0.8548691272735596,0.03300629183650017,,,,,,,,,
1739303872.0597224,-0.10089621679939753,1.0700845002018062,-0.40724359140436983,-1.4204733554745708,1.5352429949039035,1.1437410528732943,1.3508124626713363,-0.0007889158476328509,-1.191640176891272e-05,0.0006875709341517002,-2.797785890231401e-05,-0.0015729039458460684,-0.0007142762444831909,-0.001302744899138331,-0.3301508128643036,-51.42026138305664,-7.789200782775879,18.14490509033203,1.9252420663833618,-0.8420517444610596,0.09343110024929047,,,,,,,,,
1739303872.0706134,-0.10089453682860028,1.070080792816754,-0.4072414810062074,-1.4204750616118325,1.535242654937454,1.1437441526463952,1.35081166584309,0.0002287747481512229,-0.0003321254758042362,-0.0001631225780223279,-0.00043927067536609255,-0.00035108825209132004,-0.0001854838271500201,-0.0012664012693161465,-0.3539545238018036,-51.36868667602539,-7.789200782775879,18.16870880126953,1.9252420663833618,-0.8686020374298096,0.09983979165554047,,,,,,,,,
1739303872.0816193,-0.10089371449218004,1.0700825843379933,-0.40724178571767733,-1.4204715731129678,1.5352421982685174,1.1437445985061505,1.3508161269080792,0.0017063598705347148,-0.0007264932812202268,-6.447550569571949e-06,-5.104906933834762e-05,4.163787207905835e-05,0.0009367378500221742,0.001818054373236059,-0.3539545238018036,-51.39249038696289,-7.816971778869629,18.12110137939453,1.9380594491958618,-0.8420517444610596,0.05955658480525017,,,,,,,,,
1739303872.091664,-0.10089271718620943,1.0700864393555605,-0.4072414457228225,-1.420471572472281,1.535237961191483,1.1437437233307182,1.3508172382642734,7.153725862791356e-05,-0.0009806629938152226,-0.0002580399475678989,0.0004925848880138596,-0.001977448222007334,0.0014240557515150971,0.0002206166606214055,-0.3817255198955536,-51.44406509399414,-7.789200782775879,18.12110137939453,1.9380594491958618,-0.8356430530548096,0.05314789339900017,,,,,,,,,
1739303872.1026502,-0.10089570726492399,1.0700862127115545,-0.4072414721637772,-1.4204733554642321,1.5352433105928702,1.1437453505735804,1.3508196587295158,0.00023337809519205987,-0.0004286426534428241,-0.0014145007855148014,-0.0008525914187675835,-0.0002264184373121368,0.0010017223564631472,0.0019396991183618698,-0.3063471019268036,-51.44406509399414,-7.789200782775879,18.14490509033203,1.9316507577896118,-0.8484604358673096,0.03300629183650017,,,,,,,,,
1739303872.1137033,-0.10089450466307104,1.070084503132983,-0.40724325484094553,-1.4204718906786538,1.535240116630548,1.1437438391301895,1.3508148919877034,0.00024944200455945633,-0.0013295999456094968,-0.0012118909428368398,0.0005123455059805894,0.0005697771764003074,-0.0004053407421632469,0.0013804399348237703,-0.3539545238018036,-51.42026138305664,-7.765397071838379,18.12110137939453,1.9316507577896118,-0.8356430530548096,0.07328949868679047,,,,,,,,,
1739303872.12458,-0.10089792971707902,1.070083243995431,-0.40724390933192306,-1.4204694839978975,1.5352412406508358,1.1437409052571599,1.350813337368225,-0.0013453218171953483,-0.0013956426752630023,-0.0007005045360401827,0.00021030357140060252,-0.0019069794906045195,-0.00211945475159849,-0.0010884604633303449,-0.3063471019268036,-51.39249038696289,-7.789200782775879,18.09729766845703,1.9179178476333618,-0.8420517444610596,0.08610688149929047,,,,,,,,,
1739303872.1356726,-0.10089621719634805,1.0700832204492632,-0.4072433078394512,-1.420473355463658,1.5352421466934414,1.143744426700027,1.3508194448422808,-0.0002692583719951863,-0.0006792552054661575,-0.0012265054530097436,0.00012817539768737388,-0.000979798838982508,-0.0010022382620899569,0.0010413097375315435,-0.3301508128643036,-51.39249038696289,-7.765397071838379,18.14490509033203,1.9380594491958618,-0.8420517444610596,0.03300629183650017,,,,,,,,,
1739303872.1465595,-0.10089166319610492,1.0700893240386309,-0.40724168507299796,-1.420469790110196,1.535239302085319,1.143742593424741,1.3508068396949617,0.000610769437106765,0.0008506538573569849,-0.0007252527717083909,0.0005169228962971516,-0.002374733027501068,1.864692413169509e-05,-0.0013561094571947721,-0.3539545238018036,-51.44406509399414,-7.789200782775879,18.09729766845703,1.9252420663833618,-0.8612778186798096,0.10624848306179047,,,,,,,,,
1739303872.1576807,-0.10089337599349305,1.0700890747670613,-0.407241445676878,-1.4204731258759726,1.5352432517500427,1.1437437843073766,1.3508140991570703,0.00040627538496557905,0.000787078210041773,7.073952520257083e-05,-0.00023443758520451266,0.00035228277341565377,-0.0010783939691622127,-0.00042164497658713293,-0.3301508128643036,-51.44406509399414,-7.789200782775879,18.14490509033203,1.9316507577896118,-0.8356430530548096,0.07969819009304047,,,,,,,,,
1739303872.1686444,-0.10089550820142877,1.0700832087279475,-0.4072414546484965,-1.420467686967913,1.5352390701101504,1.1437442967502098,1.350811287257614,0.00033988278976019394,-0.0011246052959398064,2.811985529543336e-05,0.0004807302523331812,-0.0005791429209177967,0.000856120988008224,-0.0024217155789021424,-0.3301508128643036,-51.39249038696289,-7.789200782775879,18.09729766845703,1.9316507577896118,-0.8484604358673096,0.12639008462429047,,,,,,,,,
1739303872.1795967,-0.10089474574776404,1.0700862137317482,-0.4072393658830188,-1.420467948727047,1.5352409679189842,1.143743483435112,1.350819283136652,9.086535058249926e-05,0.00105810473098242,0.0003104405064357629,0.001697739885181694,-0.002270575849146576,-0.0007028597528035363,0.002323772491523298,-0.3817255198955536,-51.44406509399414,-7.816971778869629,18.06952667236328,1.9380594491958618,-0.8356430530548096,0.03300629183650017,,,,,,,,,
1739303872.1896434,-0.10089792055296418,1.0700852125018592,-0.4072414456728237,-1.4204733554682714,1.5352426358590117,1.1437421774680014,1.3508213455044813,-0.0009568982308210757,0.00021566453283815754,1.4638398468435959e-06,-0.0001605363593482546,0.0006614235168150544,0.0008610143110319184,0.0014474688747408526,-0.3063471019268036,-51.42026138305664,-7.789200782775879,18.14490509033203,1.9252420663833618,-0.8484604358673096,0.0064559997990727425,,,,,,,,,
1739303872.2006497,-0.10089784982172977,1.070085536756584,-0.4072414809940947,-1.4204748291891482,1.5352440617567247,1.143741415435384,1.3508128928753684,-0.00044476158688658995,-0.0010903070716034983,2.992971249564635e-05,-0.0006234152707505628,0.001381107548118065,0.000726609275220125,0.0011950259360986662,-0.3063471019268036,-51.42026138305664,-7.789200782775879,18.16870880126953,1.9252420663833618,-0.8420517444610596,0.06596527993679047,,,,,,,,,
1739303872.2115898,-0.10089336337483505,1.070087706581883,-0.40723871710484,-1.4204697891636442,1.5352439091958332,1.1437445984950572,1.3508101856614136,0.00097454678879085,6.778249395292577e-05,0.0010580841059149842,0.00013051311417822326,0.0014589303152321084,-0.00016593786469880177,-0.0011469476709020095,-0.3301508128643036,-51.42026138305664,-7.789200782775879,18.09729766845703,1.9252420663833618,-0.8420517444610596,0.11265717446804047,,,,,,,,,
1739303872.2226286,-0.10089621714801832,1.0700947366056308,-0.4072433087576403,-1.4204706004050816,1.5352396711251752,1.143740242276771,1.3508133417279928,-0.0008101239276995365,0.00046090238879784224,0.00020262807383408197,5.248572762307508e-05,0.0005577369747018115,-0.0008062682744820863,0.0005187487122634087,-0.3301508128643036,-51.51944351196289,-7.765397071838379,18.14490509033203,1.9252420663833618,-0.8420517444610596,0.08610688149929047,,,,,,,,,
1739303872.23366,-0.10089377064643786,1.0700928196793822,-0.407241445672975,-1.4204715473462475,1.535242491904326,1.1437398349514976,1.350807781363221,0.00011319131409357776,0.0016684245880558353,-6.490539542535053e-05,0.0004990791438856384,-5.7362551457579265e-05,-0.0010583132817996012,-0.0022296364019081362,-0.3301508128643036,-51.49563980102539,-7.789200782775879,18.12110137939453,1.9252420663833618,-0.8420517444610596,0.10624848306179047,,,,,,,,,
1739303872.244736,-0.10089354548519626,1.070087717821058,-0.40724344052749534,-1.4204733536108136,1.5352378042011599,1.1437442323529787,1.3508135354512345,0.0007545645508234742,0.0002999796418283867,-0.000599203684843976,-0.0005279505338327687,-0.0016356942525348021,0.0005555652281057214,-0.001621062454221672,-0.3539545238018036,-51.42026138305664,-7.737626075744629,18.14490509033203,1.9380594491958618,-0.8420517444610596,0.09343110024929047,,,,,,,,,
1739303872.2556317,-0.10089439067325297,1.07008353981102,-0.4072453397663874,-1.4204712891698712,1.5352393042680483,1.143741822590389,1.3508091432186689,0.00137973868726542,-0.0010146069275343847,-0.0004183459157085117,-0.00044100783723358247,-0.001096912841430448,0.00016318040245142827,-0.0019996115224854283,-0.3539545238018036,-51.39249038696289,-7.765397071838379,18.14490509033203,1.9252420663833618,-0.8484604358673096,0.11265717446804047,,,,,,,,,
1739303872.2665932,-0.1008941886663363,1.0700828598279084,-0.40724168413966055,-1.4204715724256218,1.5352427812842675,1.1437448837493267,1.3508140988978639,-9.694107346002454e-07,-0.0019154042421849682,-0.00030170217550464434,0.0002784152384111777,0.001206158215397424,0.00041720717324249756,1.7781174576787435e-05,-0.3539545238018036,-51.39249038696289,-7.789200782775879,18.12110137939453,1.9316507577896118,-0.8484604358673096,0.07969819009304047,,,,,,,,,
1739303872.2776794,-0.10089247652866004,1.070081858525474,-0.40724145446882176,-1.4204715727872128,1.5352379028331464,1.1437453559012611,1.3508157229456703,0.0007720110017729746,-0.0010376763250105397,0.0010479369303453294,-0.0003802408805079158,-0.0017544759309892604,0.0009633807305129817,0.0010748918180634058,-0.3817255198955536,-51.36868667602539,-7.789200782775879,18.12110137939453,1.9380594491958618,-0.8484604358673096,0.06596527993679047,,,,,,,,,
1739303872.2885606,-0.10089250294517986,1.070087679231048,-0.40724239934728906,-1.4204715434981776,1.535238542249211,1.1437414699554802,1.3508148570484406,0.000846303629286332,-0.0007777847540207431,-6.964419631079958e-05,0.00027966898072791387,-0.0009619795066138769,-0.0002746873941350046,0.001589015919724985,-0.3817255198955536,-51.42026138305664,-7.789200782775879,18.12110137939453,1.9316507577896118,-0.8548691272735596,0.07328949868679047,,,,,,,,,
1739303872.2986083,-0.10089690230105876,1.0700887159961157,-0.40723936588835163,-1.4204684390714155,1.5352400728894529,1.1437434954036798,1.350815722945673,0.00026229994132167644,-3.1097619458170364e-05,0.0007238675939445419,0.001231417500465362,-0.0004395058694031558,0.0003997481135070616,0.0014027392013764716,-0.3063471019268036,-51.44406509399414,-7.816971778869629,18.09729766845703,1.9316507577896118,-0.8420517444610596,0.06596527993679047,,,,,,,,,
1739303872.3106253,-0.10089250629592716,1.0700877188363234,-0.4072414456728237,-1.4204733554566071,1.5352401679127323,1.1437409543860506,1.3508133286463317,0.0008003539465959606,0.0004937748744359255,0.0006680307252064073,-0.0008321150875165333,0.0008477790773152712,-0.0016368544290065506,0.00042563810893399165,-0.3817255198955536,-51.42026138305664,-7.789200782775879,18.14490509033203,1.9179178476333618,-0.8484604358673096,0.08610688149929047,,,,,,,,,
1739303872.3216264,-0.100896217088088,1.0700920549466093,-0.4072432283498428,-1.4204733819551871,1.535239239019686,1.1437433113216944,1.3508148555230854,7.638750724252676e-05,0.0013899332211451396,0.00016030728165379707,-0.00015819361825489028,-0.0006539680723430324,-0.001045263560334867,0.00018503692404716216,-0.3301508128643036,-51.44406509399414,-7.765397071838379,18.14490509033203,1.9252420663833618,-0.8356430530548096,0.07328949868679047,,,,,,,,,
1739303872.332635,-0.10089613791451855,1.070089855792066,-0.4072414456728237,-1.4204698960741584,1.5352400734812963,1.1437437095997542,1.3508157171314634,-7.871794930740288e-05,0.0008452064352936658,0.0004464784004400067,0.0005643971657063855,-0.0004687834389809129,0.0005651505936094977,0.0010552988123990446,-0.3301508128643036,-51.42026138305664,-7.789200782775879,18.09729766845703,1.9316507577896118,-0.8356430530548096,0.06596527993679047,,,,,,,,,
1739303872.3426468,-0.10089450369725601,1.070089419695904,-0.40724529658397385,-1.4204697898006435,1.535240283619884,1.1437418561086579,1.3508207191584138,7.244455540517054e-05,-0.0007159397147697709,-0.0020614061787031486,0.0007825677400909934,8.184324221871439e-06,0.001479642277962126,0.00224290613372978,-0.3539545238018036,-51.44406509399414,-7.737626075744629,18.09729766845703,1.9179178476333618,-0.8548691272735596,0.05955658480525017,,,,,,,,,
1739303872.3536737,-0.10089790341008911,1.0700802625595616,-0.4072421596445699,-1.4204697900052166,1.5352401679222587,1.1437409030778278,1.3508175249840444,-0.0016770605692353103,-0.0016536973063309842,-0.00018409738499690822,0.00022129919512853144,-0.00015054888706960264,-0.0003044877795926188,0.000717047876346148,-0.3063471019268036,-51.31711196899414,-7.789200782775879,18.09729766845703,1.9179178476333618,-0.8420517444610596,0.04673920199275017,,,,,,,,,
1739303872.363678,-0.10089792094763762,1.0700877187307467,-0.40724291635737364,-1.4204730480868069,1.5352425071719156,1.1437438364835468,1.3508124758230762,-0.0006140508886973494,0.0009206179811249676,-1.3016112598531165e-05,0.00011886369289135939,0.0009538128855129638,0.0007871122678006401,-0.001092977726090232,-0.3063471019268036,-51.42026138305664,-7.765397071838379,18.14490509033203,1.9380594491958618,-0.8356430530548096,0.09343110024929047,,,,,,,,,
1739303872.374588,-0.10089261057241115,1.070085331674792,-0.4072394811114027,-1.4204733558985638,1.5352393005799683,1.1437417170051694,1.350813341728284,0.00038385933237267556,-0.0006311407348062151,0.00040746404641833853,-0.0008060177258739794,0.0002904849785694396,-0.0005971782639495168,-0.0005366459160791662,-0.3539545238018036,-51.42026138305664,-7.816971778869629,18.14490509033203,1.9252420663833618,-0.8548691272735596,0.08610688149929047,,,,,,,,,
1739303872.3855622,-0.10089747238775146,1.0700877198080325,-0.40723869905196564,-1.4204715727872175,1.5352392999072908,1.1437401896011334,1.3508133415129433,-0.0012381920004750466,-0.0006601877076244846,0.0011383110017776765,0.0003754376370084827,-0.0010697775121356386,-0.001677584539017563,-0.0004787820177410627,-0.2825433909893036,-51.42026138305664,-7.816971778869629,18.12110137939453,1.9252420663833618,-0.8420517444610596,0.08610688149929047,,,,,,,,,
1739303872.395663,-0.10089792957207343,1.0700936545420339,-0.4072432636598209,-1.420475138141253,1.5352385441852754,1.1437418229320238,1.3508157224611528,-0.0001491750958176954,0.002037205231837976,-0.0019605835812470628,-0.0005074408838940069,-0.000425762052320481,0.0003355237822103406,0.00018089959749314854,-0.3063471019268036,-51.47183609008789,-7.765397071838379,18.16870880126953,1.9316507577896118,-0.8548691272735596,0.06596527993679047,,,,,,,,,
1739303872.4066346,-0.10089613827538074,1.0700876283948424,-0.407241287290953,-1.420471572787215,1.5352379535593916,1.143739950040505,1.3508122816056296,0.00030427937143182114,-0.0006194392201074163,-2.8141055821151555e-05,0.0003288768459353054,-0.001279138716218917,-0.0010996688408776282,-0.0008798054941026091,-0.3301508128643036,-51.39249038696289,-7.789200782775879,18.12110137939453,1.9316507577896118,-0.8420517444610596,0.08610688149929047,,,,,,,,,
1739303872.4176712,-0.10089408239673082,1.070084008503496,-0.4072393923736234,-1.420475173292943,1.5352392999600144,1.143742053411078,1.3508133359120882,-0.0008600811423428827,-0.0016706446550798074,0.0007977291269838055,0.00014400283168277447,-0.0007264807225446085,0.0012968350854535152,-0.0002542965794534715,-0.3301508128643036,-51.36868667602539,-7.816971778869629,18.16870880126953,1.9252420663833618,-0.8484604358673096,0.08610688149929047,,,,,,,,,
1739303872.4295917,-0.10089761098991096,1.0700880368408174,-0.40723936459914833,-1.4204670215557544,1.535238555329161,1.1437398324646304,1.350813891170244,-0.0004667989439981965,0.0009459465886919286,0.0010443591051394869,0.0019809359917547405,-0.0011442155684941065,-0.0009120802675846331,-0.0011016778732073733,-0.3063471019268036,-51.42026138305664,-7.816971778869629,18.06952667236328,1.9316507577896118,-0.8420517444610596,0.08610688149929047,,,,,,,,,
1739303872.4396615,-0.10089782448732688,1.070089431362888,-0.40724359101203855,-1.4204677103527907,1.5352396531200707,1.1437405880168758,1.3508179446947912,-0.0012852483840871353,0.001663324605863578,-0.0005109619400574645,0.0005309233383340907,-0.00013055587232802364,-0.0007989719505495541,0.0011841416995240028,-0.3063471019268036,-51.44406509399414,-7.789200782775879,18.06952667236328,1.9252420663833618,-0.8484604358673096,0.05314789339900017,,,,,,,,,
1739303872.4506023,-0.10089621427275532,1.0700877157515674,-0.40724136768379415,-1.4204754672183701,1.5352393042699317,1.1437445245913305,1.3508161771785783,-0.0003382295082471438,0.0002781416215485964,0.0006847291598932087,-0.0008457915453823567,0.0008322327563155434,0.0003587453568376012,2.257168945273122e-05,-0.3301508128643036,-51.42026138305664,-7.789200782775879,18.14490509033203,1.9252420663833618,-0.8548691272735596,0.05314789339900017,,,,,,,,,
1739303872.4606214,-0.10089542766187248,1.0700876835190383,-0.4072472170132381,-1.420475138286032,1.5352444566849195,1.1437382113754666,1.350809900854796,-0.00028149063127162733,-0.0003259902480958841,-0.0019451386801029248,-0.0014439214635733968,0.002090538996891579,-0.0012128648888646064,-0.0008301968378996911,-0.3301508128643036,-51.42026138305664,-7.737626075744629,18.16870880126953,1.9179178476333618,-0.8283188343048096,0.10624848306179047,,,,,,,,,
1739303872.4715953,-0.10089619088490281,1.0700878511859122,-0.4072393773828472,-1.420471572787216,1.5352381378778974,1.1437429692342789,1.350817423291393,-0.00019446440654843406,-0.0003749722975809849,0.0010641597320007342,0.0013543873240374708,0.00012411882090327883,0.000814455208453492,0.001100956271498793,-0.3301508128643036,-51.42026138305664,-7.816971778869629,18.12110137939453,1.9380594491958618,-0.8686020374298096,0.08610688149929047,,,,,,,,,
1739303872.4816172,-0.10089165085410927,1.0700877983154626,-0.40724611586393994,-1.420469868747264,1.5352401656489967,1.143740588016864,1.350817237850875,-1.1016642129303293e-05,0.00056831864424566,-0.0009873077775478694,5.349495496499707e-05,-0.0006357004888845926,-0.0004232179984802479,0.0004040735691200458,-0.3539545238018036,-51.42026138305664,-7.765397071838379,18.09729766845703,1.9179178476333618,-0.8484604358673096,0.05314789339900017,,,,,,,,,
1739303872.4916759,-0.10089620545602353,1.070087654849158,-0.40723937868677185,-1.4204733819565187,1.5352401658045167,1.1437413456769425,1.3508117181709662,-0.0005850703959486018,0.000592508739864889,0.0005274812813450087,-0.0013945611998332076,0.0007042861618432744,0.0005835062517503161,-0.00047794223085862,-0.3301508128643036,-51.42026138305664,-7.816971778869629,18.14490509033203,1.9179178476333618,-0.8548691272735596,0.09983979165554047,,,,,,,,,
1739303872.50266,-0.10089347834214359,1.0700883259354705,-0.40724322834991505,-1.4204733553594049,1.5352386598232728,1.1437412563434124,1.3508157098637208,0.000229172552758539,0.0008897119185228172,-0.0008891008083885749,0.00036238968020793345,-0.0003712060745849082,0.0007846032490082078,0.001628782797426538,-0.3539545238018036,-51.47183609008789,-7.765397071838379,18.14490509033203,1.9316507577896118,-0.8420517444610596,0.06596527993679047,,,,,,,,,
1739303872.5126994,-0.10089784688140176,1.0700894313085372,-0.4072414495974094,-1.42047157660682,1.5352385548466352,1.1437375268641952,1.3508140993881408,-0.0005348060498897849,0.00042811017804482963,-4.5496506744715443e-05,-0.0001693688420208982,-0.001319010235990859,-0.0006482292378015884,-6.289520789116884e-05,-0.3063471019268036,-51.44406509399414,-7.789200782775879,18.12110137939453,1.9316507577896118,-0.8484604358673096,0.07969819009304047,,,,,,,,,
1739303872.5235946,-0.1008961894815224,1.0700857150126297,-0.40724322824286746,-1.4204715727872366,1.535239299907358,1.1437413456596621,1.350813341728284,0.00022389775902249929,-0.0006846022264973061,-0.0010403695380616614,-0.00033874380998013414,-0.0006303371097192733,0.0002968085714005577,0.00010447976264200867,-0.3301508128643036,-51.39249038696289,-7.765397071838379,18.12110137939453,1.9252420663833618,-0.8548691272735596,0.08610688149929047,,,,,,,,,
1739303872.5345967,-0.10089408622156876,1.07009089775465,-0.4072453082487128,-1.420477283908465,1.535240359706922,1.1437398696026422,1.3508140601425056,0.00024977810419359546,0.000569750378515244,-0.0010669335540162794,-0.0013452746413116937,0.000927370919692305,-0.000102476945095381,-0.001013394485572233,-0.3301508128643036,-51.42026138305664,-7.737626075744629,18.16870880126953,1.9252420663833618,-0.8420517444610596,0.07969819009304047,,,,,,,,,
1739303872.5456002,-0.10089571991402506,1.0700914293079276,-0.40723729242988116,-1.4204733564494179,1.5352412254446428,1.1437398347175103,1.3508146633074698,-0.0009461764980488621,0.0010221486110768025,5.179917201874346e-05,-0.0007098669484656181,0.0006539091635366876,-0.00013818851135844617,-0.001503937728995555,-0.3063471019268036,-51.47183609008789,-7.816971778869629,18.14490509033203,1.9179178476333618,-0.8420517444610596,0.06596527993679047,,,,,,,,,
1739303872.5556808,-0.10089333984561405,1.0700914656043634,-0.4072414455307122,-1.420471575730671,1.5352386614562736,1.1437405880169378,1.3508137568713694,0.00010123690938564263,0.0010177582599282878,0.00030460135267606337,5.785440170142915e-06,0.00043355270606599395,0.00010229339962665478,9.724923969359179e-05,-0.3301508128643036,-51.47183609008789,-7.789200782775879,18.12110137939453,1.9316507577896118,-0.8484604358673096,0.04673920199275017,,,,,,,,,
1739303872.566624,-0.10089505040277352,1.0700857205726648,-0.4072391318795471,-1.4204697646004056,1.5352401656436867,1.1437413456769425,1.3508140978570473,-0.0007456004744085501,-0.001540968630908599,0.0014353034389913279,0.0003887989483878717,-0.0001413887286862123,0.00013892960434699222,-0.00013507577715580771,-0.3063471019268036,-51.39249038696289,-7.816971778869629,18.09729766845703,1.9179178476333618,-0.8548691272735596,0.07969819009304047,,,,,,,,,
1739303872.5776682,-0.10089446958337865,1.07008771884036,-0.4072393658816472,-1.4204688717933451,1.5352409234645965,1.143740588016864,1.3508157229456643,0.00011516858923911677,0.0005895489531030696,0.0014769535649413273,0.0010414204021540372,0.0002007943141689207,1.4561076562456182e-05,-0.0008304344623139792,-0.3539545238018036,-51.42026138305664,-7.816971778869629,18.09729766845703,1.9115091562271118,-0.8484604358673096,0.06596527993679047,,,,,,,,,
1739303872.5886366,-0.10089376374937846,1.070091429301946,-0.40724110766788335,-1.420469790105012,1.5352401614438687,1.143739843438738,1.3508160051337559,-0.0005423805803403644,0.0013802810502300147,0.000711830442339888,0.00014634859047711808,-0.0002748867240763373,-0.0001933770394286735,4.1987462015054174e-05,-0.3539545238018036,-51.47183609008789,-7.789200782775879,18.09729766845703,1.9179178476333618,-0.8420517444610596,0.05955658480525017,,,,,,,,,
1739303872.5986514,-0.10089337462169636,1.0700880380399955,-0.4072396837686828,-1.4204733554642337,1.5352401701650962,1.143739072696929,1.350818015783483,0.0006274574516856064,-0.00011266329615189038,0.0011192053276181664,-0.0002809692778387646,0.0003456240382900272,-0.0003141667541555154,0.002000522496686148,-0.3301508128643036,-51.42026138305664,-7.816971778869629,18.14490509033203,1.9179178476333618,-0.8356430530548096,0.04673920199275017,,,,,,,,,
1739303872.609564,-0.10089556106166826,1.0700895373267076,-0.4072414456746182,-1.4204726666994498,1.535238895459943,1.1437390726967074,1.3508179915658098,-0.00032258837788569643,0.0012478387587762482,0.00018133305555633665,-0.00046778887144976436,0.00023735074199997562,-0.0006568619403763331,0.0019933667270765495,-0.3063471019268036,-51.44406509399414,-7.789200782775879,18.14490509033203,1.9316507577896118,-0.8356430530548096,0.04673920199275017,,,,,,,,,
1739303872.619607,-0.10089450366117056,1.0700847240723743,-0.4072390367083456,-1.4204762164755187,1.5352379295877363,1.143740286038813,1.350815709863647,-0.00011867763399233734,-0.0012610389115797294,0.0011976732040591145,-0.0017843700813841442,-0.0009397761331038509,-0.0011365657953113762,0.0014733988681859588,-0.3539545238018036,-51.36868667602539,-7.816971778869629,18.14490509033203,1.9444681406021118,-0.8548691272735596,0.06596527993679047,,,,,,,,,
1739303872.629623,-0.10089473390515243,1.0700894313732132,-0.40724313317306576,-1.4204713432474052,1.5352386992459217,1.1437405879989189,1.3508161786279191,0.0013876576977434325,0.0005824461004575622,-0.0006395517359416667,0.0010335129877118044,0.0001631824379747726,-8.024677797005881e-05,0.0006902333305191003,-0.3063471019268036,-51.44406509399414,-7.765397071838379,18.12110137939453,1.9316507577896118,-0.8484604358673096,0.05314789339900017,,,,,,,,,
1739303872.6406226,-0.10089450465757639,1.0700877188403617,-0.4072392878812908,-1.4204697901089,1.5352422850816645,1.1437405867786545,1.350815420477564,0.0003003616456514279,-0.0012543455794544987,0.0009921024180341346,0.00017935698196863757,-0.0004019127654019805,1.9951166986219895e-05,-0.0003194459945552268,-0.3539545238018036,-51.42026138305664,-7.816971778869629,18.09729766845703,1.9179178476333618,-0.8484604358673096,0.05955658480525017,,,,,,,,,
1739303872.6506267,-0.10089594535746883,1.070089431361093,-0.4072414456715027,-1.4204695634653737,1.5352409251155434,1.1437413398627205,1.3508124234852894,0.00097917724270872,0.0003576657127648589,0.0006117134643277,0.0013758616064064224,0.0010396256849389991,0.0002813049277629343,-0.0007701780551984621,-0.3301508128643036,-51.44406509399414,-7.789200782775879,18.09729766845703,1.9115091562271118,-0.8548691272735596,0.09343110024929047,,,,,,,,,
1739303872.6616604,-0.10089761403168533,1.0700885829036042,-0.4072432023494627,-1.4204695605206552,1.5352416811246852,1.1437390731811912,1.3508188618232853,3.269057868337123e-05,-0.00037297965754178844,-0.0008238719268162233,0.0015761777929682594,9.508563663451178e-06,-0.0004402526208710437,0.0011055672887762588,-0.3063471019268036,-51.39249038696289,-7.765397071838379,18.09729766845703,1.9051004648208618,-0.8356430530548096,0.03941498324275017,,,,,,,,,
1739303872.6726105,-0.10089449590483869,1.07008409146533,-0.4072393747131391,-1.42046948098176,1.5352409292787985,1.1437405749349145,1.3508188618235808,0.0006784254775954457,-0.0020519374442155734,0.00045893017059638476,4.726557964561379e-05,0.00019056017790343845,7.662970603354113e-05,0.0018423853898963055,-0.3539545238018036,-51.36868667602539,-7.816971778869629,18.12110137939453,1.9115091562271118,-0.8484604358673096,0.03941498324275017,,,,,,,,,
1739303872.6835763,-0.10089377061030204,1.0700857208999777,-0.4072379751079732,-1.420469788838644,1.535239779578901,1.143739830356712,1.3508146232172284,-0.000123527133021642,-0.0004800085894394885,0.0010665332269283994,0.0008210752007359182,0.0015007198079308086,-0.00036888144792809164,0.0010241026335543963,-0.3301508128643036,-51.39249038696289,-7.816971778869629,18.09729766845703,1.9252420663833618,-0.8420517444610596,0.03941498324275017,,,,,,,,,
1739303872.693646,-0.1008961878166687,1.070087721783801,-0.40724141964889077,-1.420469798940492,1.535240161451992,1.1437398303567858,1.3508129952813208,-0.0005112636994425125,-0.00019255852552483855,-0.00027285575087249945,0.0006745429235086003,0.00036075405409649635,-0.0001371190827675126,-0.0010326193033796528,-0.3301508128643036,-51.42026138305664,-7.789200782775879,18.09729766845703,1.9179178476333618,-0.8420517444610596,0.05314789339900017,,,,,,,,,
1739303872.7045856,-0.1008958630803029,1.0700864376088128,-0.40723933921390487,-1.4204715728236037,1.5352393129892146,1.1437398303567858,1.3508120806318102,0.00020026772232151262,-0.0010496519607432738,0.0005750890669985613,-0.00032671203479680124,-3.8856404800125666e-05,-0.0005223845325738695,0.00026523158620716104,-0.3301508128643036,-51.39249038696289,-7.789200782775879,18.12110137939453,1.9252420663833618,-0.8420517444610596,0.05955658480525017,,,,,,,,,
1739303872.7146604,-0.10089710542544945,1.0700894323543768,-0.4072393658472951,-1.4204698960740094,1.5352409635017399,1.1437398303567858,1.3508170797547792,0.0001513253703078889,0.0007765242691352534,0.0004386059797533496,0.0006451053689012029,0.0007249792894695511,-0.0003590817921149143,0.001327819339268681,-0.3063471019268036,-51.44406509399414,-7.816971778869629,18.09729766845703,1.9380594491958618,-0.8420517444610596,0.05314789339900017,,,,,,,,,
1739303872.7256038,-0.10089310080595976,1.0700857210448693,-0.407241683627747,-1.4204715727878132,1.535238899838514,1.1437402348041543,1.3508134041602267,0.00043660870687016625,-0.0005216958473611771,0.0003359229273661625,-5.935441534056187e-05,0.00026124372236872384,-0.00019742151360675904,0.0011506702925640747,-0.3301508128643036,-51.39249038696289,-7.789200782775879,18.12110137939453,1.9316507577896118,-0.8484604358673096,0.04673920199275017,,,,,,,,,
1739303872.736557,-0.10089652583448316,1.0700894313610938,-0.40724152514702666,-1.4204718121869404,1.5352431344989712,1.1437398289012417,1.3508126856671439,6.152542141485472e-05,-0.000750976333179914,0.00014251760262109017,0.0003961904636589356,0.001123010206214362,-0.0002500560783217634,0.0005744377083720489,-0.2825433909893036,-51.44406509399414,-7.789200782775879,18.12110137939453,1.9316507577896118,-0.8420517444610596,0.05314789339900017,,,,,,,,,
1739303872.746578,-0.10089792858171055,1.0700876246503057,-0.4072414574479266,-1.4204749085570458,1.5352392995005404,1.1437382082530005,1.350812475753953,-0.00029779393327139384,-1.3445772584631094e-06,-0.00046630320624460836,-0.00030900678661059384,-0.00020520897902416758,0.00010201500915189691,0.00025656138125169285,-0.3063471019268036,-51.42026138305664,-7.789200782775879,18.16870880126953,1.9252420663833618,-0.8283188343048096,0.09343110024929047,,,,,,,,,
1739303872.756598,-0.1008961787643089,1.0700877454387359,-0.40724530813989773,-1.4204715080276635,1.5352392999072801,1.143741345676967,1.350811679732643,-0.0015192491770355527,-0.00019149854773523685,0.00014784631414464783,0.00039151440799425896,0.000285191191894474,0.0006142651229127206,-8.643595594978487e-05,-0.3301508128643036,-51.42026138305664,-7.737626075744629,18.12110137939453,1.9252420663833618,-0.8548691272735596,0.09983979165554047,,,,,,,,,
1739303872.767662,-0.10089484010680477,1.0700922923844924,-0.4072432283498428,-1.420473355463137,1.5352401658045192,1.143739791110929,1.3508161252932585,-0.0007876795531506194,0.0004487917727383114,-0.0010261764380282074,4.729311843490496e-05,-0.0001704259063076449,-0.0004421279925948854,0.000863858565259854,-0.3063471019268036,-51.44406509399414,-7.765397071838379,18.14490509033203,1.9179178476333618,-0.8420517444610596,0.05955658480525017,,,,,,,,,
1739303872.7776878,-0.10089613814968305,1.0700877227810979,-0.407243254840796,-1.4204737273847448,1.5352392999072868,1.1437405880166425,1.3508140993863564,-0.000915398282428055,0.00014096271404270735,-0.0010110500617195753,-0.00046222342395560673,0.0004036303108645266,0.0011043962311201008,0.000970774004947458,-0.3301508128643036,-51.42026138305664,-7.765397071838379,18.12110137939453,1.9252420663833618,-0.8484604358673096,0.07969819009304047,,,,,,,,,
1739303872.7886846,-0.10089374433900346,1.0700857210085473,-0.40723936719131293,-1.42046773799168,1.5352392999072868,1.1437405878015232,1.35081885746293,0.0011658526107675927,-0.0005986792116719572,-0.0004351201029737108,0.0010068837774100065,-0.0008853717866712336,-0.0004642405760851575,0.0034772878530924902,-0.3301508128643036,-51.39249038696289,-7.816971778869629,18.06952667236328,1.9252420663833618,-0.8484604358673096,0.03941498324275017,,,,,,,,,
1739303872.7995663,-0.10089439607766883,1.070084246797357,-0.40724101831754794,-1.4204711875668756,1.535237784533295,1.1437405880168627,1.3508188610160283,-0.0001846425613951507,-0.0016725397430782515,0.0003068888183658644,0.000450455583599401,-0.00035100915099367834,7.500122838716615e-05,0.0023442937378467237,-0.3539545238018036,-51.36868667602539,-7.765397071838379,18.14490509033203,1.9380594491958618,-0.8484604358673096,0.03941498324275017,,,,,,,,,
1739303872.80964,-0.10089398012617219,1.0700877188443993,-0.4072414456353966,-1.4204715737316478,1.5352359272520013,1.1437430092711738,1.3508082198359177,0.0002955195378170828,0.0004744773919460639,0.0002501309017725679,-0.0001576884649278943,-0.0014933580520340047,0.0007640646402711029,-0.002007127055200767,-0.3301508128643036,-51.42026138305664,-7.789200782775879,18.12110137939453,1.9179178476333618,-0.8420517444610596,0.09343110024929047,,,,,,,,,
1739303872.8205678,-0.10089384955477447,1.07008819567752,-0.4072407407736317,-1.4204733554642393,1.535239300367877,1.1437390727146524,1.3508147390715048,-0.00013613373855020036,0.0004448453598417441,0.0002474471273410651,0.0009872852635208114,-6.57880342506229e-05,1.0475727802929093e-05,0.0008893391448433049,-0.3301508128643036,-51.42026138305664,-7.789200782775879,18.14490509033203,1.9252420663833618,-0.8356430530548096,0.07328949868679047,,,,,,,,,
1739303872.831602,-0.10089611061983257,1.0700885822521984,-0.40723936587898896,-1.4204697907764063,1.5352409627104568,1.143740588501381,1.3508170798286272,0.0005500333539216351,0.0002532319468168347,3.48309210502838e-05,0.0007637431255064501,-0.000308058500800878,0.00014730534563665875,0.0005519050119032977,-0.3301508128643036,-51.39249038696289,-7.816971778869629,18.09729766845703,1.9115091562271118,-0.8484604358673096,0.05314789339900017,,,,,,,,,
1739303872.8416178,-0.1008896654699654,1.0700905926666715,-0.40724346676842177,-1.420469801883964,1.535237767145192,1.143740941229582,1.3508098608331618,0.0021707396276415916,0.001375669528854306,0.000204047202118549,0.0001560732001709825,-0.0008445106806341377,0.00035453703825466797,0.00013978142065790712,-0.3817255198955536,-51.42026138305664,-7.765397071838379,18.09729766845703,1.9380594491958618,-0.8484604358673096,0.07969819009304047,,,,,,,,,
1739303872.85165,-0.10089325907354876,1.070085733048983,-0.4072393544402976,-1.4204733554644333,1.5352424168899634,1.1437413456829242,1.3508065474605677,0.0002917918453262705,-0.0022416211077331202,0.00026682356695947326,-0.0004789322597887739,0.0026871859909359877,0.0002265169431012315,-0.0014482697227009122,-0.3301508128643036,-51.39249038696289,-7.816971778869629,18.14490509033203,1.9380594491958618,-0.8548691272735596,0.10624848306179047,,,,,,,,,
1739303872.862628,-0.10089687309048088,1.0700915815253629,-0.40724322834977816,-1.4204706543991765,1.5352387533028409,1.1437398303567858,1.3508109212401265,-0.00023222047482134847,0.00012607198845354488,-1.3721789076738588e-05,0.0005526836960947572,-0.0005495145462945329,-0.0004973075358044131,-0.001416995885895648,-0.3063471019268036,-51.44406509399414,-7.765397071838379,18.12110137939453,1.9179178476333618,-0.8420517444610596,0.10624848306179047,,,,,,,,,
1739303872.8726754,-0.10089610772839162,1.0700858273357998,-0.4072414456728237,-1.4204743091229972,1.5352407130572163,1.1437390668825063,1.3508157070311737,-0.000563056440297939,-5.3563382252133296e-05,-0.000813030504609436,-0.0010724966513821878,0.0002196120217676423,-0.001673819019828816,0.0002288189066732765,-0.3301508128643036,-51.39249038696289,-7.789200782775879,18.14490509033203,1.9252420663833618,-0.8356430530548096,0.05314789339900017,,,,,,,,,
1739303872.883562,-0.10089446959901452,1.0700898659163696,-0.4072429163452825,-1.4204705053713165,1.535238529011728,1.1437413435773371,1.3508172382576262,0.0003108859974550341,-0.00017245649089862652,-0.0002713254227079755,-0.0003020340482153449,0.0004590611461744965,0.00026049391558200533,0.0013647310639005416,-0.3539545238018036,-51.42026138305664,-7.765397071838379,18.09729766845703,1.9316507577896118,-0.8548691272735596,0.05314789339900017,728,709,721,38.676,0,0
1739303872.893631,-0.10089408762881383,1.0700877218201617,-0.4072393396367578,-1.420469790122309,1.5352402050501517,1.1437398303567503,1.3508188661842315,-0.001236567723632966,-0.0006149835075864418,-0.0002661307612345815,-0.00029480127510756165,0.0008170635292334137,-0.000343971085129205,0.0031159805598561944,-0.3301508128643036,-51.42026138305664,-7.789200782775879,18.09729766845703,1.9179178476333618,-0.8420517444610596,0.03941498324275017,728,709,721,38.676,0,0
1739303872.904588,-0.10089587129614733,1.0700903948468903,-0.4072393658710795,-1.4204715737333686,1.5352385421935948,1.1437398303567858,1.3508150003039172,0.00046849842473393566,0.0002561052531981109,0.00019421142421804601,-0.0004936704562765095,-0.000591334964721996,0.00039363828034233737,0.0006608734507913977,-0.3301508128643036,-51.44406509399414,-7.816971778869629,18.12110137939453,1.9316507577896118,-0.8420517444610596,0.07328949868679047,727,710,723,38.785,0,0
1739303872.915616,-0.10089310030345064,1.0700857248295332,-0.40724322834984267,-1.420469506492868,1.5352385902143664,1.1437409397760236,1.3508203771445462,2.1272360995818764e-05,-0.0010502671604887734,-0.00011328109702859654,0.00045540982087421695,0.0003174075149907317,0.0005184147613198761,0.0017134192057520255,-0.3301508128643036,-51.39249038696289,-7.765397071838379,18.12110137939453,1.9316507577896118,-0.8484604358673096,0.026597600430250168,728,714,723,38.785,0,0
1739303872.9256525,-0.10089026041160926,1.0700887170865685,-0.40724638848546435,-1.4204737978873152,1.535237786041493,1.1437414634204695,1.350812987422424,0.0016968439403111588,0.0004085217351021315,-0.0013514580100792647,-0.00045836435458337205,0.000246093825659203,0.00029737378467010697,0.00010021060640288187,-0.3817255198955536,-51.44406509399414,-7.713822364807129,18.12110137939453,1.9380594491958618,-0.8548691272735596,0.07969819009304047,727,710,722,38.676,0,0
1739303872.935673,-0.10089539179008146,1.0700922962965314,-0.407240743650669,-1.4204708838541935,1.535240165804544,1.1437398303587798,1.3508109590385133,4.174990595313065e-05,0.0015308552452247513,0.0008126448846200356,0.0007835524698228044,-0.000615632856768458,0.00017589107488500498,-0.0004420078969597118,-0.3301508128643036,-51.44406509399414,-7.789200782775879,18.12110137939453,1.9179178476333618,-0.8420517444610596,0.10624848306179047,728,710,725,38.676,0,0
1739303872.946579,-0.10089447836396913,1.0700909252793607,-0.40724346676445894,-1.4204732799120707,1.5352370269270519,1.1437398303567858,1.3508091799701492,9.059852395928758e-05,0.00042186710061227787,4.6441517610241274e-05,0.00036954843303868047,-0.002913151668127561,-0.0005036054707470988,-0.0005842924867370952,-0.3539545238018036,-51.42026138305664,-7.765397071838379,18.14490509033203,1.9444681406021118,-0.8420517444610596,0.11998139321804047,728,709,723,38.676,1,0
1739303872.9565887,-0.10089590107900624,1.0700841143968918,-0.40724144504093307,-1.42047513912112,1.5352393003918037,1.1437398303567858,1.3508153793134277,-0.0013942635143973702,-0.000572643962079988,0.00025815335557738737,-0.0012875781776929482,0.0011007063981477998,0.0001413916280044549,-0.0008250913511935205,-0.3301508128643036,-51.36868667602539,-7.789200782775879,18.16870880126953,1.9252420663833618,-0.8420517444610596,0.03300629183650017,728,710,725,38.676,1,0
1739303872.9666507,-0.10089474613310698,1.0700908182836855,-0.40724322834983206,-1.4204697901102123,1.535240166773561,1.1437405875323472,1.3508140993165545,0.0001743532359798098,0.0004931824788335515,0.0005542614007929685,0.00012546264867451537,6.566855387159175e-05,-0.00011071046402468061,-0.0011188261195262965,-0.3063471019268036,-51.42026138305664,-7.765397071838379,18.09729766845703,1.9179178476333618,-0.8484604358673096,0.07969819009304047,728,712,723,38.676,0,0
1739303872.9775562,-0.10089399436416933,1.070089944061591,-0.4072436363547382,-1.420472530386117,1.5352400485514717,1.1437398303567832,1.3508139743830407,0.0008675262210276103,-0.0001227445100934881,-0.00043145540631054876,-0.000616173057336833,1.9934699606282617e-05,0.000431698679130136,-0.00040341422379665726,-0.3301508128643036,-51.42026138305664,-7.789200782775879,18.12110137939453,1.9179178476333618,-0.8420517444610596,0.07969819009304047,728,710,724,38.785,0,0
1739303872.9876466,-0.10089142661208496,1.0700887611825884,-0.40724143737017854,-1.4204715728034318,1.5352370269250661,1.1437390726967074,1.3508148433183491,0.0007120950191808493,-0.0001766417945063239,-3.6077064512692525e-05,0.0010239961113436926,-0.0008159406403809908,-0.0005431133638205437,0.0004529116038779911,-0.3539545238018036,-51.42026138305664,-7.789200782775879,18.12110137939453,1.9444681406021118,-0.8356430530548096,0.07328949868679047,728,710,724,38.676,1,0
1739303872.9986365,-0.1008954714577986,1.0700880573417593,-0.4072432254608648,-1.420471572787215,1.5352388311433074,1.143740588016864,1.3508146613693992,-0.00020007533423779133,0.0002744574626475663,-0.0004560938242694644,-0.0003150273694097214,0.00020009174967228048,0.0006915479286602733,0.0003368651766400109,-0.3063471019268036,-51.42026138305664,-7.765397071838379,18.12110137939453,1.9380594491958618,-0.8484604358673096,0.06596527993679047,728,710,724,38.676,1,0
1739303873.0086505,-0.10089346696944827,1.0700894416143547,-0.40724394060960256,-1.4204697989405137,1.535238542264932,1.143740588016864,1.3508101584352674,0.0006193819675966283,0.00045720810854905166,-0.000652742996984651,1.87065314081916e-06,-0.00013780084281479803,-7.943070437781453e-05,-0.0007846407496109014,-0.3539545238018036,-51.44406509399414,-7.765397071838379,18.09729766845703,1.9316507577896118,-0.8484604358673096,0.08610688149929047,729,710,724,38.676,0,0
1739303873.0195997,-0.10089569358113111,1.0700885518700656,-0.40724216191372814,-1.4204735938828628,1.5352388442252598,1.1437416988896523,1.3508109604390899,0.00021773735559984402,0.0004381669896641457,6.485020998487457e-06,-0.0009553921480794841,0.0007936764641334327,0.0010004811417483122,-0.001194286188412023,-0.3063471019268036,-51.42026138305664,-7.789200782775879,18.14490509033203,1.9380594491958618,-0.8548691272735596,0.10624848306179047,728,710,723,38.676,0,0
1739303873.0296228,-0.10089538951681055,1.0700918273347484,-0.40723874360772344,-1.4204733554682716,1.5352377983330499,1.1437350272450464,1.350808939343302,0.00027804169668079734,0.0002463159867234191,0.0007590447706803689,-4.837218234757305e-05,-0.000269544451698325,-0.0016825634760081558,-0.0007671146342481841,-0.3301508128643036,-51.44406509399414,-7.789200782775879,18.14490509033203,1.9380594491958618,-0.8283188343048096,0.09343110024929047,729,709,724,38.676,1,0
1739303873.040579,-0.10089497019426862,1.070093575228038,-0.4072429943311693,-1.420471572787215,1.535235211082472,1.1437390726787586,1.3508102026155122,0.000726925767537752,0.0010207444716601524,0.00017886762206963694,-0.00043735581714256276,-0.0016051209709962424,-0.000255109581046986,-0.0017639791584518854,-0.3063471019268036,-51.47183609008789,-7.765397071838379,18.12110137939453,1.9508768320083618,-0.8356430530548096,0.11265717446804047,727,711,722,38.676,0,0
1739303873.051625,-0.10089588933466405,1.0700908186573914,-0.40724322867557056,-1.4204716522600747,1.5352427793402024,1.1437399480943555,1.3508124189810853,-0.00041543847585547337,-0.0005064619616268807,-0.000990316941393608,2.983922932675836e-06,0.0014114591064270793,2.988760812317098e-05,-0.00016224949955965056,-0.3301508128643036,-51.42026138305664,-7.765397071838379,18.12110137939453,1.9316507577896118,-0.8420517444610596,0.09343110024929047,727,709,725,38.785,0,0
1739303873.06264,-0.10089570682884835,1.070087727833533,-0.40723936631903507,-1.4204716522605234,1.5352377846110488,1.143739072697372,1.350813341674128,-0.00038481114290527647,-0.0024940087210118837,0.0005672582827263684,0.00027520598875672503,0.0005474633936731669,-9.555227374711091e-05,0.00029931266767180037,-0.3063471019268036,-51.42026138305664,-7.816971778869629,18.12110137939453,1.9380594491958618,-0.8356430530548096,0.08610688149929047,728,708,722,38.676,0,0
1739303873.0736182,-0.10089578703822624,1.070091603728325,-0.4072393658829706,-1.4204697901106444,1.5352374826090793,1.1437390726428722,1.3508164786681245,-0.0011397759273626662,0.0004772864669434137,0.00025616438317404005,0.0013668632278665419,-0.0007645709221099498,-0.0012231488939996751,0.00024413550987795673,-0.3063471019268036,-51.44406509399414,-7.816971778869629,18.09729766845703,1.9316507577896118,-0.8356430530548096,0.05955658480525017,727,709,724,38.676,1,0
1739303873.0846148,-0.1008917930418628,1.0700840094085258,-0.40724322878590785,-1.4204715737683613,1.5352370269210702,1.1437405880168636,1.3508157222996398,0.0012108972431396836,-0.00185089390623918,-0.0003593369328433863,0.0006507039878501769,-0.00021558691805609624,0.00021114554964016637,0.0013196202876857171,-0.3817255198955536,-51.36868667602539,-7.765397071838379,18.12110137939453,1.9444681406021118,-0.8484604358673096,0.06596527993679047,727,710,725,38.676,1,0
1739303873.0946496,-0.10089587129608234,1.0700821256681377,-0.4072417813884298,-1.4204697901102123,1.535236856861673,1.1437374105560263,1.3508161749135013,-0.00032009031927751055,-0.00242884998047596,0.0005032457772296885,0.0014784035166381833,-0.0010878015096853631,4.80687008750505e-06,0.0006956632746089057,-0.3301508128643036,-51.34091567993164,-7.789200782775879,18.09729766845703,1.9444681406021118,-0.8484604358673096,0.05314789339900017,728,715,724,38.568,0,0
1739303873.1055903,-0.10089333757155482,1.0700827623237785,-0.407239131881443,-1.4204695064928627,1.5352353633318605,1.1437413456590055,1.3508122372025044,0.0009270724651203772,-0.0023038582665208564,0.001062488203790687,0.0010137046517011495,-0.000649109285434036,6.333928671026375e-05,0.0011738334872307748,-0.3301508128643036,-51.34091567993164,-7.816971778869629,18.12110137939453,1.9316507577896118,-0.8548691272735596,0.05955658480525017,728,713,723,38.676,1,0
1739303873.1165583,-0.10089418591173287,1.0700856898426054,-0.4072414456688609,-1.4204733553242623,1.5352401655891785,1.1437405880168636,1.3508132891671072,0.001640199252923467,-0.0008337993894611661,0.00026487249084111307,-0.0002779212052527782,0.0007632428462211679,0.00033368031597014083,-0.0006385827600370736,-0.3539545238018036,-51.39249038696289,-7.789200782775879,18.14490509033203,1.9179178476333618,-0.8484604358673096,0.08610688149929047,729,710,722,38.676,1,0
1739303873.1265807,-0.10089130853713014,1.070089669888513,-0.4072394453558278,-1.4204731258759717,1.5352370269270506,1.1437390726967074,1.350816479152345,0.00046480231735079815,0.00038826830858281565,0.0006693611831163034,-0.00021661590853727007,-0.0008462897298781333,3.3812283720163826e-05,0.0009263385926400515,-0.3539545238018036,-51.44406509399414,-7.816971778869629,18.14490509033203,1.9444681406021118,-0.8356430530548096,0.05955658480525017,729,709,721,38.676,0,0
1739303873.1375835,-0.1008960997892364,1.0700877571091112,-0.40724144600121837,-1.420476216483295,1.5352370269270517,1.143738206799475,1.3508148554333603,0.0004686692322159037,-0.0012984868213926624,-0.0006647369741039323,-0.0002925900156883542,-4.667557582356546e-05,-0.00099564039156279,0.000774575920465497,-0.3301508128643036,-51.42026138305664,-7.789200782775879,18.14490509033203,1.9444681406021118,-0.8283188343048096,0.07328949868679047,729,709,724,38.568,0,0
1739303873.1476228,-0.10089694726407637,1.0700894710432305,-0.4072432283498446,-1.4204697901263463,1.535239294093086,1.1437398303567858,1.350812528908065,9.435657825948584e-05,-0.0006270160494352297,-0.0012637990803931148,0.0014481747656213866,-0.0002355250100782047,-0.0007032371717526674,7.349179965376743e-05,-0.3063471019268036,-51.44406509399414,-7.765397071838379,18.09729766845703,1.9252420663833618,-0.8420517444610596,0.07969819009304047,726,710,723,38.568,1,0
1739303873.1576543,-0.10089302136780048,1.070089983326962,-0.40723936621001694,-1.4204733554642341,1.535238536432909,1.1437398361709867,1.3508132859124387,0.002173683790258816,8.264355460431037e-05,-0.0005217505572632824,-0.0005862687520416052,0.00016178479887824017,3.912017428897552e-05,0.0009897658478983714,-0.3301508128643036,-51.42026138305664,-7.816971778869629,18.14490509033203,1.9316507577896118,-0.8420517444610596,0.04673920199275017,726,709,722,38.676,1,0
1739303873.1685443,-0.10089686428406185,1.0700917850765077,-0.40724136767168917,-1.4204723603758485,1.53523854224711,1.143739817274932,1.3508188428476633,-0.0006950922077295016,0.0014246148588556637,0.0004170943211584464,0.0003377840960395582,-0.0003118020469833832,0.000632441926673774,0.0016461608703639574,-0.3063471019268036,-51.42026138305664,-7.789200782775879,18.14490509033203,1.9316507577896118,-0.8420517444610596,0.03941498324275017,727,708,721,38.568,1,0
1739303873.178687,-0.10089302090930076,1.0700860784231456,-0.4072393657755304,-1.4204715727815977,1.5352377844256246,1.143739830356712,1.350814097450188,0.0013567998617172378,0.00063091810211535,0.0003441538051018824,-0.0006834187602443362,-0.0005708266905839433,0.00030230807216037906,-0.0007319157181055651,-0.3301508128643036,-51.39249038696289,-7.816971778869629,18.12110137939453,1.9380594491958618,-0.8420517444610596,0.07969819009304047,728,708,723,38.568,1,0
1739303873.189578,-0.10089610271223244,1.0700902618490442,-0.4072411222833942,-1.4204698960740088,1.5352385559751822,1.1437398303567858,1.3508093238177858,-0.0011536371238853925,0.0008623994060935427,-0.0008727380420299044,0.000425530171111893,0.0007815441575593706,2.3846198383119775e-05,-0.0019784298977976403,-0.3301508128643036,-51.44406509399414,-7.765397071838379,18.09729766845703,1.9316507577896118,-0.8420517444610596,0.11998139321804047,729,709,723,38.785,1,0
1739303873.1995785,-0.10089596733215019,1.070088779909767,-0.40723933960637515,-1.4204714491645611,1.5352399695754686,1.1437395283787346,1.3508140943814666,-0.00019852784101459555,-0.0007451138123892231,0.0007216330516103642,2.386950907450427e-05,0.0006593006149030857,-0.00046904297378212354,-0.000664223426875721,-0.3301508128643036,-51.42026138305664,-7.789200782775879,18.12110137939453,1.9179178476333618,-0.8484604358673096,0.07969819009304047,729,711,723,38.568,1,0
1739303873.2096343,-0.10089201881491873,1.0700901744698865,-0.4072432282428435,-1.420470096657662,1.535238542237239,1.1437390595609198,1.350817481369307,0.0003651848103340725,0.0012363400119219093,2.547021076039103e-05,-6.407477746595138e-05,0.000851331972612153,-0.0003861561866814703,0.0011030394075386618,-0.3539545238018036,-51.44406509399414,-7.765397071838379,18.09729766845703,1.9316507577896118,-0.8356430530548096,0.04673920199275017,728,709,724,38.568,1,0
1739303873.2216449,-0.10089337459348001,1.0700866785119219,-0.4072414429292474,-1.4204715724728558,1.5352377845871301,1.1437382067994502,1.3508188618226127,-0.0002605891405964137,-0.0010250500463691635,0.0010746303173252932,0.00012302686271520126,-0.0003040198864461539,-0.000404995845717708,0.002950346402587173,-0.3301508128643036,-51.39249038696289,-7.789200782775879,18.12110137939453,1.9380594491958618,-0.8283188343048096,0.03941498324275017,729,710,723,38.676,1,0
1739303873.2325454,-0.10089442526948218,1.0700896819948997,-0.4072404203087845,-1.4204735930470198,1.5352385422472083,1.1437398303567858,1.3508139637236727,-0.0009147315583260482,-0.00012132286212949933,0.00030302555889746336,0.0002136538831615946,-0.00043321885690118995,0.0002617966590072493,0.0006558949668100766,-0.3539545238018036,-51.44406509399414,-7.765397071838379,18.14490509033203,1.9316507577896118,-0.8420517444610596,0.07969819009304047,728,709,723,38.785,1,0
1739303873.2436185,-0.10089397673544111,1.0700909331137742,-0.4072405096432913,-1.420469790111537,1.5352363324904346,1.143739712619216,1.35080954765929,3.27304592691845e-05,0.0009392066449471169,0.0013495096936774853,-3.830094344777522e-05,-0.0010427122064344673,-0.0003306235068366141,-0.0018409546581417907,-0.3301508128643036,-51.42026138305664,-7.789200782775879,18.09729766845703,1.9380594491958618,-0.8420517444610596,0.10624848306179047,730,710,721,38.676,0,0
1739303873.2536588,-0.1008947334594853,1.0700851908240074,-0.4072414456675398,-1.4204715726822363,1.5352406634533373,1.143736651441733,1.3508146238922059,-5.986397189355449e-05,-0.0014861572617514895,-0.0011965205237975348,-0.0006007195304534536,0.0005295309723183215,-0.000961233775091242,-0.00022420473315840864,-0.3063471019268036,-51.34091567993164,-7.789200782775879,18.12110137939453,1.9316507577896118,-0.8420517444610596,0.06596527993679047,728,710,722,38.568,1,0
1739303873.2646084,-0.10089645459921957,1.070090186804507,-0.4072414455658262,-1.420470534800324,1.5352388442611824,1.1437398257807943,1.3508179565003737,-0.0005136449845105078,-0.0009993036194104834,0.0002375811537253963,-0.00020259768454081964,0.0007649774055316821,4.440714517688491e-05,0.002256572827954566,-0.2825433909893036,-51.42026138305664,-7.789200782775879,18.09729766845703,1.9380594491958618,-0.8420517444610596,0.04673920199275017,730,710,722,38.676,1,0
1739303873.2755795,-0.10089142237350628,1.0700887001491886,-0.4072432282071793,-1.4204697930550363,1.5352377845891243,1.1437382067994664,1.350815368279339,0.0008713210011040083,0.00013215376208147906,-0.00011933275456851725,0.00044149019888468113,-0.0011237960002640009,-0.0002789261949909625,0.00015226539886078647,-0.3539545238018036,-51.39249038696289,-7.765397071838379,18.09729766845703,1.9380594491958618,-0.8283188343048096,0.06596527993679047,728,710,722,38.676,1,0
1739303873.2856917,-0.10089305597518688,1.0700829999200308,-0.40724322867688917,-1.4204755807043554,1.5352353638173375,1.1437398303567858,1.350815066295796,3.925635746158184e-05,-0.001299557920355872,-0.00035929095543862607,-0.0015056700431733791,-0.0014459087960201613,0.0003357537205413712,0.0009552453514525897,-0.3301508128643036,-51.34091567993164,-7.765397071838379,18.14490509033203,1.9316507577896118,-0.8420517444610596,0.05955658480525017,729,710,721,38.676,0,0
1739303873.2976139,-0.10089302089746997,1.0700879966193992,-0.4072433081497531,-1.4204751646811065,1.5352393003200262,1.143738206799475,1.350806704507791,-0.0006115059237757487,0.0004095124630102996,-0.0007722749805731729,-0.0009592975797604939,0.00014830353893294435,-0.0001479882348485817,-0.002452534655653578,-0.3301508128643036,-51.42026138305664,-7.765397071838379,18.16870880126953,1.9252420663833618,-0.8283188343048096,0.10624848306179047,729,709,724,38.785,1,0
1739303873.3077366,-0.10089473374278078,1.070088935245752,-0.40723939233870604,-1.420471547277558,1.5352353574647868,1.1437405878553584,1.3508124758070263,-0.0006597824661262118,0.00013193977693656757,-0.0003090740084229907,0.00010570537155700004,-0.0019424841641791956,0.0007193777714713571,-0.0012973257458393447,-0.3063471019268036,-51.39249038696289,-7.816971778869629,18.12110137939453,1.9316507577896118,-0.8484604358673096,0.09343110024929047,729,709,722,38.676,2,0
1739303873.318575,-0.10089302219638432,1.0700857297479716,-0.4072414369705139,-1.4204697901100518,1.5352393391351655,1.143739830356785,1.3508129997137526,0.00029495527409908675,-0.0009648215193861574,-0.0009140069945665289,0.0010530258419152129,0.0013749769734968725,-0.0004006026590220214,-0.00024326137451188845,-0.3301508128643036,-51.39249038696289,-7.789200782775879,18.09729766845703,1.9252420663833618,-0.8420517444610596,0.05314789339900017,729,710,722,38.676,1,0
1739303873.3295486,-0.10089130837656277,1.070091082319741,-0.40724322706572597,-1.4204715740954101,1.535239339153808,1.1437398303567858,1.35081540781433,0.0012299257015180244,-0.00031440222374670777,0.00034600034555320753,3.897771515051662e-05,0.0003939585654059436,0.00032429939427669745,0.0006806364335279879,-0.3539545238018036,-51.39249038696289,-7.765397071838379,18.12110137939453,1.9252420663833618,-0.8420517444610596,0.05955658480525017,730,709,722,38.568,0,0
1739303873.3396225,-0.10089473341800316,1.07008895724725,-0.4072400550313062,-1.4204733554642561,1.5352377453419381,1.1437398303567858,1.3508077423324825,0.0007050691695713715,0.00048325871706574004,0.00017177328902515175,-0.000399425302492035,-0.00019785848503280215,0.0004471743977328814,-0.0017377450899142936,-0.3063471019268036,-51.39249038696289,-7.816971778869629,18.14490509033203,1.9380594491958618,-0.8420517444610596,0.10624848306179047,728,709,721,38.676,0,0
1739303873.350677,-0.10089523069631633,1.0700925661299818,-0.4072432283511395,-1.4204737184144554,1.5352377850895182,1.1437390726967074,1.3508132850158237,9.909474456640152e-05,-3.226325730534103e-05,-0.0014405752753821645,-0.0006877928063406642,-0.0005930626857234618,0.0004097711780315481,-0.00027606247721008106,-0.3301508128643036,-51.44406509399414,-7.765397071838379,18.12110137939453,1.9380594491958618,-0.8356430530548096,0.08610688149929047,731,710,722,38.568,1,0
1739303873.361615,-0.10089497022945847,1.070089683024675,-0.4072375832059491,-1.420471584294487,1.5352385262581587,1.143739791110929,1.3508101634431342,-0.0009736597847008414,-0.0007404922822760042,0.001157604133351194,4.633283981160779e-05,-0.001320752470551191,8.990230159825007e-05,-0.002317141588470809,-0.3063471019268036,-51.44406509399414,-7.840775489807129,18.12110137939453,1.9316507577896118,-0.8420517444610596,0.11265717446804047,730,710,721,38.785,0,0
1739303873.3716657,-0.10089586205601668,1.0700909374409333,-0.4072431503487027,-1.4204726511333399,1.5352377845868594,1.143739830356121,1.3508156849911936,-0.0012187945201413784,0.00041383071357974484,-0.00040593284833793973,0.0001650744699449504,-0.000618056317291411,0.00021486450054811058,0.00022824332975211346,-0.3301508128643036,-51.42026138305664,-7.765397071838379,18.09729766845703,1.9380594491958618,-0.8420517444610596,0.06596527993679047,731,709,721,38.568,0,0
1739303873.3816926,-0.10089587379211631,1.0700888600774658,-0.40724322834852184,-1.4204697911397939,1.5352393158963396,1.1437413442233921,1.35081092110289,1.3153571142230475e-05,-0.0006000936262622257,-0.00038851845928420715,-8.899359334098907e-05,0.0008486354335131885,0.00043139864716182044,0.0006457297222143139,-0.3301508128643036,-51.39249038696289,-7.765397071838379,18.09729766845703,1.9252420663833618,-0.8548691272735596,0.10624848306179047,730,710,721,38.676,1,0
1739303873.3925729,-0.10088934552777676,1.0700879593482695,-0.4072414545031414,-1.4204730719559229,1.5352377787730196,1.143739066882498,1.3508118767109192,0.0008929388915090602,-0.00225795278249451,-0.00033351866105633146,-0.00043656404286890034,-0.0008761353757496428,-1.8560576963776626e-05,-0.0006801294799989305,-0.3817255198955536,-51.39249038696289,-7.789200782775879,18.16870880126953,1.9380594491958618,-0.8356430530548096,0.08610688149929047,730,709,721,38.568,2,0
1739303873.4026415,-0.10089473352685666,1.0700888600608671,-0.40724144600002204,-1.420475138106262,1.5352370269269533,1.1437390726966088,1.3508156411541605,-0.0001599094048758493,-0.0013961514587179464,8.553621175194572e-05,-0.00025071890639290705,-5.1749603575970476e-05,0.0005122386553533603,1.189592194553472e-05,-0.3063471019268036,-51.39249038696289,-7.789200782775879,18.16870880126953,1.9444681406021118,-0.8356430530548096,0.09343110024929047,730,711,723,38.785,1,0
1739303873.4135838,-0.1008930296662699,1.07009384210346,-0.4072393662100225,-1.4204734349370929,1.5352385422472083,1.1437399480943558,1.3508171204207995,-0.00031798491927943507,0.001182156020440999,0.0009700446312135651,-0.0012365915496817983,0.0008337860447645486,0.0006589968633135613,0.00010479001557569048,-0.3301508128643036,-51.44406509399414,-7.816971778869629,18.14490509033203,1.9316507577896118,-0.8420517444610596,0.05314789339900017,730,712,719,38.676,0,0
1739303873.4246845,-0.10089300921412601,1.0700926489966687,-0.40724144567282433,-1.420467713263929,1.5352380865651811,1.143739072696929,1.3508144917345577,2.0658062589681174e-06,0.0005725296053869414,-0.00010864345446969875,0.0017709406958537337,-2.909417453489404e-05,0.00021028574461587403,-0.0007656475383398649,-0.3301508128643036,-51.44406509399414,-7.789200782775879,18.06952667236328,1.9444681406021118,-0.8356430530548096,0.06596527993679047,731,711,720,38.676,1,0
1739303873.4356189,-0.10089310274116954,1.0700889395503208,-0.4072439437509351,-1.4204697901102123,1.535237836436404,1.1437405878015232,1.3508171586201632,1.761916094118309e-05,-0.0007508730847142723,-0.0019083589106639052,0.00043186789332711384,0.0015717478648754443,0.000468293813049546,0.0014176777829074162,-0.3301508128643036,-51.39249038696289,-7.765397071838379,18.09729766845703,1.9380594491958618,-0.8484604358673096,0.07969819009304047,730,710,723,38.568,1,0
1739303873.4456282,-0.10089515176470872,1.0700926470684715,-0.40724144601198786,-1.420471572787215,1.5352401134775886,1.143739830356782,1.350817114927813,-0.00030285156902900494,0.0009580507382755846,-2.3339556716732164e-05,-0.0004646552841857325,-0.0008890890234861036,0.000788831828505538,0.00030407791831220854,-0.3301508128643036,-51.44406509399414,-7.789200782775879,18.12110137939453,1.9179178476333618,-0.8420517444610596,0.05314789339900017,728,712,723,38.676,1,0
1739303873.4556334,-0.1008930210416176,1.0700879419582339,-0.4072393658829739,-1.4204740707199712,1.5352385422463224,1.1437398303567858,1.350814817009872,7.08294363534987e-05,-0.0005388678848082863,0.0004715360717662544,-0.0007892879942523988,-0.0002045359598885365,-0.0007281997004771474,0.00042773188288237364,-0.3301508128643036,-51.36868667602539,-7.816971778869629,18.14490509033203,1.9316507577896118,-0.8420517444610596,0.04673920199275017,730,712,725,38.676,0,0
1739303873.4666317,-0.10089305597325877,1.070090583729666,-0.40724074302663477,-1.420475138153366,1.5352388427717094,1.1437387707186564,1.3508132433344533,-0.00032067099337740047,0.0008912448387223894,3.535616165062128e-06,-0.0007156564294043664,-0.0002153865831568472,0.0002026742918550088,0.0005555391477257393,-0.3301508128643036,-51.44406509399414,-7.789200782775879,18.16870880126953,1.9380594491958618,-0.8420517444610596,0.05955658480525017,728,711,724,38.676,1,0
1739303873.4767065,-0.10089759990331966,1.070092637863102,-0.40724113366429693,-1.420473355464234,1.5352388954658918,1.1437389373490472,1.3508102027787068,-0.0016417555298663174,0.0005062330644731806,0.001152808807273772,-0.0008930829578832926,0.0007498316858655868,-0.0002201460672717029,0.00018744147241243285,-0.3063471019268036,-51.44406509399414,-7.789200782775879,18.14490509033203,1.9316507577896118,-0.8356430530548096,0.11265717446804047,729,711,724,38.676,2,0
1739303873.487669,-0.10089130448630587,1.0700872270295267,-0.40723936588120685,-1.4204715473137468,1.5352379415725508,1.1437398303560218,1.3508133286463313,0.0003126095782385592,-0.0007440724713466134,-8.932592255037281e-05,4.364717804292725e-05,0.0006397861207214115,-0.0001637364881155642,0.0003423631406929753,-0.3539545238018036,-51.36868667602539,-7.816971778869629,18.12110137939453,1.9380594491958618,-0.8420517444610596,0.08610688149929047,729,709,725,38.676,1,0
1739303873.4976761,-0.10089395915934753,1.0700946214618103,-0.4072433078227024,-1.4204733554638025,1.5352392999099456,1.143739059614755,1.350812312871697,-0.00013834504105505368,0.001416545569772382,-0.0010141322829951465,0.00010918031410802595,-0.000366321424307871,-0.0010280983489537902,-0.000937810794729325,-0.3301508128643036,-51.47183609008789,-7.765397071838379,18.14490509033203,1.9252420663833618,-0.8356430530548096,0.09343110024929047,728,712,724,38.568,0,0
1739303873.5085633,-0.10089133468882557,1.0700889483804947,-0.40724144267734375,-1.4204697989768522,1.5352370269270519,1.1437390726966334,1.350810892913914,-0.0002708183972540511,-0.0008391213128196924,-0.00037783272082942716,0.0004720473797255909,-0.0009319646105224966,-0.00021765574098303782,-0.0022571883851166714,-0.3539545238018036,-51.39249038696289,-7.789200782775879,18.09729766845703,1.9444681406021118,-0.8356430530548096,0.09343110024929047,727,710,723,38.785,2,0
1739303873.5185997,-0.10089088517287231,1.0700904676153822,-0.40724322834979204,-1.4204697902193624,1.5352385422472086,1.1437405836562131,1.3508124758042448,0.0012920109418108118,-0.0001270817944480009,-0.0004351719708777581,-0.0002832249710801448,0.0006456716723173728,0.0003532180189908281,-0.00032266655079761486,-0.3301508128643036,-51.44406509399414,-7.765397071838379,18.09729766845703,1.9316507577896118,-0.8484604358673096,0.09343110024929047,729,711,724,38.676,1,0
1739303873.5286279,-0.10089131126337078,1.0700923307753176,-0.4072414456728237,-1.420473381955189,1.5352401614438687,1.143739830356712,1.3508108996980677,0.0004436711964004896,0.0007431135295837816,-0.00023847429226270215,-0.0003014226978603655,0.0004787434825885466,-2.5927860167478394e-05,-0.0027093845049257674,-0.3539545238018036,-51.44406509399414,-7.789200782775879,18.14490509033203,1.9179178476333618,-0.8420517444610596,0.09343110024929047,729,713,725,38.785,0,0
1739303873.5386589,-0.10089473471716258,1.0700930473708028,-0.40724252754077983,-1.4204715714229414,1.5352385902142929,1.1437390726967074,1.3508160094677146,-0.0005835878804251481,0.0009775509080444636,-0.00020636816442280877,0.0003066018339095515,0.0003504646787873113,-0.0003836612001142432,-0.0006726195013358982,-0.3063471019268036,-51.44406509399414,-7.765397071838379,18.12110137939453,1.9316507577896118,-0.8356430530548096,0.05955658480525017,729,714,725,38.676,0,0
1739303873.549592,-0.10089473341802516,1.0700889483873737,-0.4072432283379745,-1.420474450684641,1.5352392997465936,1.1437413325949901,1.3508166495704417,3.7178372795025524e-05,-0.00016194215062282009,-0.0005309413731099605,-0.0006033293095740642,-0.00016339446627981768,0.0007315808529911602,0.0016883304775920233,-0.3063471019268036,-51.39249038696289,-7.765397071838379,18.16870880126953,1.9252420663833618,-0.8548691272735596,0.05314789339900017,729,713,725,38.568,1,0
1739303873.560546,-0.10089544565308135,1.0700889385813097,-0.40724152514568335,-1.4204758533956967,1.5352370269270514,1.1437398289032108,1.3508081078576017,0.00021259234486478194,-9.001125340999544e-05,-0.0003466637488897498,-0.0018582096073494134,-0.0013719691005786255,-5.1858669400787057e-05,-0.0019127759662643045,-0.3063471019268036,-51.39249038696289,-7.789200782775879,18.16870880126953,1.9444681406021118,-0.8420517444610596,0.12639008462429047,730,712,722,38.676,1,0
