IITGN-Robotics/Franka_IITGN_ROBOTICS/franka_ros/franka_iitgn/data01/us_002.csv
time,fr3_joint1_pos,fr3_joint2_pos,fr3_joint3_pos,fr3_joint4_pos,fr3_joint5_pos,fr3_joint6_pos,fr3_joint7_pos,fr3_joint1_vel,fr3_joint2_vel,fr3_joint3_vel,fr3_joint4_vel,fr3_joint5_vel,fr3_joint6_vel,fr3_joint7_vel,fr3_joint1_eff,fr3_joint2_eff,fr3_joint3_eff,fr3_joint4_eff,fr3_joint5_eff,fr3_joint6_eff,fr3_joint7_eff,flexpin1,flexpin2,flexpin3,Force,ContactMic,ContactMic_gt
1739303760.789127,-0.10418683589132538,1.0647866160261517,-0.40126041734300977,-1.4296759366591871,1.5347252152439363,1.1507203501119756,1.3554041429399466,0.0004010362515733796,-1.192794702901571e-05,-8.137979074557147e-05,0.000994650210448419,-0.0016678119089528216,0.0013411790563802564,-0.0019602867940354024,-0.8300287127494812,-51.47183609008789,-7.816971778869629,18.16870880126953,2.2191262245178223,-0.6442978382110596,0.14012299478054047,,,,,,,,,
1739303760.8001213,-0.10418707131055835,1.0647902623867185,-0.4012614427015503,-1.4296822037998551,1.5347246515378061,1.1507184859337782,1.3554129644691264,-0.0005754475477311366,0.0005833235401072773,-0.0003853566604794374,-0.00021607813721770793,-0.001034770501695605,5.2796186319723566e-05,0.001034864095593561,-0.8300287127494812,-51.49563980102539,-7.840775489807129,18.24408721923828,2.2328591346740723,-0.6314804553985596,0.06596527993679047,,,,,,,,,
1739303760.8121035,-0.10418483359310443,1.0647863835065148,-0.4012632253481873,-1.4296834999775183,1.5347285642273965,1.1507171232357574,1.3554120855814553,0.0016834555497229975,6.226917594472707e-05,-8.580718019536414e-05,-0.0009543271168134244,-0.0005811890832800588,-0.0002960246042470351,-6.928122395723202e-05,-0.8300287127494812,-51.47183609008789,-7.816971778869629,18.26789093017578,2.2191262245178223,-0.6186630725860596,0.09983979165554047,,,,,,,,,
1739303760.823125,-0.10418461471207587,1.0647864569712506,-0.4012604163798331,-1.429681515036236,1.5347258864657871,1.1507177239132704,1.3554112866638925,0.0009882275868303312,-8.87825792818892e-05,0.0003727259718891026,-0.0010315147497304141,-1.3093480770270591e-05,-0.0003894090519117805,0.0006110210525121232,-0.8538324236869812,-51.47183609008789,-7.816971778869629,18.24408721923828,2.2264504432678223,-0.6250717639923096,0.07969819009304047,,,,,,,,,
1739303760.8350558,-0.10418780787354497,1.064789802539969,-0.4012557975457662,-1.4296818385522327,1.5347266413388363,1.150718481572463,1.3554138304460561,-0.00037446534830615344,0.0002086377648025981,0.0020908971446318442,-0.00028795303492591917,0.0003592293336655127,-0.0002909899753537156,0.0017099687608016414,-0.8062250018119812,-51.51944351196289,-7.916153907775879,18.22028350830078,2.2191262245178223,-0.6314804553985596,0.05955658480525017,,,,,,,,,
1739303760.8460991,-0.10418804852965699,1.0647882158881437,-0.4012628873789127,-1.429681793401856,1.5347284334099418,1.1507171992390597,1.3554173195059172,0.0014418149734995523,-0.0006445800096717104,-0.0002702613139744382,-0.0002853889401650469,0.0006912451221242075,-0.0002616937758396404,0.002003392069628208,-0.8062250018119812,-51.47183609008789,-7.816971778869629,18.24408721923828,2.2191262245178223,-0.6113388538360596,0.05955658480525017,,,,,,,,,
1739303760.8570442,-0.10418703720796625,1.0647844147422627,-0.40125910267199577,-1.429681476916114,1.5347280010260902,1.1507184818078164,1.3554073961986424,-1.954850644189955e-05,-0.0008296395592330415,0.0005422566437539275,-0.00014854798080152437,0.0005896024057188115,-0.001215160297297907,-0.0012089891762792667,-0.8300287127494812,-51.44406509399414,-7.840775489807129,18.24408721923828,2.2328591346740723,-0.6314804553985596,0.11265717446804047,,,,,,,,,
1739303760.8670888,-0.10418490666747968,1.0647843795580998,-0.40126530181715914,-1.4296803737666028,1.534728242312268,1.1507224186314498,1.355412962315825,-0.0001029637764063043,-0.0009581129084621032,-0.0017623334413993008,0.0010529240040756116,0.0008685742637526182,7.312392230170823e-05,0.0010614860108834607,-0.8300287127494812,-51.44406509399414,-7.789200782775879,18.19647979736328,2.2328591346740723,-0.6378891468048096,0.06596527993679047,,,,,,,,,
1739303760.877122,-0.10418641706708133,1.0647924136971827,-0.40126449819878035,-1.4296797030486261,1.5347261451414476,1.1507184836720599,1.355413707687567,-0.00029865959773037773,0.0015394888789087863,-0.001820572710548847,0.0003549007085385822,-0.00031941992740872765,4.047873324342918e-05,-0.0002503721397988634,-0.8062250018119812,-51.54721450805664,-7.789200782775879,18.22028350830078,2.2127175331115723,-0.6314804553985596,0.08610688149929047,,,,,,,,,
1739303760.888078,-0.10418464589000016,1.0647843112074662,-0.4012575191846409,-1.4296807269133267,1.5347289997371405,1.1507216604868626,1.3554155773288699,0.0018356806808784098,-0.0003112187120898075,0.0009223467977857453,0.00011829451416543695,0.0011191376293144797,0.0007367891529855148,0.0003127106535551243,-0.8538324236869812,-51.47183609008789,-7.864579200744629,18.22028350830078,2.2264504432678223,-0.6314804553985596,0.07969819009304047,,,,,,,,,
1739303760.8990245,-0.1041887848020362,1.0647863763009726,-0.4012614311033587,-1.4296817260962043,1.534728706360611,1.1507184830977932,1.355404142856489,-0.0006067996070439199,-0.0010973130510006646,-0.0005796799565448861,-0.001013028245213751,0.0008149724975523259,-0.00015433011397363272,-0.002035248323180223,-0.8062250018119812,-51.47183609008789,-7.840775489807129,18.24408721923828,2.2264504432678223,-0.6314804553985596,0.14012299478054047,,,,,,,,,
1739303760.9100502,-0.10418983602011861,1.0647860152214603,-0.40125966002974955,-1.42968110188765,1.5347266470670697,1.1507185208183281,1.355412960009763,-5.720452827411506e-05,-0.0005966898243775138,-0.0001620715316035707,-0.0012775802575421534,4.071622481742133e-05,-0.0009407824877722482,-0.0009946002017276116,-0.7784540057182312,-51.49563980102539,-7.864579200744629,18.19647979736328,2.2191262245178223,-0.6314804553985596,0.09343110024929047,,,,,,,,,
1739303760.9211287,-0.10418633305001121,1.0647843795457916,-0.40125966002981506,-1.4296857751676058,1.5347275415641781,1.1507177239126058,1.3554112909713674,-8.856714366674962e-05,-0.0013745606568810109,0.0010279319854851472,-0.0016982213522229864,0.0008009067180639636,-1.4982379910882386e-05,-0.0010499806172226964,-0.8300287127494812,-51.44406509399414,-7.864579200744629,18.29169464111328,2.2264504432678223,-0.6250717639923096,0.07969819009304047,,,,,,,,,
1739303760.9321184,-0.10418707245234828,1.0647917187187699,-0.4012596587458457,-1.4296806477688397,1.534726849023183,1.1507192392325412,1.3554065240137743,0.001101024307421827,0.0001626503855236941,0.0009498835609456418,-0.0002419948081766733,0.0008299105976958761,-0.0007749418588121877,-0.0021439342849607834,-0.8300287127494812,-51.51944351196289,-7.864579200744629,18.22028350830078,2.2063088417053223,-0.6378891468048096,0.11998139321804047,,,,,,,,,
1739303760.9431155,-0.10418878415650992,1.0647865254661828,-0.40126050348320796,-1.4296818398765263,1.53472749109465,1.1507184859331134,1.3554057663357426,-3.343723128518191e-06,-0.0008358871875867575,0.0005663431382129536,-0.0006718235859147732,-0.0001685510564323954,-9.878171105260619e-05,-0.0027734218948381913,-0.8062250018119812,-51.44406509399414,-7.840775489807129,18.22028350830078,2.1999001502990723,-0.6314804553985596,0.12639008462429047,,,,,,,,,
1739303760.9540472,-0.1041865792411597,1.0647863775145077,-0.40125663552205204,-1.4296785805081125,1.5347291777068095,1.150718481572471,1.3554111612517867,-0.0005394938531494633,-0.0008124078032592847,0.002279700982459795,0.0009711871902612101,0.000934592197505953,0.00010171365658719663,0.0005428933950357162,-0.8062250018119812,-51.47183609008789,-7.892350196838379,18.22028350830078,2.2127175331115723,-0.6314804553985596,0.11998139321804047,,,,,,,,,
1739303760.9641323,-0.10418878501877468,1.0647892395024534,-0.40125965966082605,-1.429682792497014,1.5347255860597806,1.1507183638348928,1.3554114436496223,-0.001035827153998337,0.0013128590963281265,-0.0005995939080330357,0.0006038789419678193,-0.0002950042430637543,-0.0007087349173508193,0.000499811147182653,-0.8062250018119812,-51.47183609008789,-7.864579200744629,18.22028350830078,2.2191262245178223,-0.6314804553985596,0.07969819009304047,,,,,,,,,
1739303760.9751194,-0.10418364352697408,1.0647880900352442,-0.4012593328241418,-1.4296842118671378,1.5347275034922276,1.150717729295239,1.3554113256773428,0.0007249359501046333,0.001263290469602612,1.643415653677623e-05,8.407224321480434e-06,0.001197901533473826,-0.0006739895557682734,-0.0003592612532036789,-0.8776361346244812,-51.49563980102539,-7.840775489807129,18.26789093017578,2.2127175331115723,-0.6250717639923096,0.07969819009304047,,,,,,,,,
1739303760.9860284,-0.10418411644800388,1.064786377498357,-0.4012587235485084,-1.4296804169091348,1.534728941166357,1.150718481572473,1.3554117453921501,0.00018964067594491615,-0.0002792734324376395,0.0009696111808100046,0.0003711213318706114,0.00052506595059651,0.0002632817416545665,-0.00047840284835024336,-0.8300287127494812,-51.47183609008789,-7.864579200744629,18.22028350830078,2.2264504432678223,-0.6314804553985596,0.08610688149929047,,,,,,,,,
1739303760.9960816,-0.10418878508078264,1.064788420806427,-0.40125734333174873,-1.4296796957406488,1.534727803359648,1.1507177239123845,1.355409663539914,-0.0007662764474195549,-0.000981221682342025,0.001273343354241126,0.0012852345513314936,-0.000542453476994809,-0.0006446070107025896,-0.0006843895342709033,-0.8062250018119812,-51.47183609008789,-7.892350196838379,18.22028350830078,2.2063088417053223,-0.6250717639923096,0.09343110024929047,,,,,,,,,
1739303761.0061038,-0.10418497285115937,1.064788259605948,-0.4012604761463045,-1.4296905128272135,1.5347281192965951,1.1506993250593185,1.3554106857539583,0.0009575338013511126,0.0010607527437873885,-0.0008336443192726959,-0.0019934596700355435,0.0011858148000516507,-0.005052275867828652,0.00044934470641136377,-0.7030755877494812,-51.42026138305664,-7.765397071838379,18.09729766845703,2.0167946815490723,-0.7495834827423096,0.08610688149929047,,,,,,,,,
1739303761.0170896,-0.10417346553799614,1.0647715854999436,-0.4012606906221998,-1.4297241369918048,1.5347050055953282,1.1506139758046479,1.3554018140093929,0.0021929334796076502,-0.00045573585277654813,-0.00023215746547358283,-0.003611171329582603,-0.0007866419584384055,-0.007463649278276802,-0.0016402364262104246,-0.5047113299369812,-51.16238784790039,-7.638443946838379,17.89893341064453,1.9051004648208618,-0.8420517444610596,0.11998139321804047,,,,,,,,,
1739303761.027162,-0.10416595541340536,1.0647782037747267,-0.40125115255722427,-1.4297567512447478,1.5346920540988556,1.1505797384012597,1.3554024975430123,0.0010964315147831008,-0.000562673296266656,0.0022062629422075868,-0.00315474297289218,-0.0008561593901295978,-0.0039350144190798495,-0.0009928547670170385,-0.4293329417705536,-51.21396255493164,-7.690018653869629,17.94654083251953,1.9051004648208618,-0.8750107288360596,0.08610688149929047,,,,,,,,,
1739303761.0381074,-0.10415641612099588,1.0647880289312759,-0.4012464509118571,-1.4297861491844774,1.534690457378807,1.150566051813233,1.355398662941573,0.000616968710299818,-4.937160735268137e-05,0.0005650658022556241,-0.000808650376315101,-4.86242115269143e-05,-0.0010476959369429468,0.0008645098702598728,-0.4571039378643036,-51.31711196899414,-7.662247657775879,18.02191925048828,1.9051004648208618,-0.8420517444610596,0.06596527993679047,,,,,,,,,
1739303761.0491474,-0.10416402599480588,1.0647939957325896,-0.40124488242455686,-1.4298074460597896,1.5346936362841812,1.1505596203894117,1.3553966514549276,-0.001488763425418651,0.0005829613716556575,0.000443565952844731,-0.0011284413110853064,0.0014068870366020032,-0.0005926855910621873,-0.0005036415418801281,-0.3063471019268036,-51.34091567993164,-7.662247657775879,18.02191925048828,1.9051004648208618,-0.8283188343048096,0.09343110024929047,,,,,,,,,
1739303761.060127,-0.10415740465404279,1.0647924395964572,-0.4012499458057906,-1.4298114445631012,1.5346912150478167,1.1505557971976166,1.3553934081770682,0.0008638695407608286,-0.0006619675049932513,-0.002042330810895939,0.001517187705267758,0.001028589299997456,-0.0005202641236773102,-0.001512068138238148,-0.3539545238018036,-51.28934097290039,-7.610672950744629,17.97431182861328,1.8986917734146118,-0.8090927600860596,0.09983979165554047,,,,,,,,,
1739303761.0711057,-0.10415774284649144,1.0647862590396315,-0.4012478689388994,-1.4298065812915903,1.5346912090703158,1.1505518017725318,1.355390083839789,-0.0003149754884364241,-0.0005698142601652033,-0.0006220780625852118,-0.0003885665957135654,-0.0006715451280086995,7.173789641839426e-05,-0.0025151449218964303,-0.3063471019268036,-51.19015884399414,-7.638443946838379,17.89893341064453,1.8986917734146118,-0.8026840686798096,0.09983979165554047,,,,,,,,,
1739303761.0811405,-0.10416047536496285,1.0647874511486848,-0.4012460833457446,-1.429801904970965,1.5346927258802603,1.150548933852218,1.3553992426039059,-0.0007193900022197273,-0.0007571517636480861,0.0001427614696008436,0.0004521602390969367,0.0006820137950171243,-0.00021061819487048464,0.002043687944353187,-0.3063471019268036,-51.19015884399414,-7.662247657775879,17.87512969970703,1.8858743906021118,-0.8090927600860596,0.05955658480525017,,,,,,,,,
1739303761.091149,-0.10415615752433444,1.0647911180084189,-0.4012439258047263,-1.429813258134649,1.5346904432985438,1.1505499448350684,1.355395743535788,-0.0002781386244350587,-0.00039332854779201485,8.502604984528547e-05,-0.0011099822397757895,0.0002481155018357029,-0.00047960375484328114,-0.00019208229596004987,-0.3301508128643036,-51.23776626586914,-7.662247657775879,17.99811553955078,1.9051004648208618,-0.8283188343048096,0.05314789339900017,,,,,,,,,
1739303761.1011777,-0.10415455434608807,1.0647941839857495,-0.4012439371058801,-1.4298193066410092,1.5346876281733812,1.1505523260310855,1.3553915304704744,-0.00012132552961173498,-0.0002442216512682456,0.001031538099245865,-0.0005858542223343534,-0.0007236490246256605,-6.636150547242333e-05,-0.0006523737246906544,-0.3063471019268036,-51.26553726196289,-7.662247657775879,18.04572296142578,1.8922830820083618,-0.8484604358673096,0.09343110024929047,,,,,,,,,
1739303761.1121202,-0.10415149897132704,1.064790233267721,-0.401252068610657,-1.4298145293200977,1.5346906896562447,1.1505508107109286,1.3553952864002332,0.0016728205443892342,-0.000342946218185368,-0.0007048731646797855,0.0006183254229081445,0.00037416239713055114,-0.0008336352845817981,0.001590923130798165,-0.3817255198955536,-51.21396255493164,-7.610672950744629,17.97431182861328,1.9051004648208618,-0.8356430530548096,0.05314789339900017,,,,,,,,,
1739303761.122151,-0.1041494324483106,1.0647847782332296,-0.40125351422674976,-1.4298080742930857,1.5346885780240243,1.1505530836911637,1.3553944729672027,0.0007850273776304202,-0.0004995584377336646,-0.001366254168176237,0.0009895443493933647,0.0008684723089385602,-0.00010063333076360366,0.0011343431064824196,-0.4055292308330536,-51.13858413696289,-7.563065528869629,17.87512969970703,1.9179178476333618,-0.8548691272735596,0.05955658480525017,,,,,,,,,
1739303761.1340666,-0.10414877778976422,1.0647848132273077,-0.4012535111666252,-1.4298073845195145,1.5346853373126614,1.1505522867852285,1.3553885729492883,-0.0010454220904715593,0.0006920622249583112,0.0006476758634219612,-0.0005974802908640265,-0.0002790507104238705,0.00044456014333566423,-0.002042743112074176,-0.3817255198955536,-51.13858413696289,-7.563065528869629,17.87512969970703,1.9115091562271118,-0.8484604358673096,0.10624848306179047,,,,,,,,,
1739303761.1441689,-0.10414791392877747,1.064786445512259,-0.4012517547352555,-1.4298106914284134,1.534689954541149,1.1505499448130314,1.3553900097490035,-0.0005192290600429747,0.0003184374390155872,0.0002490101252541841,-9.552632562185654e-05,0.0005095396368308912,-0.000320677047070415,0.0006633260189572963,-0.3539545238018036,-51.16238784790039,-7.586869239807129,17.92273712158203,1.9051004648208618,-0.8283188343048096,0.05955658480525017,,,,,,,,,
1739303761.155054,-0.10414953561391069,1.0647877698256134,-0.4012499457762805,-1.4298165929780997,1.53468892216511,1.1505499448136962,1.3553912165019797,-0.0012399182006203181,-0.0018021204957584806,0.00016309868126438207,0.0007661854723051119,0.0010756051773534575,-0.0008449857365551174,0.0007890521197898539,-0.3301508128643036,-51.21396255493164,-7.610672950744629,17.99811553955078,1.9179178476333618,-0.8283188343048096,0.05955658480525017,,,,,,,,,
1739303761.165168,-0.10414783049445125,1.0647916281809504,-0.40124994710865153,-1.4298158167397073,1.5346859183710906,1.1505508108764717,1.355390729316677,-8.762863508679866e-06,-0.00013440789683129726,0.0002264128404446233,0.0006176357172777934,0.00021538309446852475,0.0003374201384143471,-0.0008352634646331088,-0.3539545238018036,-51.23776626586914,-7.610672950744629,17.97431182861328,1.9115091562271118,-0.8356430530548096,0.05955658480525017,,,,,,,,,
1739303761.1761239,-0.1041495443503365,1.0647924225497838,-0.4012492305568398,-1.4298149146408192,1.5346849886041631,1.1505491813394177,1.355387868761122,-0.0009088756270461847,6.275678601875295e-05,-0.0008457680878502014,-0.000783291065269405,-0.0005123275141354841,0.0002633291455645942,-0.000959901790764356,-0.3301508128643036,-51.23776626586914,-7.610672950744629,17.94654083251953,1.9115091562271118,-0.8219101428985596,0.10624848306179047,,,,,,,,,
1739303761.1862571,-0.10414943033793227,1.064790949293253,-0.4012506544334559,-1.4298119261406266,1.5346860948950118,1.150549186507497,1.3553944608632433,-0.0001774150768366706,0.0006925405442314875,-0.0005932477480148303,-0.00037335677954688617,0.00014792974940684524,0.00044738598880442193,0.0010325131913846933,-0.3301508128643036,-51.21396255493164,-7.610672950744629,17.89893341064453,1.9051004648208618,-0.8219101428985596,0.05955658480525017,,,,,,,,,
1739303761.1971118,-0.10414582185578203,1.0647939470024792,-0.40125196470458874,-1.4298157220063656,1.5346863827985815,1.1505483103024157,1.3553893835518784,0.00047006587088548545,0.0007197786498726628,0.00022586952959644115,0.0007920291985238556,-0.00132962992327361,-0.00026558514705806233,-0.0012255018468971877,-0.3817255198955536,-51.26553726196289,-7.586869239807129,17.94654083251953,1.8986917734146118,-0.8155014514923096,0.09343110024929047,,,,,,,,,
1739303761.207128,-0.10414579002811299,1.0647912338018652,-0.4012524721208104,-1.4298128480414838,1.5346884004759216,1.1505458904996415,1.3553875704135683,8.441741684172916e-06,-0.00018784987314919582,-7.438263464023523e-05,4.693505975140851e-05,-0.0004185397634180627,0.0007598605157804095,-0.0018233515659948957,-0.3817255198955536,-51.23776626586914,-7.586869239807129,17.94654083251953,1.9179178476333618,-0.8219101428985596,0.07969819009304047,,,,,,,,,
1739303761.218119,-0.10414240006249198,1.0647847871685812,-0.4012499723864549,-1.4298157450867415,1.5346899143849664,1.1505472730575852,1.3553865691770965,-0.0006768685157749126,-0.0012171235281053796,0.00035432328698685163,-2.1084181532439353e-05,0.0015361035683355403,-0.0005464428865450541,-0.0017723894528212242,-0.4293329417705536,-51.13858413696289,-7.610672950744629,17.94654083251953,1.9051004648208618,-0.8420517444610596,0.08610688149929047,,,,,,,,,
1739303761.2290914,-0.10414208394579377,1.064786738002466,-0.4012501820240195,-1.429814839859639,1.5346856100895008,1.1505518157622074,1.3553844880895574,0.0007393278498675675,0.0004284659677735633,0.0002797637893497919,-0.0005995135899539505,0.0004286277769408924,5.2782061570177204e-05,-0.0036933446784220693,-0.4293329417705536,-51.16238784790039,-7.610672950744629,17.97431182861328,1.9051004648208618,-0.8484604358673096,0.10624848306179047,,,,,,,,,
1739303761.2391112,-0.10415027472611695,1.064788528268971,-0.4012499458139033,-1.429813093711072,1.53468318857176,1.1505515291222699,1.3553880314758808,-0.0018016249382458982,0.00109403443578874,0.00044601062427387526,0.00015571338944915227,-0.00019318605741266986,-0.000522190979422047,-0.0015511417815836678,-0.3063471019268036,-51.19015884399414,-7.610672950744629,17.92273712158203,1.9252420663833618,-0.8420517444610596,0.08610688149929047,,,,,,,,,
1739303761.2491446,-0.10414409957583191,1.0647976309691587,-0.4012535902276284,-1.4298158203920612,1.5346848121288432,1.150550752568254,1.355386609925481,0.0015417590421835932,0.0027923535467289807,-0.001612344730312533,-0.00018700142280019945,0.0002474149254878972,-0.00044454470102120767,-0.0013552838931444385,-0.4055292308330536,-51.31711196899414,-7.563065528869629,17.94654083251953,1.9115091562271118,-0.8356430530548096,0.08610688149929047,,,,,,,,,
1739303761.259151,-0.10414684048418582,1.064792911561788,-0.4012460836710547,-1.4298148941348654,1.5346841572732066,1.1505490634393567,1.3553889349122892,0.0006145389378169881,0.0016008550220750037,0.0013391340889395197,-0.0007706265111540535,-0.0019421432868701742,3.573540830418704e-05,-0.0016459521256759926,-0.3539545238018036,-51.23776626586914,-7.662247657775879,17.97431182861328,1.9051004648208618,-0.8219101428985596,0.10624848306179047,,,,,,,,,
1739303761.2701151,-0.10414426867304227,1.064790951798042,-0.40124712431202786,-1.4298154984217664,1.534686327441026,1.1505458152886985,1.3553859266543438,0.0008698591416410744,-0.0006572915862119745,0.001420215002414036,0.00039437091398481113,-1.7208254151331845e-05,-0.001346403041192303,-0.0019029159128504116,-0.3539545238018036,-51.21396255493164,-7.638443946838379,17.94654083251953,1.8986917734146118,-0.8026840686798096,0.09983979165554047,,,,,,,,,
1739303761.2801366,-0.10415123633427943,1.0647909442825991,-0.40125101322129064,-1.429814038880341,1.5346870851090781,1.150541140653196,1.3553881280392959,-0.0016235856496625502,-0.0011333147157846436,-0.0004151172879850035,0.0010060383208160975,0.0004639438639713028,-0.0010098154613048397,-0.0025063416185463023,-0.3063471019268036,-51.21396255493164,-7.586869239807129,17.92273712158203,1.8922830820083618,-0.8026840686798096,0.09983979165554047,,,,,,,,,
1739303761.2920918,-0.10414345455214209,1.0647884180563225,-0.4012499458085321,-1.4298157210984141,1.5346848129727098,1.1505451807970908,1.3553921940268454,0.0019466620222422554,-0.001658444204990108,4.00913128937026e-05,0.00012413933613037942,0.0001632784928423246,0.0003404856353771678,0.001954326618917574,-0.3817255198955536,-51.19015884399414,-7.610672950744629,17.94654083251953,1.9115091562271118,-0.8283188343048096,0.04673920199275017,,,,,,,,,
1739303761.3030555,-0.10414574602546009,1.0647940946788612,-0.40125172881360943,-1.4298196605140565,1.5346855697889263,1.150546042339371,1.3553939671790662,0.0003312522653009894,0.0008930784738416988,0.00011409753006144256,-0.001050252134986686,-0.001565162188491718,-6.37525726822948e-05,0.0012921205850927506,-0.3817255198955536,-51.23776626586914,-7.586869239807129,17.99811553955078,1.9051004648208618,-0.8356430530548096,0.05314789339900017,,,,,,,,,
1739303761.3130863,-0.10414665641157285,1.0647919494331022,-0.4012547727416332,-1.42981403888581,1.5346867298845737,1.1505401802295185,1.3553931921820468,-0.00026652505689356623,-0.00022262712727540173,-0.0009196439411527924,9.235380812548123e-05,0.0010830269543495848,-0.0016634463385437163,0.002958486559349725,-0.3301508128643036,-51.23776626586914,-7.586869239807129,17.92273712158203,1.8986917734146118,-0.8219101428985596,0.06596527993679047,,,,,,,,,
1739303761.324119,-0.10414556198551084,1.0647848135545621,-0.40125172854114355,-1.4298130778413884,1.5346847727282962,1.1505468013811948,1.3553842302450518,-2.991688864265274e-05,-0.00044831869571993453,-0.0004639978007072164,0.00046107278686291394,0.0004874055723868161,0.0003732097728420821,-0.002055784465446684,-0.3817255198955536,-51.13858413696289,-7.586869239807129,17.94654083251953,1.9115091562271118,-0.8420517444610596,0.10624848306179047,,,,,,,,,
1739303761.335088,-0.10414094275322709,1.0647919491666187,-0.401250269509125,-1.4298137411963536,1.5346855697888475,1.1505451764421168,1.3553947029760487,0.0018470593800744219,0.0015205753657097161,-6.177140404165535e-05,0.00023855378125827513,0.0004830017682390286,-0.00015257014302491975,0.002450861001448664,-0.4055292308330536,-51.23776626586914,-7.610672950744629,17.94654083251953,1.9051004648208618,-0.8283188343048096,0.05314789339900017,,,,,,,,,
1739303761.3452406,-0.10414334050157786,1.0647886777293794,-0.4012502607660512,-1.4298137666759199,1.5346852221047906,1.1505471019774758,1.3553920470428227,0.0005095457635510094,-0.00043833987242842415,-0.0008702742901688932,-0.000462932660422858,-0.00018609657601251342,1.3334307630896781e-05,0.0025267899552903154,-0.3817255198955536,-51.16238784790039,-7.610672950744629,17.94654083251953,1.8986917734146118,-0.8356430530548096,0.07969819009304047,,,,,,,,,
1739303761.3561087,-0.10414463552697809,1.0647923823405216,-0.40125172849492263,-1.4298155268530217,1.534684050089395,1.1505436611399025,1.3553859156174508,-0.0006661120231875974,0.0011303709727226038,0.0007161102996074139,0.0006400494623644045,0.0002614971850286746,-0.0007162049234980429,-0.000924747963775289,-0.3539545238018036,-51.21396255493164,-7.586869239807129,17.94654083251953,1.9179178476333618,-0.8155014514923096,0.09983979165554047,,,,,,,,,
1739303761.3680532,-0.10414874294593958,1.064793946021347,-0.4012517284895889,-1.4298158435262298,1.5346848119134942,1.1505436611219575,1.3553891917748937,-0.0018823485882821487,0.0006513602012052696,-0.0006917865756776705,-0.0006438646071764846,0.0002526336488050434,-3.462071707275029e-05,0.0005150504995293118,-0.3301508128643036,-51.26553726196289,-7.586869239807129,17.97431182861328,1.9115091562271118,-0.8155014514923096,0.06596527993679047,,,,,,,,,
1739303761.3781102,-0.1041447320235377,1.0647901573910548,-0.40124970739399074,-1.4298158326440873,1.5346848116443252,1.1505460421778408,1.3553907085669776,2.7279494371179655e-05,3.172630758659252e-05,-0.0002450037491548004,-0.0004969281529066179,0.000775592991511068,0.0007848452159851906,-0.00021558972134303172,-0.3539545238018036,-51.21396255493164,-7.610672950744629,17.94654083251953,1.9115091562271118,-0.8356430530548096,0.05314789339900017,,,,,,,,,
1739303761.389109,-0.10414636561032951,1.0647919755844477,-0.40125005046684165,-1.4298119037256727,1.5346849329753929,1.1505436611219566,1.3553872061561616,-0.00034104439905054617,0.0012160555941906402,-0.00011840430805685955,0.0008304498582943019,-0.0009582415974961436,-0.0003218340837574703,-0.0023507864212316343,-0.3301508128643036,-51.23776626586914,-7.610672950744629,17.92273712158203,1.9115091562271118,-0.8155014514923096,0.07969819009304047,,,,,,,,,
1739303761.3991253,-0.10414558646428126,1.0647903160101801,-0.40125136540116835,-1.429813947938162,1.534684811646373,1.1505444580278925,1.3553888431204213,-0.00028889877318482194,-0.0002392678180315475,-0.0004034991920794489,0.0008045573360505862,-4.062275768285388e-05,0.0005230660220400646,0.0009092439812313233,-0.3539545238018036,-51.21396255493164,-7.563065528869629,17.92273712158203,1.9115091562271118,-0.8219101428985596,0.06596527993679047,,,,,,,,,
1739303761.4091892,-0.10414454784121742,1.0647911905395824,-0.40125559092012475,-1.4298140503269439,1.534684694391265,1.1505475976970885,1.3553889321814052,-0.00013806298023782927,0.0004684673351883571,-0.0014344281110780764,0.0013364313053579667,0.00026324010902618357,0.0004940187499019595,-0.0009152469046470385,-0.3539545238018036,-51.21396255493164,-7.535294532775879,17.92273712158203,1.9115091562271118,-0.8219101428985596,0.05314789339900017,,,,,,,,,
1739303761.42008,-0.10414633915795592,1.0647941036605175,-0.4012499458125696,-1.429814050328678,1.534682959999946,1.1505451764600592,1.3553888298689878,9.470070369333234e-05,0.0019335221536724897,0.0011525141416479808,6.297320102848658e-05,-0.00013112397642994113,0.0002887130363608497,0.0014250421790783236,-0.3301508128643036,-51.23776626586914,-7.610672950744629,17.92273712158203,1.9179178476333618,-0.8283188343048096,0.06596527993679047,,,,,,,,,
1739303761.431091,-0.10414462674592874,1.0647848047364008,-0.4012525430773161,-1.4298122667068511,1.5346848121226648,1.1505460423393465,1.3553877686197415,-0.0011014007186767058,-0.00100749653661121,-1.4453454729592995e-05,0.00029602516539493294,0.00043664160310177445,0.00011327680553567232,0.0009166680933086715,-0.3539545238018036,-51.13858413696289,-7.586869239807129,17.89893341064453,1.9115091562271118,-0.8356430530548096,0.06596527993679047,,,,,,,,,
1739303761.4411094,-0.10414462674592935,1.064788524015991,-0.401245729017853,-1.4298140591589796,1.5346840413868126,1.1505448232294044,1.3553873249998978,-0.0002104283172281889,0.00034851736903394214,0.0017688630438767831,6.294597343696056e-05,-3.6763491316390716e-05,-0.00046509320767698095,0.0005341485351567433,-0.3539545238018036,-51.19015884399414,-7.638443946838379,17.92273712158203,1.9179178476333618,-0.8283188343048096,0.10624848306179047,,,,,,,,,
1739303761.4511592,-0.10414334104242567,1.0647904759365967,-0.40125100436734346,-1.4298158330058466,1.5346855697887,1.150544116798003,1.3553855826519685,0.00027818343952805646,0.0005033919303176258,0.0006035128403908089,0.00041489120148799694,0.0011292329872306527,6.388475025488545e-05,0.0002515395468687138,-0.3817255198955536,-51.21396255493164,-7.586869239807129,17.94654083251953,1.9051004648208618,-0.8283188343048096,0.09343110024929047,,,,,,,,,
1739303761.4621513,-0.10414633927068113,1.0647920255883745,-0.40124986633562243,-1.4298158333327458,1.5346845101507922,1.1505436611159756,1.3553868569265501,-0.0003078259341368699,0.000649172185631,0.0002983081940771458,-4.551755187177662e-06,0.0008399231314877323,-0.0004906570236766848,-0.00028132459808649396,-0.3301508128643036,-51.23776626586914,-7.610672950744629,17.94654083251953,1.9051004648208618,-0.8155014514923096,0.07969819009304047,,,,,,,,,
1739303761.4731863,-0.10414631393400518,1.0647922150577296,-0.40124994581212114,-1.4298169126598244,1.5346837007655567,1.1505429034618793,1.3553879239203375,-0.0007512484105849306,-8.638584426572257e-05,0.0002576967104963354,-0.0007015632715660882,-0.0005367062743149784,-0.00041071050737698776,-5.1488848922938245e-05,-0.3301508128643036,-51.23776626586914,-7.610672950744629,17.92273712158203,1.9179178476333618,-0.8090927600860596,0.07328949868679047,,,,,,,,,
1739303761.484166,-0.10414633049752144,1.0647906698211926,-0.4012489960265003,-1.4298158327069193,1.53468616997906,1.1505421458018008,1.3553857870043273,-0.00023235377645303775,-0.0013968545056901017,0.0006456163372619678,7.688547912527433e-05,0.001062731746140484,-0.00019850205847767477,-0.00227967753175348,-0.3301508128643036,-51.19015884399414,-7.610672950744629,17.94654083251953,1.8986917734146118,-0.8026840686798096,0.07969819009304047,,,,,,,,,
1739303761.4960787,-0.10414633926661104,1.0647902630762764,-0.4012517547658962,-1.4298151442409113,1.534681620131614,1.1505428903260917,1.355389627646112,-4.1279446629053534e-05,0.00041415633972630633,9.50752426573376e-06,-9.965040213535671e-05,-0.0011230531457934873,-7.307705413450862e-05,0.0015811676283761405,-0.3301508128643036,-51.21396255493164,-7.586869239807129,17.94654083251953,1.9115091562271118,-0.8090927600860596,0.05955658480525017,,,,,,,,,
1739303761.5070634,-0.10414412947964498,1.064792700195572,-0.40125421979965636,-1.4298179127942565,1.5346823385407184,1.1505443659696855,1.3553929311667154,4.378965163731672e-05,0.0008921857608156453,-0.001312679901101189,-0.0012741991805882914,-2.4516688100214862e-05,-0.00021344181757033685,0.0016479245456913205,-0.3301508128643036,-51.21396255493164,-7.563065528869629,17.97431182861328,1.9051004648208618,-0.8219101428985596,0.03941498324275017,,,,,,,,,
1739303761.5170956,-0.1041441731789433,1.0647887629125066,-0.40125002456157044,-1.4298157917975476,1.5346831468648348,1.1505460423384521,1.3553871661339305,0.0007779551664730185,-0.000419542131106706,-0.00017293565237227847,0.0009886257326431967,0.0007654590028492094,0.0006040311520688944,0.0006825368413409644,-0.3301508128643036,-51.19015884399414,-7.610672950744629,17.94654083251953,1.8986917734146118,-0.8356430530548096,0.05314789339900017,,,,,,,,,
1739303761.527155,-0.10414462660098725,1.0647887542628436,-0.40125385536198127,-1.4298179137760012,1.5346826365573893,1.1505475576595032,1.3553887728076202,-1.1175950650820814e-05,-0.00047150697837997356,-0.0012105981854599267,-0.0005642620051386367,-0.0013073681362808808,0.0007928282242362112,0.0013755549743896542,-0.3539545238018036,-51.16238784790039,-7.586869239807129,17.97431182861328,1.9179178476333618,-0.8484604358673096,0.06596527993679047,,,,,,,,,
1739303761.537181,-0.10414420840060737,1.0647892403997747,-0.40125180930565313,-1.4298123471245352,1.5346848121048307,1.1505451764421142,1.3553895873709754,-0.00046843387242063734,-0.0001955666583034352,-0.0004681147227844724,0.0004997286402450406,0.000692370105998505,-0.00043526882844454457,0.0008224090411622185,-0.3301508128643036,-51.19015884399414,-7.586869239807129,17.89893341064453,1.9115091562271118,-0.8283188343048096,0.05955658480525017,,,,,,,,,
1739303761.548181,-0.10414264044895588,1.0647913981250858,-0.40124995747776676,-1.4298158330061457,1.5346831880870155,1.1505433079092477,1.3553895699293361,-0.00029647357549156695,-0.0001747197771896206,3.686011944378789e-05,-0.00031710147991601424,0.0004590879408883828,-0.00010155696012669304,-0.0007364150132973044,-0.3817255198955536,-51.19015884399414,-7.610672950744629,17.94654083251953,1.9252420663833618,-0.8155014514923096,0.05955658480525017,,,,,,,,,
1739303761.5600536,-0.10414367958615776,1.0647902365530957,-0.4012499104913647,-1.4298162754637709,1.5346910953422006,1.1505436611199635,1.3553888297113217,0.0005762599846569562,-0.00042640025583602246,0.0007077017158691102,-0.0006731265344736008,0.001811590704437693,-0.00018334243581935263,0.0008439673818627397,-0.3539545238018036,-51.21396255493164,-7.610672950744629,17.92273712158203,1.8858743906021118,-0.8155014514923096,0.06596527993679047,,,,,,,,,
1739303761.570054,-0.10414262584064445,1.0647939765782033,-0.40124994710845274,-1.4298179128081134,1.5346837350126366,1.1505436611219575,1.3553864482786904,0.0004326414763786635,8.568961222249765e-05,0.0001413033910463976,-0.00017269845442752013,1.2386055624110118e-05,-0.0003100793457241494,0.00033869095754849763,-0.3817255198955536,-51.26553726196289,-7.610672950744629,17.97431182861328,1.9115091562271118,-0.8155014514923096,0.08610688149929047,,,,,,,,,
1739303761.5801122,-0.10414633926661034,1.0647919579974374,-0.4012495827223989,-1.4298158330056971,1.5346855697706805,1.1505429034618793,1.3553892810332335,-0.00031957409078534543,3.6996437174228794e-05,-0.00029391282893158745,0.0011920372126537524,5.940593127716783e-06,-0.00014371467721270784,0.0005762183280684442,-0.3301508128643036,-51.23776626586914,-7.586869239807129,17.94654083251953,1.9051004648208618,-0.8090927600860596,0.05314789339900017,,,,,,,,,
1739303761.5911753,-0.10414452151797622,1.0647915811640856,-0.40124994623248433,-1.429818019740512,1.534684812128843,1.1505436611219575,1.3553879507262292,0.00026408149916455,-0.0006501884776829843,-0.0002663966527969782,-8.889620349688502e-05,0.0005811707986117661,-0.00029978241033525824,-0.00031449548933499595,-0.3539545238018036,-51.23776626586914,-7.610672950744629,17.97431182861328,1.9115091562271118,-0.8155014514923096,0.07328949868679047,,,,,,,,,
1739303761.6020825,-0.10414633926606652,1.0647927037024747,-0.4012501820235719,-1.429820058563368,1.5346830957222863,1.1505429034618793,1.3553892853938139,-0.000831739097121955,0.0005891943524182111,0.0005437250003237655,-0.0012447530780600091,0.0009297937187388399,-0.0004337251219850717,0.0007338761168085821,-0.3301508128643036,-51.23776626586914,-7.610672950744629,17.97431182861328,1.8986917734146118,-0.8090927600860596,0.05314789339900017,,,,,,,,,
1739303761.6121113,-0.10414254988411144,1.0647926236788816,-0.40124999192571154,-1.4298179168654932,1.5346804556225209,1.150544418297519,1.3553910983134998,-0.00016374579396715352,0.000767911865970026,0.0009079144604628889,-0.0002538828917530429,-0.0008520778914441766,8.194360974906699e-05,0.0018061800943609176,-0.3817255198955536,-51.21396255493164,-7.638443946838379,17.97431182861328,1.9115091562271118,-0.8219101428985596,0.04673920199275017,,,,,,,,,
1739303761.6230888,-0.10414348674426357,1.0647894666209101,-0.4012481810187169,-1.4298169379516197,1.5346847728045587,1.1505451764421115,1.3553919685893032,-0.00024086774484592,-0.0005780367202010319,0.0004348617162523027,-0.0015907796560155234,-0.0009515546788407461,0.0008646087629986283,0.0021585376688612406,-0.3301508128643036,-51.16238784790039,-7.638443946838379,17.92273712158203,1.9115091562271118,-0.8283188343048096,0.03941498324275017,,,,,,,,,
1739303761.6331272,-0.10414254983580373,1.0647914645617476,-0.401251964705923,-1.4298159128545078,1.5346840543065934,1.150544418782036,1.355382930342254,-3.152019060845171e-05,0.0001297394174694075,-0.00020249565503334998,8.356378929856901e-05,0.0012234840618899267,-0.00023644082437367282,0.0003856737270898763,-0.3817255198955536,-51.19015884399414,-7.586869239807129,17.94654083251953,1.9179178476333618,-0.8219101428985596,0.07969819009304047,,,,,,,,,
1739303761.6431336,-0.10414626034435835,1.0647894669479432,-0.40125278067258674,-1.429813973695631,1.5346809387778353,1.1505444186205303,1.3553888296390089,-0.0013334384757008695,-0.0007024951014411217,-0.0002918739266016254,0.0013135150862235623,-0.001137095292117447,-0.0005946132211167049,0.001017807591791332,-0.3301508128643036,-51.16238784790039,-7.610672950744629,17.92273712158203,1.9051004648208618,-0.8219101428985596,0.06596527993679047,,,,,,,,,
1739303761.6540482,-0.10414270772559561,1.0647916504012882,-0.40125173757816784,-1.4298149142323047,1.5346792330747707,1.1505430059311959,1.3553903450320168,0.00019337721357715314,0.001550405840555586,0.00031609583375334383,-9.262457299873078e-05,-0.0017089002730250118,-0.0007849039442799986,0.0021468077471834667,-0.3817255198955536,-51.19015884399414,-7.586869239807129,17.94654083251953,1.9316507577896118,-0.8219101428985596,0.05314789339900017,,,,,,,,,
1739303761.6641736,-0.1041416777492439,1.064791662865487,-0.40124997205839036,-1.4298137670228341,1.5346848114286653,1.150543660613514,1.3553864483325255,0.0006507154200924457,-0.0001875253079435752,0.00022136214834969566,1.0416399248156498e-05,0.00029452046955358026,-3.828864349138641e-06,0.0006479836444482391,-0.3817255198955536,-51.19015884399414,-7.610672950744629,17.94654083251953,1.9115091562271118,-0.8155014514923096,0.08610688149929047,,,,,,,,,
1739303761.6751149,-0.10414391352887833,1.0647968359836273,-0.4012514105982982,-1.4298214769145234,1.5346816269157335,1.150544418782033,1.3553840271858852,0.00035093853492431824,0.001496401999040911,-0.0003315045254392228,-0.0012470026395825754,-0.0009876669828655642,0.0008509360062598076,-0.0008502205084161261,-0.3539545238018036,-51.26553726196289,-7.586869239807129,18.02191925048828,1.9115091562271118,-0.8219101428985596,0.07969819009304047,,,,,,,,,
1739303761.685154,-0.1041426287929979,1.0647944229036914,-0.4012478922629974,-1.4298200586717598,1.5346860208948507,1.1505418438237498,1.355380132634858,0.0010659742407953799,0.0007208787791734775,0.0006994815004042348,-0.0008438681768355764,-5.647310179630362e-06,-7.285106603624982e-05,-0.002817676537827745,-0.3817255198955536,-51.23776626586914,-7.638443946838379,17.97431182861328,1.8922830820083618,-0.8090927600860596,0.11265717446804047,,,,,,,,,
1739303761.696081,-0.10414451859497746,1.064791733832436,-0.40125065444571695,-1.429816548709613,1.5346809736032012,1.1505428903739454,1.3553840666126857,-0.0008387347395946297,-0.0007848708173711324,-0.00019108765293076024,-0.0016523101213799607,-0.0005518220122702894,-7.769040590618e-05,-0.0009237764172205015,-0.3539545238018036,-51.19015884399414,-7.610672950744629,17.94654083251953,1.9051004648208618,-0.8090927600860596,0.10624848306179047,,,,,,,,,
1739303761.7071216,-0.10414225619215385,1.0647912034565148,-0.40125587034516613,-1.4298140503407986,1.5346846405320773,1.150543307909026,1.355386290057043,0.0003247485034800433,-0.00018456629576732732,-0.0007547303477727877,0.0002948773724011987,-0.0001580576929310827,-0.0006120268896627752,-0.0007127054465042755,-0.3539545238018036,-51.21396255493164,-7.563065528869629,17.92273712158203,1.9115091562271118,-0.8155014514923096,0.08610688149929047,,,,,,,,,
1739303761.7181244,-0.1041463391058255,1.0647887753004586,-0.4012514897484002,-1.4298112952695416,1.534680534168641,1.1505440143340024,1.3553853485858376,-0.0009019529430082816,-0.0011399697709771513,-4.0068097950446755e-05,0.00179290468733526,-0.0016833379882463008,0.0006707740233389314,7.628256920574493e-05,-0.3301508128643036,-51.19015884399414,-7.586869239807129,17.92273712158203,1.9115091562271118,-0.8155014514923096,0.05955658480525017,,,,,,,,,
1739303761.7300878,-0.10414251480812617,1.0647924658483021,-0.4012499458112221,-1.429817629162667,1.534680003172772,1.15054441878403,1.3553855690064016,0.0006865847279915945,-3.3753827342853596e-07,-7.43815964347851e-05,-0.0011566221849018787,-0.0019327657426922453,0.0005376545304471861,-0.0005574549149367792,-0.3817255198955536,-51.21396255493164,-7.610672950744629,17.99811553955078,1.9252420663833618,-0.8219101428985596,0.09343110024929047,,,,,,,,,
1739303761.7401152,-0.10414420839996631,1.0647895967488064,-0.4012471419366592,-1.4298217875260961,1.5346855696094344,1.1505451762806085,1.3553837386705947,-1.8409663577492155e-05,0.0006777478500264608,0.0019114688088908082,-0.0021061489682187426,0.0012034654515785564,0.0003380673537786961,-0.0011863395792854,-0.3301508128643036,-51.19015884399414,-7.638443946838379,18.02191925048828,1.9051004648208618,-0.8283188343048096,0.07328949868679047,,,,,,,,,
1739303761.7510977,-0.10414633925463174,1.064790064858134,-0.40125351116252045,-1.4298160802563402,1.5346808610233522,1.1505436567613057,1.3553866952342644,-0.0006525812403539438,0.0004730095115595028,-0.0015787716245294217,0.00011415676912156618,-0.0007622858263068777,-0.0005028284317971796,-0.001547344556975935,-0.3301508128643036,-51.19015884399414,-7.563065528869629,17.94654083251953,1.9316507577896118,-0.8155014514923096,0.07969819009304047,,,,,,,,,
1739303761.7611318,-0.10414452108493917,1.0647872452817042,-0.40124799626990093,-1.4298200585669516,1.5346855523197325,1.150544418781962,1.3553872046919067,8.704240783015573e-05,-0.0021095586991758362,0.001496644016838996,-0.0012032381653878203,0.00041322937779898636,0.00030275838596104896,0.0005037884268646764,-0.3539545238018036,-51.16238784790039,-7.638443946838379,17.97431182861328,1.9051004648208618,-0.8219101428985596,0.07969819009304047,,,,,,,,,
1739303761.771161,-0.10414249587808926,1.0647959081974752,-0.4012542198018127,-1.4298179128318913,1.5346861683657047,1.150543659668407,1.3553827979668522,0.0007208063268161517,0.001703027568452648,-0.0018999329154255828,-3.347760247706977e-05,0.00038220122192831316,0.0004971713548977784,-0.0025997854991744347,-0.3539545238018036,-51.28934097290039,-7.563065528869629,17.97431182861328,1.8986917734146118,-0.8155014514923096,0.11265717446804047,,,,,,,,,
1739303761.7820613,-0.10414167879441306,1.0647931014886174,-0.4012517401663304,-1.4298225594389606,1.5346843379831467,1.1505419888183497,1.355381645367645,0.001658482242798542,-0.0005734962189030282,-0.0006495560993635276,-0.002293348265990311,-0.0009939197345271652,-0.000608425045177259,-0.001227123843538403,-0.3817255198955536,-51.21396255493164,-7.586869239807129,17.99811553955078,1.9051004648208618,-0.8026840686798096,0.09983979165554047,,,,,,,,,
1739303761.7921386,-0.10414412947428214,1.0647905586961173,-0.40125173140584,-1.4298158330218642,1.5346837476385928,1.150542785723423,1.3553887773656625,5.204344587607471e-05,-0.0008722652764046059,-0.00044749916008055034,0.0006664085885579197,-2.661493606761706e-05,0.0008692657898574832,-0.00025709341774383173,-0.3301508128643036,-51.21396255493164,-7.586869239807129,17.94654083251953,1.9115091562271118,-0.8090927600860596,0.06596527993679047,,,,,,,,,
1739303761.804162,-0.10414437813422008,1.0647931362624143,-0.4012517170398689,-1.4298179127955526,1.5346862702700144,1.1505436431941731,1.3553845344701476,-0.0006684631908417817,0.0008830661142315412,0.00030583214707634765,2.8514521228988076e-05,0.0010692652229653374,0.0010290988055599065,-0.0013316493454327977,-0.3539545238018036,-51.21396255493164,-7.586869239807129,17.97431182861328,1.8986917734146118,-0.8155014514923096,0.06596527993679047,,,,,,,,,
1739303761.8151298,-0.10414462663720232,1.0647873081187185,-0.40125175474723473,-1.4298144007433036,1.534684323520512,1.1505407626186166,1.355384824928638,-0.0017368605479179738,-0.0007719891812352543,-0.00018493625559477602,0.00021667090500954503,7.546473287056875e-05,-0.0019629350542755514,-0.001287687614467534,-0.3539545238018036,-51.13858413696289,-7.586869239807129,17.92273712158203,1.9115091562271118,-0.8219101428985596,0.09983979165554047,,,,,,,,,
1739303761.8251965,-0.10414699647660076,1.0647885594886732,-0.40124994592102137,-1.4298179801960547,1.534686268652693,1.1505436566993892,1.355382401582838,-0.00044590907660870547,-0.0011553715603821475,-0.0008057022943347949,0.00017440791687930112,0.002570698213272228,-0.0006970108364810373,-0.0003732543502499718,-0.3063471019268036,-51.19015884399414,-7.610672950744629,17.94654083251953,1.8986917734146118,-0.8155014514923096,0.09343110024929047,,,,,,,,,
1739303761.8352175,-0.10414430974508766,1.064785169820322,-0.4012499458125717,-1.4298158713067701,1.5346825043371848,1.150542888193552,1.3553895453430806,0.0006132658552590628,-0.0017979106032011433,0.000416368155098449,0.00021090876725513304,0.00027396188525151714,-0.00017937214888075597,0.002008256252295381,-0.3539545238018036,-51.13858413696289,-7.610672950744629,17.94654083251953,1.9179178476333618,-0.8219101428985596,0.03300629183650017,,,,,,,,,
1739303761.8461285,-0.10414486766568741,1.0647888713439828,-0.4012524371225879,-1.4298186280515062,1.5346841373333213,1.1505436611133173,1.3553823986577813,-0.0011377624428317587,-0.00010203303638427315,0.00017910525940230128,-0.0010592869844455333,0.00025139187973257455,-0.00048142373788209443,-0.0006776662508190919,-0.3063471019268036,-51.19015884399414,-7.586869239807129,17.97431182861328,1.9051004648208618,-0.8155014514923096,0.09343110024929047,,,,,,,,,
1739303761.856144,-0.10414409976269777,1.0647913064284118,-0.40125005372342226,-1.4298182601334968,1.5346794495973268,1.1505433591439063,1.3553870484707402,-0.0006296855240317458,0.001071844907626613,7.076091163458293e-05,-0.0012355330398198872,-0.0007843807282572487,0.0010152614024982515,0.0005133537896698044,-0.3301508128643036,-51.21396255493164,-7.610672950744629,17.97431182861328,1.9179178476333618,-0.8219101428985596,0.07969819009304047,,,,,,,,,
1739303761.8671043,-0.10414249442378042,1.0647933392549271,-0.4012498663403193,-1.4298180605734099,1.5346823739113957,1.1505444144154036,1.3553839490536654,0.00014660876351572214,0.0001466141075886075,0.0009714728273791072,-1.383189279618416e-05,0.0009984273910892288,0.0008503806914100211,5.7418354689219454e-05,-0.3539545238018036,-51.21396255493164,-7.610672950744629,17.94654083251953,1.8922830820083618,-0.8219101428985596,0.10624848306179047,,,,,,,,,
1739303761.8780477,-0.10414153665514546,1.0647949289621381,-0.40125014505449297,-1.4298181640179484,1.5346815784584107,1.1505451759575727,1.3553899913341232,0.00023228627281319158,0.0015673739308153566,8.370398598908082e-05,-0.00041328127242777786,0.000888355484416086,0.0008769588481401894,0.0012240038842443175,-0.3539545238018036,-51.23776626586914,-7.610672950744629,17.97431182861328,1.8986917734146118,-0.8283188343048096,0.05314789339900017,,,,,,,,,
1739303761.8881168,-0.10413945924782399,1.0647933746206235,-0.40124786504494203,-1.4298187726699692,1.5346869086645571,1.1505435257802707,1.3553864092421846,0.0018191336196031183,0.0006154459228309687,0.0006837686601605039,-0.0007793378934896094,0.0004670744572225801,-0.0013017104011720316,0.0004956215536577018,-0.3817255198955536,-51.21396255493164,-7.638443946838379,17.94654083251953,1.8922830820083618,-0.8155014514923096,0.08610688149929047,,,,,,,,,
1739303761.899091,-0.10414259843851856,1.0647902631545554,-0.401247857192391,-1.4298189018077345,1.5346854324543449,1.1505443737212142,1.3553823259277047,0.0009354016167635649,-0.000931294790366707,0.0008734308492896068,-0.0006845625914905737,0.000990645129338367,0.001128000162543126,-0.0008254693533702678,-0.3817255198955536,-51.21396255493164,-7.638443946838379,17.97431182861328,1.9051004648208618,-0.8219101428985596,0.11998139321804047,,,,,,,,,
1739303761.9091167,-0.1041395391939099,1.064790514529708,-0.40124886746619104,-1.4298140513600714,1.534681576755302,1.1505428642137332,1.3553895172059751,-0.0008732158636837024,-0.0004493137439530067,0.001032274000981943,0.000588219413890611,-0.0007216659925628447,-0.000174136630794952,0.00032613701961921977,-0.3817255198955536,-51.21396255493164,-7.586869239807129,17.92273712158203,1.8986917734146118,-0.8090927600860596,0.09343110024929047,,,,,,,,,
1739303761.9192622,-0.1041394366204525,1.064789570355854,-0.4012498663235596,-1.4298104938413023,1.5346784202000505,1.1505422480555558,1.3553888239194303,0.0015504175296154358,-0.0015606253376778752,0.0007549635927894885,0.0018430756381230047,-0.0010088014710051864,-0.0005683565357208078,0.0005746097694104063,-0.3817255198955536,-51.19015884399414,-7.610672950744629,17.87512969970703,1.9252420663833618,-0.8155014514923096,0.06596527993679047,,,,,,,,,
1739303761.9300861,-0.10413976002622322,1.0647917472333788,-0.4012499457757823,-1.429815833005747,1.5346827941479995,1.1505444187740592,1.3553884865498533,-0.0006780912982424387,-0.00039146219043389074,0.0012270867976844958,-0.000625052015622404,0.0009131313501965228,0.0009869727482325697,0.0008005677160262531,-0.3817255198955536,-51.19015884399414,-7.610672950744629,17.94654083251953,1.8922830820083618,-0.8219101428985596,0.05955658480525017,,,,,,,,,
1739303761.9410398,-0.1041434615799891,1.0647888463228152,-0.401251703606625,-1.4298140767146525,1.5346808426093483,1.150545176442114,1.355387475241157,-0.0009989414178098088,-0.0010557395348547547,-0.0009102095954916033,0.0006625281777448333,-0.00041147885673590944,0.0014883193780134867,0.0019528666591367451,-0.3301508128643036,-51.19015884399414,-7.586869239807129,17.92273712158203,1.9051004648208618,-0.8283188343048096,0.07328949868679047,,,,,,,,,
1739303761.9510615,-0.1041442083482788,1.0647912020231027,-0.40124752164018174,-1.429812699290212,1.5346777794866109,1.150541997527726,1.3553864441306225,-0.0006519643684754676,-0.0005795844290784602,0.0010296790186826708,0.0017274673123634163,0.000993200024686777,-0.00019035486225746188,0.001474588574908058,-0.3301508128643036,-51.21396255493164,-7.638443946838379,17.92273712158203,1.9051004648208618,-0.8283188343048096,0.08610688149929047,,,,,,,,,
1739303761.9620743,-0.10414166768488514,1.064794452294609,-0.4012519637174981,-1.4298179132603297,1.53468091892251,1.1505436087762035,1.3553816797605107,0.0005263809171681885,0.0010865654985058968,-0.000337533595766461,-0.000543961174403177,-0.0010017811172913654,-0.0003728801827186981,-0.003282828831234609,-0.3539545238018036,-51.23776626586914,-7.586869239807129,17.97431182861328,1.9051004648208618,-0.8155014514923096,0.12639008462429047,,,,,,,,,
1739303761.9721203,-0.10414735754749053,1.0647944524405675,-0.4012517281665237,-1.4298165512048815,1.5346780280454604,1.1505396019638672,1.3553821303026907,-0.0020816240488561854,0.0010133999204843622,-0.000817985578999042,0.00033731110401387084,-0.00035595977874451737,-0.0004712404619752257,-0.001357415570120461,-0.2825433909893036,-51.23776626586914,-7.586869239807129,17.94654083251953,1.9051004648208618,-0.8090927600860596,0.11265717446804047,,,,,,,,,
1739303761.983077,-0.10414235356048922,1.0647971260723303,-0.401249945812568,-1.429815912482611,1.5346823166680055,1.150542903389407,1.3553844559720727,8.717620685018694e-05,0.0015985454418857752,0.000796456708799084,-0.0002900539247024434,0.00014476074627725458,-0.00032288099820883243,0.0002214253896937352,-0.3817255198955536,-51.26553726196289,-7.610672950744629,17.94654083251953,1.8922830820083618,-0.8090927600860596,0.06596527993679047,,,,,,,,,
1739303761.9941473,-0.10414240393016828,1.0647933714629716,-0.4012479359293964,-1.4298140506561754,1.534683011335619,1.1505412339996113,1.35538563769039,0.0005807281738786933,-0.00019122998784860338,0.0007298159002859752,0.0009560203578250213,0.0010752221654233558,-0.0012788823223311109,0.000916183143298799,-0.3539545238018036,-51.21396255493164,-7.638443946838379,17.92273712158203,1.8986917734146118,-0.8219101428985596,0.06596527993679047,,,,,,,,,
1739303762.00514,-0.10414190666750445,1.0647855596069162,-0.4012499720586311,-1.4298165482614362,1.5346831286716485,1.1505431901536995,1.355382481613274,1.5261875702632507e-05,-0.0024783270097900457,-1.852072922400779e-05,0.00027296694646659024,0.0019303687888473965,-0.0004443541892297577,-0.0008438684627591693,-0.3817255198955536,-51.13858413696289,-7.610672950744629,17.94654083251953,1.8858743906021118,-0.8155014514923096,0.07969819009304047,,,,,,,,,
1739303762.0160716,-0.1041438839355249,1.0647931359461813,-0.401249230557277,-1.429815859508763,1.5346803437981644,1.1505436087861727,1.3553840235901242,-0.00015827195305999115,-0.000697781385746073,-0.0006456747551174466,0.00016702778573666972,-0.00042434066259871276,-0.00017784167127572853,-0.0017220670264204644,-0.3301508128643036,-51.21396255493164,-7.610672950744629,17.94654083251953,1.9179178476333618,-0.8155014514923096,0.10624848306179047,,,,,,,,,
1739303762.0270603,-0.10414496963100474,1.0647949288168366,-0.4012538543992408,-1.4298180140942298,1.5346808062465525,1.1505460418547313,1.3553871123361878,-0.001114094572882958,0.00036053598769820636,-0.0005410020034480661,8.265908818910463e-05,-0.000196259481652979,0.0015477160378678078,0.0017026060025329389,-0.3063471019268036,-51.23776626586914,-7.586869239807129,17.94654083251953,1.9051004648208618,-0.8356430530548096,0.05314789339900017,,,,,,,,,
1739303762.037064,-0.10414338298018834,1.0647916631900527,-0.40124844559970124,-1.4298147314562628,1.534682669950288,1.1505440655693178,1.3553840255699194,-0.0005403999910201772,1.620965626727031e-05,0.0008409848142132352,0.0011875763452816547,0.0006952455880051076,0.0003498357894346539,0.001762138318958603,-0.3301508128643036,-51.19015884399414,-7.662247657775879,17.89893341064453,1.8922830820083618,-0.8219101428985596,0.07969819009304047,,,,,,,,,
1739303762.0472105,-0.10414214203871201,1.0647940989115785,-0.4012499430171424,-1.4298161510478768,1.5346800437632429,1.1505435433784057,1.35537942103017,-0.0002829377221792939,0.0007972088243186082,0.0009026845829894376,-9.056874881542367e-05,-3.4478761259771425e-05,-0.00018239346320281517,-0.001508170147398247,-0.3539545238018036,-51.23776626586914,-7.610672950744629,17.94654083251953,1.9115091562271118,-0.8155014514923096,0.10624848306179047,,,,,,,,,
1739303762.0580893,-0.10414315466359621,1.0647915042423457,-0.40124762760411936,-1.4298122028977909,1.5346811546300496,1.1505431900095076,1.355387905430609,-0.001275504915903474,-0.00016767867804201082,0.0009094702049543889,0.0016245353328114996,3.406095160059805e-05,-0.0010078318138696531,0.00025090095769022565,-0.3301508128643036,-51.19015884399414,-7.638443946838379,17.89893341064453,1.9051004648208618,-0.8155014514923096,0.07328949868679047,,,,,,,,,
1739303762.0691218,-0.10414330062574727,1.0647934547475864,-0.4012554850966198,-1.429822796003166,1.534681912457615,1.1505425497566744,1.3553867347183242,-0.0001938699826950931,0.0009934958603643113,-0.0005767911804558951,-0.001972026548397585,-0.00026716958516725633,0.00024304165610890564,0.000860208179984298,-0.3301508128643036,-51.21396255493164,-7.535294532775879,17.99811553955078,1.8986917734146118,-0.8090927600860596,0.07969819009304047,,,,,,,,,
1739303762.0801613,-0.1041432218894393,1.064793454860638,-0.40124994581197226,-1.4298167958548826,1.5346807680415142,1.150541490555208,1.3553847791946456,-0.00023959244940318158,0.00017926378659790073,8.680167620885948e-05,-0.0006062277176406172,6.525786223130715e-05,-0.0003259108918079395,0.0012580186884742137,-0.3301508128643036,-51.21396255493164,-7.610672950744629,17.94654083251953,1.9051004648208618,-0.8090927600860596,0.07328949868679047,,,,,,,,,
1739303762.0910711,-0.10414314296773296,1.0647934547395104,-0.40125172848958884,-1.4298160802685185,1.5346832226895315,1.150543504082037,1.355383249210481,0.0003696535634734292,0.0008381209622253369,-0.0005650664073811984,-0.00024226798679546956,0.0004905065770490675,0.0008454036905700526,-0.0019816124487922523,-0.3301508128643036,-51.21396255493164,-7.586869239807129,17.94654083251953,1.9115091562271118,-0.8155014514923096,0.09983979165554047,,,,,,,,,
1739303762.1010828,-0.10413943640333181,1.0647917426669506,-0.4012514861464241,-1.4298141592401175,1.5346800444571191,1.1505436604732755,1.3553922153805626,0.0011617846785719572,-0.0002624958238162225,0.0001693571132290382,0.0007454380356621836,0.0003255655774902685,0.0006718815874920689,0.0017301033839203493,-0.3817255198955536,-51.19015884399414,-7.586869239807129,17.92273712158203,1.9115091562271118,-0.8155014514923096,0.03300629183650017,,,,,,,,,
1739303762.1111805,-0.10414314296765047,1.0647917426669582,-0.40124970738988663,-1.4298159487828186,1.5346815634380806,1.1505418347300875,1.3553922160446186,0.0006256300007286914,-0.00038845258215281046,0.0014580347122768302,0.0005157513559723452,0.0008050898529682572,0.002072091562199225,0.002064086680483817,-0.3301508128643036,-51.19015884399414,-7.610672950744629,17.94654083251953,1.8986917734146118,-0.8283188343048096,0.03300629183650017,,,,,,,,,
1739303762.1221306,-0.1041452739779808,1.0647917416858117,-0.40124991048995295,-1.4298158330063506,1.5346842866704538,1.150544296664951,1.3553888079266694,-0.0005506507715786886,-0.0003238101534825641,0.0011133843523092042,0.001144322278850653,0.0009438396004655752,0.00131540805413462,0.00042009364728599067,-0.3301508128643036,-51.19015884399414,-7.610672950744629,17.94654083251953,1.9115091562271118,-0.8219101428985596,0.05314789339900017,,,,,,,,,
1739303762.1340775,-0.10414150941593413,1.0647897443990506,-0.4012535114904291,-1.429817951169279,1.534685040209149,1.1505390679024905,1.3553833539516584,-3.67940333818754e-05,0.000493361451103864,-0.0009360448394790923,-0.0006546417503767849,0.0014895171203970475,-0.0011849790294548301,-4.9124618207820546e-05,-0.3539545238018036,-51.16238784790039,-7.563065528869629,17.97431182861328,1.9051004648208618,-0.8155014514923096,0.07328949868679047,,,,,,,,,
1739303762.144131,-0.10414313906161396,1.064793455078671,-0.4012499453765066,-1.4298140506559434,1.5346809191788378,1.150545123442354,1.3553830936202054,-0.0003271489320666894,0.0010057929498970021,0.0005162886654497409,0.00020178117235624093,0.0014883197442373212,0.0004243843525168694,-0.0015338883628877968,-0.3301508128643036,-51.21396255493164,-7.610672950744629,17.92273712158203,1.9051004648208618,-0.8283188343048096,0.08610688149929047,,,,,,,,,
1739303762.155173,-0.10414143044683122,1.0647895938109513,-0.40124962792112856,-1.429816548297775,1.534681272368284,1.1505451745037478,1.3553850530010543,0.00017888385530953166,0.00010007403765942453,0.0005615644563219918,0.0003685220074557424,0.001628317714944225,-0.0004027097104861923,-0.0004915668240927345,-0.3539545238018036,-51.19015884399414,-7.610672950744629,17.94654083251953,1.9051004648208618,-0.8283188343048096,0.09343110024929047,,,,,,,,,
1739303762.1660795,-0.10414698635436638,1.0647897437328282,-0.4012499448296289,-1.429818018799742,1.5346776625425307,1.1505434976244615,1.3553803629816032,-0.0021647831090750155,-0.0009080495245253333,0.0011504161849075624,-0.0005864627429063338,-0.0008854214413481758,0.0005065728381504384,-0.0013298190188784395,-0.3063471019268036,-51.16238784790039,-7.610672950744629,17.97431182861328,1.9316507577896118,-0.8155014514923096,0.10624848306179047,,,,,,,,,
1739303762.1770544,-0.10414143045888206,1.0647917781335785,-0.4012535111666024,-1.4298161538411736,1.534680800932823,1.1505424977050969,1.3553894165857918,-0.00012466685824952448,0.0006273559220049251,-0.0006945137176455519,0.00017072034331536853,-0.0003140740812710188,-0.0004975846862545831,0.0017692900062988583,-0.3539545238018036,-51.19015884399414,-7.563065528869629,17.94654083251953,1.9051004648208618,-0.8090927600860596,0.05955658480525017,,,,,,,,,
1739303762.1871161,-0.10414143044685346,1.0647889486899134,-0.401250570670799,-1.4298186940340798,1.5346808014173314,1.1505423787233688,1.35538637604991,0.0003789987183840136,-0.0022982555067834866,-0.000503880083323344,-0.001024342159541753,-0.0005066463388585041,0.0002080742738158864,0.0008820765504641316,-0.3539545238018036,-51.16238784790039,-7.563065528869629,17.94654083251953,1.9051004648208618,-0.8090927600860596,0.07328949868679047,,,,,,,,,
1739303762.19813,-0.10414314199098039,1.0647915042438854,-0.40125175468231755,-1.4298141311622223,1.5346784201999506,1.1505435039740632,1.3553796915969218,0.0005787867797176337,-0.0009600361120104924,-0.0004407967422689308,0.000974130567134105,-0.0006930319964719028,0.0009699946938519237,-0.0018642524810669112,-0.3301508128643036,-51.19015884399414,-7.586869239807129,17.92273712158203,1.9252420663833618,-0.8155014514923096,0.10624848306179047,,,,,,,,,
1739303762.2091377,-0.10413937357079454,1.064794214032758,-0.4012500245497176,-1.4298179923778849,1.534681682683024,1.150545039322987,1.3553822271321079,0.000993831618243818,0.001291130874219035,0.0011387282054915121,0.00045277112500684,0.0012326732200593838,0.0016429676818618946,-0.0004397163487404631,-0.3539545238018036,-51.23776626586914,-7.610672950744629,17.97431182861328,1.8986917734146118,-0.8283188343048096,0.09343110024929047,,,,,,,,,
1739303762.2201421,-0.10414143032673058,1.0647944141825894,-0.4012517255465941,-1.4298151142552298,1.5346808014180375,1.1505441122810545,1.3553842943345678,0.0004121698989045351,0.0011629774673273278,-0.0005575333505478208,-0.0006708398668938888,-0.000207921157894994,0.0006505837755709175,0.0006569341520903155,-0.3539545238018036,-51.23776626586914,-7.586869239807129,17.92273712158203,1.9051004648208618,-0.8283188343048096,0.07328949868679047,,,,,,,,,
1739303762.231085,-0.10414142947024851,1.0647934669571923,-0.40125244007475874,-1.4298139487315216,1.5346811164773428,1.150544805726959,1.355381837112079,-0.0002832711360462179,0.0016061128122678984,-0.0012104160815607442,0.0014333868501436612,-0.00022829627504526603,-0.00017822688500743856,0.0002398822443504197,-0.3539545238018036,-51.21396255493164,-7.586869239807129,17.92273712158203,1.9115091562271118,-0.8283188343048096,0.08610688149929047,,,,,,,,,
1739303762.2420497,-0.1041396692688782,1.0647917426671574,-0.4012537444462191,-1.429816072839767,1.5346802007588545,1.150540923347816,1.3553867006178342,0.0004375502202399219,-0.00018724324033717415,-0.0008070658571592705,-0.00013069535016477045,0.000504122161111927,0.0009076445145305226,0.0010788452522782245,-0.3817255198955536,-51.19015884399414,-7.563065528869629,17.94654083251953,1.9115091562271118,-0.8283188343048096,0.04673920199275017,,,,,,,,,
1739303762.2530537,-0.10414338070614841,1.0647934551876892,-0.4012499454868379,-1.429815913461057,1.5346804492986663,1.1505451238749556,1.355386504603301,-0.0005050127179850484,0.0003223180260007429,0.0003562101731777092,0.0002935283691759973,0.0006608268725155637,0.0024323842325895983,0.002100604623069283,-0.3301508128643036,-51.21396255493164,-7.610672950744629,17.94654083251953,1.9115091562271118,-0.8283188343048096,0.04673920199275017,,,,,,,,,
1739303762.2631624,-0.10414239619427348,1.0647958021831028,-0.4012499458125643,-1.4298144035427502,1.5346792865885677,1.1505397226085339,1.3553808557185711,0.00018445163881699212,0.0019871317160670165,0.00021141597811904323,0.0005671911978430439,-0.0005282349422989801,0.000780675260962027,-0.0014995648281857681,-0.3301508128643036,-51.23776626586914,-7.610672950744629,17.92273712158203,1.9179178476333618,-0.8090927600860596,0.11998139321804047,,,,,,,,,
1739303762.2741148,-0.10414143044263771,1.0647969262531296,-0.4012499458125698,-1.4298158339888374,1.534679168359616,1.1505416334343006,1.3553883004486609,0.0003858822583943025,0.0004917223015997148,0.0003633805756825274,0.00048070490855640663,-0.00027581919720147293,-0.0003181021973494747,0.002313605305207331,-0.3539545238018036,-51.26553726196289,-7.610672950744629,17.94654083251953,1.9179178476333618,-0.8026840686798096,0.06596527993679047,,,,,,,,,
1739303762.284132,-0.10413943250600019,1.0647897447247536,-0.40125077481527244,-1.4298179397225763,1.5346792860965184,1.1505397871220373,1.355384179101338,0.0009620256850172351,-0.00023009621434853008,0.0008734307111826337,-0.00048043699735102733,-0.0003492238641741139,4.5474936107885806e-05,0.0018022999552167358,-0.3817255198955536,-51.16238784790039,-7.586869239807129,17.97431182861328,1.9179178476333618,-0.8219101428985596,0.06596527993679047,,,,,,,,,
1739303762.294137,-0.10414143044685327,1.0647917425579418,-0.4012499720420859,-1.4298158330061532,1.5346809193164153,1.1505412204085403,1.3553785414084816,0.0014065481043215857,0.0003546475538336519,0.0004963630723737929,0.00024150204792175922,0.0006042224763520169,0.001457435591184833,-0.002009125740223542,-0.3539545238018036,-51.19015884399414,-7.610672950744629,17.94654083251953,1.9051004648208618,-0.8219101428985596,0.11265717446804047,,,,,,,,,
1739303762.3050952,-0.10413872056163206,1.0647952830634617,-0.40125243712273595,-1.4298158461966655,1.5346815590780836,1.1505425968897818,1.355387240254227,0.0012693753026906593,0.0012785836735377423,-0.00041298137734561687,0.00019752098496885666,-0.0001878770785738676,0.000920158507651421,0.0007828286834278515,-0.3817255198955536,-51.21396255493164,-7.586869239807129,17.94654083251953,1.8986917734146118,-0.8155014514923096,0.06596527993679047,,,,,,,,,
1739303762.3151164,-0.10414213193404336,1.0647917438970924,-0.4012478674388042,-1.429816545427235,1.5346832226716491,1.1505407667997727,1.3553785012618962,0.00042997199689355796,0.0002072561589771954,0.0006602921793081003,0.0007388764908716162,-9.82279893397323e-05,0.0008653405402311751,-0.0008830292038095114,-0.3539545238018036,-51.19015884399414,-7.638443946838379,17.94654083251953,1.9115091562271118,-0.8219101428985596,0.08610688149929047,,,,,,,,,
1739303762.3270435,-0.10414314297154438,1.0647895063075328,-0.40124714738748063,-1.4298180231603765,1.534681559095363,1.1505398118146684,1.3553824421252332,1.9832687020777978e-05,-0.0010233191290246742,0.0013565332527200893,-0.0012094742111590834,-0.0004831901889799033,-0.00019383545021489567,-0.0011562812805889584,-0.3301508128643036,-51.16238784790039,-7.638443946838379,17.97431182861328,1.8986917734146118,-0.8219101428985596,0.07969819009304047,,,,,,,,,
1739303762.3370833,-0.10413946660538054,1.0647917415391108,-0.4012495464159029,-1.429815868327591,1.5346819646179366,1.150544361583053,1.3553848713281902,0.00043783225901749547,-4.301026246080478e-05,0.00014630582675527937,0.0009273094655706956,0.0003645411690760878,-0.000289419016975699,0.00034063819348562866,-0.3817255198955536,-51.19015884399414,-7.586869239807129,17.94654083251953,1.8986917734146118,-0.8219101428985596,0.05955658480525017,,,,,,,,,
1739303762.347092,-0.10413942957676547,1.06479318144782,-0.4012517293156807,-1.4298146154696116,1.5346800437641293,1.150541726085211,1.3553855766613212,0.0005813285503952415,0.0005021926779509317,0.00035473374160456214,0.0012933123898424801,-4.2960959971783e-06,-0.0006941322297996651,0.0017688906244104825,-0.3817255198955536,-51.21396255493164,-7.586869239807129,17.92273712158203,1.9115091562271118,-0.8090927600860596,0.05314789339900017,,,,,,,,,
1739303762.3581455,-0.10414143033832517,1.0647917429924616,-0.4012499602844841,-1.4298200408393003,1.5346799260196915,1.1505394030206182,1.3553855766604352,-0.00015751485639023313,0.0012847465854237015,0.00010564128238586319,-0.0007971095720764348,-0.0004913150607927201,-0.0007905747281327227,9.436136513230747e-05,-0.3539545238018036,-51.19015884399414,-7.610672950744629,17.99811553955078,1.9115091562271118,-0.8155014514923096,0.05314789339900017,,,,,,,,,
1739303762.3681457,-0.1041414040785415,1.0647934551876945,-0.4012517294618957,-1.4298208651799835,1.5346812331197688,1.1505404100172405,1.3553799969695781,0.00021595652325707057,0.00024277642222471366,-0.0009225755465230693,-0.0012794227129116242,-0.0002888836573862399,-0.0015071279892344652,-0.0002803880709244713,-0.3539545238018036,-51.21396255493164,-7.586869239807129,17.97431182861328,1.9051004648208618,-0.8283188343048096,0.09983979165554047,,,,,,,,,
1739303762.3791406,-0.10414314307569482,1.0647951675630654,-0.401249972058242,-1.4298210476113569,1.5346832357560383,1.1505429607903974,1.3553824377821908,0.00026766014518942745,0.0003558832717238932,-0.0007493938012772484,-0.0015325246738418746,-7.151469923128841e-05,0.00026989821918634786,-0.001222216475547907,-0.3301508128643036,-51.23776626586914,-7.610672950744629,17.97431182861328,1.9115091562271118,-0.8219101428985596,0.07969819009304047,,,,,,,,,
1739303762.390132,-0.10414142165741723,1.064795574463947,-0.40125140187598735,-1.429817267561811,1.5346800437752803,1.1505436480317748,1.355384061339838,0.00028053764556832447,0.00217050833789904,-0.00018714360607152605,-0.0003400728810748229,-0.000384846070098067,0.0023094619071873856,0.0009598443465759032,-0.3539545238018036,-51.21396255493164,-7.586869239807129,17.92273712158203,1.9115091562271118,-0.8155014514923096,0.06596527993679047,,,,,,,,,
1739303762.4010918,-0.10414143921579974,1.064793352179279,-0.40125351018361777,-1.4298147660749805,1.5346808014173399,1.150542898401297,1.3553848190003568,0.0003717185998225721,0.00020871738918514784,-0.0007543148225011022,0.0014679684870142133,-0.0001158789352179344,0.0013641715814274149,0.0005259131501941529,-0.3539545238018036,-51.21396255493164,-7.563065528869629,17.92273712158203,1.9051004648208618,-0.8090927600860596,0.05955658480525017,,,,,,,,,
1739303762.4131033,-0.10414314003782175,1.0647917779876477,-0.40124786602270873,-1.4298159168795868,1.534681676814988,1.1505401257482732,1.3553830820656865,-0.0002294278157462462,-0.00033043811251653695,0.00038790234180723397,0.0011216311960392767,0.00020815198062435055,-0.0009636798089746722,0.0006691844974684317,-0.3301508128643036,-51.19015884399414,-7.638443946838379,17.94654083251953,1.8986917734146118,-0.8219101428985596,0.07328949868679047,,,,,,,,,
1739303762.4240532,-0.10414143044684775,1.0647934551877556,-0.40125172845325013,-1.4298180585729752,1.5346808012560555,1.150542903382021,1.3553792989048465,0.0005463593772832948,0.00032761524133015027,-0.0004873167596377756,9.989351442749077e-06,-0.00025061094332089195,0.0005012238952995397,-0.001060591422153887,-0.3539545238018036,-51.21396255493164,-7.586869239807129,17.94654083251953,1.9051004648208618,-0.8090927600860596,0.10624848306179047,,,,,,,,,
1739303762.4340923,-0.10414314264204977,1.0647851708553757,-0.4012470847896188,-1.4298181895919124,1.5346765454222113,1.1505446662459737,1.355384061339838,-0.0004500734619008342,-0.0019452871556122225,0.0006610763456128889,-0.0004511508761228749,-0.0007606303673303702,0.00029070146500784796,7.522137724694607e-05,-0.3301508128643036,-51.13858413696289,-7.610672950744629,17.97431182861328,1.9051004648208618,-0.8283188343048096,0.06596527993679047,,,,,,,,,
1739303762.4451048,-0.10414314300366903,1.0647917426508058,-0.4012499194134729,-1.4298171538053708,1.5346808013933146,1.1505405447282926,1.3553823985366706,-0.0010205700118092464,0.0010994046150166789,-0.0006258159925465988,-0.0006414226793093308,0.0005179295715688042,-0.0003803837962562857,0.0005800667156280131,-0.3301508128643036,-51.19015884399414,-7.610672950744629,17.92273712158203,1.9051004648208618,-0.8283188343048096,0.07969819009304047,,,,,,,,,
1739303762.4551232,-0.10414314296758466,1.064788875793469,-0.40124997205808743,-1.4298158343677503,1.5346813116134759,1.1505421111267322,1.3553816400857472,3.0235681415042757e-06,-0.0010026055216937873,-0.0003822146959696097,0.0011178107350135478,0.001453280882147244,-0.00025723164555001076,-0.00014497856707403859,-0.3301508128643036,-51.19015884399414,-7.610672950744629,17.94654083251953,1.9051004648208618,-0.8155014514923096,0.05955658480525017,,,,,,,,,
1739303762.4661162,-0.1041414294702492,1.0647917426507745,-0.40125172481791116,-1.4298167994712634,1.5346806564255953,1.1505386503112742,1.3553864912859952,0.0005056210130747979,-0.000524849930318637,-0.0006923539188675842,0.0003090186696109572,0.0004166252103881899,-0.0002671621838944123,0.0018523412252374502,-0.3539545238018036,-51.19015884399414,-7.610672950744629,17.94654083251953,1.8986917734146118,-0.8090927600860596,0.04673920199275017,,,,,,,,,
1739303762.4761474,-0.10414014279466724,1.0647949292898409,-0.4012517167459595,-1.4298182205873595,1.5346823152686597,1.15053965477983,1.3553811550046548,0.000382603378919,0.0006573936809801966,-0.0005931689811488635,0.00019204561640142243,0.0005008841743585073,0.00041973163943863714,0.00019547974180670648,-0.3817255198955536,-51.23776626586914,-7.586869239807129,17.94654083251953,1.8922830820083618,-0.8219101428985596,0.09343110024929047,,,,,,,,,
1739303762.4870872,-0.1041392946257776,1.06478902946633,-0.40124994581237095,-1.4298183231957349,1.534682465011546,1.1505423780035393,1.3553856167026865,0.0010140073234845067,-0.0014020152270596462,-0.00024162240235968985,0.00011227287353517,-0.0001490225466067931,-2.9785477247145042e-05,0.0009897220747707373,-0.3539545238018036,-51.16238784790039,-7.610672950744629,17.94654083251953,1.9179178476333618,-0.8090927600860596,0.07969819009304047,,,,,,,,,
1739303762.4981112,-0.10414485742265352,1.0647971657905908,-0.4012523566685818,-1.4298189710530416,1.5346799260376365,1.150540061035432,1.3553824392540226,-0.0014085059771978532,0.001527040366487513,-0.0009601754815399009,-0.0004652844536148153,-0.0009481884859750755,0.00036220361248945224,-0.0007451188355770099,-0.3063471019268036,-51.26553726196289,-7.586869239807129,17.94654083251953,1.9115091562271118,-0.8219101428985596,0.07969819009304047,,,,,,,,,
1739303762.509038,-0.10414143041068638,1.0647917337276245,-0.40125348467683675,-1.4298151227760671,1.5346830748818698,1.150540319168456,1.3553840611783352,0.0007031723987638163,-0.00040199213311910406,-0.0008286513019473248,0.00010748961410769292,0.0012408669269766428,-0.00010679391209842028,-6.1251063669647015e-06,-0.3539545238018036,-51.19015884399414,-7.563065528869629,17.92273712158203,1.8858743906021118,-0.8155014514923096,0.06596527993679047,,,,,,,,,
1739303762.519193,-0.1041410071344794,1.0647917425577904,-0.40125385438813727,-1.4298189327924362,1.5346807621714913,1.150540466398204,1.3553808013047672,2.332034050538215e-05,0.0006973200059972772,-0.0006451530958817656,0.000780155759439757,-0.0003264691081941727,0.0016988463847892924,0.0006501549845501475,-0.3301508128643036,-51.19015884399414,-7.586869239807129,17.94654083251953,1.9051004648208618,-0.8283188343048096,0.09343110024929047,,,,,,,,,
1739303762.530054,-0.10414143043479643,1.0647894003437122,-0.4012478647265198,-1.4298211301375041,1.5346800810648293,1.1505431882070223,1.3553818740786139,0.0006286427489544688,-0.0011402820297170071,0.0006848671712822107,-0.0012947570022856236,-0.0003027351102296077,0.002459505303967449,-0.0002495299867932896,-0.3539545238018036,-51.16238784790039,-7.638443946838379,17.97431182861328,1.9115091562271118,-0.8155014514923096,0.09343110024929047,,,,,,,,,
1739303762.5400844,-0.10414143044685306,1.0647860342586886,-0.4012517284895669,-1.4298168764548884,1.5346808057786223,1.1505446466957934,1.3553848190183055,-0.0005407343349124856,-0.002632291757268109,-0.0014500153519332456,0.000415935670085321,5.2770089314428545e-05,0.0008683926087813142,0.00126029204822859,-0.3539545238018036,-51.11081314086914,-7.586869239807129,17.94654083251953,1.9051004648208618,-0.8283188343048096,0.05955658480525017,,,,,,,,,
1739303762.552132,-0.10414290272298286,1.0647917426669582,-0.401251731405774,-1.4298147709981215,1.5346791284677588,1.1505407246080128,1.355384819000357,0.0005761992694255584,-0.0007167458727299291,-0.00020069127880200158,0.001326526920273492,-0.001239731365965756,-8.773212640861657e-06,0.0008823662885355713,-0.3301508128643036,-51.19015884399414,-7.586869239807129,17.89893341064453,1.9179178476333618,-0.8219101428985596,0.05955658480525017,,,,,,,,,
1739303762.56313,-0.10414316927412068,1.0647934551271245,-0.4012532727960374,-1.4298141574358159,1.5346800437569648,1.1505443620148448,1.3553798227873208,-0.0008517834519183892,0.0001503632985838447,-0.0008537774720680526,0.0004095624980544775,0.00047555141368250833,0.00027379112070452424,-0.0009563156825450306,-0.3301508128643036,-51.21396255493164,-7.563065528869629,17.92273712158203,1.9115091562271118,-0.8219101428985596,0.06596527993679047,745,757,728,38.893,0,0
1739303762.5740688,-0.1041431604852846,1.0647934689237386,-0.401249919320271,-1.4298168790537362,1.534679286097183,1.1505435243264084,1.3553849236320479,-0.0004140494533139036,-6.076165722848932e-05,-0.00013673813502468795,4.1418208883401504e-05,0.000192207076607105,0.0007870732992531634,0.0026979700164496793,-0.3301508128643036,-51.21396255493164,-7.610672950744629,17.94654083251953,1.9179178476333618,-0.8155014514923096,0.05955658480525017,739,758,728,38.785,0,0
1739303762.585053,-0.10414111402723297,1.0647934286968135,-0.401251004294368,-1.4298165272205408,1.5346773604003157,1.1505420736289758,1.355385880577144,0.0003591291940265392,9.151648211646517e-05,-0.0011854160243877773,0.0009343740535293101,-0.0014831257916936699,-0.00016406560432724246,0.0012205198388399756,-0.3539545238018036,-51.21396255493164,-7.586869239807129,17.92273712158203,1.9252420663833618,-0.8155014514923096,0.05955658480525017,746,759,728,38.893,0,0
1739303762.595069,-0.10414314014067287,1.0647916273114673,-0.4012499707377769,-1.4298204161780712,1.5346807968772356,1.150537377484087,1.355380056583116,-0.0012383400487046249,-0.00034671619219621327,-0.0010377637114284783,-0.0008462968897249273,-3.767480418219026e-05,-0.0029507532845503524,-0.0018853900372722368,-0.3301508128643036,-51.21396255493164,-7.610672950744629,17.97431182861328,1.9051004648208618,-0.8026840686798096,0.09983979165554047,745,759,729,38.785,0,0
1739303762.605122,-0.10414143044680539,1.0647917601876222,-0.40124994581299195,-1.4298165436821488,1.534681559077341,1.1505431724868171,1.3553872002177463,-0.00016482478157814004,0.0002745412711754262,-0.0003366959687483861,0.0007158686266389629,0.0008025469883680678,0.0010443560874246133,0.002470877365601998,-0.3539545238018036,-51.19015884399414,-7.610672950744629,17.92273712158203,1.8986917734146118,-0.8155014514923096,0.03941498324275017,746,757,729,38.785,0,0
1739303762.6171434,-0.10414324232909963,1.064789740365553,-0.40125162295780337,-1.429819052633567,1.5346784201999506,1.150540767175437,1.355385994189756,-0.0009304887365090118,-0.0009652878593796258,-0.0003148336665680556,-0.00031038739866557513,-0.0005679825767573442,0.0004739427411206459,0.0015055370594257292,-0.3301508128643036,-51.16238784790039,-7.586869239807129,17.94654083251953,1.9252420663833618,-0.8283188343048096,0.04673920199275017,744,757,728,38.785,1,0
1739303762.628073,-0.10413944408967041,1.0647917681767567,-0.4012478660225157,-1.4298172689794977,1.5346792875507334,1.150538892751051,1.3553831954419657,0.0003615425961057689,0.0006836492919807383,-3.4106810172317256e-06,-0.0005935067339377798,9.818209270885973e-06,-0.0001898291575786038,0.00013662369266059522,-0.3817255198955536,-51.19015884399414,-7.638443946838379,17.92273712158203,1.9179178476333618,-0.8155014514923096,0.07328949868679047,745,759,729,38.893,1,0
1739303762.6381056,-0.10414309016983912,1.0647897434183418,-0.40125172956965743,-1.4298141426109492,1.5346800437572858,1.1505373948728217,1.3553813773537744,-0.0007127544533540922,-0.00015436936335193728,0.0005591715779940142,0.00043284424618098417,0.0003439929251021188,-0.001998573683549864,-0.001521183535515268,-0.3301508128643036,-51.16238784790039,-7.586869239807129,17.92273712158203,1.9115091562271118,-0.8026840686798096,0.05314789339900017,747,764,728,38.785,1,0
1739303762.6481116,-0.1041391951903167,1.064789665253223,-0.4012470847896389,-1.4298170187342145,1.5346808014173399,1.1505396896566058,1.3553824377114116,-1.194087315287552e-05,-0.00031434617055563186,0.0004421325942758113,-0.0006649184970507204,-0.00013430253285158194,-0.00040565916614712443,-0.0012242360533068009,-0.3817255198955536,-51.16238784790039,-7.610672950744629,17.92273712158203,1.9051004648208618,-0.8219101428985596,0.07969819009304047,747,759,728,38.785,1,0
1739303762.659031,-0.1041414304093431,1.0647951680350205,-0.4012490231917394,-1.4298169010911745,1.5346792730152308,1.1505420316818995,1.3553833930675652,0.0005275506549039253,0.0012148352362707589,0.0006072885171495282,-0.00025212766810396754,-0.0021942032296883374,-3.80795516172998e-05,0.0004812656822435575,-0.3539545238018036,-51.23776626586914,-7.610672950744629,17.94654083251953,1.9179178476333618,-0.8420517444610596,0.05955658480525017,744,758,728,38.893,1,0
1739303762.6690757,-0.10413940223127335,1.064785965911027,-0.4012499418723595,-1.4298190427897772,1.5346809191546882,1.1505435871464267,1.3553840614771955,0.0008299701948408044,-0.0024570247616681456,0.0013515306563379858,0.0005923094260027636,-0.0011364764026796964,0.0013470196953441918,-0.00014951197077616324,-0.3817255198955536,-51.13858413696289,-7.610672950744629,17.94654083251953,1.9051004648208618,-0.8283188343048096,0.06596527993679047,744,759,727,38.893,0,0
1739303762.6791868,-0.10414314296707176,1.0647917426319653,-0.40124994581250306,-1.4298190389014613,1.5346815648936127,1.15054040812437,1.3553879979147474,-0.0008255298349800612,0.0001293213690203152,0.0005366197197404069,-0.0006483667722103491,-0.0001931351261968901,0.0005691226328558458,0.000927319411534337,-0.3301508128643036,-51.19015884399414,-7.610672950744629,17.94654083251953,1.8986917734146118,-0.8283188343048096,0.05955658480525017,747,758,728,38.785,0,0
1739303762.690095,-0.10414485255850343,1.0647973122037755,-0.40125172554614963,-1.4298133346483144,1.5346815589159453,1.1505396505719596,1.3553831954605509,-0.0013024595562926788,0.0014154465177522414,-0.000793227816718602,0.0007078907007055733,0.0005037676818623795,-7.5598151354550926e-06,0.00040044037769866115,-0.3063471019268036,-51.23776626586914,-7.586869239807129,17.89893341064453,1.8986917734146118,-0.8219101428985596,0.07328949868679047,747,759,728,38.893,0,0
1739303762.7001588,-0.10413932092068746,1.0647950200273952,-0.40125101312478545,-1.4298189885861594,1.5346768603207142,1.1505404473163914,1.3553863430418154,0.0005374825166912405,0.00016748668682796918,0.000513834736663952,-0.0011613324105147972,-0.0011518422034548863,0.000389526658569831,0.001889018202676884,-0.3539545238018036,-51.26553726196289,-7.586869239807129,17.97431182861328,1.9115091562271118,-0.8283188343048096,0.04673920199275017,746,758,728,38.785,1,0
1739303762.7110648,-0.10414143043494493,1.0647916376721795,-0.40125172848555063,-1.4298169058772066,1.5346773335888821,1.15054056505418,1.3553808105106375,2.2832829929084997e-05,-0.0002994810745239121,-0.00017765382732192782,0.0008948010736648325,-0.0001352352475706384,0.0006687518012711115,-0.0008447907600733873,-0.3539545238018036,-51.19015884399414,-7.586869239807129,17.94654083251953,1.8986917734146118,-0.8283188343048096,0.09343110024929047,746,758,730,39.002,1,0
1739303762.7210739,-0.10414461524371385,1.0647934492990325,-0.40124796806194146,-1.4298183363644388,1.5346800436857022,1.1505392459657435,1.3553791419215704,-0.000877901427912149,0.0001700687978937593,0.000332515260494228,-0.00062523182025173,-0.00011595352153799803,-3.332222315256692e-05,-0.00245338697684925,-0.3063471019268036,-51.21396255493164,-7.638443946838379,17.94654083251953,1.9115091562271118,-0.8155014514923096,0.10624848306179047,746,759,728,38.893,1,0
1739303762.732069,-0.10414243101914775,1.064789744726005,-0.40124994581429785,-1.4298189452445234,1.5346804994392875,1.1505404080765136,1.3553792989024014,-0.0006527825349970434,-0.0011035274059303928,-0.0007569032335987393,0.001230466702207837,0.0008684353064361552,-0.0006279265521254625,-0.0006141211799255118,-0.3301508128643036,-51.16238784790039,-7.610672950744629,17.94654083251953,1.8986917734146118,-0.8283188343048096,0.10624848306179047,746,759,729,38.893,1,0
1739303762.7430396,-0.10414143011997891,1.064791779950522,-0.40124786504156784,-1.429822914014173,1.5346815606904798,1.1505412739677645,1.3553847797545002,-1.802527376845096e-06,0.0008596944527728865,0.00039311103161569256,-0.0005850510624207558,0.0011731310214153983,-0.00039337172297189334,0.0014588836400027678,-0.3539545238018036,-51.19015884399414,-7.638443946838379,17.99811553955078,1.8986917734146118,-0.8356430530548096,0.05955658480525017,746,760,729,38.785,1,0
1739303762.7531376,-0.10413857095012626,1.0647915041399942,-0.40125351105757506,-1.4298208134459134,1.5346789328845005,1.1505404080705322,1.3553793003579455,0.0013123577785324764,-0.00030209219999218574,0.00039772003577009105,-0.000811818963580171,-0.000882358328020594,0.0005680324041756524,9.039506561695767e-07,-0.3539545238018036,-51.19015884399414,-7.563065528869629,17.97431182861328,1.9179178476333618,-0.8283188343048096,0.10624848306179047,746,756,728,38.893,0,0
1739303762.7641492,-0.10414143010517664,1.0647951500464383,-0.40125089105225653,-1.4298190516547198,1.5346800437552675,1.150540413884733,1.3553808199855908,0.0008758688319647236,0.0008692524131517209,-0.0006900359182385621,-0.0005933721022749533,3.179378840164232e-05,-7.398187058970834e-05,-0.002066988171114317,-0.3539545238018036,-51.23776626586914,-7.610672950744629,17.94654083251953,1.9115091562271118,-0.8283188343048096,0.09343110024929047,745,758,729,38.893,0,0
1739303762.7751231,-0.10414314296758254,1.0647917691578117,-0.401249936987588,-1.4298172647278613,1.5346815590774179,1.1505408809589115,1.355385878746189,-0.0001415275112986385,2.2947127293935045e-05,-0.0002937637994012216,-0.00014178036576293393,0.00047507787214520444,0.0013543630303982617,0.0027316054822653013,-0.3301508128643036,-51.19015884399414,-7.610672950744629,17.92273712158203,1.8986917734146118,-0.8283188343048096,0.05955658480525017,746,761,729,38.676,0,0
1739303762.7870617,-0.10413942957618799,1.0647951765388877,-0.4012519646642,-1.4298211300291348,1.5346798867199996,1.1505396504131233,1.3553848233669898,0.0012181098972242536,0.0008281040940628075,-0.0017108858964885868,0.0001636129956531034,-0.0021849087830174436,-0.00011102025181092281,-2.3641416773279543e-05,-0.3817255198955536,-51.23776626586914,-7.586869239807129,17.97431182861328,1.9115091562271118,-0.8219101428985596,0.05955658480525017,746,756,730,38.785,0,0
1739303762.7971075,-0.10414143012130204,1.0647971656493234,-0.4012524371239211,-1.429815123066921,1.5346800423028244,1.1505404080705322,1.3553863343205381,0.00037361719803294554,0.0013998685008179495,-0.0012926435554195407,0.0011256152565485953,-0.00021959356996826025,0.000533580427717887,0.0029747323195040785,-0.3539545238018036,-51.26553726196289,-7.586869239807129,17.92273712158203,1.9115091562271118,-0.8283188343048096,0.04673920199275017,746,759,729,38.893,0,0
1739303762.8071277,-0.10414503749316216,1.0647936936062683,-0.40124995459712776,-1.4298172655999841,1.5346800437571873,1.1505388927503755,1.355382068580765,-0.0005874695978966547,-0.00041614883338973556,0.00010816478855878175,0.0006842454491620199,-0.00042393918022884944,-0.0006265696261711429,0.0001384746504353179,-0.3301508128643036,-51.21396255493164,-7.610672950744629,17.92273712158203,1.9115091562271118,-0.8155014514923096,0.07969819009304047,746,759,728,38.785,1,0
1739303762.8180437,-0.10414306354068485,1.0647908932287715,-0.4012517019986522,-1.4298188132379295,1.5346807447288802,1.150538892911881,1.3553840613391432,-0.0002645014737573709,-0.0007000497583728424,-0.00022827029815792747,-0.00013032924015232104,-0.0001735728793373515,8.046748539866264e-05,9.655880914051572e-05,-0.3301508128643036,-51.13858413696289,-7.586869239807129,17.94654083251953,1.9051004648208618,-0.8155014514923096,0.06596527993679047,747,759,728,38.785,1,0
1739303762.8281279,-0.10414290662578288,1.0647918221882695,-0.40125172881316085,-1.4298190899171874,1.5346796393089328,1.1505396504104566,1.3553851315136598,-0.0015008685672859606,-0.000872950683192996,-0.0010426979939311052,-0.0006305828092105039,-0.00028830444328152344,7.0477629774903e-05,6.317014441972122e-05,-0.3301508128643036,-51.19015884399414,-7.586869239807129,17.94654083251953,1.9179178476333618,-0.8219101428985596,0.05955658480525017,747,760,733,39.111,1,0
1739303762.8390963,-0.10413848324550852,1.064785886402272,-0.4012499458125717,-1.4298200050039986,1.5346759899317357,1.1505388927503755,1.355384608295209,0.0005761090541148861,-0.002911620593108761,0.001334699120528325,-0.001168083472324846,-0.0016162155841643485,-0.00030754876969879053,0.0017932517368659544,-0.3817255198955536,-51.13858413696289,-7.610672950744629,17.94654083251953,1.9179178476333618,-0.8155014514923096,0.07328949868679047,746,759,728,38.893,1,0
1739303762.8501065,-0.1041414291393559,1.064791742654845,-0.401251753820128,-1.4298190546053358,1.5346795727345395,1.1505404081243673,1.3553831562047247,0.0001976308801293653,-0.00035392799506108895,0.0008338053646740704,-0.0006452361421616136,-0.0006419149555168039,0.00046466215706601505,0.001011906433317793,-0.3539545238018036,-51.19015884399414,-7.610672950744629,17.94654083251953,1.9115091562271118,-0.8283188343048096,0.07328949868679047,747,758,728,38.785,2,0
1739303762.8611338,-0.104143141556912,1.0647946036899072,-0.4012538279282514,-1.4298172689795456,1.5346823210901703,1.1505388929118818,1.3553848170616254,-0.0009466076873942942,0.001029531115104003,-0.00027513987012585546,-0.0005713441015073048,0.001050428704078662,-0.00048126406285845517,0.0012061082515999553,-0.3301508128643036,-51.19015884399414,-7.586869239807129,17.92273712158203,1.8922830820083618,-0.8155014514923096,0.05955658480525017,746,759,729,38.893,1,0
1739303762.8720617,-0.10414243087853157,1.0647961557282448,-0.4012535108435096,-1.4298211667676413,1.5346791378231166,1.1505392459630854,1.3553840615731203,-0.0003543347618220424,0.001428142387987236,-0.001348083543768428,-0.0010800491300535643,0.000276562389552254,-0.00039823158130939827,0.0016456834860739873,-0.3301508128643036,-51.23776626586914,-7.563065528869629,17.97431182861328,1.8922830820083618,-0.8155014514923096,0.06596527993679047,746,758,733,38.893,0,0
1739303762.883057,-0.10414026892604136,1.0647935346661264,-0.40125183347225357,-1.4298190513296656,1.5346808013455595,1.1505404255151288,1.355380055273095,0.0018805110874777205,0.0003703705805510339,-0.0012056832226673892,-0.00015276018018408794,0.00023222816458163853,0.00013175506829867726,0.00015164414030694622,-0.3301508128643036,-51.21396255493164,-7.586869239807129,17.94654083251953,1.9051004648208618,-0.8283188343048096,0.09983979165554047,748,759,729,38.893,0,0
1739303762.8930955,-0.10414485543964351,1.0647934561701815,-0.4012499717329655,-1.4298228876324308,1.5346823167374952,1.1505404080708275,1.3553792989050382,0.0002605784924197059,0.0009537266417835652,0.00028012969378184735,-0.0016073993459277403,0.0009850581550187878,-4.666803730756735e-05,0.0004630968552927889,-0.3063471019268036,-51.21396255493164,-7.610672950744629,17.99811553955078,1.8922830820083618,-0.8283188343048096,0.10624848306179047,747,757,728,38.785,0,0
1739303762.9040644,-0.10414311659927426,1.0647917427033025,-0.40124785294090837,-1.42981898535196,1.5346800378892251,1.1505380950533763,1.3553824377825272,-0.00014753665338170397,-0.00010937291904957879,0.0004943531404099138,0.0003909425184015385,-0.0006195450083551006,0.0006618674127849401,0.0007083197597351458,-0.3301508128643036,-51.19015884399414,-7.638443946838379,17.97431182861328,1.9115091562271118,-0.8356430530548096,0.07969819009304047,747,757,729,38.785,0,0
1739303762.914096,-0.1041372966724492,1.0647876077892113,-0.40124786602249274,-1.4298169814012327,1.534679926019592,1.15053889269654,1.355385576660435,0.0009243351624446823,-0.0018733658145771367,0.0007602759566097252,0.0005347216994822162,-0.0005337705917499822,-0.0004976678568623067,0.001358191261516529,-0.3817255198955536,-51.16238784790039,-7.638443946838379,17.94654083251953,1.9115091562271118,-0.8155014514923096,0.05314789339900017,747,758,728,39.002,1,0
1739303762.9241421,-0.1041414040423728,1.0647934639818177,-0.40125169774700115,-1.429817268944436,1.5346792410351315,1.1505388927503744,1.3553810249316882,0.00018651516589129056,0.00038599403643195426,9.795060283077074e-05,-0.0007497153812030562,-0.000672186606030654,-0.00046063459051097526,-0.0007664384821634161,-0.3539545238018036,-51.21396255493164,-7.586869239807129,17.92273712158203,1.9179178476333618,-0.8155014514923096,0.07969819009304047,747,758,729,38.785,1,0
1739303762.9351447,-0.104141427516892,1.0647904688122096,-0.4012517284894153,-1.4298190516565148,1.5346808012555797,1.150539179460174,1.3553843480421015,0.00018393034387352667,0.0001896071968236942,-4.981015611440971e-05,-0.000833696503696441,-0.0004527737741234104,-0.000605677357304651,-0.0005833196205748567,-0.3539545238018036,-51.16238784790039,-7.586869239807129,17.94654083251953,1.9051004648208618,-0.8219101428985596,0.05955658480525017,747,757,730,39.002,1,0
1739303762.9461243,-0.10414100713446346,1.0647917427073843,-0.40125172848958884,-1.4298189486361412,1.5346792839976096,1.1505389058296691,1.3553870432316608,6.172628097055972e-05,-0.0008712853298604337,-0.00028799127205744615,0.0006415332086408337,-0.00044812274603298925,0.0003096828717528233,0.0017543266945189346,-0.3301508128643036,-51.19015884399414,-7.586869239807129,17.94654083251953,1.9179178476333618,-0.8155014514923096,0.03941498324275017,748,758,728,38.893,1,0
1739303762.9561293,-0.10414485501809888,1.064786042658774,-0.40124776005890134,-1.4298172660343118,1.5346783801629944,1.1505392459633066,1.3553837081244697,-0.0009329159767992781,-0.002434738080799834,0.0011952466389116051,-0.0005478447055992155,-0.00010967326552888893,-7.021313176597672e-05,0.0005333041986744359,-0.3063471019268036,-51.11081314086914,-7.638443946838379,17.92273712158203,1.8986917734146118,-0.8155014514923096,0.06596527993679047,745,757,723,38.568,1,0
1739303762.96706,-0.10413943250599755,1.0647897438903609,-0.4012496720721216,-1.4298210519734942,1.5346836271010729,1.1505404037118752,1.3553789452058396,0.000253919194362137,-0.0015977923380854555,7.909482060406613e-05,-0.0016251126719599247,0.0005684441967049407,-1.4025831621663001e-05,-0.00037731539007758213,-0.3817255198955536,-51.16238784790039,-7.610672950744629,17.97431182861328,1.9051004648208618,-0.8283188343048096,0.10624848306179047,746,757,728,38.785,0,0
1739303762.9780324,-0.10414314296758446,1.0647880335135549,-0.40124782153944094,-1.4298188122554436,1.5346808016266986,1.15053965041038,1.3553792050807902,-0.001103849151777054,-0.0018007785371925583,0.001220346408072591,-0.00028950689572337755,0.00023669182423096796,-0.00020506884290128342,-4.228804933615037e-05,-0.3301508128643036,-51.13858413696289,-7.638443946838379,17.94654083251953,1.9051004648208618,-0.8219101428985596,0.07969819009304047,746,759,729,38.676,0,0
1739303762.9898076,-0.10414485548831566,1.0647934816786448,-0.40124994570346983,-1.429816826415993,1.53468080141734,1.15053889269654,1.3553787213909207,-0.0018799865043033787,-0.00021227186895025842,-5.031725930262904e-05,-0.00026776562105614704,0.0003049643121467929,0.00019491583159012045,-0.0003810349030036192,-0.3063471019268036,-51.21396255493164,-7.610672950744629,17.94654083251953,1.9051004648208618,-0.8155014514923096,0.07328949868679047,745,759,728,38.785,0,0
1739303763.0001283,-0.10414485552440206,1.0647934551878386,-0.40124777061096484,-1.4298172647152998,1.5346792843744568,1.1505396504104535,1.355379311961756,-0.0011686954099701145,0.00015702164502684061,0.0012289481938345622,0.0004513560282008392,-0.0004917838926205795,0.0005805296632706199,-0.0005447185177119755,-0.3063471019268036,-51.21396255493164,-7.610672950744629,17.92273712158203,1.9179178476333618,-0.8219101428985596,0.10624848306179047,748,758,729,38.785,1,0
1739303763.0101447,-0.10414482912000633,1.0647895910128677,-0.4012499443585211,-1.4298190516564426,1.5346808057779613,1.1505364714960657,1.3553816801226701,-0.0016284953200324799,-7.417597841519066e-05,-0.0004617278582897584,-0.0004296911306255645,0.0010762777324777508,-0.001223143225596363,-0.00020729935325360408,-0.3063471019268036,-51.19015884399414,-7.610672950744629,17.94654083251953,1.9051004648208618,-0.8219101428985596,0.08610688149929047,747,758,729,38.785,1,0
1739303763.021069,-0.10414141872745555,1.0647866016817529,-0.40125171962292416,-1.429819167061746,1.5346792860972076,1.1505424804548376,1.3553813780905628,-0.0004777566694593592,-0.0021680480900891945,-0.00047056093470625756,-0.0007868918374113474,-0.00017285839211431337,0.0004848588988032883,0.0006015130787988536,-0.3539545238018036,-51.13858413696289,-7.586869239807129,17.92273712158203,1.9179178476333618,-0.8219101428985596,0.07969819009304047,748,758,728,38.893,1,0
1739303763.0320601,-0.10414048151240721,1.0647897447180297,-0.4012516140194287,-1.4298173043114817,1.5346811546300496,1.1505388927663511,1.355382842223914,0.001315903006065708,-0.0005333067979898215,-0.0008390893558906274,0.00025464312316011766,0.001086877554726571,3.1808803644387126e-05,0.0010065549205832882,-0.3539545238018036,-51.16238784790039,-7.586869239807129,17.92273712158203,1.9051004648208618,-0.8155014514923096,0.07328949868679047,746,758,729,38.785,1,0
1739303763.04303,-0.10413657202731791,1.0647917426669582,-0.40125015520492124,-1.4298208544362316,1.534680061201858,1.1505404080705322,1.3553847012607931,0.0015715291496245357,-0.00019591172759330974,-0.00030791250285890526,0.00029726937773615395,0.0008919315570840492,0.0006806460592074215,-0.0001776048506151412,-0.3817255198955536,-51.19015884399414,-7.610672950744629,17.97431182861328,1.9115091562271118,-0.8283188343048096,0.05955658480525017,746,757,729,38.893,1,0
1739303763.0530636,-0.10413943245755776,1.0647917819128148,-0.40125456302513096,-1.4298172421568025,1.534675805366545,1.150539650410454,1.3553823998267214,0.00031327760222065305,0.0006330340072881849,-0.0006863510708439964,0.0009127614622304859,-0.0008353775360132723,-3.166137243060363e-05,0.0004222615333374228,-0.3817255198955536,-51.19015884399414,-7.586869239807129,17.92273712158203,1.9115091562271118,-0.8219101428985596,0.07969819009304047,747,760,728,38.785,0,0
1739303763.0650976,-0.10414143044685299,1.0647973135121924,-0.4012520717275679,-1.429821131446219,1.534680795579213,1.1505404080705322,1.3553776751860294,-0.00026629692460406216,0.0021484392880383053,0.0005833548400802888,-0.0005817867752669041,0.0005142508089177683,-0.00012761646020751808,-0.0010645208461695338,-0.3539545238018036,-51.23776626586914,-7.610672950744629,17.97431182861328,1.9051004648208618,-0.8283188343048096,0.11998139321804047,745,750,729,38.785,1,0
1739303763.0751138,-0.10414143044685327,1.0647897536048745,-0.40125172850158974,-1.4298154480377665,1.5346829206935655,1.1505388927503755,1.3553812072341014,-5.0485155261574175e-06,0.0001431056758497359,-0.00039223128137824627,0.0006693000088342932,0.0005465570623338259,-0.0004823804543969346,-3.5184706740352175e-07,-0.3539545238018036,-51.16238784790039,-7.586869239807129,17.89893341064453,1.9051004648208618,-0.8155014514923096,0.08610688149929047,743,756,730,38.785,0,0
1739303763.085143,-0.10414142751704104,1.0647927399321022,-0.40124786426634124,-1.4298180172004955,1.5346800307111992,1.1505435981288052,1.3553855766524268,-0.00013477858755289826,-2.3551067980604455e-05,0.0011611551055284925,0.00015191065991169216,-0.0004428327550847489,0.0011207832071339588,0.0014474862468256758,-0.3539545238018036,-51.21396255493164,-7.638443946838379,17.94654083251953,1.9115091562271118,-0.8283188343048096,0.05314789339900017,746,758,730,38.785,0,0
