IITGN-Robotics/Franka_IITGN_ROBOTICS/franka_ros/franka_iitgn/data01/us_001.csv
time,fr3_joint1_pos,fr3_joint2_pos,fr3_joint3_pos,fr3_joint4_pos,fr3_joint5_pos,fr3_joint6_pos,fr3_joint7_pos,fr3_joint1_vel,fr3_joint2_vel,fr3_joint3_vel,fr3_joint4_vel,fr3_joint5_vel,fr3_joint6_vel,fr3_joint7_vel,fr3_joint1_eff,fr3_joint2_eff,fr3_joint3_eff,fr3_joint4_eff,fr3_joint5_eff,fr3_joint6_eff,fr3_joint7_eff,flexpin1,flexpin2,flexpin3,Force,ContactMic,ContactMic_gt
1739302597.3457007,-0.13811938697813328,1.0746348368128547,-0.35924755863394264,-1.4163937694554662,1.527732492819834,1.1445148114520305,1.376679360096342,0.0018007287825278382,0.00039675111269172865,0.0006367979414852858,-0.0033565575924825817,-0.0018613370610097314,-0.001975607030243665,4.6448205189300704e-05,-0.5285150408744812,-51.72574234008789,-6.674393653869629,18.19647979736328,1.9380594491958618,-1.1505844593048096,0.09343110024929047,,,,,,,,,
1739302597.3557372,-0.13811419317649437,1.0746532126587531,-0.35924430114717776,-1.4164292321438192,1.5277323075441855,1.1445087215034013,1.3766747607821654,0.001505404336930871,0.0018516515463754602,0.0005846192811052767,-0.003695289734691526,0.0006107411922815901,0.0009498674642347625,-0.000655579761345847,-0.4571039378643036,-51.77731704711914,-6.674393653869629,18.26789093017578,1.9252420663833618,-1.1505844593048096,0.09983979165554047,,,,,,,,,
1739302597.3666997,-0.1381075084609156,1.0746601188758973,-0.3592435471578361,-1.4164476035431464,1.5277320872472633,1.1444991596472502,1.3766777014945772,0.0012845227143614513,0.0015548117811012136,0.0006796723457421974,-0.0018652695018121098,-0.002060493569660264,0.00038725921455137877,0.0023364861432966246,-0.4809076488018036,-51.72574234008789,-6.722001075744629,18.26789093017578,1.9179178476333618,-1.1377670764923096,0.06596527993679047,,,,,,,,,
1739302597.3776977,-0.13810516191530736,1.0746581792242715,-0.35924425455770104,-1.416448407034823,1.5277333594693507,1.1444938824715838,1.3766743503972176,-0.00047450270856972423,-0.0013106059294290366,0.0001703246008250831,0.00012082999057083264,0.0007693227189207209,-0.0012020972715129882,0.0004898470803434065,-0.4293329417705536,-51.59878921508789,-6.674393653869629,18.19647979736328,1.9179178476333618,-1.1377670764923096,0.06596527993679047,,,,,,,,,
1739302597.3897064,-0.1381056641332717,1.0746638809417588,-0.3592512899259152,-1.416443139753284,1.527733024231613,1.1444896118034034,1.376674134533166,-0.00016915632064911165,0.0011304819874767631,-0.0018443292581250361,7.699602821787992e-05,-0.001131010793587696,0.0010440182644460142,0.0009571103006861553,-0.4055292308330536,-51.59878921508789,-6.622818946838379,18.09729766845703,1.9179178476333618,-1.1048080921173096,0.05314789339900017,,,,,,,,,
1739302597.4007943,-0.1381048617363298,1.0746589160844893,-0.35924638665086917,-1.416441054867959,1.5277363001319546,1.1444826958345766,1.3766744484237998,3.3513374199507415e-05,-0.00023431526518473772,0.0008509328948299109,0.0005973599755068952,0.001211892675668714,-0.0004191906504747012,0.002700550184716324,-0.4055292308330536,-51.57101821899414,-6.674393653869629,18.06952667236328,1.9179178476333618,-1.1112167835235596,0.05314789339900017,,,,,,,,,
1739302597.4117963,-0.13810334861038823,1.0746653951546314,-0.3592477463908079,-1.416446339610699,1.527733194870492,1.1444815558067936,1.3766707993515277,0.0010862811309234725,0.00028715000552901725,-0.0016573368668323443,-0.00026745910123370355,0.0010080128905498881,0.0009872962249571735,8.221514130168778e-05,-0.4055292308330536,-51.65036392211914,-6.646622657775879,18.16870880126953,1.9179178476333618,-1.1112167835235596,0.07969819009304047,,,,,,,,,
1739302597.4227633,-0.1381044256788619,1.0746600181552337,-0.3592465705503941,-1.4164484867466858,1.5277315312587314,1.144481824225033,1.3766711081642264,-0.00013825380029939332,-0.0016169689942775597,-0.0011590221360142862,-0.00035564692587370625,-5.9471137952417515e-05,-0.00011935525795917084,0.0009286493685143004,-0.3817255198955536,-51.57101821899414,-6.646622657775879,18.16870880126953,1.9051004648208618,-1.1176254749298096,0.05314789339900017,,,,,,,,,
1739302597.434694,-0.13810623897144336,1.0746644815617723,-0.35924633206068457,-1.4164449361219649,1.527727937289955,1.1444803713345115,1.3766686939898751,-0.0005779332253459282,-0.000934879162822435,0.00027836379806101224,-0.000104445279523625,-0.0007951794099737822,-0.0006905861133911512,0.0012668167443128774,-0.3539545238018036,-51.59878921508789,-6.646622657775879,18.12110137939453,1.9252420663833618,-1.1441757678985596,0.06596527993679047,,,,,,,,,
1739302597.4447584,-0.13810165365366103,1.0746642863420188,-0.3592463314152253,-1.4164392497700047,1.5277300202744344,1.1444795354095112,1.3766712565499029,-0.0002923790938210558,0.00017633342711484456,0.0006047450087557001,0.000330313197940249,0.00032248135425565986,-0.001324235023957121,0.0023679612529571336,-0.4055292308330536,-51.59878921508789,-6.646622657775879,18.04572296142578,1.9179178476333618,-1.1112167835235596,0.07969819009304047,,,,,,,,,
1739302597.4557579,-0.13809495315102255,1.0746623598559049,-0.3592481140922407,-1.416443023497105,1.527726944591408,1.144478527544383,1.3766697594161819,0.0013045027158037799,-0.0005264836695014618,-0.00039069956588428246,3.5799563628273835e-05,-0.00033513381507772677,-0.0012721111626502564,-1.3859260875078718e-05,-0.4809076488018036,-51.57101821899414,-6.622818946838379,18.09729766845703,1.9316507577896118,-1.1176254749298096,0.07969819009304047,,,,,,,,,
1739302597.4667823,-0.1380977073193266,1.0746703698210833,-0.3592481170084259,-1.4164484863225246,1.5277309183034447,1.1444810665559895,1.3766681096929476,0.0013766770342042945,0.0012796164643934275,0.0010117617451070467,-0.001602264558581712,0.0008599873777028066,3.761638476210697e-05,0.0016003656845395035,-0.4293329417705536,-51.65036392211914,-6.622818946838379,18.16870880126953,1.9252420663833618,-1.1112167835235596,0.09343110024929047,,,,,,,,,
1739302597.4777298,-0.13810013009136565,1.0746697782470007,-0.3592481150643189,-1.4164456337170641,1.5277307774668236,1.1444807643688009,1.3766652196148417,-0.0005310122796389767,0.0006720399248872272,-0.0002872178336249858,0.0004903597619579049,-9.026550296032076e-05,-0.0002890005020370009,0.0002977827391570032,-0.4055292308330536,-51.62259292602539,-6.622818946838379,18.12110137939453,1.9115091562271118,-1.1176254749298096,0.09983979165554047,,,,,,,,,
1739302597.4887187,-0.13809941840218173,1.074665710619721,-0.35924425173337843,-1.4164477824317387,1.527729598573779,1.144481667071356,1.376664278348267,0.000179579400807309,-0.00036756542581832893,0.0007894404246984476,-0.0008329251202586286,-0.0017784620758046173,-0.0001404009031771271,0.0008295366040141673,-0.4055292308330536,-51.57101821899414,-6.674393653869629,18.12110137939453,1.9115091562271118,-1.1176254749298096,0.09983979165554047,,,,,,,,,
1739302597.498757,-0.13809941807262974,1.074668250167807,-0.3592464912555906,-1.4164448862288528,1.5277303013338233,1.1444778861862703,1.3766672196879757,-0.00025523923854593923,0.0004626371764421839,-0.00010370873370802477,-0.0007927147954718929,7.062414155119867e-05,4.090856732837691e-06,-0.0007698970647152505,-0.4055292308330536,-51.57101821899414,-6.674393653869629,18.12110137939453,1.9051004648208618,-1.1112167835235596,0.09983979165554047,,,,,,,,,
1739302597.5097153,-0.138099444643829,1.0746653814392488,-0.3592442779196778,-1.4164447093679278,1.5277339563104515,1.144474822125275,1.3766696801250973,0.000766069895500611,0.00017880799404450725,9.259666285378506e-05,-0.0009930108916975033,0.0015321692380593581,-0.0003563191033982851,0.0014722596670458735,-0.4055292308330536,-51.57101821899414,-6.674393653869629,18.12110137939453,1.9115091562271118,-1.0983994007110596,0.05314789339900017,,,,,,,,,
1739302597.5207717,-0.13809846067373877,1.0746712451376348,-0.3592463229090729,-1.4164487703749429,1.5277337862699822,1.1444756584298295,1.3766658859853218,-0.0003109265514093702,6.739765711185388e-05,0.00020230525306135004,-0.0004207498755756966,0.0012708237213967409,-2.894449374470136e-05,0.000335624378952965,-0.4055292308330536,-51.62259292602539,-6.646622657775879,18.14490509033203,1.9115091562271118,-1.1048080921173096,0.07328949868679047,,,,,,,,,
1739302597.5317414,-0.13809941840836285,1.074672128875606,-0.3592481150642864,-1.416443141675077,1.5277351000846888,1.1444762981908325,1.3766672581509996,0.0001383031008588769,0.0011998604238352402,-0.0006579819182625066,0.0008471681770035433,0.001907120015832669,-0.00030416892483597083,0.0009585867188610328,-0.4055292308330536,-51.65036392211914,-6.622818946838379,18.09729766845703,1.8986917734146118,-1.1112167835235596,0.04673920199275017,,,,,,,,,
1739302597.5427637,-0.1380991459256283,1.0746697202922346,-0.35924811409224616,-1.416443174049037,1.5277293077180716,1.144476298190611,1.3766664234205634,0.0006098669347335264,0.0003528442864882341,-0.000725335262703883,-0.0005005535359163905,-0.002555419630666379,-0.00037626373836668013,0.0009897510624025101,-0.4055292308330536,-51.54721450805664,-6.622818946838379,18.09729766845703,1.9115091562271118,-1.1112167835235596,0.07969819009304047,,,,,,,,,
1739302597.5537486,-0.1380994183966261,1.074670596940554,-0.3592463576608883,-1.4164447624592484,1.5277319406162537,1.1444762807480078,1.3766634008443999,-0.000191775043652607,7.737635936498529e-05,0.0009867468058109977,0.00016433853558387715,-0.0008449961081693528,-0.0006508429148212056,0.0007372954023359762,-0.4055292308330536,-51.59878921508789,-6.646622657775879,18.12110137939453,1.9252420663833618,-1.1112167835235596,0.10624848306179047,,,,,,,,,
1739302597.5637677,-0.13809770587743297,1.0746722943650076,-0.35924811441670573,-1.416446612832479,1.5277307612308753,1.1444770558503936,1.3766657819009234,-0.0008867047707826271,0.00044215199877291545,-1.948552299998427e-05,-0.00011059721542872427,0.0001415562012525848,-0.0003280054486068146,0.0022360470563925617,-0.4293329417705536,-51.62259292602539,-6.622818946838379,18.14490509033203,1.8986917734146118,-1.1176254749298096,0.08610688149929047,,,,,,,,,
1739302597.5747337,-0.13810309858502226,1.0746715322477163,-0.35925024002724176,-1.4164467081148744,1.5277293193758157,1.144477055850689,1.3766672857541993,-0.001927664261440412,0.0003898892770055082,-0.000770098403199145,-0.0016198516706964292,-0.00039350397060459525,-8.67228081202614e-06,0.0018471643642601037,-0.3539545238018036,-51.59878921508789,-6.622818946838379,18.14490509033203,1.9115091562271118,-1.1176254749298096,0.07328949868679047,,,,,,,,,
1739302597.5857031,-0.13809556711434545,1.0746685809649605,-0.35925094863623763,-1.4164448949138382,1.5277307569419025,1.1444762981906107,1.3766660639270107,-0.0012581756887958847,-0.0018832810445032816,-0.001491288033828128,0.000951695607120654,0.00025046756446661515,-0.00025099406848219446,-0.0005347381677046754,-0.4293329417705536,-51.57101821899414,-6.622818946838379,18.12110137939453,1.9252420663833618,-1.1112167835235596,0.07969819009304047,,,,,,,,,
1739302597.5957801,-0.13810077626688572,1.0746690053758419,-0.3592481403859106,-1.41644492140432,1.5277336354882993,1.144474782870454,1.3766617767951546,-0.0004045142440349028,-0.001153370309695722,-0.0015725691037787857,3.346565225323507e-05,0.0012536681971519754,-0.0002885958598161057,-0.000353291686111397,-0.3817255198955536,-51.54721450805664,-6.622818946838379,18.12110137939453,1.9051004648208618,-1.0983994007110596,0.11998139321804047,,,,,,,,,
1739302597.6067731,-0.13809655842922394,1.074672997858646,-0.3592469340845561,-1.4164456366605058,1.5277310058211684,1.1444747697885018,1.3766649727415203,0.0002370120252752579,0.0010333795308724433,0.0004699107463246283,-0.0002741805826706839,3.566581963420574e-05,0.0002856300220195347,-0.00040903267695629417,-0.4055292308330536,-51.62259292602539,-6.646622657775879,18.12110137939453,1.9051004648208618,-1.0983994007110596,0.07969819009304047,,,,,,,,,
1739302597.6168702,-0.138098172307225,1.0746705818559346,-0.3592463314254279,-1.4164488410307947,1.5277290315366532,1.1444740252101542,1.37666229759033,-0.00019219777426661528,-0.0012590423919606384,-0.0003581354970999508,-0.001968882846643622,-0.001512264013749552,0.0003144061033081869,-0.0011907435088612112,-0.3817255198955536,-51.59878921508789,-6.646622657775879,18.14490509033203,1.9115091562271118,-1.0919907093048096,0.07969819009304047,,,,,,,,,
1739302597.6277063,-0.13809521519481446,1.074676461620198,-0.35924492493709415,-1.4164467040938507,1.5277331294363654,1.144475418216971,1.3766562140095802,0.0002897861289085892,0.0007770278034287294,0.0007745086238783249,-0.00022798317477584672,0.0007697359296483098,-0.0007232765378404951,-0.0028042425234482667,-0.4293329417705536,-51.65036392211914,-6.674393653869629,18.14490509033203,1.9051004648208618,-1.1048080921173096,0.14012299478054047,,,,,,,,,
1739302597.6387312,-0.13809758722406362,1.0746735223882815,-0.35924425162916696,-1.4164431387277496,1.5277291493280825,1.1444751873171322,1.3766696783671277,0.0001625531345434247,0.0009550220847579379,0.0009032163091709917,0.0012614370242117188,-0.0006865356678404023,0.0004164814706997035,0.0026708370103769694,-0.4293329417705536,-51.59878921508789,-6.674393653869629,18.09729766845703,1.9115091562271118,-1.1048080921173096,0.05314789339900017,,,,,,,,,
1739302597.6487727,-0.13809450207201585,1.0746716835035106,-0.3592501830804011,-1.4164418484541934,1.52773266939391,1.144476298184629,1.3766664234384836,0.001103867404983457,0.0005660573743673797,-0.0003883149941207255,0.0009119360506460417,0.0005744436422936162,0.001042541445155334,-0.0005427914001485487,-0.4293329417705536,-51.57101821899414,-6.595047950744629,18.12110137939453,1.9179178476333618,-1.1112167835235596,0.07969819009304047,,,,,,,,,
1739302597.6597102,-0.13809452849608594,1.074667928566895,-0.3592484660627132,-1.4164427795447954,1.5277299403719384,1.1444761279637263,1.376658481442659,9.45711928276873e-05,-0.0006191596482995519,0.0008349179086914961,0.0006956920743989831,0.0006033749745435668,0.0001878679062887221,-0.0005979969601489936,-0.4293329417705536,-51.54721450805664,-6.646622657775879,18.12110137939453,1.9051004648208618,-1.1112167835235596,0.11998139321804047,,,,,,,,,
1739302597.66982,-0.13809439714555638,1.0746737798541595,-0.35924811412839114,-1.4164410585745724,1.5277298432082802,1.1444762589418713,1.3766624470778324,0.0022005337475715075,0.0006494998378732824,0.0005727556911051363,0.0006995207964941871,0.0007821429075600711,-0.000761813690202753,-0.00120402618623577,-0.4293329417705536,-51.59878921508789,-6.622818946838379,18.06952667236328,1.9179178476333618,-1.1112167835235596,0.08610688149929047,,,,,,,,,
1739302597.6807508,-0.13809629375165947,1.0746717640668555,-0.3592463314152223,-1.4164440924020598,1.5277308616207002,1.1444741087828754,1.376668883091552,-0.0005340096362274964,-0.0008714609155605871,9.569659225350528e-05,-0.00044666754485907646,0.0009606674822175921,-0.000847246431131281,0.00286717831945378,-0.4055292308330536,-51.57101821899414,-6.646622657775879,18.09729766845703,1.9252420663833618,-1.1048080921173096,0.05955658480525017,,,,,,,,,
1739302597.6908112,-0.13809792587360298,1.0746757985288267,-0.3592481170084259,-1.4164410588705998,1.5277323654970651,1.1444718904962767,1.3766654401384664,-0.00021347906263431408,0.0009313449278016885,9.519355256681255e-05,0.0005390280977959191,-0.00034827235734473665,-0.0011840645060715073,0.0003273731118630466,-0.3817255198955536,-51.62259292602539,-6.622818946838379,18.06952667236328,1.9115091562271118,-1.1048080921173096,0.07969819009304047,,,,,,,,,
1739302597.700819,-0.13809653106820477,1.0746717936194867,-0.35924811700847525,-1.4164449214047674,1.527729985461872,1.1444711197005148,1.3766640787192026,0.00012535079519979402,0.0008324952670233981,-0.0005264169534434814,0.0002090044486662305,0.0012593611459850293,-0.0014976140469776964,0.0026903460972948984,-0.4055292308330536,-51.57101821899414,-6.622818946838379,18.12110137939453,1.9051004648208618,-1.0983994007110596,0.07328949868679047,,,,,,,,,
1739302597.710839,-0.13809624102217607,1.0746717936145,-0.35924425292149775,-1.4164456101695526,1.5277299460013727,1.1444723483106505,1.3766601623553614,-0.0007202046382695379,-0.0006469214680890039,0.0012478111431359108,-0.0005421404511186576,-0.0005503441871317773,0.0010676591110759888,-0.0008077523162308051,-0.4055292308330536,-51.57101821899414,-6.674393653869629,18.12110137939453,1.9051004648208618,-1.1048080921173096,0.09343110024929047,,,,,,,,,
1739302597.7208424,-0.13809720978813084,1.0746765522833355,-0.359248827045536,-1.41644563667217,1.5277274745181584,1.1444715430891788,1.3766646773006401,0.00011526939421989825,0.0013885919039235224,-0.0011222285757421268,7.050299286757354e-05,-0.0002746175740665275,-0.0011957727748123947,-0.00046456027334481796,-0.3817255198955536,-51.59878921508789,-6.622818946838379,18.12110137939453,1.8986917734146118,-1.1112167835235596,0.05955658480525017,,,,,,,,,
1739302597.731699,-0.1380945021237267,1.0746737915709057,-0.3592463314192463,-1.416443139204191,1.5277299417833325,1.1444707736125757,1.376664548781859,0.0003729166139006713,-0.00013912013255686732,0.0005156998558127412,0.00036110858245313635,0.00024299048768087642,-0.00010784035827078906,0.0011460468485736514,-0.4293329417705536,-51.59878921508789,-6.646622657775879,18.09729766845703,1.9051004648208618,-1.1048080921173096,0.08610688149929047,,,,,,,,,
1739302597.7417045,-0.1380923762287793,1.074673797644114,-0.35924449658492136,-1.4164456288113425,1.5277287709727394,1.1444700144988966,1.376663566487032,0.00053634959666514,8.233675255520779e-05,0.0010614898082820417,-0.00035056809456559434,0.0002080570773292824,-0.00032411190839343125,0.0006625349718598741,-0.4293329417705536,-51.59878921508789,-6.674393653869629,18.12110137939453,1.9179178476333618,-1.0983994007110596,0.06596527993679047,,,,,,,,,
1739302597.7517924,-0.13809792713323643,1.0746738570745324,-0.3592525652807935,-1.4164410589498737,1.5277291885078945,1.1444743042860481,1.3766606444248242,-0.0007505898511616653,-0.0007991111432903093,-0.0015903962419667244,0.00015913724220860187,-6.164956821252292e-06,0.0007107576645797953,0.00022980574030765787,-0.3817255198955536,-51.57101821899414,-6.595047950744629,18.06952667236328,1.9115091562271118,-1.1048080921173096,0.12639008462429047,,,,,,,,,
1739302597.7627606,-0.13809860411938452,1.074673857540953,-0.35924917559703323,-1.416443125232246,1.5277278667075338,1.144471649030088,1.376660573563593,-0.00030511008072955155,-0.0005271874466897579,-0.000740200957990807,2.3977044835704815e-05,-0.000523793412673264,0.000598165383471324,0.00018478099744057876,-0.3817255198955536,-51.57101821899414,-6.622818946838379,18.06952667236328,1.9316507577896118,-1.1112167835235596,0.09983979165554047,,,,,,,,,
1739302597.773784,-0.13809792749859484,1.0746738143823276,-0.35925028526189084,-1.4164467953764073,1.5277334265761153,1.1444708115669855,1.3766641541905076,-0.0008975231046204218,0.0012959921763501705,-7.862494487568519e-05,-0.00019949705859754064,0.0026191487508057647,-0.0005956405213324339,0.0014111134296326284,-0.3817255198955536,-51.59878921508789,-6.595047950744629,18.14490509033203,1.9115091562271118,-1.1048080921173096,0.05955658480525017,,,,,,,,,
1739302597.7847228,-0.13809447588211157,1.0746710051157573,-0.35924633173975806,-1.4164431388009424,1.5277291885260584,1.144470772159173,1.3766634356615037,0.00035451652010502115,-0.0005636450572183986,0.00020641357474478748,0.00038782398315776633,0.000487351797476826,-0.0008596786154011437,-0.0005596408358314095,-0.4293329417705536,-51.54721450805664,-6.646622657775879,18.09729766845703,1.9115091562271118,-1.1048080921173096,0.06596527993679047,,,,,,,,,
1739302597.7947462,-0.13809992111339356,1.0746746237971574,-0.35924634016378265,-1.4164431387277507,1.527730063899783,1.144470066826681,1.3766655857699874,-0.000793985392392627,-0.0007207820997040787,-0.0004558784024231805,0.001363812898678692,0.0011057476681006696,-0.00026159591821543526,0.0018094006035950932,-0.3539545238018036,-51.59878921508789,-6.646622657775879,18.09729766845703,1.9051004648208618,-1.0983994007110596,0.05955658480525017,,,,,,,,,
1739302597.8057218,-0.13809589678430026,1.0746758578543714,-0.3592463576969399,-1.41644243230233,1.52772842648207,1.144469256839089,1.3766636824755194,0.0001826860058200134,-0.0009036055381930553,-9.48874560899941e-05,0.0009657106329466999,0.0004681549860451864,-0.0008843276920040625,-1.1367067365653259e-05,-0.4055292308330536,-51.59878921508789,-6.646622657775879,18.09729766845703,1.9179178476333618,-1.0919907093048096,0.09983979165554047,,,,,,,,,
1739302597.8157477,-0.13809792586777336,1.0746748177564436,-0.35924814033835245,-1.4164423969690956,1.5277291928627112,1.1444700144988722,1.3766656890440558,-0.000785114532314138,-5.11067734198776e-05,-0.00021639884174039692,0.0009844373057458298,0.001167970836996525,-0.00022579941056041024,0.0029889057421740913,-0.3817255198955536,-51.59878921508789,-6.622818946838379,18.09729766845703,1.9115091562271118,-1.0983994007110596,0.05955658480525017,,,,,,,,,
1739302597.8267715,-0.1380976899501677,1.0746768843714924,-0.3592463309793047,-1.4164467162874224,1.5277299461622373,1.1444700144988722,1.3766645072975399,-0.0007998961421679117,0.0005467135337201889,-0.00011973656662350957,-0.0010462201991818447,0.0011868584122883509,-0.00012953634069122767,0.001175817344832637,-0.3817255198955536,-51.59878921508789,-6.646622657775879,18.14490509033203,1.9051004648208618,-1.0983994007110596,0.05955658480525017,,,,,,,,,
1739302597.8377395,-0.13809792716789962,1.0746742014567519,-0.35924636640944135,-1.4164432047051747,1.5277272112475972,1.1444700144988722,1.376666693015763,-0.0007649409814832529,-0.0004633819549633453,-0.0003966923269801403,0.0014499732994814514,-0.0010215965063035994,-0.00027617743917445197,0.0010479255879340579,-0.3817255198955536,-51.57101821899414,-6.646622657775879,18.06952667236328,1.9252420663833618,-1.0983994007110596,0.06596527993679047,,,,,,,,,
1739302597.8478048,-0.13809792716923872,1.074672789902465,-0.359247041020875,-1.4164449218771724,1.5277291884961444,1.1444707721589504,1.3766649519362228,6.738062547708204e-05,-0.0006440218884942684,-0.00021098565453805943,-0.00021219098437246777,-0.0010207493597778681,4.111783615506646e-05,0.0017013978386797685,-0.3817255198955536,-51.57101821899414,-6.646622657775879,18.12110137939453,1.9115091562271118,-1.1048080921173096,0.07969819009304047,,,,,,,,,
1739302597.858764,-0.13809899530022224,1.0746704213350973,-0.35924916692328507,-1.4164439199608458,1.5277275649448236,1.1444700140143553,1.3766610171542701,-0.0016169513632899365,-0.0014059122871985209,-0.0007806518092513013,0.0002970772991803444,-0.0003338006809488117,7.001765001026189e-05,0.0008290999435876512,-0.4055292308330536,-51.54721450805664,-6.646622657775879,18.06952667236328,1.9252420663833618,-1.0983994007110596,0.08610688149929047,,,,,,,,,
1739302597.8687687,-0.13809771737363957,1.074674890174878,-0.35924664641124077,-1.4164467309482411,1.5277291492562777,1.144472287479099,1.3766605305080517,-0.000251978400579614,-0.00010036500164438295,0.00036143375492514896,-0.0002071855739384158,0.0013252591443802541,0.00038291980143945734,0.0007883957327014531,-0.3817255198955536,-51.57101821899414,-6.646622657775879,18.14490509033203,1.9115091562271118,-1.1176254749298096,0.12639008462429047,,,,,,,,,
1739302597.8797154,-0.13809580126905743,1.0746785241537211,-0.35925019031931166,-1.4164440924022175,1.5277275649446023,1.1444715298190289,1.3766570104477054,-0.0017864698520512023,0.0014646300300967014,-0.0017713996717879067,-0.0009055991474531271,0.0010326263786524501,0.00039067744318276065,-0.0023028483654723504,-0.3817255198955536,-51.62259292602539,-6.595047950744629,18.09729766845703,1.9252420663833618,-1.1112167835235596,0.11998139321804047,,,,,,,,,
1739302597.889765,-0.13809687341832433,1.074673971867216,-0.35924727658318056,-1.4164431387439,1.5277290702800477,1.1444707721589504,1.3766649121669259,0.00013050339898879252,-0.0006574855204294575,-0.0012554624925415793,0.001225304292282596,0.0002684698753060983,0.00023974288550855318,0.0010379980845535235,-0.3817255198955536,-51.57101821899414,-6.646622657775879,18.09729766845703,1.9115091562271118,-1.1048080921173096,0.05314789339900017,,,,,,,,,
1739302597.8997655,-0.1380951780888406,1.074674916696958,-0.35924804370796365,-1.4164420126122104,1.5277291826859312,1.1444700144988722,1.3766562531941686,0.0005675509958625324,0.0009073792120199635,0.00040004814719451956,0.0009279767353278504,0.0010812341029958236,0.00037348479362621064,-0.0005317815598679216,-0.4055292308330536,-51.57101821899414,-6.622818946838379,18.06952667236328,1.9115091562271118,-1.0983994007110596,0.12639008462429047,,,,,,,,,
1739302597.9117765,-0.13809547742382608,1.074672818367525,-0.35925091137126036,-1.4164434566245718,1.527727959730238,1.1444697105827542,1.376659064650312,0.00012742506758062536,-0.0011037120330064918,-0.0019134434196979965,0.0015670935951379416,-0.0005950063484357477,-3.2893901217085616e-05,-0.0002182479355373715,-0.3817255198955536,-51.57101821899414,-6.595047950744629,18.09729766845703,1.9179178476333618,-1.1048080921173096,0.10624848306179047,,,,,,,,,
1739302597.9238026,-0.1380915874020786,1.0746694672353434,-0.35924811441761134,-1.4164467040823856,1.5277284293876192,1.1444700144968747,1.3766610151452323,0.0005785434214019212,-0.0019376408846901111,0.00010872177128218419,-0.0003828039727512833,-0.00010140062300322004,0.00031432092128117677,-0.0005131595421465651,-0.4293329417705536,-51.49563980102539,-6.622818946838379,18.14490509033203,1.9179178476333618,-1.0983994007110596,0.08610688149929047,,,,,,,,,
1739302597.9347222,-0.13809407562719303,1.0746748902215573,-0.35924635769689117,-1.4164410854651859,1.527726099766173,1.1444707721589504,1.3766626482021485,0.0009841936675089543,0.0003596158122776689,0.0003930970499215564,0.0009586101029096176,-0.0012464310799503253,0.0006994544103969814,0.001957255145118487,-0.4055292308330536,-51.57101821899414,-6.646622657775879,18.06952667236328,1.9252420663833618,-1.1048080921173096,0.07328949868679047,,,,,,,,,
1739302597.9456892,-0.13809789072285028,1.074673186531144,-0.3592481403380557,-1.41644105904706,1.5277281286403932,1.1444684991787155,1.376663328162242,-0.0007357407646232892,-0.00046374151816003673,-0.0011553198099047545,0.0008916612875444515,0.000863548976869737,-0.0008224562863828011,0.0014229020350575265,-0.3817255198955536,-51.54721450805664,-6.622818946838379,18.06952667236328,1.9115091562271118,-1.0855820178985596,0.09343110024929047,,,,,,,,,
1739302597.9557571,-0.13809376595241118,1.074673177700976,-0.3592484641429137,-1.4164424247802092,1.5277264922067935,1.1444700143373665,1.376658633980868,-9.542823908634067e-05,-0.0013307687261296705,-0.00043518450435155344,0.0007433066448895158,-0.00011281303115210548,6.388404191277121e-06,-0.00039995644271170305,-0.4293329417705536,-51.54721450805664,-6.622818946838379,18.09729766845703,1.9252420663833618,-1.0983994007110596,0.10624848306179047,,,,,,,,,
1739302597.9667234,-0.13809166463943714,1.0746768881624107,-0.3592502404252412,-1.4164448154369254,1.527728128211927,1.1444707721589495,1.376655642984642,0.0013032314868435036,0.0006283766329496498,-0.001059305214235437,8.099278771083617e-05,0.0006296779432065594,-1.7610085147398588e-05,-0.0014147287451777143,-0.4293329417705536,-51.59878921508789,-6.622818946838379,18.12110137939453,1.9115091562271118,-1.1048080921173096,0.13279877603054047,,,,,,,,,
1739302597.9768002,-0.13809525960381105,1.0746732836646393,-0.35924835951983297,-1.4164391486440273,1.5277284308241,1.1444707721589504,1.3766583535117454,0.0001761136724112238,-0.0006440142546213536,-0.0002086700321599272,0.0012077474175154958,0.001925967535166631,0.00047228297165289755,-7.851459415824904e-05,-0.4055292308330536,-51.54721450805664,-6.622818946838379,18.06952667236328,1.9179178476333618,-1.1048080921173096,0.07969819009304047,,,,,,,,,
1739302597.987748,-0.13809310760981616,1.0746748562090798,-0.35924428662097374,-1.4164475330737065,1.5277290705492235,1.1444707721589504,1.3766633975753348,-0.00011139479073794968,-0.0012138962439097055,0.0007436042664002668,0.000456524610418942,0.00020566722817809546,-0.00015467202801109798,0.0014573023472932228,-0.4055292308330536,-51.57101821899414,-6.674393653869629,18.16870880126953,1.9115091562271118,-1.1048080921173096,0.06596527993679047,,,,,,,,,
1739302597.9977705,-0.1380968642211257,1.074673325526609,-0.3592501938826889,-1.4164449213886179,1.5277284308400585,1.1444700144988722,1.376662530464599,-0.001209655155796323,-0.0013893137837020907,-0.0012146203208054705,-0.0010276035791724593,0.000817560714575401,9.278913286586501e-05,0.0008588264664990136,-0.3817255198955536,-51.51944351196289,-6.595047950744629,18.12110137939453,1.9179178476333618,-1.0983994007110596,0.07328949868679047,,,,,,,,,
1739302598.0087776,-0.1380948436754334,1.0746769795664952,-0.3592491659472176,-1.4164431387277494,1.5277228147426198,1.1444700144988722,1.3766668690838715,-0.000635877192284793,0.0002999221639179745,-0.00024880055487030967,0.0002453377556506595,-0.0029421130143624445,5.501512035837894e-06,0.0020074861855693777,-0.3817255198955536,-51.59878921508789,-6.646622657775879,18.09729766845703,1.9252420663833618,-1.0983994007110596,0.03941498324275017,,,,,,,,,
1739302598.0196915,-0.1380957132992502,1.0746779896636016,-0.3592463315392295,-1.4164466775908342,1.5277270173183797,1.1444707721589504,1.3766664422727015,-0.00024199380763794377,0.0001013993627754804,0.0010850508823415609,5.712355502487807e-05,-0.0012109494653615256,6.769362221767798e-05,0.0035277631061561934,-0.3817255198955536,-51.57101821899414,-6.646622657775879,18.14490509033203,1.9179178476333618,-1.1048080921173096,0.05314789339900017,,,,,,,,,
1739302598.030747,-0.13809355325003184,1.074673287968763,-0.35924633163022807,-1.4164431301150155,1.5277259703179515,1.1444700144988722,1.3766610151703425,-0.0002702161127623644,-0.0004568199233247844,-0.0002456219599578581,0.000711824215133746,3.753177559356671e-05,0.00015258134465189876,0.0002718008079407591,-0.4293329417705536,-51.54721450805664,-6.646622657775879,18.09729766845703,1.9115091562271118,-1.0983994007110596,0.08610688149929047,,,,,,,,,
1739302598.0417407,-0.13808992518777938,1.074674864712373,-0.35924811409224194,-1.4164431388730558,1.5277260095695795,1.1444692568387937,1.3766631079297273,0.0008188792354177566,-0.00032632803061698445,-0.0007293920197867981,0.0003359311878055333,0.00016351584929881922,-0.0005787776964422283,-0.000328825513042142,-0.4293329417705536,-51.57101821899414,-6.622818946838379,18.09729766845703,1.9115091562271118,-1.0919907093048096,0.08610688149929047,,,,,,,,,
1739302598.0517519,-0.13809302579217622,1.0746756143074683,-0.3592509112636508,-1.416439991989017,1.5277266502295384,1.1444700144988722,1.3766553614804249,0.00044967585155924187,-0.00027433373779270223,-0.001508679051442057,0.0020582827475224283,-0.0014321784321789522,-7.761022961158946e-05,-0.0011915391667507577,-0.4055292308330536,-51.57101821899414,-6.595047950744629,18.04572296142578,1.9316507577896118,-1.0983994007110596,0.10624848306179047,,,,,,,,,
1739302598.0626936,-0.1380947412369284,1.0746771262701411,-0.35924814955854223,-1.4164487263079275,1.5277280111255485,1.1444681972006643,1.3766601485113625,-7.897549922951884e-05,0.0004215843160987648,-0.0008341610082974842,-0.0020742613126672003,0.0006906195681404783,-0.0011436620789321871,-8.477484420918991e-05,-0.3817255198955536,-51.59878921508789,-6.622818946838379,18.16870880126953,1.9115091562271118,-1.0919907093048096,0.09343110024929047,,,,,,,,,
1739302598.0726986,-0.13809302580006141,1.0746748902255898,-0.35924811409284135,-1.4164451624437948,1.52772519812637,1.144470014480927,1.3766641540223172,0.0002451577491046527,-0.00010457893929695208,0.0001647899275483816,-0.00034403936189179667,0.00041854630381117885,-0.00032008594452712357,0.0028069816365988076,-0.4055292308330536,-51.57101821899414,-6.622818946838379,18.12110137939453,1.9179178476333618,-1.0983994007110596,0.05955658480525017,,,,,,,,,
1739302598.0827804,-0.13809473864476382,1.074674813692137,-0.35924641015222153,-1.4164413003039942,1.5277250811615206,1.144468903141567,1.3766561990736397,-0.00044486560828575045,-0.0007763632128566403,0.000653772882867203,0.0014186504507180439,-0.0016058919175149454,-0.0008756359450951435,-0.0021310432139693474,-0.3817255198955536,-51.57101821899414,-6.646622657775879,18.06952667236328,1.9179178476333618,-1.0919907093048096,0.12639008462429047,,,,,,,,,
1739302598.0937088,-0.13809302580001753,1.0746768881611144,-0.35924835062859434,-1.4164418095189897,1.5277267670295922,1.144469252472153,1.3766625299670405,0.0009616401222857998,-0.0009572098978242168,-0.00015692655223357765,0.000487155720215145,0.0008132563207925763,-0.00010810331613688134,0.0014008644932629417,-0.4055292308330536,-51.59878921508789,-6.622818946838379,18.06952667236328,1.9051004648208618,-1.0919907093048096,0.07328949868679047,,,,,,,,,
1739302598.103754,-0.1380893153384278,1.0746766595552957,-0.35924633141655693,-1.4164467045220897,1.5277238210779278,1.1444684991786906,1.376662449029423,0.00044519367556478313,-0.0004289846257509403,0.0006654116993131808,-0.00012862419326281507,0.0004091200147938523,-0.0004505540040868221,0.001901942812969854,-0.4571039378643036,-51.59878921508789,-6.646622657775879,18.14490509033203,1.9179178476333618,-1.0855820178985596,0.07328949868679047,,,,,,,,,
1739302598.1157503,-0.13809379380076514,1.0746769556788276,-0.3592462869725864,-1.416446708115392,1.527725931861075,1.1444707329130936,1.376662530464119,-0.00016107862348923094,-0.0003373905174544081,2.9801179689028937e-05,-0.0006491694669854576,-0.0008222843719220003,0.0012791798583057883,0.0008217998342873148,-0.3817255198955536,-51.57101821899414,-6.646622657775879,18.14490509033203,1.9380594491958618,-1.1048080921173096,0.07328949868679047,,,,,,,,,
1739302598.125797,-0.13809302545999594,1.0746786801909802,-0.35924426048117586,-1.416439276151927,1.5277245836529607,1.1444700144982074,1.3766561272403073,-0.0004227236913431813,0.002020723841029322,0.0012545447806561981,0.0022500211471296327,-0.0017090531321796347,0.0008101215390046429,0.0003530417049559768,-0.4055292308330536,-51.62259292602539,-6.674393653869629,18.04572296142578,1.9115091562271118,-1.0983994007110596,0.09983979165554047,,,,,,,,,
1739302598.1367126,-0.13809302578801064,1.07467499618552,-0.3592488227252564,-1.4164449214047683,1.5277257475661707,1.1444684948180646,1.376659693540626,0.0002715902738375376,5.037572658374669e-05,-0.0006447338911371588,0.00032039225375816446,-0.0014510084431747132,-0.00034426363002204493,0.0005217210883629471,-0.4055292308330536,-51.57101821899414,-6.622818946838379,18.12110137939453,1.9316507577896118,-1.0855820178985596,0.10624848306179047,,,,,,,,,
1739302598.1467197,-0.13808931533842758,1.074674890659417,-0.35925091419183675,-1.4164471731357935,1.5277252504561714,1.1444707707053263,1.3766614383938847,0.0013407162947043972,0.00017871892244935726,-0.0007201574054711733,-0.00017246657254959923,-0.0018814355944731108,0.0011593553681917678,0.0007148038703528083,-0.4571039378643036,-51.57101821899414,-6.595047950744629,18.12110137939453,1.9179178476333618,-1.1048080921173096,0.07328949868679047,,,,,,,,,
1739302598.157682,-0.13809686421974024,1.0746786016642957,-0.35924821908710575,-1.4164467045559859,1.5277282586232446,1.1444700144988476,1.3766554935411819,-0.0003279988982176724,0.001256308713107617,-0.00022146885436733247,-0.0003871140378810544,6.584186338507769e-05,-0.00033692105199565963,-0.001533426716339572,-0.3817255198955536,-51.62259292602539,-6.622818946838379,18.14490509033203,1.9179178476333618,-1.0983994007110596,0.13279877603054047,,,,,,,,,
1739302598.1677132,-0.1380947357405794,1.0746772744073538,-0.3592501943507187,-1.4164470671719833,1.5277268067992564,1.144466077439889,1.3766554897898582,-0.00016914398426023664,-0.000537882084563744,-0.0005227920156508242,-0.0013665941181662386,-0.0006456316812264533,-0.0005124674709423483,-0.00036422875878846855,-0.3817255198955536,-51.57101821899414,-6.595047950744629,18.12110137939453,1.9316507577896118,-1.0919907093048096,0.13279877603054047,,,,,,,,,
1739302598.1777363,-0.1380967375576349,1.074679034079015,-0.3592443303623739,-1.4164450010229834,1.5277284308420478,1.1444711240631613,1.3766597872040727,-0.0007441320720611716,0.0009050820339144192,0.0014526881269940086,-0.0006195803837381003,-0.00048761702083050147,0.0006213712048692453,0.0006066797539408841,-0.3539545238018036,-51.59878921508789,-6.674393653869629,18.12110137939453,1.9179178476333618,-1.1112167835235596,0.09343110024929047,,,,,,,,,
1739302598.1877651,-0.13809538791003065,1.0746771296697866,-0.3592481170097593,-1.4164456710019788,1.5277291885021342,1.1444697125139496,1.3766586279613455,-0.0003229559601073136,0.00012467789771392063,0.00029077799370594276,-0.0011207343046886582,0.0008740321471810456,9.129088642928143e-05,-0.0002068347869170763,-0.4055292308330536,-51.59878921508789,-6.622818946838379,18.12110137939453,1.9115091562271118,-1.1048080921173096,0.10624848306179047,,,,,,,,,
1739302598.1997874,-0.13808847879662134,1.074676914654727,-0.3592437579864018,-1.4164450008818599,1.5277272229298522,1.1444692379366588,1.3766601651998696,0.0013669694182166321,-0.0005370567486566245,-0.000536150558677169,0.0003060609032657686,0.0012284590449798713,0.00035646381700788366,0.00032728249893056546,-0.4293329417705536,-51.59878921508789,-6.722001075744629,18.12110137939453,1.8922830820083618,-1.0919907093048096,0.09343110024929047,,,,,,,,,
1739302598.2107816,-0.1380950532634092,1.0746790427599902,-0.3592445679832348,-1.416443137419704,1.5277298875277106,1.1444707329130581,1.3766610105092416,-0.0014053671935627722,0.0004626765651442207,0.0003070415148478217,-1.8438761375818256e-05,0.0008748151426521132,0.0015284439360239337,0.0017534488571147896,-0.3817255198955536,-51.59878921508789,-6.674393653869629,18.09729766845703,1.9051004648208618,-1.1048080921173096,0.08610688149929047,,,,,,,,,
1739302598.2207897,-0.1380967362669299,1.0746770360252575,-0.3592530546651164,-1.4164431387277274,1.527727525697974,1.144466077923741,1.3766568863901962,-0.0009304317330744924,-0.0006546326478466639,-0.0019776692030750577,4.4347914178271414e-05,-0.00046009099252132654,-0.0008495648817208732,-0.001926370673817511,-0.3539545238018036,-51.57101821899414,-6.595047950744629,18.09729766845703,1.9252420663833618,-1.0919907093048096,0.09343110024929047,,,,,,,,,
1739302598.230795,-0.13809515169900913,1.074674893201336,-0.3592420686890569,-1.4164418006845843,1.5277299025550408,1.1444660759325034,1.376664167049025,-0.00031383327021815364,-0.0002869978324328685,0.002131906544617017,0.000711298092731288,0.0007728721794464174,-0.0010860181812899863,0.0018193621531038184,-0.4055292308330536,-51.57101821899414,-6.698197364807129,18.06952667236328,1.9051004648208618,-1.0919907093048096,0.05955658480525017,,,,,,,,,
1739302598.2417307,-0.13809697248459674,1.074671906825823,-0.35925113872383546,-1.416445391880173,1.52772795879838,1.1444692524601865,1.3766610151444953,-0.0012897002120306547,-0.0010714899376106511,-0.0013594493120304345,-0.0008466821558688508,0.0003124776151711094,0.000982905769521544,0.0005714070329796156,-0.3539545238018036,-51.51944351196289,-6.595047950744629,18.09729766845703,1.9115091562271118,-1.0919907093048096,0.08610688149929047,,,,,,,,,
1739302598.2518063,-0.1380915475501575,1.0746771270293676,-0.3592502395711736,-1.4164445505695806,1.5277247417107065,1.1444686010019365,1.376657010369722,-8.735195505218344e-05,-0.0009195986959010864,-0.0004246755547999848,-0.00035836018320373967,-0.00048719529601588254,0.0008207679932798027,-0.0012016176913335864,-0.4293329417705536,-51.59878921508789,-6.622818946838379,18.12110137939453,1.9179178476333618,-1.0983994007110596,0.11998139321804047,,,,,,,,,
1739302598.2627566,-0.1380948141428804,1.0746732605908775,-0.35924633142722007,-1.4164449214026753,1.5277273186399518,1.144465718674175,1.376663395865181,-0.0003779048168185457,-0.0012971256089469258,0.001143324428279256,0.0006980306012956388,-0.00031463897013067567,-0.0005196148531824311,0.0013243912375753416,-0.3817255198955536,-51.54721450805664,-6.646622657775879,18.12110137939453,1.9179178476333618,-1.0919907093048096,0.06596527993679047,,,,,,,,,
1739302598.2728288,-0.1380946586129657,1.0746798319301114,-0.359247075042443,-1.416443242969816,1.5277287829427804,1.1444667830352506,1.376655489090001,-0.00043195498326566335,0.0006225278563340357,0.0006233356459147503,4.698000845589361e-06,-0.0002579418652472077,-0.000300434950815695,-0.002571863850403345,-0.3817255198955536,-51.59878921508789,-6.646622657775879,18.06952667236328,1.9115091562271118,-1.0983994007110596,0.13279877603054047,,,,,,,,,
1739302598.2837837,-0.13808931533797783,1.0746798555291779,-0.3592481140964385,-1.4164434036859495,1.5277275080925692,1.1444684986221219,1.3766609565420873,0.0012502361030197427,-0.00018503301087247688,0.0004978787336628118,-0.0015132671529636843,-0.00044081376495784666,0.0005291725447667513,-0.0003572734897601592,-0.4571039378643036,-51.59878921508789,-6.622818946838379,18.09729766845703,1.9252420663833618,-1.0855820178985596,0.08610688149929047,,,,,,,,,
1739302598.2946804,-0.13808926611728375,1.0746743097428075,-0.359246327490636,-1.4164476528518675,1.5277282736429678,1.1444653775120786,1.376661772748988,0.0010119269122281951,-0.0005795373224387152,0.0004552890175532678,-0.001990400067300004,-1.9200856068324768e-05,-0.0020547281455520943,0.0017090704759639718,-0.4293329417705536,-51.51944351196289,-6.646622657775879,18.14490509033203,1.9179178476333618,-1.0983994007110596,0.07969819009304047,,,,,,,,,
1739302598.304688,-0.13809131335261884,1.0746781310011762,-0.3592491376731728,-1.4164432047211732,1.527726000922097,1.1444646512670642,1.3766599823796202,0.0005132362014813158,-0.0009453808494071575,-0.0008092010948615156,0.0020790344314671476,-0.0018057609260898053,-0.0003577739421638837,1.5864105571400887e-05,-0.4293329417705536,-51.57101821899414,-6.622818946838379,18.06952667236328,1.9252420663833618,-1.0919907093048096,0.09343110024929047,,,,,,,,,
1739302598.3147907,-0.13809886216059455,1.0746781084366848,-0.35925019433145816,-1.4164431437788367,1.5277269000656546,1.1444674356986233,1.3766554950467393,-0.0015425639907026322,0.00022774449639683232,-0.0005632036756914986,0.0002555285046147131,-0.0009998407324205206,-3.6663760614438225e-05,0.0009012636829727535,-0.3539545238018036,-51.57101821899414,-6.595047950744629,18.09729766845703,1.9179178476333618,-1.1048080921173096,0.13279877603054047,,,,,,,,,
1739302598.325786,-0.13809516048356688,1.0746791491053027,-0.3592481140922483,-1.4164449253294398,1.5277259703159658,1.1444693140300448,1.3766625304645785,6.949040334735775e-05,0.0010847582665775139,-0.00022299806069158085,0.0002828640537082939,1.5681209861836514e-05,0.0010478118511408367,0.002717814888363746,-0.4055292308330536,-51.59878921508789,-6.622818946838379,18.12110137939453,1.9115091562271118,-1.1048080921173096,0.07328949868679047,,,,,,,,,
1739302598.3367054,-0.13809120830063112,1.0746837266807905,-0.3592465768428066,-1.4164431387762086,1.527728273852574,1.1444692415827449,1.376662873410771,0.0015172282461668114,0.0015432126775129622,0.0005126398338407151,5.008090051277658e-05,-0.00043869694635104226,0.002173371682475414,0.0022171795516204504,-0.4293329417705536,-51.62259292602539,-6.646622657775879,18.09729766845703,1.9179178476333618,-1.0919907093048096,0.06596527993679047,,,,,,,,,
1739302598.3467336,-0.13808962373224926,1.0746778661254466,-0.3592464916917689,-1.416443147558068,1.5277256549188276,1.144466919964918,1.3766601485761603,0.001652452254690912,0.0008864346041118201,0.00034522514914193833,0.001268743709685009,0.00023308197073080035,-0.00047626600362440046,0.0007886495823013828,-0.4809076488018036,-51.57101821899414,-6.674393653869629,18.09729766845703,1.9115091562271118,-1.1112167835235596,0.09343110024929047,,,,,,,,,
1739302598.3567479,-0.13809261252441934,1.0746777543391375,-0.3592463315290288,-1.416446712912554,1.5277252105642198,1.1444653028238032,1.3766614398657948,0.0006312495700308029,-0.0009781975767009432,0.0016568725923380274,-0.0009519060853355394,9.129353972649618e-05,-0.0004323384667712299,-0.0001428201888904523,-0.3817255198955536,-51.57101821899414,-6.646622657775879,18.14490509033203,1.9179178476333618,-1.0983994007110596,0.07328949868679047,,,,,,,,,
1739302598.3668067,-0.13809515460319405,1.0746735732646537,-0.3592481154963305,-1.4164476577561538,1.5277295879246513,1.1444704563724921,1.376660131362365,-0.0006985249749796407,-0.002444952499880897,-0.0005750927837978347,-0.0006108003223882026,0.0011688578546938037,0.000348928217393963,0.000492302993557155,-0.4055292308330536,-51.51944351196289,-6.622818946838379,18.14490509033203,1.9051004648208618,-1.1112167835235596,0.09343110024929047,,,,,,,,,
1739302598.3776855,-0.1380930258120292,1.0746780280866624,-0.3592444881603942,-1.4164434124729832,1.5277266888452956,1.144467033778667,1.3766518743984646,-0.0003757953133335029,0.00011499627881496749,0.001595070175851408,-0.0002589031246293024,0.00024798225053387473,-0.0005433544173780479,-0.0032601792349524874,-0.4055292308330536,-51.57101821899414,-6.674393653869629,18.09729766845703,1.9316507577896118,-1.0855820178985596,0.13279877603054047,,,,,,,,,
1739302598.3877509,-0.13809373443301123,1.074678709005565,-0.35925094042950834,-1.4164412983422552,1.5277225682457054,1.1444687789563464,1.3766633424989474,-0.0003699997558275394,-0.00013946610792433842,-0.0005368326793912024,0.001737623838613829,-0.0015723528079988568,-0.0007049937505340497,0.002048169351470727,-0.4055292308330536,-51.57101821899414,-6.595047950744629,18.06952667236328,1.9316507577896118,-1.0983994007110596,0.06596527993679047,,,,,,,,,
1739302598.3977952,-0.13809278960101315,1.0746801068233918,-0.3592509875193486,-1.4164488498530536,1.52772918681529,1.1444671203352916,1.376663391394602,0.0003110221221590607,0.0011103610385023823,-0.0004122046294975323,-0.0015696125358307762,0.0001585322813705877,0.0008955089966133235,0.0029906578840111866,-0.4055292308330536,-51.59878921508789,-6.622818946838379,18.14490509033203,1.9115091562271118,-1.1048080921173096,0.06596527993679047,,,,,,,,,
1739302598.4096959,-0.1380941478099435,1.074675248721556,-0.35924427803126247,-1.4164499098626293,1.527728705563043,1.1444652853794497,1.3766525049453513,6.762124912273624e-05,-0.0018071353137950785,0.00020534795999817767,-0.0021687012215420988,0.0007296588127661892,-0.001138049937199851,-0.0011686335466442848,-0.4293329417705536,-51.57101821899414,-6.674393653869629,18.14490509033203,1.9179178476333618,-1.0983994007110596,0.11998139321804047,,,,,,,,,
1739302598.4198124,-0.138093439086272,1.0746758836161578,-0.3592463576970396,-1.4164449129195964,1.5277275190952528,1.144469850974691,1.376657064882937,8.14329753261872e-06,-2.7467751061399474e-09,0.0014749029177194806,-0.000388812658585083,0.0025253345139268192,-0.0005037944256846512,-0.0019793536327493777,-0.4293329417705536,-51.57101821899414,-6.646622657775879,18.12110137939453,1.8986917734146118,-1.0983994007110596,0.10624848306179047,,,,,,,,,
1739302598.4307766,-0.13809473840474806,1.0746781088598136,-0.3592481153884714,-1.416444947895674,1.5277263343784206,1.1444663103135702,1.3766607259868815,-0.00013394378509535185,9.881807657222222e-05,0.00026361982734334144,-0.0013022475558161915,-0.0008251095855634957,-0.0001063052470819567,0.000960663730829296,-0.3817255198955536,-51.57101821899414,-6.622818946838379,18.12110137939453,1.9316507577896118,-1.0983994007110596,0.09343110024929047,,,,,,,,,
1739302598.4417353,-0.13809473828474145,1.0746783472909542,-0.3592481144879367,-1.416445284495111,1.5277276180191768,1.1444652461332974,1.376657862861209,8.598562437958288e-05,0.00017953425847137778,-0.0005179341545063054,0.00040173072364450856,3.6817793814045282e-06,-0.001734303951087601,-0.0013588158729857657,-0.3817255198955536,-51.57101821899414,-6.622818946838379,18.09729766845703,1.9115091562271118,-1.0983994007110596,0.11265717446804047,,,,,,,,,
1739302598.4527047,-0.13809684167628963,1.074679394504968,-0.35925302841409895,-1.4164449218771724,1.527728273186011,1.1444691827017566,1.3766570103694948,-0.0012838182976605043,0.0011790724503785576,-0.0007162576196377548,0.0004333902913170602,0.000871683465344993,0.0007807992480302062,-0.00167334742620554,-0.3539545238018036,-51.59878921508789,-6.595047950744629,18.12110137939453,1.9179178476333618,-1.1048080921173096,0.11998139321804047,,,,,,,,,
1739302598.4628024,-0.13809302580060712,1.0746781085413055,-0.3592434920510014,-1.4164456366605087,1.5277248936535601,1.1444660054742044,1.3766625319181287,0.00038356131456049596,-0.0004516886950695091,0.0010513976451119638,0.00018223110625970423,-0.0012919242610242487,-0.00038910976159183523,0.0014993012086294624,-0.4055292308330536,-51.57101821899414,-6.674393653869629,18.12110137939453,1.9179178476333618,-1.1048080921173096,0.07328949868679047,,,,,,,,,
1739302598.474752,-0.13809305204567868,1.0746818193339578,-0.3592481150600146,-1.4164449214088062,1.5277283915223967,1.1444667614474562,1.3766568891920914,-0.00021349417657353262,0.0008641947156820814,3.61453130360577e-05,-0.0002663063228855436,-2.3518555798160202e-05,0.0006200353846243707,-0.000750983853564457,-0.4055292308330536,-51.62259292602539,-6.622818946838379,18.12110137939453,1.9179178476333618,-1.1112167835235596,0.11998139321804047,,,,,,,,,
1739302598.4856846,-0.13809515169905842,1.0746765530083207,-0.3592463315232303,-1.4164424895583847,1.5277275605123188,1.144467519107525,1.3766624768283464,-0.0005177755036566371,-0.0007435025422638892,0.0009023196713362843,0.0011696888030973789,0.0005942749184235644,1.2361717776141054e-05,0.000798889743337501,-0.4055292308330536,-51.51944351196289,-6.646622657775879,18.06952667236328,1.9252420663833618,-1.1176254749298096,0.07328949868679047,,,,,,,,,
1739302598.4967127,-0.13809673629759858,1.0746802546760754,-0.35924885026699044,-1.4164449230642404,1.5277279535929835,1.1444637308071335,1.3766622456919384,-0.00017147057873188935,0.00015370808742198655,-0.0006744455618849889,0.0001222838336636779,-0.0006385971338355329,-0.0009467062864975731,0.002861225956734468,-0.3539545238018036,-51.57101821899414,-6.622818946838379,18.12110137939453,1.9179178476333618,-1.0855820178985596,0.07969819009304047,,,,,,,,,
1739302598.506752,-0.13809292081734573,1.0746793915696042,-0.3592488328820401,-1.4164451608045034,1.5277282564133325,1.1444652467733125,1.3766617549285014,0.00038834651630832885,0.0007143621103696818,-0.0013347205296412247,0.0004434830143274698,0.0010720021889914651,5.841031204436613e-05,0.0003836769008922701,-0.4055292308330536,-51.59878921508789,-6.622818946838379,18.12110137939453,1.9179178476333618,-1.0983994007110596,0.07969819009304047,,,,,,,,,
1739302598.5168014,-0.1380966312771519,1.0746774995683381,-0.35925024389165733,-1.4164475351168562,1.5277284127504769,1.1444660037873793,1.3766498554446258,-0.0006023921794299284,-0.00038651423991211895,-0.0003838229854172324,-0.001848474179651185,0.002477408536078321,0.00025348402977731115,-0.002866453747484389,-0.3539545238018036,-51.57101821899414,-6.622818946838379,18.14490509033203,1.9179178476333618,-1.1048080921173096,0.15294037759304047,,,,,,,,,
1739302598.528769,-0.13808907815477375,1.0746773936131984,-0.3592494050864252,-1.4164453992937833,1.5277271591888621,1.1444669099368623,1.3766533897003288,0.0002683429457134637,-1.529516326324412e-05,-0.00030004030161378793,-0.00116885712446399,-0.001230089005869943,-0.0004081890570940958,-0.0034399405694989383,-0.4571039378643036,-51.57101821899414,-6.646622657775879,18.09729766845703,1.9252420663833618,-1.0855820178985596,0.11998139321804047,,,,,,,,,
1739302598.539697,-0.1380929985809448,1.074678108650305,-0.3592463314685749,-1.4164450136816313,1.527728428740193,1.1444652476526218,1.3766625302234154,-2.1759473021633574e-05,-0.0002808878277795033,-3.0825269696953007e-05,0.00031437019431221753,0.0003755205553995467,6.203259131353512e-05,0.0002617578570502212,-0.4055292308330536,-51.57101821899414,-6.646622657775879,18.12110137939453,1.9179178476333618,-1.0983994007110596,0.07328949868679047,,,,,,,,,
1739302598.5507884,-0.13809474706914512,1.074680254748602,-0.35924913767323957,-1.4164488890953768,1.527726761686324,1.1444659903783758,1.376663275515257,-0.0003361500149804596,-0.0007682681602395842,-0.0007309577092537335,5.924629012695701e-05,0.0009949562644400865,-9.250939446122308e-05,0.0017618629302870307,-0.3817255198955536,-51.57101821899414,-6.622818946838379,18.14490509033203,1.9316507577896118,-1.1048080921173096,0.06596527993679047,,,,,,,,,
1739302598.5617075,-0.13809450254178746,1.0746822525844781,-0.35925023999316374,-1.4164437490533834,1.5277266452945597,1.1444655481053156,1.3766603587095272,-3.820102566289989e-05,0.00024742974330844156,-0.000796005534114468,0.001630803368112571,-0.0009003237055258795,0.0002484212813755795,0.0010518798327938074,-0.3817255198955536,-51.59878921508789,-6.622818946838379,18.09729766845703,1.9316507577896118,-1.0919907093048096,0.10624848306179047,,,,,,,,,
1739302598.571738,-0.13809131619147308,1.0746803457042116,-0.3592481180164899,-1.4164467040921234,1.5277287274383409,1.1444655481232862,1.37665888816813,0.0006114305706082419,0.0010719139001076888,-0.0001213586916977831,-0.00022566595297297148,0.0005484873160098568,0.0004792934024705563,-0.0007268557712586932,-0.4293329417705536,-51.59878921508789,-6.622818946838379,18.14490509033203,1.9051004648208618,-1.0919907093048096,0.09343110024929047,,,,,,,,,
1739302598.5817437,-0.13809402968779355,1.0746783561253177,-0.3592502026307183,-1.4164451686536657,1.527727758188053,1.1444652505058863,1.3766636639617837,-0.0002180207133846674,0.0005399981722903125,-0.000899087177252787,0.00030149715055963373,-0.0013071975116682674,-6.0033630076567485e-05,0.0015093153415072578,-0.3817255198955536,-51.57101821899414,-6.595047950744629,18.12110137939453,1.9115091562271118,-1.0983994007110596,0.05314789339900017,,,,,,,,,
1739302598.592736,-0.13809131295126004,1.0746801068146241,-0.359246331415271,-1.4164432086310872,1.5277272035530576,1.1444652461273148,1.3766606866683742,0.0008723665070193619,0.0011088371848942994,0.0006794579340467445,0.00028957649510221047,0.0005709524251995891,1.994807659989834e-05,0.0004146284959445664,-0.4293329417705536,-51.59878921508789,-6.646622657775879,18.06952667236328,1.9179178476333618,-1.0983994007110596,0.07969819009304047,,,,,,,,,
1739302598.6027527,-0.13809060367420345,1.0746773975412236,-0.35925101624631733,-1.4164451612407587,1.527727016475314,1.1444659993177013,1.376654599945857,0.0013430544322637216,-0.0011366071201122628,-0.0026441211237610736,-8.015946160346861e-05,0.00022031175848338493,0.00013485929254310753,-0.0006190675465695083,-0.4293329417705536,-51.57101821899414,-6.595047950744629,18.12110137939453,1.9179178476333618,-1.1048080921173096,0.11265717446804047,,,,,,,,,
1739302598.6136785,-0.138094738319408,1.0746835782007975,-0.35924812677859363,-1.4164469318656754,1.5277286603762168,1.14446600378736,1.376659331323213,-0.0006213652760287056,0.0010580504639374788,-0.0006948236500207725,0.00029001273141023227,-0.001027448900235335,7.824186384958038e-05,-0.0009045806120142426,-0.3817255198955536,-51.65036392211914,-6.622818946838379,18.14490509033203,1.9115091562271118,-1.1048080921173096,0.09983979165554047,,,,,,,,,
1739302598.6246862,-0.13809302580001204,1.0746838174914954,-0.35924641015229314,-1.416443139056084,1.527727011689518,1.1444660037873684,1.3766554809780511,0.00021851202420272692,0.0015931390123781267,-0.0005016305331475805,-8.130409481752355e-05,-0.00035828757737316143,-0.00030005842016862035,-0.0033074117136920084,-0.4055292308330536,-51.65036392211914,-6.646622657775879,18.09729766845703,1.9179178476333618,-1.1048080921173096,0.13279877603054047,,,,,,,,,
1739302598.6347713,-0.13809471207507662,1.0746781177026967,-0.35924812284212965,-1.416443177646563,1.5277266364042692,1.1444667614474469,1.3766545771558354,-0.0005619087309744191,0.00011288026709772812,-0.0008911710498573165,0.0006712549101381133,0.00216319814160882,0.000695785945906437,-0.0023012659196861244,-0.3817255198955536,-51.57101821899414,-6.622818946838379,18.09729766845703,1.9051004648208618,-1.1112167835235596,0.11265717446804047,,,,,,,,,
1739302598.645692,-0.1380930257998639,1.074677390600571,-0.35924633141527107,-1.4164467053902023,1.5277245189637392,1.1444644884672117,1.376658633742866,0.0003262311010843213,-0.000477367877913665,0.0009715929739138025,-0.0007595146512572729,-0.0004498313241726325,-1.713328560750111e-05,0.00025896685992706284,-0.4055292308330536,-51.57101821899414,-6.646622657775879,18.14490509033203,1.9380594491958618,-1.0919907093048096,0.10624848306179047,,,,,,,,,
1739302598.655782,-0.13809575185710393,1.0746759732315123,-0.3592463225849039,-1.4164431653277412,1.5277260495987453,1.1444652461272902,1.3766588532405484,-0.0019192976950183642,-0.00047841018263430625,0.0003183462531628,0.0012196499174707766,-0.0006112383496059894,0.00017775392855258782,-0.0014753539077871742,-0.3817255198955536,-51.57101821899414,-6.646622657775879,18.09729766845703,1.9380594491958618,-1.0983994007110596,0.09983979165554047,,,,,,,,,
1739302598.6676824,-0.13809060800021591,1.0746766377016068,-0.35924210629013176,-1.4164434919769482,1.527724032817726,1.1444649176582857,1.376659787201123,0.0006893679527020223,-0.00011519641307317031,0.0017904545501325328,-0.0007765968960922407,-0.0009536687307445453,-0.00014634286511880872,0.0011603342275758953,-0.4293329417705536,-51.54721450805664,-6.674393653869629,18.09729766845703,1.9252420663833618,-1.1048080921173096,0.09343110024929047,,,,,,,,,
1739302598.6777442,-0.13809697246861466,1.0746764316742776,-0.3592481140801302,-1.4164449214067627,1.527727902698861,1.144465883100228,1.376654628929565,-0.0011889746853654631,-0.00022178238338910119,4.8037694051458464e-05,0.0006563587429409469,-0.00023824104566453746,-3.7588676094361885e-05,0.0006662684273749159,-0.3539545238018036,-51.54721450805664,-6.622818946838379,18.12110137939453,1.9179178476333618,-1.1048080921173096,0.14012299478054047,,,,,,,,,
1739302598.6887124,-0.1380930256933386,1.074675487249351,-0.3592413906024168,-1.4164466246089278,1.527727211567627,1.1444702423392044,1.3766562343343447,-0.00022831421525425986,0.00010305126299878985,0.0014769552521889022,-0.0001972301751501032,-0.0006753238728717215,0.0015774372299874717,-0.0005435925725694104,-0.4055292308330536,-51.57101821899414,-6.674393653869629,18.14490509033203,1.9252420663833618,-1.1048080921173096,0.12639008462429047,,,,,,,,,
1739302598.6987867,-0.1380967349655122,1.0746763963072468,-0.35924425254897613,-1.416444934158326,1.5277244768937803,1.1444648841560427,1.376660149081335,-0.0011532348345347125,-0.0001500484902806246,0.0009667393898938406,-0.00032011784223574564,-0.001413088791438782,-0.00018833191808303697,-0.00043290073458269877,-0.3539545238018036,-51.54721450805664,-6.674393653869629,18.12110137939453,1.9115091562271118,-1.0983994007110596,0.09343110024929047,,,,,,,,,
1739302598.7087944,-0.13809326103892802,1.0746783355171965,-0.3592463314152373,-1.4164467040820035,1.5277287940257094,1.1444648825882435,1.3766570657485098,-0.00011385196580344089,7.927442777010948e-05,-0.000512200168062116,-0.00046923448227096753,0.0015178403675187213,-0.00044452184154627805,-0.00036795611094111406,-0.4055292308330536,-51.57101821899414,-6.646622657775879,18.14490509033203,1.9115091562271118,-1.0983994007110596,0.07969819009304047,,,,,,,,,
1739302598.7187967,-0.1380947384327339,1.0746810377072815,-0.35924426329010684,-1.416444922385915,1.5277271925062692,1.144464488461055,1.3766558905869017,-0.0009644749408052165,0.002206903339555286,0.0010431186139669426,0.0007387399587586912,-0.00046634571929289885,3.200693068370795e-05,-0.001666699128605681,-0.3817255198955536,-51.57101821899414,-6.674393653869629,18.12110137939453,1.9252420663833618,-1.0919907093048096,0.12639008462429047,,,,,,,,,
1739302598.7291863,-0.13808931566245025,1.0746744095800504,-0.3592442516255636,-1.416443138727766,1.5277229164848298,1.14446524612729,1.37666089445728,0.0009971068431748732,-0.00039184984965427434,0.0012186807732983097,0.0006436404559716864,-0.0032670819856156314,-0.000670040313518584,-0.0002456069442418557,-0.4571039378643036,-51.51944351196289,-6.674393653869629,18.09729766845703,1.9252420663833618,-1.0983994007110596,0.08610688149929047,,,,,,,,,
1739302598.739753,-0.13809302580001387,1.0746810604876078,-0.35924633141522166,-1.4164449215501236,1.5277259887855996,1.1444605395679324,1.3766593781222476,0.00020574663987656415,0.0004034253500369139,0.0010896628059362111,-0.00023909351324598053,-0.0011725880486946005,-0.002044175508431486,0.0008630671135144783,-0.4055292308330536,-51.59878921508789,-6.646622657775879,18.12110137939453,1.9252420663833618,-1.0983994007110596,0.09983979165554047,,,,,,,,,
1739302598.7507474,-0.13809473835674552,1.07468225269484,-0.35925231992510237,-1.4164410854651868,1.5277270876869289,1.144464761390166,1.3766601447774465,-4.153601271573602e-05,-0.00013371750881444053,-0.0007302330776285375,0.0025300744187497634,-0.0011997798463563578,-0.0004019392092341145,-0.000500763520312049,-0.3817255198955536,-51.59878921508789,-6.595047950744629,18.06952667236328,1.9252420663833618,-1.0983994007110596,0.09343110024929047,,,,,,,,,
1739302598.7626832,-0.13809131324327878,1.0746781112828467,-0.35924622837959547,-1.4164450303485092,1.5277273711473975,1.144466003784632,1.3766610091848406,0.0011231885095561727,-0.0005672715605630804,3.281608159513545e-05,6.655079412702335e-05,0.0018137831797733716,0.00010391370037936851,0.0012491622589548383,-0.4293329417705536,-51.57101821899414,-6.646622657775879,18.12110137939453,1.9179178476333618,-1.1048080921173096,0.08610688149929047,,,,,,,,,
1739302598.7728493,-0.13809223843001298,1.0746822519263564,-0.35924633400377637,-1.4164439692506363,1.5277274428406211,1.144461282407773,1.376653269258404,0.000965786145424908,-0.0004153198304258753,0.0014389452927804566,0.000269483903881721,0.0002954960832003287,-0.0006150632776021258,-0.0003681443731374153,-0.4055292308330536,-51.59878921508789,-6.646622657775879,18.09729766845703,1.9252420663833618,-1.0919907093048096,0.11998139321804047,,,,,,,,,
1739302598.782928,-0.13809302546265728,1.0746758303758048,-0.35924835354349,-1.4164445240545351,1.527726448616167,1.144465245907452,1.3766554903509989,0.00032532918361842815,-0.0023927340988660834,-0.000546840097589823,-0.00029813673599053377,-0.0007090896205282518,0.0003432516844199508,-6.109442593625852e-05,-0.4055292308330536,-51.51944351196289,-6.622818946838379,18.12110137939453,1.9252420663833618,-1.0983994007110596,0.13279877603054047,,,,,,,,,
1739302598.7937083,-0.1380967615351993,1.0746800950838937,-0.35924633141657336,-1.4164449214025256,1.5277246164342866,1.144466003787367,1.376662471862251,-0.0005948789432737505,-0.00032514433461207186,-0.0001671363151250265,0.00018252828447551725,-0.002367886341321329,0.0008980301903422894,0.000956580451871959,-0.3539545238018036,-51.59878921508789,-6.646622657775879,18.12110137939453,1.9115091562271118,-1.1048080921173096,0.07328949868679047,,,,,,,,,
1739302598.8038154,-0.13809114414096835,1.0746801068130298,-0.3592483515993227,-1.4164431388367658,1.527730292390143,1.1444658428793562,1.3766518903136529,0.0008466074252919275,2.79915639296482e-06,0.0003233011739291313,-0.0001021993936946781,-0.00041842201223077596,-0.00018148940061464688,-0.003594383003058785,-0.4293329417705536,-51.59878921508789,-6.622818946838379,18.09729766845703,1.8986917734146118,-1.1048080921173096,0.12639008462429047,,,,,,,,,
1739302598.8147433,-0.13809473831978847,1.0746832984825199,-0.3592425480467105,-1.4164431653277196,1.5277245961962327,1.14446600378646,1.376657064552658,-0.0016082392707151014,0.0014979640539447762,0.0021742784788338137,0.00047688461201091255,-0.0008559313335949809,0.00032031069663106043,-0.00039003998212080223,-0.3817255198955536,-51.59878921508789,-6.698197364807129,18.09729766845703,1.9115091562271118,-1.1048080921173096,0.10624848306179047,,,,,,,,,
1739302598.8257117,-0.13809302191176512,1.0746781092534752,-0.3592471604192638,-1.4164450273690319,1.5277291148525953,1.144465251941491,1.3766633963352333,0.0009425894103096224,-0.0005237967982761361,0.00044849365700984947,-0.0004641595813910382,-0.0019600386221534285,0.000487929767969472,0.0011489013428076316,-0.4055292308330536,-51.57101821899414,-6.622818946838379,18.12110137939453,1.8986917734146118,-1.0983994007110596,0.06596527993679047,,,,,,,,,
1739302598.835747,-0.13809473828471902,1.074678426763816,-0.3592505549338537,-1.4164431387283476,1.5277244222480728,1.1444641599982404,1.3766539259757216,-0.00043411382286422757,0.0002114752542281942,-0.001204210086997508,0.0008514478324067416,0.0004264151430584001,-0.000551887950319557,-0.001815297980342872,-0.3817255198955536,-51.57101821899414,-6.622818946838379,18.09729766845703,1.9115091562271118,-1.0983994007110596,0.13279877603054047,,,,,,,,,
1739302598.8467891,-0.13809302580001184,1.074678215819129,-0.35924704009800157,-1.4164450278046465,1.52772734830156,1.1444652461211589,1.3766601223494617,0.00014242576269900351,6.133443579029634e-05,-0.000416678489372249,-0.0010236190134070076,0.0015956478290991027,0.0004597047373222154,0.0019665136419275593,-0.4055292308330536,-51.57101821899414,-6.646622657775879,18.12110137939453,1.8986917734146118,-1.0983994007110596,0.06596527993679047,,,,,,,,,
1739302598.857699,-0.1380944991935584,1.0746801081220274,-0.3592481499171701,-1.416445319962188,1.527728356928335,1.144461230079964,1.3766614440962897,-8.168446751519084e-05,0.0013511598787702553,-0.00028682034586801345,-0.0004695720717714571,0.0010103667431492708,-0.0006461526007270191,0.0016394490556579182,-0.3817255198955536,-51.59878921508789,-6.622818946838379,18.09729766845703,1.9051004648208618,-1.0919907093048096,0.07328949868679047,,,,,,,,,
1739302598.8677173,-0.1380947383166936,1.0746788241281346,-0.35925205562074247,-1.4164456724547814,1.5277263597423254,1.1444655208426073,1.3766524915179807,0.000532638396767334,0.0007161413774572312,-0.002749161484618212,-0.0008944909429206259,0.0003151085952955101,0.00018285763120831947,-0.0019938849115473845,-0.3817255198955536,-51.57101821899414,-6.571244239807129,18.12110137939453,1.9051004648208618,-1.1048080921173096,0.11998139321804047,,,,,,,,,
1739302598.878792,-0.13809470300250043,1.0746766701036072,-0.35925047620357625,-1.4164449210904388,1.5277262886834353,1.1444619877318638,1.3766542338647694,-0.0007572168002775951,-0.0002920994918299651,-0.00043132971141038225,-0.00014916042816182773,0.0003787439587746999,-0.0005255526083933625,-0.002008449531069984,-0.3817255198955536,-51.54721450805664,-6.622818946838379,18.12110137939453,1.8986917734146118,-1.0983994007110596,0.13279877603054047,,,,,,,,,
1739302598.8897014,-0.1380930169433832,1.0746763963158206,-0.3592481928456861,-1.4164462381692773,1.527721372090186,1.1444637302859788,1.3766562610593596,-0.00038467582302402454,-0.0013460581099020647,-0.0007900794397693521,-0.0005043964554614879,-0.0009038053055821053,-0.00041914911429751336,-0.002033823393859084,-0.4055292308330536,-51.54721450805664,-6.622818946838379,18.09729766845703,1.9115091562271118,-1.0855820178985596,0.11265717446804047,,,,,,,,,
1739302598.8997045,-0.13808826834977442,1.074681819333959,-0.35924809149086806,-1.4164467836071366,1.52772445932479,1.1444644879705732,1.3766616779329928,0.0011442047366118512,0.0013647275981283802,6.529632314627916e-05,-0.0007016027436889148,0.000596147968938546,-0.0011827772049097204,-7.075224743321613e-05,-0.4293329417705536,-51.62259292602539,-6.622818946838379,18.14490509033203,1.9115091562271118,-1.0919907093048096,0.07969819009304047,,,,,,,,,
1739302598.9097083,-0.13809379342517844,1.0746795311144435,-0.359246436721526,-1.4164458788960013,1.5277252955288645,1.1444652327182807,1.3766641535240933,-0.0006667152678801174,0.001187352937680474,5.7218492268726236e-05,-0.0005430306926804074,-2.029731563600549e-05,-3.582765357357045e-05,0.001643577800644566,-0.3817255198955536,-51.54721450805664,-6.646622657775879,18.12110137939453,1.9051004648208618,-1.0983994007110596,0.05955658480525017,,,,,,,,,
1739302598.9197476,-0.1380930256760033,1.0746743189910188,-0.35925019388387963,-1.4164431387439647,1.5277236629569848,1.1444644884669846,1.3766619079626892,0.0005828760116638211,-0.0026842248024782646,-0.0009106413425078201,0.0002682329199151849,-0.0009786888756891906,1.796956906688067e-05,0.0015165382697183629,-0.4055292308330536,-51.51944351196289,-6.595047950744629,18.09729766845703,1.9179178476333618,-1.0919907093048096,0.06596527993679047,,,,,,,,,
1739302598.9297764,-0.1380920809560113,1.074683992026845,-0.35925027012515126,-1.4164441718749259,1.527728260211416,1.1444660037873684,1.3766601978010753,0.0005988493963972094,0.0017575726803961893,-0.0015361858441330992,-0.0006148381789185236,0.00038981802512304666,0.00044468294462020547,-0.0004589719418131332,-0.4055292308330536,-51.62259292602539,-6.622818946838379,18.09729766845703,1.9179178476333618,-1.1048080921173096,0.07969819009304047,,,,,,,,,
1739302598.9407394,-0.1380967450048182,1.0746764241267188,-0.359250902635273,-1.4164431664237138,1.5277244203718474,1.1444660038412036,1.3766517539293899,-0.0008664308544072742,-0.0008655428939988625,-0.0018728530135920548,0.0009245415408209692,0.0004619469094051788,0.0007521977517708664,-0.0006787911485913878,-0.3539545238018036,-51.54721450805664,-6.595047950744629,18.09729766845703,1.9115091562271118,-1.1048080921173096,0.13279877603054047,,,,,,,,,
1739302598.9516995,-0.13809270793597536,1.0746784280724795,-0.3592442778830355,-1.416444925656872,1.5277283567050228,1.1444641598326653,1.3766585871804877,0.00020926576123340057,-0.0003272576470418742,2.250831695854022e-05,-0.0007566973662977109,0.0005127995873429119,-0.000826915135057941,0.0008713120272544005,-0.4055292308330536,-51.57101821899414,-6.674393653869629,18.12110137939453,1.9051004648208618,-1.0983994007110596,0.10624848306179047,,,,,,,,,
1739302598.9627533,-0.13809060367362203,1.074678350707398,-0.3592490939305109,-1.4164449567381605,1.5277251777786676,1.1444644884467738,1.376660889497028,0.0008250904753247614,-0.00021835544223162165,-0.0017720670667739462,0.00025240920143736087,0.0005789964416063041,0.0004420954090866568,0.0009393133980646446,-0.4293329417705536,-51.57101821899414,-6.622818946838379,18.12110137939453,1.9051004648208618,-1.0919907093048096,0.08610688149929047,,,,,,,,,
1739302598.9736888,-0.13809465947173075,1.074680346541368,-0.3592463579904401,-1.4164434566193878,1.5277244595379145,1.14446524612729,1.3766601492464803,-0.0002947667944266079,-4.509987209353063e-05,-0.00018050926300634715,0.00038658838321755306,9.870416382640808e-05,0.00048357579806335843,0.002237553311015839,-0.3817255198955536,-51.59878921508789,-6.646622657775879,18.09729766845703,1.9115091562271118,-1.0983994007110596,0.09343110024929047,,,,,,,,,
1739302598.983724,-0.1380947383167373,1.0746766357635493,-0.3592523197824434,-1.416445249189841,1.527724015685186,1.144466762900997,1.376658631940514,2.8903833283322136e-05,-0.0009841815311161157,-0.0013498749233267105,0.000995753512919167,-0.00016112432337602334,0.0011793271286724184,0.0009578062093636399,-0.3817255198955536,-51.54721450805664,-6.595047950744629,18.09729766845703,1.9179178476333618,-1.1112167835235596,0.10624848306179047,,,,,,,,,
1739302598.9948137,-0.1380946333380767,1.074676488580759,-0.359248350675264,-1.4164449479439742,1.5277259356142086,1.1444652461272982,1.3766613511659012,-0.0002193325765467849,-0.0012323042601504223,-0.000653286227877456,0.00016980437341603896,-0.000277857729712739,0.0005615411501944562,0.0006065129525452606,-0.3817255198955536,-51.54721450805664,-6.622818946838379,18.12110137939453,1.8986917734146118,-1.0983994007110596,0.07969819009304047,,,,,,,,,
1739302599.005685,-0.13809267570158287,1.0746781396151366,-0.3592481241373237,-1.4164467041181763,1.5277288320159497,1.1444660037873684,1.3766553332702889,3.6764139458251644e-05,-0.001527366707499851,0.0006914698730099069,-0.0013272445822354612,0.0022878161850482842,0.0008584820507716889,0.00046588993177594615,-0.4055292308330536,-51.57101821899414,-6.622818946838379,18.14490509033203,1.9051004648208618,-1.1048080921173096,0.10624848306179047,,,,,,,,,
1739302599.0166755,-0.13809400051996348,1.0746821460562368,-0.35924704015639763,-1.416445236461785,1.527728083139057,1.1444644884672117,1.3766583007669213,-0.0006534700895923244,0.001157224621100666,-1.5848926879102578e-05,-0.001168488968146327,0.0018981782766609155,0.00022946395940976475,0.0003378167763236834,-0.3817255198955536,-51.62259292602539,-6.646622657775879,18.12110137939453,1.9115091562271118,-1.0919907093048096,0.09983979165554047,,,,,,,,,
1739302599.0266964,-0.13809261238157905,1.074680215722325,-0.35924643636555026,-1.4164467040472273,1.527723663944702,1.1444644884672117,1.3766599629340381,9.665646528254804e-05,0.0004310704074304585,-0.0003968637452964091,-0.00043899675952444994,-0.00020884703798913122,6.319652208284127e-05,-0.0006185436107956157,-0.3817255198955536,-51.59878921508789,-6.646622657775879,18.14490509033203,1.9179178476333618,-1.0919907093048096,0.06596527993679047,,,,,,,,,
1739302599.0377333,-0.138095283845366,1.0746822182409306,-0.35924637766896467,-1.4164431397088957,1.527724421584111,1.144461230079964,1.376659606411581,-0.0012797379400253683,-0.00036993382464863293,0.0010661031705785572,0.0004961020285463559,0.00010410122073588134,-0.001065127376323102,4.872406412276449e-05,-0.3539545238018036,-51.59878921508789,-6.674393653869629,18.09729766845703,1.9115091562271118,-1.0919907093048096,0.09343110024929047,,,,,,,,,
1739302599.0487096,-0.1380947373044803,1.0746847608591727,-0.3592443298612509,-1.416444921404774,1.5277248910808403,1.144465641670766,1.3766562348279112,-0.0011598464935997145,0.0012932204632361427,0.001148706948183451,0.0009758704195143456,0.0008643667871302142,0.0006310168932978572,0.0006647710417294359,-0.3817255198955536,-51.62259292602539,-6.674393653869629,18.12110137939453,1.9115091562271118,-1.1048080921173096,0.12639008462429047,,,,,,,,,
1739302599.0587797,-0.13809277760023386,1.0746781476229654,-0.35925043009442087,-1.4164431387277496,1.5277248300396973,1.14446436778007,1.3766624718619749,-7.908774038641449e-05,0.0007767482351926082,-0.0012202230135678958,0.0006487313203733503,0.0003972659380085615,-0.0003412477646627704,0.0019090466276765236,-0.4055292308330536,-51.57101821899414,-6.595047950744629,18.09729766845703,1.9115091562271118,-1.0919907093048096,0.07328949868679047,,,,,,,,,
1739302599.0697167,-0.13809473821133528,1.0746803341126656,-0.3592463355924838,-1.4164432270309268,1.5277245902520804,1.1444644482395274,1.3766586279119648,0.0004534072331789367,-0.0005451476200830285,0.0003442118849070808,0.0003572370199558771,-0.00013359389891317046,-0.0007484206420278508,-0.00041867149651369855,-0.3817255198955536,-51.57101821899414,-6.646622657775879,18.09729766845703,1.9115091562271118,-1.0919907093048096,0.10624848306179047,,,,,,,,,
1739302599.0807724,-0.13809299566609665,1.0746828565524225,-0.35925024873986394,-1.4164450008791238,1.5277244259476344,1.1444626917634353,1.3766609744206872,-0.00021918254793525547,0.0021887802650000718,-0.0016624965780314975,0.0006542269887090284,-0.00013163561906293824,-8.270214051997465e-05,0.0011015545513410143,-0.4055292308330536,-51.62259292602539,-6.622818946838379,18.12110137939453,1.9115091562271118,-1.1048080921173096,0.08610688149929047,,,,,,,,,
1739302599.0907927,-0.13809302277564992,1.074678110295442,-0.35925195882876776,-1.4164460363806135,1.527725217827584,1.1444652440668939,1.3766575031010502,0.0008269801260953882,-0.0013459315340276809,-0.0014527735519323324,-0.0012677838720801722,-0.0011468974847298244,-0.0003893692159146876,0.0007149710726047831,-0.4055292308330536,-51.57101821899414,-6.571244239807129,18.09729766845703,1.9316507577896118,-1.0983994007110596,0.10624848306179047,736,737,689,39.436,0,0
1739302599.101704,-0.13809278958899532,1.0746840684483032,-0.35924596832492867,-1.4164469492757326,1.5277236631344415,1.1444652461272784,1.3766586153246272,0.0010033356462823613,0.0010932451677834558,-0.0007274910031428192,-9.509919045775652e-05,-0.00015159632287223198,-0.0007040238162179729,4.341035774074677e-05,-0.4055292308330536,-51.65036392211914,-6.622818946838379,18.14490509033203,1.9179178476333618,-1.0983994007110596,0.10624848306179047,737,737,687,39.436,0,0
1739302599.1126757,-0.13809223842867974,1.0746764802229112,-0.3592481140801278,-1.416443973030636,1.5277259354507127,1.1444652461272902,1.3766627053534848,0.0003125904891720856,-0.0010525904314862753,0.00011043921886268724,0.00033068682130101934,0.00032204032095849015,0.000688845723997538,0.0003263349392205963,-0.4055292308330536,-51.54721450805664,-6.622818946838379,18.09729766845703,1.8986917734146118,-1.0983994007110596,0.05955658480525017,735,736,688,39.328,0,0
1739302599.1227226,-0.13809131326594665,1.074680348503716,-0.3592485360512183,-1.416446115540105,1.5277244215841026,1.1444644348312076,1.3766569455395996,-0.0007007938033851513,0.00026340298742756743,0.0009612819213830769,-0.0006761267122088336,-0.00039280785998368014,-0.0006207188366954802,2.2371900313218813e-05,-0.4293329417705536,-51.59878921508789,-6.646622657775879,18.09729766845703,1.9115091562271118,-1.0919907093048096,0.07969819009304047,736,736,690,39.436,0,0
1739302599.1347022,-0.13809017949526842,1.0746817399714805,-0.3592481141406882,-1.416441059972183,1.5277235447329123,1.1444636905798276,1.3766605068259135,0.001093499315895214,-0.0005789675003325136,-8.387091279712678e-05,0.0015170492332367944,0.0005239910993914401,-0.0007598253509838491,-0.001531419092746904,-0.4055292308330536,-51.62259292602539,-6.622818946838379,18.06952667236328,1.9179178476333618,-1.0855820178985596,0.05314789339900017,737,735,689,39.436,1,0
1739302599.1456892,-0.13809473830467578,1.0746823324889172,-0.35924811409224094,-1.4164450009139729,1.52772593561155,1.1444627453998935,1.3766563199191109,-0.0008869107361460598,-0.00020298073202586583,-0.00041305825069092944,0.00029358831915469097,0.0013018902405829717,0.0002805100447471796,-0.0018211526449765638,-0.3817255198955536,-51.59878921508789,-6.622818946838379,18.12110137939453,1.8986917734146118,-1.1048080921173096,0.11265717446804047,737,736,689,39.328,0,0
1739302599.1557474,-0.13809673626159621,1.0746768663336401,-0.35924633141522166,-1.4164453199256974,1.52772593545071,1.1444599875253934,1.3766553038986444,-0.0012500957028922764,-0.0009175089147044247,-0.0009725744179340383,-0.0015167063432505838,0.0004615958311108592,-0.0027784694884535545,-0.0011309403017853415,-0.3539545238018036,-51.51944351196289,-6.646622657775879,18.09729766845703,1.8986917734146118,-1.0855820178985596,0.09343110024929047,737,736,688,39.328,0,0
1739302599.1667101,-0.13809018835183087,1.0746808353017288,-0.35924633141522166,-1.4164432047420445,1.5277254797686817,1.1444659634969725,1.3766601436115915,0.0012549647915654789,0.0015938793295086576,0.00019987388400924532,0.001298177665867391,0.00037731568190583467,0.00031705299544559635,0.0011248887060001439,-0.4055292308330536,-51.59878921508789,-6.646622657775879,18.06952667236328,1.9115091562271118,-1.1048080921173096,0.07969819009304047,736,735,689,39.328,0,0
1739302599.1767488,-0.13809401800698606,1.0746788251133712,-0.359248114128243,-1.4164477912701487,1.5277251792501627,1.1444637262820578,1.3766594000403656,0.00017870068404163015,-0.0019300539948438073,0.000342178618725757,-0.0006829846979456815,0.00010108781998378078,-0.00015343721823673248,0.0005764988077041821,-0.3817255198955536,-51.57101821899414,-6.622818946838379,18.12110137939453,1.9051004648208618,-1.0855820178985596,0.08610688149929047,732,736,688,39.328,0,0
1739302599.186782,-0.13809097066932693,1.0746808230622418,-0.3592481140922413,-1.4164410619299344,1.527724420130577,1.1444635647672046,1.3766544375757854,0.0006762551008049671,-4.035519571108341e-05,-0.00025849392971655,0.0011190172310773325,-0.0005335207546998506,-0.0021026058136014306,-0.0018509101065630744,-0.4293329417705536,-51.59878921508789,-6.622818946838379,18.06952667236328,1.9115091562271118,-1.0855820178985596,0.11265717446804047,734,736,691,39.436,0,0
1739302599.197698,-0.13809302533004827,1.0746802588952649,-0.3592481140922407,-1.4164431388731213,1.5277220447273643,1.144465241160056,1.3766555023619158,0.0009224443744706172,0.00015766692095472133,-0.0005067222996935695,0.0001017792968676776,-0.00047936330645660603,-0.00020661095340939118,-0.0004747063699194827,-0.4055292308330536,-51.57101821899414,-6.622818946838379,18.09729766845703,1.9316507577896118,-1.0983994007110596,0.11998139321804047,736,736,689,39.436,0,0
1739302599.2077441,-0.1380946074464062,1.0746786251008171,-0.35924633141522166,-1.4164467050629364,1.5277244201306508,1.1444619832702914,1.376656885446405,-0.0006449732629682872,0.00041295141648523296,0.0010118069329140874,-0.0002637858487780785,0.0009569924598610077,-0.00018848598508814442,-4.69146740204407e-05,-0.3539545238018036,-51.57101821899414,-6.646622657775879,18.14490509033203,1.9115091562271118,-1.0983994007110596,0.07969819009304047,734,737,688,39.328,0,0
1739302599.2187376,-0.13808928807267992,1.074681846154876,-0.3592501938820963,-1.4164459997507042,1.5277245204255194,1.1444644882280683,1.3766562661232287,0.001556648944947898,-0.0005659348824248198,7.291370249431096e-05,0.00043853628318025974,0.00018131592080231692,0.00030701408453972644,0.000701988435575905,-0.4571039378643036,-51.62259292602539,-6.595047950744629,18.09729766845703,1.9115091562271118,-1.0919907093048096,0.08610688149929047,734,736,689,39.328,0,0
1739302599.2287898,-0.13809106540307872,1.0746801081218778,-0.35924641015222153,-1.4164449345351726,1.5277270351274574,1.1444609016109557,1.3766506478635865,-0.0005193221712553388,-0.0013919172229248586,-0.00022528599832499554,0.00011776816291578072,-0.00046268172291915243,-0.00020930945756887767,-0.0020803546036072427,-0.4293329417705536,-51.59878921508789,-6.646622657775879,18.12110137939453,1.9252420663833618,-1.0983994007110596,0.13279877603054047,734,734,688,39.328,1,0
1739302599.240674,-0.1380908956873483,1.0746802636152673,-0.35925023999168215,-1.4164450008777023,1.5277227965971685,1.1444636369674617,1.3766570059048655,-0.0002477564667476347,-0.001385223243883435,-0.0006340181186005117,0.00025951150248994123,0.00018595105660084143,-0.0004546835278209062,-0.0002866374203990288,-0.4055292308330536,-51.57101821899414,-6.622818946838379,18.12110137939453,1.9252420663833618,-1.0983994007110596,0.07969819009304047,734,737,688,39.436,0,0
1739302599.250749,-0.13808917728761919,1.074682599954774,-0.35924635767288904,-1.4164456454912724,1.527726845799348,1.1444656753092803,1.3766574083408927,0.0007411708758844043,0.00044681764376086733,0.0005214929945590926,-0.000304265242195982,0.00047812746585624693,0.0002892646365798166,0.0019927099480077886,-0.4293329417705536,-51.59878921508789,-6.646622657775879,18.12110137939453,1.9179178476333618,-1.1112167835235596,0.07969819009304047,735,736,690,39.436,0,0
1739302599.2627375,-0.13809130019839322,1.0746842157436465,-0.3592463303978847,-1.4164417741977187,1.5277244201485223,1.144465997821681,1.3766529931587028,0.0005835885997438725,0.002195941724975682,0.00046600686596005045,0.0013599809708911017,0.0009381177005298565,-0.0006804989513582467,-0.0014231972246929432,-0.4293329417705536,-51.62259292602539,-6.646622657775879,18.06952667236328,1.9115091562271118,-1.1048080921173096,0.11265717446804047,734,737,688,39.328,1,0
1739302599.2736845,-0.1380947383207186,1.07468018738076,-0.3592463314152197,-1.4164421385933652,1.5277247733432622,1.1444652459617357,1.3766531108569893,-0.0007051323763199609,-0.00029703548075270524,0.0007011583353681707,0.00014702428186941577,0.0001185986468741056,1.6518472312065648e-05,-0.00014726379688422637,-0.3817255198955536,-51.59878921508789,-6.646622657775879,18.04572296142578,1.9115091562271118,-1.0983994007110596,0.11265717446804047,734,733,689,39.328,0,0
1739302599.2837996,-0.1380967362615963,1.0746801343957089,-0.3592491659472176,-1.4164467159040184,1.5277255310093223,1.1444652461272873,1.3766597268657264,-0.0013057437871960018,-0.00025625740848462804,-0.00028124696263019097,-0.0006027818463499895,-0.0001418617605578859,0.00031228898751952674,0.0001067437663372626,-0.3539545238018036,-51.59878921508789,-6.646622657775879,18.14490509033203,1.9051004648208618,-1.0983994007110596,0.09343110024929047,732,735,688,39.436,0,0
1739302599.294749,-0.1380916587211852,1.074676475933676,-0.3592463353194696,-1.416448033637606,1.527725069509106,1.1444622826350233,1.3766513653747026,0.0008689160365252112,-0.0010443743121907256,0.0011116496106822005,-0.001260596952978353,4.140679713600327e-05,-0.00018610100787631113,-0.0022591782160403173,-0.3817255198955536,-51.54721450805664,-6.646622657775879,18.12110137939453,1.9179178476333618,-1.0855820178985596,0.12639008462429047,733,736,688,39.436,0,0
1739302599.3048089,-0.13809079486619527,1.0746812964003962,-0.3592501937731461,-1.4164452885812693,1.5277220389369917,1.1444645555907333,1.376657642883711,0.0023548607954556548,0.0001820539040395528,-0.001550693881549391,-0.0007258201816748527,0.00016113173176025202,0.0006604564111848483,0.0011525095135845789,-0.4055292308330536,-51.57101821899414,-6.595047950744629,18.09729766845703,1.9316507577896118,-1.1048080921173096,0.07328949868679047,735,735,688,39.328,1,0
1739302599.31574,-0.1380947282635117,1.0746809977488054,-0.35924811700842524,-1.4164438569754008,1.5277251385447743,1.144463402329954,1.3766570047334088,-0.0009023382775329662,0.0012553416362796948,0.0004470337296313121,-1.1695189476017167e-05,-0.0006433145801489407,-0.001674738977748268,-0.0004751710571839658,-0.3817255198955536,-51.57101821899414,-6.622818946838379,18.09729766845703,1.9051004648208618,-1.0919907093048096,0.10624848306179047,733,735,688,39.436,1,0
1739302599.3267422,-0.1380906627178969,1.0746829678524854,-0.35924704339644975,-1.416445284935081,1.5277242631469041,1.1444641248729828,1.3766562055255884,-0.00040225466270574505,8.479095209521366e-05,-3.840611885640318e-05,0.0004921741279688373,-0.0005402654123039858,0.00014517117396756335,0.0006022263202739512,-0.4055292308330536,-51.59878921508789,-6.646622657775879,18.09729766845703,1.9115091562271118,-1.0919907093048096,0.07969819009304047,734,735,688,39.328,0,0
1739302599.338739,-0.1380960274712485,1.0746804935467207,-0.3592469634955653,-1.4164467040939028,1.5277244230367668,1.1444612298571872,1.3766513651249352,-0.0007200952192588043,-0.0008290015050117295,0.0005858857895028991,-0.00043625134993590243,0.0001197460628109089,-0.0003632734640865706,-0.0017489241815636244,-0.3539545238018036,-51.57101821899414,-6.646622657775879,18.14490509033203,1.9115091562271118,-1.0919907093048096,0.12639008462429047,742,734,689,39.436,0,0
1739302599.3497376,-0.1380925335394035,1.074683236795912,-0.3592464562625523,-1.41644114727741,1.5277244201305578,1.1444637172080638,1.3766537597551622,-0.0004703877196647055,0.0009323301562909337,0.00046933062232852856,0.0009374253403755326,-0.0006132446120479356,0.0008883360731975335,-0.000318043095086119,-0.3817255198955536,-51.59878921508789,-6.674393653869629,18.06952667236328,1.9115091562271118,-1.0855820178985596,0.10624848306179047,733,737,688,39.328,1,0
1739302599.360715,-0.13808897413231555,1.0746784398997737,-0.35924842908868776,-1.4164449214052672,1.5277236624704742,1.1444634022828712,1.3766497415715369,0.0009545035038099632,6.631482968484106e-06,-0.000639105202500438,-0.0003774123505047418,2.0195170447481845e-06,-6.411422308242123e-05,-0.0026220172987761344,-0.4571039378643036,-51.57101821899414,-6.622818946838379,18.12110137939453,1.9179178476333618,-1.0919907093048096,0.14012299478054047,734,736,688,39.328,0,0
1739302599.3707347,-0.13809302568622683,1.074682864369515,-0.35924811550166436,-1.416447782427718,1.5277228009338926,1.1444637288022201,1.3766576493398925,-7.266647218869004e-05,0.0008075833968963078,-0.0006216668310026632,-0.0006170750780155414,-0.0006083369019717085,0.0007023699256547436,0.000256321787525805,-0.4055292308330536,-51.62259292602539,-6.622818946838379,18.12110137939453,1.9252420663833618,-1.0855820178985596,0.07328949868679047,735,735,689,39.328,0,0
1739302599.3807359,-0.1380913102550869,1.0746849983750617,-0.35924814033793123,-1.4164438629712726,1.5277236687692657,1.1444652461272562,1.3766569031024058,0.0006245423304451203,0.0006832637742547062,0.00016450419564143946,0.0009319135185595568,-0.00044700079823908033,-0.0004428868160352619,-0.00011704368838642262,-0.4293329417705536,-51.62259292602539,-6.622818946838379,18.09729766845703,1.9179178476333618,-1.0983994007110596,0.07969819009304047,733,739,688,39.328,0,0
1739302599.3907905,-0.13809844748619396,1.074682574777351,-0.35924633422283503,-1.4164470672932619,1.5277236644086478,1.144463402172586,1.3766531958362835,-0.0021550906311355034,0.0010429294486564982,-9.891373162719156e-05,-0.000348284143464238,-0.0001780749233778164,-0.0009270303493389229,-0.0017262999515411854,-0.3301508128643036,-51.59878921508789,-6.646622657775879,18.12110137939453,1.9179178476333618,-1.0919907093048096,0.11998139321804047,733,738,688,39.436,1,0
1739302599.401676,-0.1380947266559952,1.0746812205739962,-0.35924638087259153,-1.4164431426644488,1.5277227965732527,1.1444650851579647,1.3766596723847728,-0.0011920047865362673,-0.00024056175459120162,0.0012995306735650051,-5.097647190768859e-05,0.0003145607861052128,-0.00012391199290845556,-0.0002442420529778545,-0.3817255198955536,-51.57101821899414,-6.674393653869629,18.09729766845703,1.9252420663833618,-1.0983994007110596,0.05314789339900017,734,738,688,39.436,0,0
1739302599.4117281,-0.1380967265407815,1.074680217190389,-0.3592482191109662,-1.4164452849310931,1.5277247221086034,1.1444624831051398,1.3766572941347077,-0.0019309328723021062,-0.0005223040357434071,-0.000545901594569499,-0.0011104862670188694,0.0015876535228087289,-0.0008450475018970298,-0.00046978106765368697,-0.3539545238018036,-51.59878921508789,-6.622818946838379,18.09729766845703,1.9179178476333618,-1.0855820178985596,0.07328949868679047,734,729,688,39.436,0,0
1739302599.4227169,-0.13809123162604092,1.074674433732685,-0.3592442516259589,-1.4164476932348453,1.527722086886303,1.1444643660685458,1.376654887599168,0.00014192888035167067,-0.002513780822162297,0.0006591738760303958,-0.0013701546144454114,-9.542483183415341e-06,-0.0009082157960268854,0.00036729876811110874,-0.4293329417705536,-51.51944351196289,-6.674393653869629,18.14490509033203,1.9316507577896118,-1.0919907093048096,0.10624848306179047,728,735,688,39.436,1,0
1739302599.4327924,-0.13809065980038568,1.0746783826128234,-0.35924633141522166,-1.4164449224026665,1.5277236629558033,1.1444619877379696,1.3766585088002665,0.0011494496196460808,-0.0006138529456103656,0.0011225015341960122,0.0005917035289345092,-5.448555122104638e-05,-0.0008366285028125365,7.087406565951259e-05,-0.4055292308330536,-51.57101821899414,-6.646622657775879,18.12110137939453,1.9179178476333618,-1.0983994007110596,0.06596527993679047,733,737,689,39.328,1,0
1739302599.4437766,-0.13809131322992244,1.074681326162035,-0.35925094873224356,-1.4164413094572843,1.5277227965732445,1.1444644882280937,1.3766585089464825,0.0007391303773688258,0.00018316830772989364,2.3907186015558195e-06,0.0015800436652284294,-0.0009245542374679328,-4.0646519821767855e-05,0.001247148602058864,-0.4293329417705536,-51.57101821899414,-6.622818946838379,18.06952667236328,1.9252420663833618,-1.0919907093048096,0.06596527993679047,734,736,690,39.328,0,0
1739302599.4547474,-0.13809293442620943,1.0746803735218202,-0.35924633146722557,-1.4164449214061827,1.5277227907590407,1.1444635697335765,1.3766599570082314,-0.0004705281738569692,0.0019776108297659845,0.00023650788033223997,0.0003268186479024628,0.0006861268465818583,-0.0006717905049252814,0.0030561755605421972,-0.4055292308330536,-51.57101821899414,-6.646622657775879,18.12110137939453,1.9252420663833618,-1.0855820178985596,0.06596527993679047,736,736,686,39.111,0,0
1739302599.4656835,-0.1380930170509407,1.074682140290638,-0.35924633130620565,-1.4164431475580672,1.5277236101964677,1.1444644884111213,1.3766537463543365,-0.00011386333435174477,-0.0005540808530422677,0.000771156118990173,0.0001887144094210131,-0.001677538083974896,0.0007271482024945448,0.00015359598841131853,-0.4055292308330536,-51.62259292602539,-6.646622657775879,18.09729766845703,1.9179178476333618,-1.0919907093048096,0.10624848306179047,733,737,688,39.328,1,0
1739302599.4756966,-0.13809343788204737,1.0746788982804405,-0.3592501938820944,-1.416443148866412,1.5277244202911726,1.1444614469103336,1.3766568852236285,0.0011517740989572614,-0.0013931826444404504,-0.0013297594304315318,0.0009398049945054875,-0.000166610889330428,-0.0018718362025867013,0.0011030434774812758,-0.4293329417705536,-51.54721450805664,-6.595047950744629,18.09729766845703,1.9115091562271118,-1.0983994007110596,0.07969819009304047,734,736,687,39.436,1,0
1739302599.486668,-0.13809089991300852,1.0746788373695433,-0.3592501938820963,-1.416441783460071,1.527723662470475,1.144466748016999,1.3766597617775902,0.0006986943849199706,-5.275377752673007e-05,-0.0009182134167628987,0.0010212257330720334,0.00011454370147453006,0.0016822614258716374,0.0028412004779449114,-0.4055292308330536,-51.57101821899414,-6.595047950744629,18.06952667236328,1.9179178476333618,-1.1112167835235596,0.06596527993679047,733,736,688,39.436,0,0
1739302599.497746,-0.13809131324327878,1.0746813172334928,-0.35924845917415377,-1.4164434899904363,1.5277259369042593,1.144460129051764,1.3766561409937708,0.0005860723842919587,0.00029704689085023156,-0.0008091147721829369,0.0004684381005965254,0.0009351667570544166,-0.0005335775764977651,0.00032893105925655927,-0.4293329417705536,-51.57101821899414,-6.622818946838379,18.09729766845703,1.8986917734146118,-1.0919907093048096,0.08610688149929047,733,738,683,39.219,0,0
1739302599.5077467,-0.13809379534284405,1.0746849231904725,-0.3592463411416829,-1.4164431387336982,1.5277247096726982,1.1444604663865026,1.3766568858860289,-0.0009629105735759866,0.0023851929668393754,0.00018093444765279344,0.000480117933617199,0.00019846923521911746,-0.001135118054934815,-0.0011696784628682498,-0.3539545238018036,-51.62259292602539,-6.646622657775879,18.09729766845703,1.9179178476333618,-1.0855820178985596,0.07969819009304047,733,735,688,39.328,1,0
1739302599.5188031,-0.13809672426730116,1.0746767270038269,-0.3592463983784828,-1.4164449342081236,1.5277251777926013,1.1444637308009908,1.3766580909360675,-0.00022031179680290724,-7.446539115334389e-05,0.001329564802864305,0.00017454465719461638,9.120478239474345e-05,0.001386867869808746,0.0017697182336136323,-0.3539545238018036,-51.54721450805664,-6.646622657775879,18.12110137939453,1.9051004648208618,-1.0855820178985596,0.10624848306179047,734,736,688,39.436,0,0
1739302599.5297005,-0.13809207706769877,1.0746803473766136,-0.3592501938461355,-1.4164441012687947,1.5277236624704742,1.144465192436105,1.3766537865976896,0.0010530580390694492,-2.716705528689982e-05,-0.0006158369721269511,0.0009026740579135288,-0.0005656682685365533,0.0006881450903311963,-0.0012523688578897317,-0.4055292308330536,-51.57101821899414,-6.595047950744629,18.09729766845703,1.9179178476333618,-1.0983994007110596,0.10624848306179047,733,735,690,39.436,0,0
1739302599.5397153,-0.13809465956767647,1.0746833214138454,-0.35924735499621957,-1.4164453643111707,1.527721998714737,1.1444627452336682,1.376657642722883,-0.0005083107569215779,0.0009195906278514337,-6.533468039654619e-05,-7.7387837750692e-05,0.0001956060331366464,0.0012853370986922329,0.0005701411974690881,-0.3817255198955536,-51.59878921508789,-6.646622657775879,18.09729766845703,1.9051004648208618,-1.1048080921173096,0.07328949868679047,732,738,689,39.328,1,0
1739302599.5497346,-0.13809376690572367,1.0746850291543912,-0.35924633532080297,-1.4164453993267825,1.5277212807147305,1.1444643670688457,1.3766585087809367,0.0007016435068649697,0.00039418076947383637,-0.0008517055962413173,0.0007198523581260156,-0.0007842089615884027,0.00042609982347983476,0.0017078285837656439,-0.3817255198955536,-51.62259292602539,-6.646622657775879,18.09729766845703,1.9380594491958618,-1.0919907093048096,0.06596527993679047,733,736,687,39.436,1,0
1739302599.5607574,-0.13809299954886176,1.0746810095953656,-0.3592463314152437,-1.4164467335289412,1.5277244201305493,1.1444637172319039,1.3766553343362182,-0.0005226069114794504,-4.153014339815562e-06,5.8426161251587996e-05,-0.0006822102998335968,-4.568161337663158e-05,-0.0006966453140357668,-7.883239585413206e-05,-0.4055292308330536,-51.57101821899414,-6.646622657775879,18.14490509033203,1.9115091562271118,-1.0855820178985596,0.06596527993679047,734,734,688,39.328,1,0
1739302599.5716774,-0.13809260907338544,1.07468035553205,-0.35924812284079627,-1.416447792275687,1.5277236581098232,1.1444650807495342,1.3766508276826241,-0.00039842633936086575,-0.00042235227966843205,-0.00027204522606061413,0.0007111818125645129,-0.0005994239853727534,0.0008587799344933251,-0.0009928385435098554,-0.3817255198955536,-51.59878921508789,-6.622818946838379,18.12110137939453,1.9179178476333618,-1.0983994007110596,0.14012299478054047,735,735,690,39.436,0,0
1739302599.5817058,-0.13809368748595735,1.0746794997219704,-0.3592503537226079,-1.416446704130406,1.527725939811286,1.1444652395027606,1.3766588708423602,0.0005184140544765067,-0.0009916685826218716,-0.0010276101502208325,-0.0002540582340172219,0.0006238028567793763,0.0004723370707395399,0.0007098393067701722,-0.3817255198955536,-51.54721450805664,-6.622818946838379,18.14490509033203,1.8986917734146118,-1.0983994007110596,0.06596527993679047,733,738,687,39.436,1,0
1739302599.5927584,-0.13809019126208408,1.074680576945534,-0.3592481141048835,-1.416443138873105,1.5277237147983076,1.144466586413042,1.3766607820818781,0.0005174621695864983,-0.0006720280019262041,-0.000298850125644507,0.0004173340908900248,5.9000495602862214e-05,0.00029668401265012766,0.0013967256159237822,-0.4055292308330536,-51.57101821899414,-6.622818946838379,18.09729766845703,1.9179178476333618,-1.1112167835235596,0.07328949868679047,732,736,687,39.545,1,0
1739302599.6027784,-0.13809462314942944,1.0746804679644606,-0.3592440132067876,-1.4164452667683145,1.5277268472017216,1.1444650852103853,1.3766585273157246,-0.0003485694202307239,0.00018912674289696843,0.0008099078928139996,-0.0018177215944819604,0.0016590512180027883,-9.715747539023684e-05,0.0005848515478218983,-0.3817255198955536,-51.57101821899414,-6.674393653869629,18.12110137939453,1.9179178476333618,-1.0983994007110596,0.06596527993679047,733,734,689,39.436,0,0
1739302599.6136744,-0.13808648075821203,1.0746832341673604,-0.3592501942536713,-1.4164452788697628,1.5277253349415556,1.1444633672003393,1.376656885297238,0.003106747923143763,-0.00014770010822052164,-0.0006801181030779363,-0.00115075725616959,0.0013850048839709214,0.0009731674925344464,0.0013983028471122182,-0.4571039378643036,-51.59878921508789,-6.595047950744629,18.12110137939453,1.9051004648208618,-1.0855820178985596,0.07969819009304047,733,736,691,39.436,0,0
1739302599.6247132,-0.13809465856367775,1.0746812470676408,-0.35924910376241537,-1.4164481016334056,1.527724421586764,1.144463688587454,1.3766497817984655,-0.0005110132594662918,-0.00043499891731371975,0.00040575325845600987,-0.0006467863211090813,0.000365344792799134,-8.661251865721458e-05,-0.0014787878594151494,-0.3817255198955536,-51.57101821899414,-6.571244239807129,18.12110137939453,1.9115091562271118,-1.0855820178985596,0.14012299478054047,734,736,688,39.328,1,0
1739302599.6347554,-0.13809292038486787,1.0746802259130475,-0.3592463310719558,-1.4164441988198964,1.5277237802080523,1.1444604529959093,1.3766568857204853,0.00037315015694006277,0.0003169788995385006,0.0016021470663035043,6.343467967203487e-05,-0.0005447414339491768,-0.00135178746685002,0.000509246236293904,-0.4055292308330536,-51.59878921508789,-6.646622657775879,18.09729766845703,1.9179178476333618,-1.0855820178985596,0.07969819009304047,734,737,688,39.328,1,0
