IITGN-Robotics/Franka_IITGN_ROBOTICS/franka_ros/franka_iitgn/data01/us_004.csv
time,fr3_joint1_pos,fr3_joint2_pos,fr3_joint3_pos,fr3_joint4_pos,fr3_joint5_pos,fr3_joint6_pos,fr3_joint7_pos,fr3_joint1_vel,fr3_joint2_vel,fr3_joint3_vel,fr3_joint4_vel,fr3_joint5_vel,fr3_joint6_vel,fr3_joint7_vel,fr3_joint1_eff,fr3_joint2_eff,fr3_joint3_eff,fr3_joint4_eff,fr3_joint5_eff,fr3_joint6_eff,fr3_joint7_eff,flexpin1,flexpin2,flexpin3,Force,ContactMic,ContactMic_gt
1739304012.4637234,-0.09705378597437239,1.0799520131948641,-0.4164525594289488,-1.4166224017487579,1.553489741664577,1.1260683701140737,1.336241553172481,-2.1759716159939612e-05,0.0038855281121615397,0.00014720042180455125,-0.0012399621714808784,-0.0011134411690051464,-0.0013358087880963872,-0.0003074847040104759,-0.4055292308330536,-51.59878921508789,-7.991532325744629,17.89893341064453,1.8785501718521118,-1.1048080921173096,0.04673920199275017,,,,,,,,,
1739304012.4756722,-0.09704776017671313,1.0799689354146336,-0.41644869302073684,-1.4166564208618748,1.5534857860213889,1.1260615581023663,1.3362381598182456,0.00016393847780506513,0.0023497495588691132,0.001531245708702725,-0.0028272631404936597,-0.0026458602901047812,-0.0015482311668696988,0.00011678273705997215,-0.4293329417705536,-51.59878921508789,-8.043107032775879,18.04572296142578,1.9115091562271118,-1.0919907093048096,0.026597600430250168,,,,,,,,,
1739304012.4866798,-0.09704309742441296,1.0799862166192338,-0.4164504756977337,-1.4166867063393622,1.55348528422233,1.1260535430354741,1.3362309061923856,0.000655516775159094,0.00047319028847551796,0.001027732584057877,-0.004196417460587252,-0.00013372079147527252,-0.0007494664182662053,-0.0014367388336106548,-0.4055292308330536,-51.59878921508789,-8.019303321838379,18.09729766845703,1.8785501718521118,-1.0654404163360596,0.05955658480525017,,,,,,,,,
1739304012.4967544,-0.0970446342924859,1.0799919687723072,-0.4164560858474052,-1.4166852477521226,1.5534848331134454,1.1260425349824492,1.3362337451700974,0.0001700508794340551,9.19579884258886e-05,-0.0007205780285850628,-0.0020672451563306707,6.0674874629689456e-05,-0.0014133409053318849,0.002168063375712228,-0.3539545238018036,-51.57101821899414,-7.943924903869629,17.97431182861328,1.8785501718521118,-1.0526230335235596,0.03941498324275017,,,,,,,,,
1739304012.5077295,-0.09704504354982554,1.0800041074934374,-0.4164564927619404,-1.416684202182541,1.5534833821271057,1.1260348181606727,1.3362263635341232,0.0008137948965892976,-0.00031522892956589905,0.0005067109398822773,0.0007203103671237263,-0.0011602689496862453,-0.0009146671167836855,-0.000633206823723092,-0.3301508128643036,-51.59878921508789,-7.967728614807129,17.94654083251953,1.8785501718521118,-1.0260727405548096,0.09343110024929047,,,,,,,,,
1739304012.5186894,-0.09705070231334564,1.08002281685709,-0.41645612379722935,-1.4166901887268823,1.5534847935162037,1.1260312029044435,1.33623134420712,-0.0005611177741011971,0.0014449054484230275,-0.0002030517879482481,0.0004077001240224958,0.0008084582667651674,-0.0006493888673064685,0.00019350952760831714,-0.2547723948955536,-51.72574234008789,-7.943924903869629,17.99811553955078,1.8785501718521118,-1.0388901233673096,0.03941498324275017,,,,,,,,,
1739304012.528729,-0.09704857535276001,1.0800266379610257,-0.41646038270116226,-1.4167029569860838,1.5534846723949676,1.126025084915462,1.3362252042205445,0.0009274933908067101,0.0003153134005219584,-0.00046854234477597336,-0.002511807410091411,0.0009291643721084739,-0.0003094479333483821,-0.0009993341480070582,-0.2547723948955536,-51.70193862915039,-7.916153907775879,18.06952667236328,1.8785501718521118,-1.0260727405548096,0.06596527993679047,,,,,,,,,
1739304012.538741,-0.09705265298023963,1.0800363729211588,-0.4164563633307619,-1.4167032001614976,1.5534824595391223,1.126027185652799,1.3362263656315856,-0.0017287253393138081,0.0013534146556295446,0.0011950729965991293,-0.0009305220451988941,-0.000691024107619353,-0.0006056311115063467,-0.000302239887010681,-0.2309686839580536,-51.72574234008789,-7.943924903869629,18.06952667236328,1.8858743906021118,-1.0452988147735596,0.05314789339900017,,,,,,,,,
1739304012.549658,-0.09704586452030121,1.0800293117031736,-0.4164613923021432,-1.416702656411453,1.553480898431888,1.1260280515471146,1.3362253234181019,0.001998378154948575,-0.0009232623410000141,-0.00036178933004161204,-0.0011987509654182366,-0.00034113652930969473,-0.0002624905112127726,-0.0008809633494119236,-0.2825433909893036,-51.67416763305664,-7.916153907775879,18.02191925048828,1.9115091562271118,-1.0526230335235596,0.05314789339900017,,,,,,,,,
1739304012.5607285,-0.09705070356644006,1.080027946474685,-0.4164628456936976,-1.4166999501308437,1.5534769289933563,1.126025979845476,1.3362214108853767,-0.0013971280239280287,-0.0009419811372063857,0.0008796901151155667,-9.677897683133463e-05,-0.0009142288113401902,-0.0021453188635629644,-0.0003077580797497165,-0.2547723948955536,-51.57101821899414,-7.892350196838379,17.94654083251953,1.9051004648208618,-1.0718491077423096,0.08610688149929047,,,,,,,,,
1739304012.5707304,-0.09704528030670116,1.0800224416299105,-0.4164660976679147,-1.416691732591037,1.5534762669178985,1.126028809182667,1.336227047264406,0.0003796960278858039,-0.0016634365622603875,-0.0013730657890130777,0.0008665641490963709,1.7538125867746097e-05,0.00017158851403000267,0.00026968159043643295,-0.3301508128643036,-51.49563980102539,-7.840775489807129,17.87512969970703,1.9115091562271118,-1.0590317249298096,0.03941498324275017,,,,,,,,,
1739304012.5808542,-0.09704518871940708,1.0800251426935565,-0.41646142833850475,-1.4166931595141106,1.553475372410841,1.1260295609077149,1.3362205493504935,-0.0006704311279667098,0.0006484421918477072,0.0006757435802173094,0.000922370246213928,-0.001130955284145785,-0.0013385635956452936,-0.0016939486982309646,-0.3301508128643036,-51.51944351196289,-7.916153907775879,17.92273712158203,1.9179178476333618,-1.0654404163360596,0.09343110024929047,,,,,,,,,
1739304012.5917642,-0.09704483269478968,1.0800286469503877,-0.4164632019593709,-1.4166981727447394,1.5534766010188814,1.126028809207159,1.3362248502870824,0.0002838039567484833,0.0005946349678281385,0.0005876929444134306,0.0007452399132051106,-0.0007214469653130527,-6.29225789138114e-05,0.0016697700393892559,-0.3063471019268036,-51.57101821899414,-7.892350196838379,17.97431182861328,1.9115091562271118,-1.0590317249298096,0.06596527993679047,,,,,,,,,
1739304012.6026957,-0.09704346157148837,1.0800302288516954,-0.4164614192823008,-1.4166964003388054,1.553475071886681,1.1260288092071928,1.3362258698408451,-0.0003361084208973551,0.0006821440664757583,0.0003345973845960574,0.0011480670316304253,-0.0008526656707210372,6.966509537811833e-06,0.002795007812733647,-0.3539545238018036,-51.59878921508789,-7.916153907775879,17.94654083251953,1.9115091562271118,-1.0590317249298096,0.03941498324275017,,,,,,,,,
1739304012.6127183,-0.09704627961394978,1.0800320995565036,-0.4164614192823008,-1.4166991660529809,1.553475211034576,1.1260288092071928,1.3362210659455036,-0.0006017604996397575,-8.731344874552378e-05,4.745839217990645e-05,-0.0006373496727618444,0.0005683210977796152,0.00016975585301191604,-3.3057393443174706e-05,-0.3063471019268036,-51.59878921508789,-7.916153907775879,17.97431182861328,1.8922830820083618,-1.0590317249298096,0.05314789339900017,,,,,,,,,
1739304012.6236525,-0.09704857100351624,1.080036653544976,-0.4164614192823008,-1.4166991688990198,1.5534763218712275,1.1260264279898038,1.3362173133134467,-0.0007575696721976476,0.00016974378495203466,-0.00041101598750022426,-0.00045073745559407374,8.36440145903925e-05,0.00031996119647888243,-0.0008479084381808446,-0.2547723948955536,-51.65036392211914,-7.916153907775879,17.97431182861328,1.8858743906021118,-1.0388901233673096,0.09983979165554047,,,,,,,,,
1739304012.6336634,-0.09704657057274285,1.0800369782842394,-0.41646141942630993,-1.4166953032828347,1.5534787545766302,1.126024791988638,1.3362188704256937,0.0003031550112320027,0.0005532437756359892,-0.0004033536653151558,0.0014895765201518403,0.0012324576424484303,-0.00027739100881825145,0.00017166683584030727,-0.2825433909893036,-51.62259292602539,-7.916153907775879,17.92273712158203,1.8922830820083618,-1.0260727405548096,0.07969819009304047,,,,,,,,,
1739304012.6446843,-0.09704867899303643,1.0800332765365812,-0.41645926001958633,-1.4167039185628316,1.55348176475214,1.1260237924692302,1.3362178712936708,-0.0016734806102888643,-0.0008078253439413919,0.00032732250120142136,-0.0011909543169647161,0.0015519777686959335,-0.0005686954402468825,-0.0007510777692714226,-0.2825433909893036,-51.59878921508789,-7.943924903869629,17.99811553955078,1.8986917734146118,-1.0196640491485596,0.07969819009304047,,,,,,,,,
1739304012.6546926,-0.09704838966385629,1.080039971705184,-0.4164591010725202,-1.4167058337448808,1.5534715383731361,1.1260256507894855,1.3362204066663204,-0.00011418786330440227,0.001194859517541185,0.00021505890006160366,-0.0025342823250923633,-0.0006950549669675825,-0.0004634899782061691,-0.0010307007686245807,-0.2825433909893036,-51.65036392211914,-7.943924903869629,18.02191925048828,1.9115091562271118,-1.0324814319610596,0.09343110024929047,,,,,,,,,
1739304012.6657562,-0.09704691357634218,1.0800314698719784,-0.4164614182971167,-1.41669710115753,1.553477488327571,1.1260271856495514,1.3362213512872034,-0.0006207996081545463,0.0012481684724552156,-3.7042933033791845e-05,0.00030891629352097907,0.0008985485847631253,0.0025444029687710797,-0.0008254418680015379,-0.3063471019268036,-51.57101821899414,-7.916153907775879,17.94654083251953,1.8986917734146118,-1.0452988147735596,0.08610688149929047,,,,,,,,,
1739304012.6766927,-0.0970431582179076,1.0800319001703382,-0.4164614192822989,-1.4166970891213484,1.5534718522699318,1.1260295245985685,1.3362234466782676,-0.000689013843369345,-0.00027643253966073793,0.0009138584342209524,-0.0001997180457240189,-0.0013768172509690953,0.0008178439170552587,0.0019393953776209068,-0.3301508128643036,-51.54721450805664,-7.916153907775879,17.94654083251953,1.9115091562271118,-1.0654404163360596,0.03300629183650017,,,,,,,,,
1739304012.6867344,-0.09704664647027696,1.0800325536559667,-0.41645933938342894,-1.4166925428697885,1.5534764123453049,1.1260288090409338,1.336225865294729,0.000637246090325922,0.001048086234750869,0.001185781874265223,0.0012286024441884305,0.0006247097202064922,0.0010379930787513295,0.001564860513630717,-0.3063471019268036,-51.54721450805664,-7.943924903869629,17.92273712158203,1.9051004648208618,-1.0590317249298096,0.03941498324275017,,,,,,,,,
1739304012.697692,-0.0970452773456593,1.0800313053103276,-0.41646528174917474,-1.4166970890936124,1.5534750689204033,1.126026959458475,1.3362155298192573,-0.0004558602439853357,-0.000551216129687181,-0.0006636295916902085,-0.00039292350378898475,-0.00033090204726281367,-0.000267333841012371,-0.00292507641413867,-0.3301508128643036,-51.51944351196289,-7.864579200744629,17.94654083251953,1.9115091562271118,-1.0526230335235596,0.09983979165554047,,,,,,,,,
1739304012.7086747,-0.09704656473873212,1.080032235178926,-0.4164623807397696,-1.4166991688990678,1.553473797549614,1.1260224790720297,1.336218564819937,-0.0008022270109378114,-0.00039366547483666756,0.0005042190877760156,0.0005545188268287638,-0.0007466726398616356,-0.0009096441478595071,-0.0015234947794899364,-0.2825433909893036,-51.57101821899414,-7.892350196838379,17.97431182861328,1.9179178476333618,-1.0452988147735596,0.09983979165554047,,,,,,,,,
1739304012.7187276,-0.09704622324106046,1.080034301776566,-0.41646141960168553,-1.416699204220339,1.5534728317388624,1.1260248585104446,1.3362196109567812,-4.913653775629823e-05,-0.001337423516412153,0.0008738309710073471,-0.000258647974991444,-0.0007409272505656361,0.00032033074496584505,-0.001515061737044412,-0.2825433909893036,-51.57101821899414,-7.916153907775879,17.97431182861328,1.9115091562271118,-1.0260727405548096,0.09983979165554047,,,,,,,,,
1739304012.7287393,-0.09704782593366956,1.0800358490558348,-0.4164652817491808,-1.416700952242896,1.5534775884829357,1.126021600645478,1.3362203720124075,0.0003258192955293011,-0.0011220351359956565,-0.0019542675949169373,-0.00012374763483384462,0.0010259721682090652,0.0008498917424778414,-0.002238971258245306,-0.2547723948955536,-51.59878921508789,-7.864579200744629,17.99811553955078,1.8986917734146118,-1.0260727405548096,0.09343110024929047,,,,,,,,,
1739304012.73969,-0.09704837662086813,1.0800400492159494,-0.41645863699635144,-1.4166953064321972,1.5534721389797048,1.1260201472685676,1.3362171120900135,0.000671623349217189,0.0002184841149217423,0.000751736667320656,0.0011669935664995164,-6.135473699864146e-05,-0.00019660681830010673,-0.0013942917210627952,-0.2825433909893036,-51.65036392211914,-7.916153907775879,17.92273712158203,1.9051004648208618,-1.0260727405548096,0.08610688149929047,,,,,,,,,
1739304012.749746,-0.09704846857970043,1.080037518967995,-0.4164650423023316,-1.416699180999874,1.5534714968775247,1.1260235260113396,1.336222936750421,-0.0005587939599976601,0.00022738692215350405,-0.0007173803324130417,0.0003737933112723006,-2.1211998074958656e-05,3.821592239244912e-05,-0.0006890942982282147,-0.2825433909893036,-51.57101821899414,-7.864579200744629,17.97431182861328,1.9115091562271118,-1.0526230335235596,0.03300629183650017,,,,,,,,,
1739304012.7607048,-0.09705070325159207,1.0800375994758362,-0.4164632016309193,-1.4166950228149287,1.5534751003950176,1.1260231639682867,1.3362236665319809,-0.0009669262106789734,0.0006467455472652531,-0.0009019204434147248,0.0011244322400825284,0.001919547170390012,0.0005657933626422766,-0.000532866434827578,-0.2547723948955536,-51.57101821899414,-7.892350196838379,17.94654083251953,1.8922830820083618,-1.0526230335235596,0.06596527993679047,,,,,,,,,
1739304012.7717187,-0.0970410936299593,1.080036125483155,-0.4164607040265616,-1.4167013146909546,1.5534708909703545,1.1260239236128398,1.3362247892586216,0.002292183326332053,-0.00048793031469286804,0.0010640812460000137,-0.0014289300991157088,-0.001332462480550862,0.00022366471854954917,0.002878998164982288,-0.3539545238018036,-51.54721450805664,-7.916153907775879,17.97431182861328,1.9115091562271118,-1.0590317249298096,0.05314789339900017,,,,,,,,,
1739304012.782695,-0.09704280346633015,1.0800395180909856,-0.41646319312496444,-1.4166969870820985,1.553470673357568,1.126026422353502,1.336222366602381,0.0003167128147109525,0.001387499430343577,-0.00018709373921220896,5.43319663981146e-05,0.00016524844545591375,7.07497898918126e-05,-0.0002943795529493416,-0.3301508128643036,-51.59878921508789,-7.892350196838379,17.94654083251953,1.9115091562271118,-1.0526230335235596,0.04673920199275017,,,,,,,,,
1739304012.7937758,-0.09704279527470136,1.0800316290343361,-0.4164614192822509,-1.4166964003438527,1.553476056627536,1.1260242501137192,1.3362264520416198,0.0003989607030540444,-0.0007019011425175835,0.00014986720727712822,-0.0005222525681489833,0.0006571648292529081,-9.963587007692006e-05,0.00010882702681922147,-0.3301508128643036,-51.51944351196289,-7.916153907775879,17.94654083251953,1.8986917734146118,-1.0526230335235596,0.03941498324275017,,,,,,,,,
1739304012.8047595,-0.09704380822436463,1.0800358075426197,-0.41646239520733463,-1.4167010313721078,1.553472491537745,1.1260226601181693,1.336225690872015,0.0002937434397856672,-3.4499438616051095e-05,-0.0003978404011833016,-0.0008670868275399667,-6.973071448034957e-05,-0.00015675642241954886,0.002075234372046155,-0.3063471019268036,-51.54721450805664,-7.864579200744629,17.99811553955078,1.9051004648208618,-1.0452988147735596,0.04673920199275017,,,,,,,,,
1739304012.8157675,-0.09704211908367393,1.0800375202210153,-0.41646141926600616,-1.4166991688995185,1.5534721193591987,1.1260222980710544,1.3362213083647791,0.0011995113401837882,-0.0009059873329661719,-2.780121955925954e-05,-8.521261891850313e-05,0.0005219701360829811,-0.00019002423264650794,0.000786032713055046,-0.3301508128643036,-51.57101821899414,-7.916153907775879,17.97431182861328,1.9051004648208618,-1.0452988147735596,0.04673920199275017,,,,,,,,,
1739304012.8258,-0.09704559673964085,1.0800444094879735,-0.41646046157438216,-1.416701323496598,1.553472119357098,1.1260215404089322,1.33622217423742,-4.4509942317753995e-06,0.0017215120103295605,0.0013698643487511685,-0.0008054181631594777,-0.0002146385249611079,-0.0002923200956237223,0.0012465665140479816,-0.2825433909893036,-51.62259292602539,-7.916153907775879,17.97431182861328,1.9051004648208618,-1.0388901233673096,0.03941498324275017,,,,,,,,,
1739304012.8366508,-0.09704550904958091,1.0800426610666647,-0.41646141927689445,-1.4166991719636866,1.5534748632876125,1.1260222980690107,1.3362181563801796,0.0007846864711334479,8.922545829439117e-05,-0.00021021315738195578,-0.0005750938779587741,0.0016536317897894157,0.0003248987571042608,0.000381267054902305,-0.2825433909893036,-51.62259292602539,-7.916153907775879,17.97431182861328,1.8858743906021118,-1.0452988147735596,0.07328949868679047,,,,,,,,,
1739304012.8466709,-0.09704653502162885,1.080045694579841,-0.41645755681542607,-1.4166991953900732,1.5534725619651486,1.1260215404089322,1.3362147838863263,-0.0006159902607340987,0.0017348285240253612,0.0007037974989840194,-0.0001934492443664903,0.00034313927469372795,-0.0001577335947040025,-0.0020540610543208393,-0.2825433909893036,-51.67416763305664,-7.967728614807129,17.97431182861328,1.8922830820083618,-1.0388901233673096,0.06596527993679047,,,,,,,,,
1739304012.8566806,-0.09704550906646084,1.0800382619804674,-0.4164614192823008,-1.416701267941747,1.5534728769990096,1.1260207696669016,1.3362157750909391,0.00037216767351181995,-0.0010301532362282455,-0.00012486577821748128,-0.00151733076185176,0.0002776124458196568,0.00017976566620504317,-0.0016444827955005644,-0.2825433909893036,-51.57101821899414,-7.916153907775879,17.99811553955078,1.8986917734146118,-1.0324814319610596,0.09343110024929047,,,,,,,,,
1739304012.866695,-0.0970455090490862,1.080038588702026,-0.4164656724907356,-1.4166970878548268,1.5534704644841677,1.1260192694149942,1.3362166541419,-0.0006662509997109084,-0.0013009675772043712,-0.0008947865987984005,0.0006129995328814238,0.000367145892594161,-0.0006063882637867516,-0.0006063594732677673,-0.2825433909893036,-51.57101821899414,-7.864579200744629,17.94654083251953,1.8922830820083618,-1.0196640491485596,0.08610688149929047,,,,,,,,,
1739304012.8767316,-0.09704240099059343,1.080034551415202,-0.416461419288918,-1.4166970891091915,1.5534753374636552,1.1260222980690442,1.3362181544422604,0.0003010778067910249,-0.00036997732046837077,0.0009161208988251021,-0.0003462990462033265,0.00018919831080126777,6.317239665225032e-05,-0.0012567730258452373,-0.3301508128643036,-51.51944351196289,-7.916153907775879,17.94654083251953,1.9051004648208618,-1.0452988147735596,0.07328949868679047,,,,,,,,,
1739304012.8876972,-0.09704421487546362,1.0800328216559913,-0.4164592735510912,-1.4166970891092128,1.553472119375264,1.1260203470948824,1.3362157751627057,0.0004114003761619135,-0.0010565943018966254,-0.00033761479158030784,-0.000516169557615356,0.0005977048051381981,0.00024208666733128336,-0.0005697846404079088,-0.3301508128643036,-51.49563980102539,-7.916153907775879,17.94654083251953,1.9051004648208618,-1.0526230335235596,0.09343110024929047,,,,,,,,,
1739304012.8987243,-0.09704394304682416,1.0800358468412148,-0.41646603647920305,-1.4166953064321937,1.5534701843213203,1.126023921831144,1.3362173989892032,0.000753365597319121,0.0003702628311435851,-0.00032792549088629197,0.0005840527452260582,-0.0002766039707115307,-7.27278299669891e-05,-0.0009060714209443636,-0.3301508128643036,-51.54721450805664,-7.892350196838379,17.92273712158203,1.9115091562271118,-1.0590317249298096,0.07969819009304047,,,,,,,,,
1739304012.9087586,-0.09704306263891802,1.0800356127640311,-0.4164594307332591,-1.4166970891092128,1.5534728769972372,1.1260221043281171,1.3362178449016435,0.0005722001997622937,4.7240471629848824e-05,0.00030238782919222263,0.000130617441401638,0.0009467285025202178,0.00010130028753208302,-0.00018624456849383286,-0.2825433909893036,-51.57101821899414,-7.916153907775879,17.94654083251953,1.8986917734146118,-1.0526230335235596,0.06596527993679047,,,,,,,,,
1739304012.9197612,-0.0970503480947768,1.0800406198334704,-0.4164594181818809,-1.4167009515760873,1.5534763579096154,1.1260222980630288,1.336217398713381,-0.001363689365474144,0.0007738694635786856,0.0005555157572942105,-0.0006541227333683463,0.001863990968940626,0.0002829875271136533,0.00031914684646416826,-0.2547723948955536,-51.57101821899414,-7.943924903869629,17.99811553955078,1.9051004648208618,-1.0452988147735596,0.07969819009304047,,,,,,,,,
1739304012.9306629,-0.0970429521542749,1.0800394742458106,-0.41646320195976405,-1.416699261367378,1.5534713612364295,1.1260214226713623,1.3362189831391518,-0.000418571611998187,-0.0009601851602944003,-0.001014740070865193,-2.3153417651292226e-05,0.0006693109618573338,-0.0006560488430319448,6.708901379635817e-05,-0.3301508128643036,-51.59878921508789,-7.892350196838379,17.94654083251953,1.9115091562271118,-1.0388901233673096,0.06596527993679047,,,,,,,,,
1739304012.9407175,-0.09704706202755567,1.0800395927282544,-0.41646038613512465,-1.4167001226101719,1.553469737348637,1.1260200250867816,1.3362166412207919,-0.0006420730279096392,-0.0008969347122869165,0.00046954872917150006,-0.00012930877982029744,0.00047067764425159914,0.00017631755481145595,-1.008327512328649e-05,-0.2309686839580536,-51.59878921508789,-7.916153907775879,17.97431182861328,1.8986917734146118,-1.0260727405548096,0.08610688149929047,,,,,,,,,
1739304012.951715,-0.09704379651617566,1.0800478374161484,-0.41646288402571013,-1.416699168904452,1.5534716483890947,1.126020778388203,1.3362229588522458,0.0012374287936560157,0.0013673300706040687,-0.0009413085859913209,-0.0002218231750911111,-0.0007174152637000649,-0.0008260129980681187,0.0016103159569490942,-0.3063471019268036,-51.67416763305664,-7.892350196838379,17.97431182861328,1.9051004648208618,-1.0324814319610596,0.05955658480525017,,,,,,,,,
1739304012.9617264,-0.0970393209223944,1.0800434072305347,-0.41646139277519484,-1.4167009515760876,1.5534721266009215,1.1260215404087106,1.336217570342148,0.0023870862937406157,0.0003076437459446072,-0.00021667614957292703,-0.0013091241564208184,0.0012552724528861804,8.743116918637972e-05,-0.0002986457758878767,-0.3817255198955536,-51.62259292602539,-7.916153907775879,17.99811553955078,1.9051004648208618,-1.0388901233673096,0.06596527993679047,,,,,,,,,
1739304012.97177,-0.09704550775532333,1.080040700455886,-0.4164614179739559,-1.4166991954263601,1.5534665593868673,1.1260222980690107,1.336219022269142,0.00041409582145018957,-0.001192786071249436,0.00040665798594892536,-0.0005275319933130266,-0.001183654450905956,-0.00012665565305185276,-0.00013999126893578936,-0.2825433909893036,-51.57101821899414,-7.916153907775879,17.97431182861328,1.9252420663833618,-1.0452988147735596,0.06596527993679047,,,,,,,,,
1739304012.9827328,-0.09704379652834742,1.0800346411354476,-0.4164630959954995,-1.416693532585642,1.553470592390595,1.1260222980690107,1.336215605097338,-0.00047286789157404503,-0.002200781546282032,1.2302845479464934e-05,0.0014281747417151385,-0.0009379023736423223,-0.0004509523118314407,-0.001407709151330312,-0.3063471019268036,-51.51944351196289,-7.892350196838379,17.89893341064453,1.9179178476333618,-1.0452988147735596,0.09343110024929047,,,,,,,,,
1739304012.9937615,-0.09704450681703829,1.0800304644135548,-0.4164653275306698,-1.4166970892546176,1.5534681820827083,1.1260199850518549,1.3362204852691664,0.00042045780589744427,-0.003121662868678166,-0.0007924871615462208,-0.0005133017622663751,-0.0022031527113500417,-0.0007303756750301627,0.0017653310938986404,-0.3063471019268036,-51.47183609008789,-7.892350196838379,17.94654083251953,1.9115091562271118,-1.0526230335235596,0.05314789339900017,,,,,,,,,
1739304013.004738,-0.09704379653236432,1.0800423803844474,-0.4164635169553206,-1.4166970891092137,1.5534748425176745,1.126021422599582,1.3362165843711942,0.0007741681141550388,0.0016201301881103604,-0.0006060727575518084,-0.00026546665407816994,0.00029001182620704084,-0.00031671024065327584,-2.8995432909252245e-05,-0.3063471019268036,-51.59878921508789,-7.892350196838379,17.94654083251953,1.9179178476333618,-1.0388901233673096,0.08610688149929047,,,,,,,,,
1739304013.015695,-0.09704379652835474,1.0800385890326694,-0.4164593616699493,-1.4167009515760873,1.553471361236429,1.1260239211411394,1.336212583004551,0.00034650517933458856,0.00020140130703668943,0.0020071261711305886,-0.000738643054550885,-0.00033804018249752334,0.0008564676991943617,-0.000553476923586343,-0.3063471019268036,-51.57101821899414,-7.943924903869629,17.99811553955078,1.9115091562271118,-1.0590317249298096,0.09343110024929047,,,,,,,,,
1739304013.0266957,-0.0970455090490859,1.0800441311754725,-0.4164614192460872,-1.4166935266986138,1.5534708907467372,1.1260183267183517,1.336215775144697,0.00020438559354659866,0.001294248532476808,-0.0005024781357193652,0.0011263841096365258,0.00045497751605173256,-0.0006989950804064497,-0.0004734689871833918,-0.2825433909893036,-51.62259292602539,-7.916153907775879,17.89893341064453,1.9115091562271118,-1.0388901233673096,0.09343110024929047,,,,,,,,,
1739304013.0367026,-0.09704450097104089,1.0800427087901194,-0.41645933949244457,-1.4166992437067922,1.5534713573283931,1.1260222980145864,1.3362141805597825,0.0007181173082103987,0.0001466674784655729,0.0005463167617286473,-0.0005438761408250401,-0.0001633350592091484,0.0008373663179925247,-0.0017586953526213876,-0.3063471019268036,-51.59878921508789,-7.943924903869629,17.94654083251953,1.9115091562271118,-1.0452988147735596,0.07969819009304047,,,,,,,,,
1739304013.0477788,-0.09704379696536816,1.0800420204302903,-0.4164571937252333,-1.4166991718546702,1.553471072800896,1.1260231639662426,1.336218682128414,0.0008006823571788025,0.0005591021703459394,0.0010576770170109733,-0.00010188503678942938,0.0001928637332027423,0.0012449802319447565,0.0004454001498088466,-0.3063471019268036,-51.59878921508789,-7.943924903869629,17.97431182861328,1.9051004648208618,-1.0526230335235596,0.06596527993679047,,,,,,,,,
1739304013.0586946,-0.09704550904908837,1.0800420214438897,-0.41645927350297596,-1.41669916904444,1.553472117682299,1.1260199073512056,1.3362205327508476,0.0007885181052971308,-0.00015475242909868548,0.0002659299425224934,-0.00023376218578291346,0.0004292451918106768,-0.00046846030707020116,0.0013322650367068973,-0.2825433909893036,-51.59878921508789,-7.916153907775879,17.97431182861328,1.9051004648208618,-1.0260727405548096,0.05314789339900017,,,,,,,,,
1739304013.068711,-0.0970455090490859,1.0800444488852396,-0.4164631220140561,-1.4166955448507752,1.553470301574345,1.1260189610880014,1.3362157212646475,-0.000596126729813922,0.0008577817403765072,-0.00012785933169279465,-0.00012792993429829415,-0.0014638852805477717,-0.0006462153783838827,-0.0012764995600902567,-0.2825433909893036,-51.62259292602539,-7.892350196838379,17.92273712158203,1.9115091562271118,-1.0260727405548096,0.06596527993679047,,,,,,,,,
1739304013.0787258,-0.09704208400762353,1.0800404208713725,-0.4164614192809469,-1.4166953417575021,1.5534705887507356,1.1260215403909133,1.3362175525206308,5.593275130839502e-05,0.0006499950746144261,0.0004574864684756066,5.563087150821784e-05,0.00017126991395171307,-0.00011524811607114322,-0.00036595348247626144,-0.3301508128643036,-51.57101821899414,-7.916153907775879,17.92273712158203,1.9051004648208618,-1.0388901233673096,0.06596527993679047,,,,,,,,,
1739304013.0887277,-0.0970447640091956,1.0800387878181235,-0.41646480270443775,-1.4166935620204828,1.5534697381137879,1.12602391726567,1.336214664265038,-0.00016012960524958533,-0.000557780896277255,-0.0013770536303568074,0.0012360984197929141,0.001037195339691917,0.0013718614791556906,-0.0019655584168231095,-0.2825433909893036,-51.54721450805664,-7.864579200744629,17.89893341064453,1.9252420663833618,-1.0590317249298096,0.09983979165554047,,,,,,,,,
1739304013.0996869,-0.09704550807054724,1.0800405003428921,-0.4164652552555179,-1.4166943340502922,1.553475229594224,1.1260222975844694,1.3362201843832313,0.0001276157186049453,0.001069687821902529,-0.0005399151512439022,0.0006041978474737115,0.0023801034880636704,-0.0005229553030647355,0.0008458307174636769,-0.2825433909893036,-51.57101821899414,-7.864579200744629,17.94654083251953,1.9115091562271118,-1.0452988147735596,0.05314789339900017,,,,,,,,,
1739304013.1106877,-0.09704750709819265,1.0800407387614712,-0.4164571898004981,-1.416700978051488,1.5534696979631168,1.1260215404089295,1.3362166017582633,-0.0010334871656411523,0.001959935855257061,0.00026355852311623414,-0.0013456814292492408,0.0007638698161010305,-3.4076218982582085e-05,-0.0016884630355026948,-0.2547723948955536,-51.57101821899414,-7.943924903869629,17.99811553955078,1.8986917734146118,-1.0388901233673096,0.08610688149929047,,,,,,,,,
1739304013.120716,-0.09704208368284772,1.080042736594654,-0.416457450815208,-1.416697089109661,1.5534705981689025,1.1260222849870583,1.3362212899276638,0.001122615970606927,0.0012094313139914457,0.0017518214298938174,0.00045853226016751264,0.0004195166619239986,0.00032633002635852577,0.0012793633338587568,-0.3301508128643036,-51.59878921508789,-7.967728614807129,17.94654083251953,1.9179178476333618,-1.0452988147735596,0.04673920199275017,,,,,,,,,
1739304013.1317232,-0.09704550904908407,1.0800444462809615,-0.41646141797350716,-1.4167013146662801,1.5534696945331683,1.1260186089584123,1.336218150081358,0.0005221170520482954,0.0015009033173360522,-0.0002164915451882951,-9.945714719819872e-05,-0.0006049340179708229,-0.000564937757510618,0.001903394450422531,-0.2825433909893036,-51.62259292602539,-7.916153907775879,17.97431182861328,1.9252420663833618,-1.0452988147735596,0.07328949868679047,,,,,,,,,
1739304013.1417766,-0.09704379652835472,1.0800427367036205,-0.41645437659282075,-1.416699168935407,1.5534708907460013,1.1260207826863786,1.3362134425165513,0.00020688497543748616,0.0011906395036332914,0.0027219938049771516,-0.00019241819087713357,0.0005380488601673851,0.0003114693881216497,-0.0014500307165123698,-0.3063471019268036,-51.59878921508789,-7.967728614807129,17.97431182861328,1.9115091562271118,-1.0324814319610596,0.07328949868679047,,,,,,,,,
1739304013.1526864,-0.09704378483635993,1.0800410831452092,-0.41645908928215664,-1.4166970891092128,1.553468938932666,1.12602002503494,1.3362195822448777,0.0005551704663987439,-0.0011752290865328678,0.0010447787860010048,0.001605913748595561,-0.0006134786628715043,0.0006467013293427126,0.00034575623970606296,-0.3063471019268036,-51.57101821899414,-7.943924903869629,17.94654083251953,1.9051004648208618,-1.0260727405548096,0.03300629183650017,,,,,,,,,
1739304013.1636858,-0.09704383160427309,1.0800427365602594,-0.416460703879796,-1.4166991692261168,1.5534697361836882,1.1260197231107243,1.3362211014982817,-0.0004984107592743744,0.0003475126963113635,-2.101148144185715e-05,-0.000944725218400558,-0.0002306312948559893,-0.0007601650196646852,0.0019493409164428451,-0.3063471019268036,-51.59878921508789,-7.916153907775879,17.97431182861328,1.9252420663833618,-1.0324814319610596,0.03941498324275017,,,,,,,,,
1739304013.1746604,-0.09704037148709034,1.0800408152922367,-0.416463228200948,-1.416700951576089,1.55347196092011,1.1260200061866406,1.3362165998700437,0.00043430775062088846,-0.00038845626547051533,-0.0014099089017107738,-0.0003856544076221665,0.0006864782771928386,-0.0004355649811029397,0.0014254622460431305,-0.3539545238018036,-51.57101821899414,-7.892350196838379,17.99811553955078,1.9051004648208618,-1.0260727405548096,0.08610688149929047,,,,,,,,,
1739304013.184708,-0.09704547397310154,1.0800428170162095,-0.41646138003777733,-1.4166970891092128,1.5534712391062326,1.1260200250878152,1.3362148997629757,-8.695202445776961e-05,0.00019715571724030086,0.0005295683880385525,-0.00022145882421951594,2.704971527952332e-05,-0.000566089679232407,-0.0007339102800038638,-0.2825433909893036,-51.59878921508789,-7.916153907775879,17.94654083251953,1.9115091562271118,-1.0260727405548096,0.09983979165554047,,,,,,,,,
1739304013.1957498,-0.09704208400742552,1.080039026662454,-0.4164613919179864,-1.4166970635994058,1.553470602582699,1.1260211871962225,1.3362170450221362,0.0005418672937996367,-0.0009328224017934542,0.0005488808399880552,0.0002999542618068817,-0.0012516923412570935,-0.00023353167012257712,-0.00028704192407205464,-0.3301508128643036,-51.54721450805664,-7.916153907775879,17.94654083251953,1.9179178476333618,-1.0388901233673096,0.07969819009304047,,,,,,,,,
1739304013.2066615,-0.09704377018528003,1.0800368817225057,-0.41645933945605496,-1.4166991688990203,1.5534705846383234,1.1260215404082674,1.3362157182403058,-0.00020700221534282492,-0.0013389717806249616,0.00048486190349797826,-0.0004589005637281209,0.00042677163214311053,0.0007589620602983208,-0.0007772422749064441,-0.3063471019268036,-51.54721450805664,-7.943924903869629,17.97431182861328,1.9179178476333618,-1.0388901233673096,0.09343110024929047,,,,,,,,,
1739304013.2166831,-0.09704349091215585,1.0800420299148843,-0.41646141045198243,-1.4166974070006515,1.5534695442369777,1.126021525388913,1.336215836901763,0.00029438088272148294,0.0010090670741112594,-0.0008412255573060539,-0.0011643560781862618,-0.00043385859463187967,0.00043934170183691253,-0.0013203724434995101,-0.3063471019268036,-51.59878921508789,-7.916153907775879,17.94654083251953,1.9179178476333618,-1.0388901233673096,0.06596527993679047,,,,,,,,,
1739304013.2277226,-0.09704598257314974,1.0800387882394318,-0.4164621269701058,-1.4166992348432264,1.5534712047076102,1.1260222980689258,1.3362142533643553,0.0001225653148955719,-0.0014947368318038755,0.0006070510007648262,-0.00012992582916590317,0.0005761410483333597,0.0010661300503864697,-0.00160773222937457,-0.2825433909893036,-51.54721450805664,-7.916153907775879,17.94654083251953,1.9115091562271118,-1.0452988147735596,0.10624848306179047,,,,,,,,,
1739304013.2386415,-0.09704550905175896,1.0800444482419116,-0.4164614179781005,-1.416699884166918,1.5534704858139683,1.1260204807708027,1.3362137464206263,-0.00020451003769958898,4.6702401247497496e-06,0.0008129301410451209,-4.455209473947842e-06,-0.0003250131169897394,0.0001399079197448908,-0.001339421638143104,-0.2825433909893036,-51.62259292602539,-7.916153907775879,17.97431182861328,1.9179178476333618,-1.0388901233673096,0.07969819009304047,,,,,,,,,
1739304013.2487085,-0.09704376145237038,1.0800464509444685,-0.41645933981644373,-1.4166992348885377,1.5534711901760883,1.126021422653417,1.3362168340929719,0.0008522561206132709,0.0013048994939843384,0.0010736298759557899,0.00015237965090053325,-0.0004035152017094101,-0.0010455491354807256,-0.0002049798136172917,-0.3063471019268036,-51.65036392211914,-7.943924903869629,17.94654083251953,1.9115091562271118,-1.0388901233673096,0.09343110024929047,,,,,,,,,
1739304013.2587361,-0.0970513153001425,1.0800444492244656,-0.41646141830115985,-1.4166992073091336,1.5534721193541932,1.126018765455402,1.3362194779777388,-0.0015807613773675341,0.0007088212125200467,-0.0005243380128598621,-0.00044504059031864895,0.0007015057070817312,0.0001577692411779022,0.0013407334648305488,-0.2309686839580536,-51.62259292602539,-7.916153907775879,17.97431182861328,1.9051004648208618,-1.0452988147735596,0.05314789339900017,,,,,,,,,
1739304013.2687616,-0.09704767513487259,1.0800414275276011,-0.41645865792271825,-1.4166992474277706,1.5534713616970193,1.1260231637449123,1.3362202497770417,-0.001088821495890898,-0.00016802820162034826,0.0005874315142914322,-0.0004766611464759409,0.0013776326972054992,0.0014887085398688253,0.0012772664753562886,-0.2825433909893036,-51.57101821899414,-7.943924903869629,17.97431182861328,1.9115091562271118,-1.0526230335235596,0.05314789339900017,,,,,,,,,
1739304013.2797635,-0.09704266761788799,1.0800400787819173,-0.41646320162842354,-1.416697089109656,1.5534678808045808,1.1260188861678677,1.3362150175010135,0.00011714380955164618,-0.000940733745061714,-0.000722157071531576,0.0003370707467835793,-0.00045057566348180003,-0.0001697881994643657,0.0009506613432687337,-0.2825433909893036,-51.59878921508789,-7.892350196838379,17.94654083251953,1.9051004648208618,-1.0526230335235596,0.09983979165554047,,,,,,,,,
1739304013.2906904,-0.09704269415322,1.0800398746545625,-0.41646312248645456,-1.4166971685820724,1.553471204480307,1.1260196825168423,1.3362228005932377,0.0005560969776180735,-0.0013075528200619435,0.00021111554036810925,0.0007677575615219017,0.0012512151474506229,-0.0005395887978265667,0.0014799298991682096,-0.2825433909893036,-51.59878921508789,-7.892350196838379,17.94654083251953,1.9115091562271118,-1.0590317249298096,0.03300629183650017,,,,,,,,,
1739304013.301718,-0.09704592737851526,1.0800370280630063,-0.4164593479135033,-1.4166962502294755,1.5534704857601318,1.126019105402718,1.336218032666162,0.00038000097403535104,-0.0016300777626548743,0.001638575068359909,-0.00010647742178298685,0.0005714007393310501,0.00024092749157708762,-0.0003592272767912737,-0.3063471019268036,-51.51944351196289,-7.943924903869629,17.94654083251953,1.9179178476333618,-1.0452988147735596,0.07328949868679047,,,,,,,,,
1739304013.3126447,-0.09704379555803139,1.0800429070963962,-0.41646141884625154,-1.416693523753596,1.5534663639588708,1.126021539703067,1.336217798106655,0.00033974805070480045,0.0008918827279762058,-0.0004148699353508188,0.0016561156784004822,-0.0010899251389470564,0.00021962590785335574,-0.0002433876221135297,-0.3063471019268036,-51.57101821899414,-7.916153907775879,17.89893341064453,1.9179178476333618,-1.0388901233673096,0.07328949868679047,,,,,,,,,
1739304013.3227298,-0.09704379652833829,1.0800428387796186,-0.4164632019593124,-1.4166935237551745,1.5534710596471624,1.1260207812952918,1.3362169113444042,-6.633524264020268e-05,4.90072236411541e-05,-0.0009627133720875455,0.0009991061320485718,0.0019675964254384096,0.0008453183382889489,0.0004764514639130177,-0.3063471019268036,-51.59878921508789,-7.892350196838379,17.89893341064453,1.9051004648208618,-1.0324814319610596,0.04673920199275017,,,,,,,,,
1739304013.332739,-0.09704750698993897,1.0800454917645352,-0.41645910107386613,-1.416697090090359,1.553470995384411,1.1260210683654779,1.3362212901770985,-0.001468516893544155,0.001058013723505714,0.001364280796729339,0.0007791298855246219,-0.0002334237864467294,0.0007831915082320568,-0.00036511788774940836,-0.2547723948955536,-51.59878921508789,-7.943924903869629,17.94654083251953,1.9115091562271118,-1.0452988147735596,0.04673920199275017,,,,,,,,,
1739304013.343724,-0.09704547689610023,1.0800429672522918,-0.41646141928095487,-1.4167010320300988,1.5534670010442138,1.126017301849473,1.3362178031673673,-0.00036700025273726794,2.286579653275843e-05,-0.0007441580940559065,-0.0006383856265730723,-0.0008337868583342915,8.975761750082363e-05,0.00111872525498609,-0.2825433909893036,-51.59878921508789,-7.916153907775879,17.99811553955078,1.9115091562271118,-1.0388901233673096,0.07328949868679047,,,,,,,,,
1739304013.3537745,-0.09704558796950623,1.0800429662958362,-0.41645695530665416,-1.416697167965676,1.5534705514737788,1.1260215343614453,1.3362141660182985,0.00039135701780699053,-0.0005776362570454743,0.0008493860292132309,0.00030327891751244816,0.00010767403771266192,7.974443818562399e-05,-0.0003628992248256877,-0.2825433909893036,-51.59878921508789,-7.943924903869629,17.94654083251953,1.9179178476333618,-1.0388901233673096,0.07969819009304047,,,,,,,,,
1739304013.3646843,-0.09704558797049626,1.0800407400238567,-0.4164660627951917,-1.4166971685825176,1.5534717659825859,1.1260167900451885,1.3362142695146642,4.306605336255373e-05,-0.0017609226274214514,-0.0019539466611494917,0.0010296237232134697,0.001844449130291939,0.00042683056194685255,-0.002002597275158493,-0.2825433909893036,-51.57101821899414,-7.892350196838379,17.94654083251953,1.9051004648208618,-1.0388901233673096,0.07328949868679047,,,,,,,,,
1739304013.3757298,-0.09704208389980983,1.080044487366644,-0.4164632019754693,-1.4167009515765359,1.553469027901963,1.126018436170035,1.3362109499252028,0.00022422165875061258,-0.00032657470839763666,-0.0006135102060687203,-0.001597923128453613,-0.0008246395626663541,-0.000546914986175491,-0.0018342635511248433,-0.3301508128643036,-51.62259292602539,-7.892350196838379,17.99811553955078,1.9179178476333618,-1.0260727405548096,0.10624848306179047,,,,,,,,,
1739304013.387674,-0.09704550894082609,1.0800434283030926,-0.4164632019593199,-1.4166971461180624,1.553465894525247,1.126022091021851,1.336214486954578,-0.000467103872941086,0.0008913855801193384,-0.0016977462230133309,0.0007277692304718949,-0.0013777487723962611,0.0010903171339764462,-0.0004846356527135217,-0.2825433909893036,-51.59878921508789,-7.892350196838379,17.92273712158203,1.9179178476333618,-1.0526230335235596,0.07328949868679047,,,,,,,,,
1739304013.3981433,-0.09704479969864821,1.0800390290804132,-0.41646320195931985,-1.4166970891195978,1.553471348588482,1.1260183477605128,1.3362173936926403,-0.0006711695810007335,-0.0019849328724477937,0.0002189387478966179,0.00016882628151549856,-0.0001524938958645329,-0.0005532048471697976,0.0012864108535852248,-0.2825433909893036,-51.54721450805664,-7.892350196838379,17.94654083251953,1.9115091562271118,-1.0388901233673096,0.07969819009304047,,,,,,,,,
1739304013.4087303,-0.09704137371493564,1.0800407387628332,-0.4164633232308338,-1.416697092052652,1.5534724060668224,1.126019271001204,1.3362118322895042,0.0008127356307839967,-4.211191587136275e-05,-0.0003404944836523865,-0.00041902808587371276,0.0008903423840843416,4.452128112420253e-06,-0.00030491838459561203,-0.3301508128643036,-51.57101821899414,-7.892350196838379,17.94654083251953,1.8986917734146118,-1.0590317249298096,0.09983979165554047,,,,,,,,,
1739304013.4197447,-0.09704466583119505,1.0800444492244017,-0.4164591010745507,-1.41669538590507,1.553471360079305,1.1260215387137882,1.3362186116583306,-0.00012201980241836939,-0.00041394576164114716,0.0013950128904581262,-0.00018627482126238503,-0.0011782448442651462,0.001891431780302468,0.0011369350782129669,-0.2547723948955536,-51.62259292602539,-7.943924903869629,17.92273712158203,1.9115091562271118,-1.0388901233673096,0.06596527993679047,,,,,,,,,
1739304013.431641,-0.0970437965123163,1.0800428053721054,-0.4164632019579739,-1.4166957753816694,1.5534720999764189,1.1260191059111553,1.3362125510244476,-0.00017272993955300435,-0.0010634546142086604,-0.0011838961473905354,0.0006013354945261621,0.00027634370854538645,0.0007966208676918877,-0.0013263893969803113,-0.3063471019268036,-51.57101821899414,-7.892350196838379,17.89893341064453,1.9051004648208618,-1.0452988147735596,0.09343110024929047,,,,,,,,,
1739304013.4417093,-0.09704337396092567,1.0800444492593997,-0.4164632019593198,-1.416697089147344,1.5534721128965463,1.1260199908703103,1.3362211768198202,0.0006311267056688011,0.0008574403759558286,-0.0012294816430155086,0.00076581488641138,0.001024957386890557,-0.0004299105864851764,0.002045385914568962,-0.2825433909893036,-51.62259292602539,-7.892350196838379,17.94654083251953,1.9051004648208618,-1.0388901233673096,0.04673920199275017,,,,,,,,,
1739304013.4526746,-0.09704208399157717,1.0800444605970863,-0.41646046270054743,-1.4166970920889908,1.5534716589420579,1.1260160201975296,1.3362181162895674,0.0006679096378906571,-0.0005387294732222207,0.000594396940451297,-0.0002758600786250072,-0.0009992282930488337,-0.001009508165515302,0.0008183772219839678,-0.3301508128643036,-51.62259292602539,-7.916153907775879,17.94654083251953,1.8986917734146118,-1.0324814319610596,0.04673920199275017,,,,,,,,,
1739304013.4627209,-0.09704361494592943,1.0800432558234816,-0.41645933849509903,-1.4167013151023957,1.5534701319728832,1.1260171310643594,1.3362164258975808,-0.0006538616712022753,-0.001162365378274573,-0.00021331058392349428,-0.0004084306747033625,-0.00025779087848998755,0.0009770655675785344,0.001355149667787216,-0.2825433909893036,-51.57101821899414,-7.943924903869629,17.97431182861328,1.9115091562271118,-1.0388901233673096,0.05955658480525017,,,,,,,,,
1739304013.4737496,-0.09704391049322712,1.0800410935238727,-0.4164607040265466,-1.4166992758803736,1.5534715691032155,1.1260161850947532,1.3362136024954256,0.00041144792354578396,0.00016046180920034948,0.00017165752107697356,-0.0006419506490070899,0.001993450416110337,-7.527521285608573e-05,-0.0011826968483410899,-0.3063471019268036,-51.54721450805664,-7.916153907775879,17.97431182861328,1.8785501718521118,-1.0324814319610596,0.09983979165554047,,,,,,,,,
1739304013.4846995,-0.09704549735730555,1.080043506423279,-0.4164613398080952,-1.4166935355291328,1.5534678616681998,1.1260213831835684,1.3362174321973361,0.00022240685959885138,-0.0004622634969901658,2.471689837803555e-05,0.0009678672563276689,-0.0018661888598030577,0.0012489072946174323,0.0010311083841146227,-0.2825433909893036,-51.57101821899414,-7.916153907775879,17.89893341064453,1.9051004648208618,-1.0388901233673096,0.03941498324275017,,,,,,,,,
1739304013.4947407,-0.09704379663641592,1.0800444609239,-0.41646422732199756,-1.4166970891094122,1.5534663256819463,1.1260189249265462,1.3362159044071935,0.00033775702463109984,-0.00023101331147572061,-0.0007542197698704517,0.0012701407669689806,-0.0009639556008322315,-0.00045487168258933,-0.00036320730174953795,-0.3063471019268036,-51.62259292602539,-7.916153907775879,17.94654083251953,1.9179178476333618,-1.0526230335235596,0.05314789339900017,,,,,,,,,
1739304013.505676,-0.0970438491423319,1.0800410925714974,-0.4164632015391062,-1.4167013147752963,1.5534713485370806,1.1260208849789013,1.3362206169742135,-0.00010374094324634924,-0.000734724048898093,-0.0019696598464888763,-0.0012990354061544517,0.0002290214779467923,0.0014285431075819698,0.001283189686378978,-0.3063471019268036,-51.54721450805664,-7.892350196838379,17.97431182861328,1.9115091562271118,-1.0452988147735596,0.03941498324275017,,,,,,,,,
1739304013.5166743,-0.09704550908546931,1.080039404854091,-0.4164652818571799,-1.4166953076838624,1.553470873142557,1.126019664476221,1.3362210950481763,-0.0006394914219702569,-0.0007474393753378383,-0.001054252824481033,0.0001430174452445526,0.0006499803907329078,-0.00040137112492288045,0.0027449019842725824,-0.2825433909893036,-51.51944351196289,-7.864579200744629,17.92273712158203,1.9115091562271118,-1.0324814319610596,0.03941498324275017,,,,,,,,,
1739304013.5277152,-0.0970436913004018,1.0800434948151698,-0.41646528174917596,-1.4166973190245298,1.5534721143476669,1.1260165261013986,1.3362210840684956,0.00011062138330325644,0.0007187367874036213,-0.0009513171044056966,-0.0006847642363872889,0.00101994371736271,-0.001061493783307797,0.002231200666795702,-0.3063471019268036,-51.57101821899414,-7.864579200744629,17.94654083251953,1.9051004648208618,-1.0324814319610596,0.03941498324275017,,,,,,,,,
1739304013.5386527,-0.09704821727684049,1.0800410967822576,-0.41646105619210794,-1.4166991689029618,1.5534719573669133,1.1260177004174958,1.3362144261332196,-0.0023061357593760984,-0.00024003269248304882,0.0004896426150256207,-0.00026404518309464586,-8.437529485633664e-05,0.000967624824494049,0.00046254300730787484,-0.2547723948955536,-51.54721450805664,-7.892350196838379,17.97431182861328,1.9051004648208618,-1.0452988147735596,0.06596527993679047,,,,,,,,,
1739304013.5487185,-0.09704550807876258,1.0800429160662612,-0.4164613397973282,-1.4166991718425075,1.5534727052819919,1.126017428682625,1.336213141336618,-0.00038029956386102456,0.0004002524789317471,-2.2939448127596153e-05,0.00010652440261384341,0.0006312982148365704,-0.0010320122702658205,-0.0006633465548131582,-0.2825433909893036,-51.57101821899414,-7.916153907775879,17.97431182861328,1.8986917734146118,-1.0324814319610596,0.10624848306179047,,,,,,,,,
1739304013.5597284,-0.09704550937385806,1.0800430428686358,-0.4164614192818521,-1.4166992483719445,1.5534728763701844,1.12601984865191,1.3362176456931387,-0.0004774038458891826,-0.0007549507044941491,0.0009850438635280298,-0.001574036409582526,0.0008627245911121721,0.00016699910240788104,3.1703531207985156e-05,-0.2825433909893036,-51.59878921508789,-7.916153907775879,17.97431182861328,1.8986917734146118,-1.0260727405548096,0.07328949868679047,,,,,,,,,
1739304013.570697,-0.0970475030926092,1.0800417718592323,-0.4164614191732845,-1.4166953060127276,1.5534695667449103,1.1260182241599674,1.3362190717703821,-0.0011905609081616893,0.0013433651294305776,-0.0007197006101193722,0.001817637868747675,0.0002146389944121148,-0.0008144226853119224,1.1955478575064984e-05,-0.2547723948955536,-51.57101821899414,-7.916153907775879,17.92273712158203,1.8986917734146118,-1.0388901233673096,0.05314789339900017,,,,,,,,,
1739304013.580707,-0.09704208400755752,1.0800428135655222,-0.41646021835908564,-1.4166953068682515,1.553472113486837,1.1260175355362214,1.3362206894915507,0.0003328692627258002,0.0019071625266463442,-0.00127253127329185,0.0015358365713903663,0.00028798192682777,-0.0006360682031412906,0.001610250574113601,-0.3301508128643036,-51.59878921508789,-7.916153907775879,17.92273712158203,1.9051004648208618,-1.0452988147735596,0.03941498324275017,,,,,,,,,
1739304013.5916414,-0.09704349841857395,1.0800434284432827,-0.41646320206054743,-1.416698928795084,1.553468888114868,1.1260175297512967,1.336215838778651,0.00015893941354244232,0.00038554825058874587,-0.0008786621747958724,-5.583406253927692e-05,0.0003263654087457179,-0.0006375523871563924,0.0005172403867675392,-0.3063471019268036,-51.59878921508789,-7.892350196838379,17.94654083251953,1.9051004648208618,-1.0452988147735596,0.06596527993679047,,,,,,,,,
1739304013.6017492,-0.09704308623462263,1.0800414275393158,-0.4164639105923205,-1.4166991689302233,1.553471594086221,1.126020725818137,1.3362138982315002,-0.0003582580693522119,-0.0017096050580837877,-0.0011565969231256865,-0.0003001310896719048,0.00020003514239741693,0.0006487129300568107,0.000484387930678052,-0.3063471019268036,-51.57101821899414,-7.892350196838379,17.97431182861328,1.9051004648208618,-1.0324814319610596,0.07328949868679047,,,,,,,,,
1739304013.6127615,-0.0970437877192626,1.0800428387467857,-0.4164614192499623,-1.4167015530848592,1.553471962316871,1.1260160319003063,1.3362136002132758,0.00034486438723355074,0.0005779685288957292,-0.0006654156560546077,-0.0012192229210311095,0.0020399495218111656,-0.00028473002492027306,0.00047774156384991387,-0.3063471019268036,-51.59878921508789,-7.916153907775879,17.97431182861328,1.9051004648208618,-1.0324814319610596,0.09983979165554047,,,,,,,,,
1739304013.624701,-0.09704208400757379,1.0800416914444502,-0.4164614183011542,-1.4166956695358452,1.5534699423312353,1.1260172958000543,1.3362137856377216,0.0003519992435774546,-0.00015038399474446565,0.0004927197253988837,0.0013359935381617367,9.540125877684978e-05,0.0013176826408808763,-0.0019376742134964416,-0.3301508128643036,-51.57101821899414,-7.916153907775879,17.89893341064453,1.9115091562271118,-1.0388901233673096,0.09983979165554047,,,,,,,,,
1739304013.635694,-0.09704377032962565,1.0800411303655302,-0.4164614104519812,-1.4166992348925753,1.5534682323831175,1.1260189425492533,1.3362140433853897,0.0006260714559665559,-0.0005961791710206831,0.0006271874208251347,-0.0007631409580803232,-0.00014862046328198043,0.0012056433093920699,3.550560700679374e-05,-0.3063471019268036,-51.54721450805664,-7.916153907775879,17.94654083251953,1.8986917734146118,-1.0452988147735596,0.07969819009304047,,,,,,,,,
1739304013.6457112,-0.0970437176069462,1.0800437443241837,-0.41646141928215125,-1.4166971159635537,1.5534706875314483,1.1260182432156314,1.3362102551306927,0.00042171954598085507,0.00047865646045627374,-0.0004198082752739392,-0.00040773779993474207,0.000621053437047753,0.0008311694498660785,-0.0016693802278382691,-0.3063471019268036,-51.59878921508789,-7.916153907775879,17.94654083251953,1.9051004648208618,-1.0388901233673096,0.09983979165554047,,,,,,,,,
1739304013.6557195,-0.09704208378976856,1.0800416953451475,-0.4164614192823008,-1.4166953064326484,1.553466593866459,1.1260167282194735,1.3362094972852805,8.099548909771756e-05,-0.0009139263790367152,0.00012989556897072382,0.0015393737821137014,-0.001392468215570895,0.0012288131385289316,-0.002698265639875924,-0.3301508128643036,-51.57101821899414,-7.916153907775879,17.92273712158203,1.9115091562271118,-1.0260727405548096,0.10624848306179047,,,,,,,,,
1739304013.6666486,-0.09704348095275334,1.08004112942433,-0.4164595871548932,-1.4166953065412098,1.5534684258590084,1.1260176036543494,1.3362133899466235,0.00024577731530037975,-0.001739493896059017,-0.000818009215347026,0.0013869082793801476,3.77495258442572e-05,0.0012344037207075494,-0.0008425806961013724,-0.3063471019268036,-51.54721450805664,-7.916153907775879,17.92273712158203,1.9051004648208618,-1.0324814319610596,0.07328949868679047,,,,,,,,,
1739304013.6776683,-0.09704379771386173,1.0800437698339747,-0.41646070388651996,-1.416700951576089,1.5534681543698774,1.1260184392280828,1.336216566132321,0.000494954741019319,0.0010351935072351554,0.0007892431102863508,-0.0012824495881758155,-0.00032469451255747156,0.0024550066289008646,0.0007303360046217496,-0.3063471019268036,-51.59878921508789,-7.916153907775879,17.99811553955078,1.8986917734146118,-1.0526230335235596,0.04673920199275017,,,,,,,,,
1739304013.6887062,-0.09704368837740959,1.0800411988156358,-0.4164635451772593,-1.4167009511561728,1.5534673531391818,1.1260217688962144,1.3362144876093476,0.00014221047910968886,-0.0012975099850059141,-4.955654493302879e-05,-0.0014616629070196595,-0.0005469324770974097,0.0014602681510322304,0.0008800070186752712,-0.3063471019268036,-51.54721450805664,-7.916153907775879,17.99811553955078,1.9051004648208618,-1.0452988147735596,0.03941498324275017,,,,,,,,,
1739304013.6997726,-0.09704355879092379,1.0800410573187225,-0.4164614183051546,-1.4166994073176464,1.553466768307768,1.1260175316434724,1.3362110069471738,-0.0004056832326904868,-5.736879135175604e-05,-0.00030004116080582316,-0.0005374327350019161,-0.0004271173280042187,-0.0007066795132302228,-0.00033239976111732784,-0.3063471019268036,-51.57101821899414,-7.916153907775879,17.97431182861328,1.9115091562271118,-1.0452988147735596,0.09343110024929047,,,,,,,,,
1739304013.7107031,-0.09704200118798505,1.0800445635829194,-0.4164614193903021,-1.4166970891105586,1.553469811540505,1.1260175298589452,1.3362180977266624,0.0009300966134496585,0.0009308722837611277,0.00011641604851943209,0.0013143725564773593,0.0015771998928549994,-0.0008913821174493822,0.00020316802050321262,-0.3301508128643036,-51.62259292602539,-7.916153907775879,17.94654083251953,1.9115091562271118,-1.0452988147735596,0.07328949868679047,,,,,,,,,
1739304013.7207468,-0.09704748068154813,1.0800420404953939,-0.4164614280308581,-1.4166962604335587,1.553470648337997,1.1260181850496975,1.3362110068708941,-0.0012594540407492004,0.0001337268931345853,-0.0012024138077045931,-0.0003005304489729912,0.0014143399528255335,-0.0003475098107600617,-0.0007671692591078437,-0.2547723948955536,-51.54721450805664,-7.916153907775879,17.92273712158203,1.9051004648208618,-1.0388901233673096,0.09343110024929047,,,,,,,,,
1739304013.7317126,-0.09704550894067818,1.0800414628174362,-0.41645933066217683,-1.4166953093810182,1.5534678369744286,1.1260207217555804,1.336210968373458,0.00016547851077071247,-0.0006856514039884589,0.000546795921183315,0.0004607179834676073,0.0003008178717263402,-1.7244265735806907e-05,0.0004808293034695341,-0.2825433909893036,-51.57101821899414,-7.943924903869629,17.92273712158203,1.9051004648208618,-1.0452988147735596,0.06596527993679047,,,,,,,,,
1739304013.7436361,-0.0970454973570905,1.080047545783105,-0.416461313318438,-1.4166991688990846,1.553469777303077,1.126016316373342,1.3362132646569922,-0.00032204755919877637,0.0009206235070787303,0.000447422963927185,-0.0011646162752737025,8.9029940346646e-05,-0.0014312519652803011,5.914799923738344e-05,-0.2825433909893036,-51.62259292602539,-7.916153907775879,17.97431182861328,1.9115091562271118,-1.0260727405548096,0.04673920199275017,,,,,,,,,
1739304013.7536826,-0.09704742806890812,1.0800436086160679,-0.41645711410642045,-1.416700123554531,1.553468114477769,1.1260175355176112,1.3362110067727193,-0.0018225181393880909,-0.00021174375959856262,0.0011127233199953969,-0.0007918924239013639,-0.0012976120999345039,-0.0008300860918898841,-0.0014010906511967667,-0.2547723948955536,-51.57101821899414,-7.943924903869629,17.97431182861328,1.8986917734146118,-1.0452988147735596,0.09343110024929047,,,,,,,,,
1739304013.7638526,-0.09704550612475066,1.080045113048515,-0.4164592743404472,-1.4166970894524287,1.5534678244825946,1.1260175868705034,1.336211917085938,0.00030219350114324005,-0.0005485717678536376,0.0001914491526973019,0.00012293447241121933,-0.000530560417189756,0.00044745923673032,-0.0015070295424128408,-0.2825433909893036,-51.59878921508789,-7.916153907775879,17.94654083251953,1.9115091562271118,-1.0452988147735596,0.11265717446804047,,,,,,,,,
1739304013.774644,-0.09704831188004298,1.080047537324156,-0.41645932767024124,-1.416697354018747,1.5534682268746307,1.1260175296977513,1.3362153893764626,-0.001262747191970395,0.0011518628643932068,0.0010386637264055048,0.00018402384229029037,-0.0007285585394706251,0.000399008687708516,0.0002927755374695892,-0.2825433909893036,-51.62259292602539,-7.943924903869629,17.94654083251953,1.8986917734146118,-1.0452988147735596,0.05314789339900017,,,,,,,,,
1739304013.7847192,-0.09704750703740515,1.0800457596155861,-0.4164585464853943,-1.4166992483764143,1.5534715895400355,1.1260176474349985,1.3362137300170627,-0.0013426045265278637,1.935321136384196e-05,0.000967566475610776,-0.0002257065539421797,0.0007166511267587162,0.00033294909141244063,-0.0020119065859206114,-0.2547723948955536,-51.59878921508789,-7.916153907775879,17.97431182861328,1.9051004648208618,-1.0452988147735596,0.10624848306179047,,,,,,,,,
1739304013.794719,-0.09704265620235762,1.0800436082998524,-0.4164602349239066,-1.4166953064335395,1.5534693373277326,1.126017665041101,1.3362150297266804,0.0012004898454693299,0.001239221769161464,0.0005154148530491922,0.0008749545409569006,0.0012323547479421303,4.9394426485374626e-05,-0.00011343173889251913,-0.2825433909893036,-51.57101821899414,-7.892350196838379,17.92273712158203,1.8922830820083618,-1.0452988147735596,0.05955658480525017,,,,,,,,,
1739304013.8056824,-0.09704379604700467,1.0800420488353646,-0.4164562400006699,-1.4166970891092128,1.5534678800857824,1.126016014379564,1.3362126862246135,0.00042410235170464955,-0.00012451755892544435,0.0016809183958468178,0.0005576879874615039,-0.0002987970811084599,-0.0002596649765086499,-0.0005314904338181455,-0.3063471019268036,-51.54721450805664,-7.943924903869629,17.94654083251953,1.9051004648208618,-1.0324814319610596,0.03941498324275017,,,,,,,,,
1739304013.8156905,-0.09704550904908318,1.080043812694105,-0.41646319808890553,-1.4166980431105778,1.5534673904497,1.1260191532547392,1.336212029645225,-2.18471534584279e-05,0.0004995797149569414,0.00030418953350755217,-0.0002730577679872123,0.0005368820751313125,0.0005122168127920577,0.00047679147407350756,-0.2825433909893036,-51.57101821899414,-7.892350196838379,17.94654083251953,1.9051004648208618,-1.0590317249298096,0.08610688149929047,,,,,,,,,
1739304013.82665,-0.09704536735489215,1.0800458263820423,-0.4164614179740837,-1.4166992336220663,1.5534678194044185,1.12601915761539,1.3362153135447714,-0.001523499511471205,0.0006998513037643936,-0.0005911375507286838,2.8411338464227182e-05,0.001039289132802352,0.0003669196749087921,0.0009114556745030132,-0.2547723948955536,-51.59878921508789,-7.916153907775879,17.94654083251953,1.9051004648208618,-1.0590317249298096,0.06596527993679047,,,,,,,,,
1739304013.8376803,-0.09704750697786066,1.080041080310731,-0.41646295961614765,-1.4166960305303544,1.5534681041785714,1.1260167763980256,1.336215666762577,-0.0019910035418250517,-0.0003723568788297145,-0.0005100764768684808,-0.0007494697395205064,0.00022257393210394803,-0.00043650460518344355,0.00108333545690635,-0.2547723948955536,-51.57101821899414,-7.892350196838379,17.92273712158203,1.8986917734146118,-1.0388901233673096,0.06596527993679047,,,,,,,,,
1739304013.8477414,-0.0970416578676406,1.0800456069462971,-0.41646320151915067,-1.4166970901026217,1.5534681260881216,1.1260183955947347,1.3362137293852494,0.0006902240437193351,0.0013594119269724424,-0.00014690058515104084,0.0004087210837755952,-0.0006383618802576327,-0.0004303493590960892,-0.0016891999626920551,-0.3063471019268036,-51.59878921508789,-7.892350196838379,17.94654083251953,1.8986917734146118,-1.0526230335235596,0.10624848306179047,,,,,,,,,
1739304013.8577778,-0.09703983910840518,1.0800496944292604,-0.4164591020459204,-1.416697330471248,1.5534700738791736,1.126016014377272,1.3362091286558533,0.0018948501411940395,0.0017751860802235663,0.0005919937036252038,-0.0006246288792664199,-0.00037308132352214927,-0.000544664762587774,-0.0012817933469180193,-0.3301508128643036,-51.62259292602539,-7.943924903869629,17.94654083251953,1.8922830820083618,-1.0324814319610596,0.10624848306179047,,,,,,,,,
1739304013.8687232,-0.0970453757864381,1.0800437698629592,-0.4164649638563962,-1.4166953863788196,1.553467350992333,1.126017887270789,1.3362165268843835,-0.0011145558447532545,-0.000338790328422231,-2.0523332447925247e-05,0.0005145174022257326,-0.0013500165632040256,0.0004540912171403501,0.0008998002773124319,-0.2547723948955536,-51.59878921508789,-7.864579200744629,17.92273712158203,1.9051004648208618,-1.0452988147735596,0.04673920199275017,,,,,,,,,
1739304013.878754,-0.09704527019317424,1.0800421245988356,-0.4164575568100426,-1.4166991692274709,1.5534700295062696,1.1260162763244577,1.3362113600038446,-0.0005032816891262086,-0.0011671395870656413,0.0015503308363845232,0.00024419567775377726,0.0009678627633894076,8.523338459921463e-05,-0.0006301727042018759,-0.2825433909893036,-51.54721450805664,-7.967728614807129,17.97431182861328,1.8858743906021118,-1.0526230335235596,0.09343110024929047,,,,,,,,,
1739304013.8896906,-0.09704356073844474,1.080043813675679,-0.41646400372996745,-1.4166956243236344,1.5534670642780066,1.1260167719715517,1.336211752009352,0.0003349122399131226,-0.0019104072720987565,0.00014303238694970087,-0.00033356814148944106,0.001012377763479887,0.00031127296003786845,-0.0010543835776915017,-0.3063471019268036,-51.57101821899414,-7.916153907775879,17.92273712158203,1.9115091562271118,-1.0388901233673096,0.08610688149929047,,,,,,,,,
1739304013.8997056,-0.09704376144039098,1.0800438382030995,-0.4164614194136043,-1.416697805362247,1.5534648487923843,1.12601525671719,1.3362157692202221,-3.450997348148041e-05,-3.2745391113481865e-05,-0.00012171504655453003,0.0002270102259346466,-0.0007631866727938277,-0.0012022057942753172,0.0011628090145759523,-0.3063471019268036,-51.57101821899414,-7.916153907775879,17.94654083251953,1.8986917734146118,-1.0260727405548096,0.05314789339900017,,,,,,,,,
1739304013.9106328,-0.0970446658350066,1.0800438268666535,-0.4164631638026172,-1.416697089113256,1.5534681085720112,1.1260175296974286,1.336215751347685,0.0007286625267408817,-0.001102281124131298,-0.00030944777939734643,-0.0005941862974326949,-0.0008140571923895688,-0.00035690685741837256,5.481576102595953e-05,-0.2547723948955536,-51.57101821899414,-7.892350196838379,17.94654083251953,1.8986917734146118,-1.0452988147735596,0.05314789339900017,,,,,,,,,
1739304013.920673,-0.0970464385466334,1.0800417719099291,-0.41645846422786453,-1.4166971519025833,1.5534695219809496,1.1260175296974286,1.3362126304021795,-0.0008526716654813993,0.0002154617332160737,0.0012179407989523828,3.699502202691979e-05,0.00215647060748385,-0.00044897941118215046,0.00019274789606001195,-0.2825433909893036,-51.57101821899414,-7.943924903869629,17.94654083251953,1.8986917734146118,-1.0452988147735596,0.07969819009304047,,,,,,,,,
1739304013.93072,-0.09704550906482702,1.0800458361102059,-0.41646320194449715,-1.4166923345407627,1.5534665991635734,1.126016014377272,1.336210864094815,9.159823505739266e-05,0.0009225427904226387,0.0001452893159372017,0.0015427990661403337,-0.0008700441916237514,-0.0007183703204973499,-0.0019928336710712756,-0.2825433909893036,-51.59878921508789,-7.892350196838379,17.92273712158203,1.9115091562271118,-1.0324814319610596,0.10624848306179047,,,,,,,,,
1739304013.9407558,-0.0970432992620706,1.0800458361451981,-0.4164592511892675,-1.4166953063818644,1.5534652628909962,1.126016014377272,1.336208733834145,0.00011830277009039099,0.0012040095817740489,0.0005570824488888693,-0.00014087896774829102,-0.0005791613203704188,-0.0007491213037800358,-0.0022667130220234777,-0.2825433909893036,-51.59878921508789,-7.943924903869629,17.92273712158203,1.9115091562271118,-1.0324814319610596,0.11265717446804047,,,,,,,,,
1739304013.951699,-0.0970455879326278,1.0800417681307626,-0.4164591940407337,-1.4166974521994047,1.5534689743302132,1.126016014377272,1.3362189875481036,-0.00012527270407333056,-2.7139101327883393e-05,0.0007136154005285636,0.0007984346393480155,-0.0003548369169576896,-0.0005781705988786773,0.00222695990549403,-0.2825433909893036,-51.57101821899414,-7.916153907775879,17.92273712158203,1.9179178476333618,-1.0324814319610596,0.05314789339900017,,,,,,,,,
1739304013.9627552,-0.09704209373907215,1.080043736722455,-0.41645932771450106,-1.4166953064362313,1.5534642502336231,1.1260175296974286,1.3362120664353199,0.0012506764504143864,-0.0006093588788776064,0.0007727976283252787,2.399867605882445e-05,-0.0006276125282115186,-0.000309500030301686,-0.0005366982455400329,-0.3301508128643036,-51.57101821899414,-7.943924903869629,17.92273712158203,1.9051004648208618,-1.0452988147735596,0.09343110024929047,,,,,,,,,
1739304013.9738038,-0.09704550890479521,1.0800451477068906,-0.41646141913687923,-1.4166991698802145,1.5534677039599976,1.1260152567171935,1.3362133880145055,0.00036443574814837466,0.00010974144386815784,-0.0004738304603067523,-8.091959302591713e-05,0.0006776624415516849,-0.0005177238545638056,-0.00021343264348033678,-0.2825433909893036,-51.59878921508789,-7.916153907775879,17.97431182861328,1.9051004648208618,-1.0260727405548096,0.07328949868679047,,,,,,,,,
1739304013.9847205,-0.09704750655690131,1.0800438117458449,-0.41645933851129796,-1.41669916900809,1.5534673514720252,1.1260174904515718,1.336207110088046,-0.000755630613269223,-0.0007272562622121886,0.0007567883773439054,-0.0002806447692489158,0.001122361467609257,-0.00013937767448405608,-0.001980798748495109,-0.2547723948955536,-51.57101821899414,-7.943924903869629,17.97431182861328,1.9051004648208618,-1.0452988147735596,0.12639008462429047,,,,,,,,,
1739304013.9956338,-0.09704763114613808,1.0800458361450493,-0.41646528174916986,-1.416697479017408,1.5534673375765178,1.126017530181724,1.3362150111234794,-0.0007747214589524126,6.655754696041735e-05,-0.001068496470208514,0.0006083059794603132,0.0006790701264596815,0.0002698840492016308,4.860283431167288e-05,-0.2825433909893036,-51.59878921508789,-7.864579200744629,17.92273712158203,1.9051004648208618,-1.0452988147735596,0.05955658480525017,,,,,,,,,
1739304014.0057535,-0.09704543023593476,1.0800438385313942,-0.4164652814221266,-1.4166935238655534,1.5534680907662448,1.1260160129237462,1.33621337061435,-8.63880981765507e-05,0.00034679007651385697,-0.00033773605969525535,0.0014476461437758804,-0.0021981675784950084,-0.0003113814501834394,-0.003054880513875915,-0.2825433909893036,-51.57101821899414,-7.864579200744629,17.89893341064453,1.8986917734146118,-1.0324814319610596,0.07328949868679047,,,,,,,,,
1739304014.0167494,-0.0970455090489376,1.0800455300396303,-0.4164614192823001,-1.416699495729841,1.5534685690598338,1.1260175296435906,1.336215755978825,-0.0011079353174481017,0.00013357162947121102,-0.0003987155856585499,-5.8140676923981017e-05,-0.0005037469954958766,-0.00015060794449221228,0.00126778102723272,-0.2825433909893036,-51.59878921508789,-7.916153907775879,17.97431182861328,1.9179178476333618,-1.0452988147735596,0.05314789339900017,,,,,,,,,
1739304014.0277216,-0.0970471883830809,1.0800431494343774,-0.41646319770768536,-1.4166953359811372,1.5534671166498164,1.1260167720373493,1.3362094780617526,-0.0008399916697542646,0.0010992967764873224,-0.0004226611591610146,-5.9610359834702325e-05,0.0020399990492695327,1.2032741172578209e-05,-0.0017356005560677744,-0.2547723948955536,-51.57101821899414,-7.892350196838379,17.92273712158203,1.9115091562271118,-1.0388901233673096,0.10624848306179047,,,,,,,,,
1739304014.0377395,-0.09704551197028605,1.0800445538922598,-0.41646248666721974,-1.4166960216880977,1.5534648502613007,1.1260175296974286,1.336211006791059,0.0004762915657334803,0.00043653830703902993,-0.00018755512991453936,0.00045213212479887544,0.0002633085592184453,0.00023187265458553597,-0.00100385171953318,-0.2825433909893036,-51.57101821899414,-7.892350196838379,17.92273712158203,1.8986917734146118,-1.0452988147735596,0.09343110024929047,,,,,,,,,
1739304014.048673,-0.09704379634793919,1.080045573214112,-0.41646138395699195,-1.4166991718465451,1.553466593307044,1.1260175296974286,1.3362108748374992,0.0008140331153157648,-0.0007030055075700403,0.0008477643505064475,-0.0001599300679457872,0.0013646590698714487,-0.00014066973008505736,-0.0007974694008526471,-0.3063471019268036,-51.59878921508789,-7.916153907775879,17.97431182861328,1.9115091562271118,-1.0452988147735596,0.06596527993679047,,,,,,,,,
1739304014.0597732,-0.09704379652835167,1.0800431497621574,-0.4164623857283775,-1.4166978838378597,1.5534681091301108,1.1260167720373502,1.336215882271488,0.0003149525956356446,-0.0006626707934045347,-0.00021595836116728557,0.0005841291673154558,-0.0002129191206310907,-4.28299234170848e-05,0.0010846427837770908,-0.3063471019268036,-51.57101821899414,-7.864579200744629,17.94654083251953,1.8986917734146118,-1.0388901233673096,0.05314789339900017,,,,,,,,,
1739304014.070164,-0.09704208498195642,1.080043917673319,-0.41645851994195443,-1.4166999511177945,1.5534665933254403,1.1260167720373502,1.3362173922876723,0.0003705505444012979,-0.0001133892257723645,0.0014405094961156097,-0.0008050247444906634,-0.0009875166809966921,8.87852339037919e-05,0.0028593343476426016,-0.3301508128643036,-51.57101821899414,-7.916153907775879,17.94654083251953,1.9115091562271118,-1.0388901233673096,0.03941498324275017,,,,,,,,,
1739304014.0807326,-0.09704750298435366,1.080048578034324,-0.4164643364436601,-1.4166962602316824,1.5534667051034514,1.1260167720373502,1.3362190258413877,-0.0006185832080593096,0.0008665140340636513,-0.0006762606984037836,0.0016564180995828487,-0.00013430925788713937,-0.00013390762976645568,0.003557553511006016,-0.2547723948955536,-51.62259292602539,-7.864579200744629,17.92273712158203,1.9115091562271118,-1.0388901233673096,0.026597600430250168,,,,,,,,,
1739304014.0916839,-0.09704166562619498,1.0800461540424482,-0.4164590173440357,-1.4167002020516286,1.5534640791898982,1.1260175296974286,1.336215767240499,0.0015998950205808823,0.0005822684305610048,0.0014868049890865605,-0.0003266591721677542,-0.0009525695309591803,-0.00020902273772103108,0.0017207500517029922,-0.3063471019268036,-51.59878921508789,-7.943924903869629,17.97431182861328,1.9051004648208618,-1.0452988147735596,0.05314789339900017,,,,,,,,,
1739304014.101759,-0.09704550609000018,1.0800461805329744,-0.41645933937797336,-1.4166999544012928,1.553466593431535,1.1260173359565315,1.336212062121069,-0.00022408924507799622,0.0008989997181125844,0.0015720350511024563,-0.00017451258655833726,0.00027465710489539997,-8.349199262471939e-05,0.0007558414453135296,-0.2825433909893036,-51.59878921508789,-7.943924903869629,17.94654083251953,1.9115091562271118,-1.0526230335235596,0.09343110024929047,,,,,,,,,
1739304014.1127286,-0.09704540335199283,1.0800401365750232,-0.4164585582593509,-1.4166974591926214,1.5534677815749598,1.1260167720313683,1.3362133872971271,-0.00024927518594092203,-0.0012415177169386145,0.00044427939072057894,-0.0001761514343166556,-9.906810692649723e-05,-0.0001545598418441446,-0.00016099347877088037,-0.2825433909893036,-51.51944351196289,-7.916153907775879,17.92273712158203,1.8922830820083618,-1.0388901233673096,0.07328949868679047,,,,,,,,,
1739304014.1236792,-0.0970419696853,1.0800440766229744,-0.4164593401213076,-1.4166974079939503,1.5534673509793926,1.1260174773696197,1.3362157692263492,0.0008481303613649573,0.0007376489517167134,0.0005639882224612726,-0.0005194272286742132,0.00018293922932147752,-0.0005230102285707492,0.0006725653328367334,-0.3301508128643036,-51.57101821899414,-7.943924903869629,17.94654083251953,1.9051004648208618,-1.0452988147735596,0.05314789339900017,,,,,,,,,
1739304014.1346397,-0.09704379641945016,1.0800398603635395,-0.41645831940471095,-1.4166943340518765,1.5534658356653592,1.1260183955943657,1.3362126283619267,-0.0009261948310465853,-0.000859690870356304,0.002172087497309396,0.0017688132004328972,-0.0012096560009402652,-0.000141026968220825,0.0011114511650670129,-0.3063471019268036,-51.51944351196289,-7.916153907775879,17.94654083251953,1.9179178476333618,-1.0526230335235596,0.07969819009304047,,,,,,,,,
1739304014.1446877,-0.09704527228618953,1.080043811745203,-0.41646118081122496,-1.4166964137932747,1.5534631634526122,1.1260167545947473,1.336208733810866,-0.001643280821394277,0.0004740086597842888,-0.0002462371464265466,0.0001745010113098353,-0.0011391101851442138,-0.0006711409351579796,-0.0014088394870861343,-0.2825433909893036,-51.57101821899414,-7.916153907775879,17.97431182861328,1.9051004648208618,-1.0388901233673096,0.11265717446804047,,,,,,,,,
1739304014.1556392,-0.09704371760605333,1.0800438382041961,-0.4164631891667315,-1.416695315355975,1.5534649699598289,1.1260167720372516,1.336207708176884,0.0005255648983287034,-0.00019652777439234983,-0.000647268724385962,1.4758988910219199e-05,-0.0011218045445916109,-0.00039140100876611385,-0.0017690779795493839,-0.3063471019268036,-51.57101821899414,-7.892350196838379,17.92273712158203,1.9252420663833618,-1.0388901233673096,0.09343110024929047,,,,,,,,,
1739304014.1657064,-0.0970434044886869,1.0800479614536909,-0.41646319803451753,-1.4166988852818863,1.5534658356653626,1.126016014377272,1.3362142930957506,-0.00018492285488989912,0.0002171239495083766,-0.0014289759349597423,-0.0003520574784816431,-0.0006749119858334696,0.00026534907881403766,0.00013696989886102868,-0.2825433909893036,-51.59878921508789,-7.892350196838379,17.99811553955078,1.9179178476333618,-1.0324814319610596,0.06596527993679047,,,,,,,,,
1739304014.1757176,-0.09704750695429805,1.0800430882242409,-0.4164583195136572,-1.4167000335150979,1.553465902813406,1.126016014377272,1.3362173927843275,-0.0008609733129513581,0.0008994392631232986,0.0007134829011170862,0.00010332620420977295,-0.0012072489589296082,-6.335946884815705e-05,0.0017207235405866776,-0.2547723948955536,-51.54721450805664,-7.916153907775879,17.99811553955078,1.9051004648208618,-1.0324814319610596,0.03941498324275017,,,,,,,,,
1739304014.1877205,-0.09704537601562883,1.0800438297065102,-0.41646389880106355,-1.416697796576615,1.553467350977341,1.1260167720373502,1.3362149580333123,-0.0015069205107314087,0.0001648775826724607,-0.0011649073057035757,3.859462560854032e-05,-0.0006813544441000709,0.00034872768218810566,0.0011769292353267433,-0.2547723948955536,-51.57101821899414,-7.892350196838379,17.92273712158203,1.9051004648208618,-1.0388901233673096,0.04673920199275017,728,690,733,38.459,0,0
1739304014.1987042,-0.09704379652434492,1.0800421260106472,-0.4164674076494836,-1.4166971235024746,1.5534666471067966,1.1260175296974286,1.3362154071803736,7.632227144533244e-05,-0.0009173881444392646,-0.0017658262875886324,0.00020189687819015484,3.795414058938205e-05,0.00021026396297589862,0.0014647648338260739,-0.3063471019268036,-51.54721450805664,-7.864579200744629,17.94654083251953,1.9115091562271118,-1.0452988147735596,0.05314789339900017,728,693,732,38.459,0,0
1739304014.2087483,-0.09704376112759265,1.0800443872261092,-0.41646118100773083,-1.4166960216885134,1.5534661903325302,1.1260167720373502,1.3362132148570485,0.0004989193076346122,0.0013507279993421062,-0.0002154376903867569,0.0009693670181995321,-7.9776505672823e-05,-0.000202541123246299,0.0007328746629657233,-0.3063471019268036,-51.54721450805664,-7.916153907775879,17.92273712158203,1.9179178476333618,-1.0388901233673096,0.04673920199275017,729,693,731,38.459,0,0
1739304014.2196672,-0.09703921611266426,1.080045836194304,-0.4164585582580065,-1.4166971156042036,1.5534681086475963,1.1260175296974286,1.3362127480121377,0.001594928917944979,0.0005445531985936017,0.0015503785440139977,0.0010119107777376351,-0.0003711096130987325,0.00045715111801869366,0.0005686365235697515,-0.3301508128643036,-51.59878921508789,-7.916153907775879,17.94654083251953,1.8986917734146118,-1.0452988147735596,0.07969819009304047,728,693,732,38.459,1,0
1739304014.2306352,-0.0970415867251498,1.0800467938181244,-0.41646317501615093,-1.4167027432289288,1.5534658357191946,1.1260175296974286,1.3362094914716423,0.0009201313227517615,0.0013933715535249767,-0.0010314193118947156,-0.0017325983872346874,-0.0001084855575267856,5.094917787867143e-05,-0.00031314521500961127,-0.3063471019268036,-51.59878921508789,-7.892350196838379,18.02191925048828,1.9179178476333618,-1.0452988147735596,0.10624848306179047,729,695,734,38.459,1,0
1739304014.240739,-0.0970437964909315,1.0800437786973824,-0.4164593126739869,-1.4166953064323455,1.553466369209966,1.1260174904515718,1.3362134304753837,-0.0003634949700417335,0.0003594334979503675,0.0006774424805387954,0.0015127967012096518,-0.0005239853747111918,-0.00017275829653968638,0.00038514418577260045,-0.3063471019268036,-51.59878921508789,-7.943924903869629,17.92273712158203,1.9252420663833618,-1.0452988147735596,0.03300629183650017,729,694,733,38.459,0,0
1739304014.2516994,-0.09704379522924397,1.080045840385219,-0.416463516907168,-1.4166974521994056,1.553467368436019,1.126017529697207,1.3362094760488141,3.470603988531926e-05,0.0004610237475813181,-0.001092778821986027,0.00013939564060239682,-0.00012982943927784363,-3.8807695286318316e-05,-0.0002655324305267429,-0.3063471019268036,-51.59878921508789,-7.892350196838379,17.92273712158203,1.9051004648208618,-1.0452988147735596,0.10624848306179047,729,694,733,38.568,0,0
1739304014.2626872,-0.09704379555401449,1.080049547624292,-0.41645933066390534,-1.4166970891213257,1.5534665918356472,1.1260164188246404,1.3362150772243453,-0.0007041894411377034,0.000733564707142927,0.0001670864332549691,0.0009102555545742007,-0.00013091986810531193,-0.0001569244811027733,0.0005733967507221332,-0.3063471019268036,-51.65036392211914,-7.943924903869629,17.94654083251953,1.9115091562271118,-1.0388901233673096,0.04673920199275017,729,693,734,38.459,1,0
1739304014.273655,-0.0970440095507484,1.0800438035735167,-0.41646320195927,-1.4167013146662801,1.5534673509855077,1.126018395592667,1.3362146825924575,-0.0006678929309141985,0.00019120784335433937,-0.00093590957906488,-0.000709370741452858,3.634035093402191e-05,0.0007172361996399275,0.0005847655099292305,-0.2825433909893036,-51.57101821899414,-7.892350196838379,17.97431182861328,1.9051004648208618,-1.0526230335235596,0.05314789339900017,729,693,732,38.459,0,0
1739304014.2837389,-0.09704676149161767,1.080043837888823,-0.41646532491487753,-1.4166970892545676,1.5534688663056726,1.126018395594661,1.3362086142827172,-6.637719133982382e-06,-0.0009706718385058668,-0.0012714842150876122,0.0004131435212604718,0.00011941959100855259,0.0005585538779334564,-0.00155767272801078,-0.2547723948955536,-51.57101821899414,-7.892350196838379,17.94654083251953,1.8922830820083618,-1.0526230335235596,0.08610688149929047,729,694,733,38.459,0,0
1739304014.294685,-0.09704266778188403,1.0800421374573697,-0.4164574773905529,-1.4166955457269412,1.5534665928288078,1.1260132911449112,1.3362109888388918,0.0009673952700558738,-0.0004437955357756105,0.0010503703209512453,-0.00020346789401749137,-0.0012593670073195952,-0.00030180753936115667,-0.0020650639929116993,-0.2825433909893036,-51.54721450805664,-7.967728614807129,17.92273712158203,1.9115091562271118,-1.0452988147735596,0.09343110024929047,728,696,733,38.459,1,0
1739304014.3066435,-0.09704166532148732,1.080042152501683,-0.41646317514086945,-1.4166971777771284,1.5534673509855133,1.126016014353345,1.3362133396348086,0.000627637310410759,-0.0010491673240948518,-0.0016574007507109822,0.00013873934956347336,-0.0009062259986121709,-0.00015155999314141584,0.0004151408728487788,-0.3063471019268036,-51.54721450805664,-7.892350196838379,17.94654083251953,1.9051004648208618,-1.0324814319610596,0.07328949868679047,729,693,733,38.568,3,0
1739304014.3166742,-0.09704435013931459,1.0800458361453502,-0.4164593394922938,-1.416701314561802,1.553467652963567,1.1260175296974284,1.3362118857148653,-9.747461989597554e-05,1.1995462398149172e-05,3.9884894393387056e-05,-0.0006631702587702099,0.00010097050391746432,-1.2988696445216013e-05,7.405499938981965e-05,-0.2547723948955536,-51.59878921508789,-7.943924903869629,17.97431182861328,1.9115091562271118,-1.0452988147735596,0.08610688149929047,728,695,734,38.459,1,0
1739304014.3277514,-0.09704561286896225,1.0800495460980404,-0.4164629631046757,-1.4166946186256753,1.5534685042686267,1.1260175296974286,1.3362128172706018,-0.0013127389795927406,0.002529376650612303,-0.0008976973434934605,0.0014289970827530717,0.000596765684769271,0.00012629369937639662,-0.0005592432816853972,-0.2547723948955536,-51.65036392211914,-7.892350196838379,17.92273712158203,1.8922830820083618,-1.0452988147735596,0.06596527993679047,730,694,734,38.568,0,0
1739304014.3387086,-0.09704379684243998,1.0800438382043427,-0.41646320064977627,-1.416693955389696,1.5534682261603963,1.1260174073838671,1.3362126543666872,0.0009317370204459948,0.00022452767541640198,-0.0005016397412962639,0.0009222696061895114,0.0002599699434549741,-0.0007596929455838262,5.6403269370489844e-05,-0.3063471019268036,-51.57101821899414,-7.892350196838379,17.92273712158203,1.8986917734146118,-1.0452988147735596,0.07328949868679047,728,693,734,38.459,0,0
1739304014.3497407,-0.09704549735709288,1.0800438382043456,-0.4164632019593124,-1.4166982056772335,1.5534676080435528,1.126017529696738,1.3362129641884566,6.25483381342599e-05,-0.00034956257314522105,-3.637484365513744e-05,0.000880760769111166,-0.000993746545518793,0.0006861521948409844,-3.818858625647152e-05,-0.2825433909893036,-51.57101821899414,-7.892350196838379,17.92273712158203,1.8986917734146118,-1.0452988147735596,0.07969819009304047,729,695,733,38.350,1,0
1739304014.3597457,-0.0970426678941536,1.0800473195137337,-0.41645730531489483,-1.4166991689481672,1.553468866297195,1.1260166150539235,1.3362118546498094,0.000711634074385439,0.0011024507499318148,0.0006846072969020227,8.172699691631036e-05,0.0012244761121372422,0.000571304074433644,-0.0014064366571686056,-0.2825433909893036,-51.62259292602539,-7.967728614807129,17.97431182861328,1.8922830820083618,-1.0388901233673096,0.08610688149929047,729,694,734,38.459,0,0
1739304014.3706725,-0.09704527223807616,1.0800438658946347,-0.41646528076376976,-1.4166999501321629,1.553470469834927,1.1260167720346916,1.3362173525563554,-0.0007985721240134198,0.000242440358282226,-0.0007053748828641119,0.0005417982260881041,0.00043584181080493216,3.782340517165409e-05,0.0009145347271606184,-0.2825433909893036,-51.57101821899414,-7.864579200744629,17.94654083251953,1.9115091562271118,-1.0388901233673096,0.03941498324275017,730,693,734,38.568,0,0
1739304014.380705,-0.09704264060902001,1.080045862636621,-0.41646166715802446,-1.416697168630524,1.5534653050022744,1.1260175296974286,1.3362126303477642,0.0008089869504518307,0.0008336593554126784,-0.0006744232791271562,0.00013027461945823063,0.0005510308011514571,7.524173586282676e-05,0.0007143383306207529,-0.2825433909893036,-51.59878921508789,-7.916153907775879,17.94654083251953,1.9252420663833618,-1.0452988147735596,0.07969819009304047,728,694,736,38.459,0,0
1739304014.3916407,-0.09704550904368842,1.0800458479190056,-0.41646248372427097,-1.4166971245396496,1.5534658242488912,1.1260152218319877,1.3362157672398345,-0.0002180816503526596,0.0010539836181005999,-4.1748557371829986e-05,0.0007802197798562493,-3.75118997728715e-05,-0.00026666835373252034,0.00221775884968022,-0.2825433909893036,-51.59878921508789,-7.892350196838379,17.94654083251953,1.9179178476333618,-1.0260727405548096,0.05314789339900017,728,693,737,38.459,0,0
1739304014.4016798,-0.09704379642009542,1.0800417719101927,-0.41646320063896125,-1.4166960495966956,1.5534648482716344,1.12601754277879,1.3362140807603786,-0.0004924648211808734,-0.00044728125227049464,0.00019634853691185688,0.000909139923013064,-0.000578593019265553,0.0006831517505711357,-4.990320844651093e-05,-0.3063471019268036,-51.57101821899414,-7.892350196838379,17.92273712158203,1.8986917734146118,-1.0452988147735596,0.03941498324275017,728,692,734,38.568,1,0
1739304014.4117053,-0.09704377022136461,1.0800424435400604,-0.4164660010610062,-1.416697442334508,1.5534658241392105,1.1260160143774935,1.3362102489094236,8.121406653826158e-05,-0.000683380679299386,-0.0011227051705271925,-0.00012152626354011828,-0.0007132139307968949,-0.0002339802914318498,-0.0013892735283964272,-0.3063471019268036,-51.54721450805664,-7.892350196838379,17.94654083251953,1.9179178476333618,-1.0324814319610596,0.09983979165554047,728,693,734,38.459,0,0
1739304014.4227111,-0.09704208260010527,1.080043848017604,-0.4164621366796563,-1.416699999386995,1.5534670180467796,1.126016013569744,1.3362118577894757,0.0013174100889654038,-0.0007291580430160362,-0.001128648415151737,-0.00021155236065249723,-2.0065550725678296e-05,-0.0005731886576141854,0.00014351246874038276,-0.3301508128643036,-51.57101821899414,-7.916153907775879,17.97431182861328,1.8986917734146118,-1.0324814319610596,0.08610688149929047,728,693,734,38.459,1,0
1739304014.4336493,-0.09704208303328267,1.0800482640670777,-0.41646070304946675,-1.4166970891139008,1.5534656261605944,1.1260167720373455,1.3362108861100415,0.0005803588068410425,0.0023331458249377943,0.0011394665145877214,0.00040037634157358883,0.00028326851666205254,-0.00014203613142475916,-0.0007950443798740367,-0.3301508128643036,-51.62259292602539,-7.916153907775879,17.94654083251953,1.9115091562271118,-1.0388901233673096,0.09343110024929047,728,693,733,38.459,2,0
1739304014.4437125,-0.09704355944066606,1.0800442714629417,-0.41646070270623875,-1.4166996005374723,1.5534672302881278,1.1260175296974286,1.3362148903865922,-0.0009247409126888678,-0.000563214733757277,0.0005699690235225381,-0.001290103369524698,-4.852697024567803e-05,-0.0007053517425902561,-0.0002962871994143964,-0.3063471019268036,-51.54721450805664,-7.916153907775879,17.99811553955078,1.9051004648208618,-1.0452988147735596,0.05955658480525017,726,692,733,38.459,0,0
1739304014.4546628,-0.09704547094050525,1.0800460746122296,-0.416463083890656,-1.4167010310063275,1.5534708313806438,1.1260175296974286,1.3362133299021686,0.0007762919794425617,-0.00023971497393482182,-0.0005637695296842553,9.822461294152951e-05,0.0013274466188812496,0.0003442776348969388,0.0010358507017803821,-0.2825433909893036,-51.59878921508789,-7.892350196838379,17.99811553955078,1.9115091562271118,-1.0452988147735596,0.07328949868679047,727,693,734,38.459,1,0
1739304014.465637,-0.09704379652813959,1.0800438385327404,-0.4164575564877109,-1.4166980696019795,1.5534697722637494,1.1260167720373502,1.3362079103797584,-0.0005751549397086863,-0.0005336355396851858,0.0022425476036709397,0.00013216573697207265,0.0007306515475674725,0.00029773873929767145,-0.001272361685085579,-0.3063471019268036,-51.57101821899414,-7.967728614807129,17.94654083251953,1.9115091562271118,-1.0388901233673096,0.07969819009304047,727,692,734,38.459,2,0
1739304014.4757442,-0.09704282316978834,1.080047561420839,-0.4164621782740396,-1.4166917409897817,1.553466472698264,1.126016014377272,1.336215728919417,0.0016088213989964271,0.0011919628756275368,5.7890867238997524e-05,0.0023748254000338616,-0.0010936602660263995,-2.1757153170915366e-05,-0.0005444253113908973,-0.3063471019268036,-51.62259292602539,-7.864579200744629,17.87512969970703,1.9115091562271118,-1.0324814319610596,0.05314789339900017,726,693,735,38.568,1,0
1739304014.4877276,-0.09704747180020074,1.080045830585441,-0.4164631754145086,-1.4167009516124254,1.5534665933247565,1.1260163010870705,1.3362102086831014,-0.0013169523970448498,-0.0008875965386343817,-0.00011339730150922015,-0.0016198847804744713,-0.0009130441014730747,-0.0005628016751811017,-0.0014410851824138864,-0.2547723948955536,-51.59878921508789,-7.892350196838379,17.99811553955078,1.9115091562271118,-1.0388901233673096,0.09983979165554047,728,692,733,38.459,0,0
1739304014.498723,-0.09704527131179226,1.0800439534708695,-0.4164632369534921,-1.4167031357654774,1.5534680564631405,1.126016772036464,1.336209712231555,0.00027960367422522585,-0.0002083995148893317,-0.0011986564438600847,-0.001524237815974486,-0.00010643694074268477,4.283647518841456e-06,-0.0009158775217730091,-0.2825433909893036,-51.57101821899414,-7.892350196838379,17.99811553955078,1.8986917734146118,-1.0388901233673096,0.07328949868679047,727,694,734,38.459,1,0
1739304014.508723,-0.09704308591086741,1.0800457596177304,-0.41646216848568757,-1.4166955479402177,1.5534666703960682,1.1260167720373502,1.3362133833110639,0.0005293635060829492,-3.1963922483888246e-05,-0.00025853853735650326,0.0012475255234662601,7.138461834104417e-05,0.00020837212496837854,0.0013464725616925458,-0.3063471019268036,-51.59878921508789,-7.892350196838379,17.92273712158203,1.9051004648208618,-1.0388901233673096,0.07328949868679047,727,695,733,38.459,2,0
1739304014.518743,-0.0970475069779046,1.0800438382030495,-0.4164574743816252,-1.416699235861661,1.5534684086952908,1.1260152567171935,1.3362157692262737,-0.001762364540064258,-0.00023732038027180334,0.001808047968843549,0.0001331498218051111,0.0009092770312454616,-0.0003555028314668675,0.0001663664940976355,-0.2547723948955536,-51.57101821899414,-7.967728614807129,17.94654083251953,1.8986917734146118,-1.0260727405548096,0.05314789339900017,727,695,732,38.568,1,0
1739304014.5296557,-0.09704087537006341,1.0800469494196308,-0.4164632278774723,-1.4166953450724098,1.5534685047488557,1.1260141570421436,1.336215647055455,0.0002117407627175935,0.001831473753074321,-0.000988470076632605,0.000820846328483229,-0.0007496332098232895,-0.0010301726822831,0.0005250270156382634,-0.3063471019268036,-51.57101821899414,-7.892350196838379,17.92273712158203,1.8922830820083618,-1.0526230335235596,0.05314789339900017,728,695,733,38.459,0,0
1739304014.5406709,-0.09704550870781825,1.0800430794118325,-0.4164601388863741,-1.4166991729328882,1.5534665933233966,1.1260175296735018,1.3362151119999326,-0.001316344951137334,0.0009192220310342054,-0.00047043128741731493,-0.0007598976537204864,0.00040338627654929295,-0.0002490365537310852,0.00012484439169837256,-0.2825433909893036,-51.54721450805664,-7.916153907775879,17.97431182861328,1.9115091562271118,-1.0452988147735596,0.04673920199275017,728,693,733,38.459,2,0
1739304014.5517383,-0.09704379519315585,1.080049546721183,-0.41646320195209197,-1.4166971008829925,1.5534678326659044,1.12601677203735,1.3362116951684104,0.0004029035587265951,0.00018289640114660345,-6.780839277422323e-05,-0.0006020139641506354,0.0010525794020009149,-0.00028806626432151706,0.000412691981232014,-0.3063471019268036,-51.65036392211914,-7.892350196838379,17.94654083251953,1.8922830820083618,-1.0388901233673096,0.04673920199275017,729,695,735,38.459,1,0
1739304014.562657,-0.09704210143733388,1.0800421176005826,-0.4164590216010063,-1.4166960305184482,1.5534654713124978,1.1260157123992207,1.336221275830273,0.0011881080299472892,-0.0002156352124615253,0.0012335040278791513,0.0004934128557680448,-0.0004408672187933261,-0.0004616572074431796,0.0028539840893386783,-0.3301508128643036,-51.57101821899414,-7.943924903869629,17.92273712158203,1.9115091562271118,-1.0388901233673096,0.0064559997990727425,728,695,734,38.568,0,0
1739304014.5727031,-0.0970455090491843,1.080046074554065,-0.41646131331669334,-1.416697195113452,1.5534666025774113,1.12601601437129,1.3362146786275273,-0.0011308774666099744,0.0007968727186714336,0.0006995027115137412,0.0004635752337824945,0.0004791526701364109,-0.0005531050811359746,0.0023062049674125043,-0.2825433909893036,-51.59878921508789,-7.916153907775879,17.94654083251953,1.9115091562271118,-1.0324814319610596,0.05314789339900017,728,696,732,38.459,1,0
1739304014.5847478,-0.0970455090490859,1.0800437698521923,-0.4164593365484078,-1.41670226848655,1.5534665933254896,1.126016013892755,1.3362131677705171,1.8934367534098566e-05,-0.0003496213171305981,0.0010226992032636986,-0.0020481847089288763,1.2630884778345498e-05,-0.00021654927089285856,-0.0011302934581193305,-0.2825433909893036,-51.59878921508789,-7.943924903869629,17.97431182861328,1.9115091562271118,-1.0324814319610596,0.06596527993679047,726,695,732,38.568,1,0
1739304014.5956995,-0.09704550901299949,1.0800421295926477,-0.41646141928229524,-1.416696268954773,1.5534665933254377,1.126014595712231,1.3362143210521993,-0.0008859157843339732,-0.0010480326601749821,0.0008171534827602109,-0.000332297506524417,-0.0001686330231967926,-0.0008290764171875333,0.0009332905009960559,-0.2825433909893036,-51.54721450805664,-7.916153907775879,17.92273712158203,1.9115091562271118,-1.0324814319610596,0.05314789339900017,727,696,733,38.459,1,0
1739304014.606643,-0.0970416656623038,1.0800458361452208,-0.41646141045198304,-1.4166970904228415,1.5534665799164367,1.1260167720293417,1.3362181504355675,-0.00035895118020026653,0.0008039224444344172,-0.00036600603664002206,-1.205462713653227e-05,-0.00011552471346660189,0.00018394873150440362,0.0011802971640865031,-0.3063471019268036,-51.59878921508789,-7.916153907775879,17.94654083251953,1.9115091562271118,-1.0388901233673096,0.03300629183650017,728,696,731,38.568,1,0
1739304014.616645,-0.09704164224222801,1.0800482639216673,-0.4164624865944167,-1.4166970878494913,1.5534625772778845,1.126014499057115,1.3362086935838964,0.000348128179633944,0.0005387471572452519,-0.0005916693433424236,1.7848452158713705e-05,-0.00045213706124171886,-0.0012863224186046279,-0.002388170031875887,-0.3063471019268036,-51.62259292602539,-7.892350196838379,17.94654083251953,1.9179178476333618,-1.0196640491485596,0.11265717446804047,729,697,732,38.568,1,0
1739304014.6266527,-0.09704335183956388,1.0800448713636346,-0.4164631990037658,-1.4166970892182076,1.5534676433089794,1.1260143507830405,1.3362088490094766,0.0007594212165941265,9.570468088998692e-06,-0.0008672003466962653,0.0008078001404118383,-6.942315980163472e-05,-0.001072506326724377,-0.002734588798194798,-0.2825433909893036,-51.57101821899414,-7.892350196838379,17.94654083251953,1.8986917734146118,-1.0452988147735596,0.07969819009304047,728,696,732,38.350,2,0
1739304014.6376534,-0.09704376000846807,1.0800438396390537,-0.4164590127706386,-1.4167012946987376,1.5534673509776353,1.1260143507292053,1.3362157557533147,-0.00013800500222293664,-0.0006120197204021903,0.0005635900222371974,-0.0010983802463810338,-3.803881743626182e-05,-0.000982460200327947,0.0021643780104219036,-0.3063471019268036,-51.57101821899414,-7.943924903869629,17.99811553955078,1.9051004648208618,-1.0452988147735596,0.05314789339900017,728,697,729,38.350,2,0
1739304014.6477263,-0.09704750698932049,1.0800458626361762,-0.4164614191677514,-1.4166970891150235,1.5534696632116074,1.126016014323436,1.336220584779776,-0.0014678705124160564,-0.00017818291717556437,0.0006292253910063221,-0.00025024949022356093,0.0020216762538062395,-0.00037500920707584057,0.0022765707125699205,-0.2547723948955536,-51.59878921508789,-7.916153907775879,17.94654083251953,1.8858743906021118,-1.0324814319610596,0.03941498324275017,728,696,733,38.350,0,0
1739304014.658661,-0.09703813102643363,1.080045983971707,-0.41646141633886086,-1.4166970891455515,1.5534633355844336,1.1260167720373497,1.3362135627500107,0.002317425943382402,-0.00010596800053403806,-0.00049629186529442,-0.00028483152518607793,-0.0018993249997978354,0.0010316558365900104,0.000378854738132817,-0.3539545238018036,-51.57101821899414,-7.916153907775879,17.94654083251953,1.9115091562271118,-1.0388901233673096,0.05955658480525017,727,696,734,38.459,1,0
1739304014.6686764,-0.0970414258194177,1.0800459839836705,-0.4164652827212205,-1.4166980781048004,1.5534674042518555,1.126016014377272,1.3362125094385333,0.0008204443027997057,-0.00024371369670605917,-0.0017075617640634837,-0.0011031845806889018,0.0006479947884236256,-0.00020511644189882464,-0.0003004975284913694,-0.3063471019268036,-51.57101821899414,-7.864579200744629,17.94654083251953,1.9051004648208618,-1.0324814319610596,0.07969819009304047,727,698,733,38.350,2,0
1739304014.6796436,-0.09704200493825131,1.0800438358423265,-0.41646105619212437,-1.4166977278522783,1.5534681086464963,1.1260164700592992,1.3362170292486997,0.0007663670089272575,0.00012679686566209074,0.0002567686802969716,-0.0003556685511982946,0.000998200165716976,-2.061350047416645e-05,0.0020645280419323503,-0.3301508128643036,-51.57101821899414,-7.892350196838379,17.94654083251953,1.8986917734146118,-1.0452988147735596,0.03941498324275017,727,696,736,38.459,1,0
1739304014.689758,-0.09704379620313074,1.0800458106353785,-0.4164652813736749,-1.4167020564165764,1.5534658371189096,1.1260160138867734,1.3362157687276712,0.0002158970023477489,0.0005596984184356422,-0.0013786786955139957,-0.0006948336347873435,-0.0010243913209345232,-0.0006109698267130982,0.0025117852875514326,-0.3063471019268036,-51.59878921508789,-7.864579200744629,17.97431182861328,1.9179178476333618,-1.0324814319610596,0.05314789339900017,727,696,733,38.459,0,0
1739304014.7007155,-0.09704750698993714,1.0800452339916553,-0.41646141924595986,-1.416699092385948,1.5534658356653674,1.1260175296974257,1.3362055421289012,-0.0013524280049323767,0.0006607465722012571,-0.00047196897582548375,-0.0009599146638821633,-0.0005018012964256847,-0.0003977252193781576,-0.002611742996228914,-0.2547723948955536,-51.54721450805664,-7.916153907775879,17.97431182861328,1.9179178476333618,-1.0452988147735596,0.09983979165554047,727,695,732,38.568,1,0
1739304014.7107399,-0.09704550774997536,1.0800441562537026,-0.4164614196063195,-1.4166991688951809,1.5534665530984346,1.1260166528462299,1.3362120212229485,-0.0007424762290170624,-0.00017996504837590162,-0.0008352469340467241,-0.0005816772501176726,-0.0003898875721956576,-0.00028334308312675377,-0.0010801314843709299,-0.2825433909893036,-51.57101821899414,-7.916153907775879,17.97431182861328,1.9115091562271118,-1.0388901233673096,0.04673920199275017,729,697,732,38.568,1,0
1739304014.7226245,-0.09704479583740118,1.0800441855307752,-0.4164628811244424,-1.4166967859713089,1.5534653529412468,1.1260155303448156,1.3362169098856058,0.0009129669637856657,-0.0005884850823548247,4.613606437548645e-05,0.00014530806585317645,-0.00046791058755301,-0.0014869148865947026,0.00046614802707289167,-0.2825433909893036,-51.57101821899414,-7.892350196838379,17.94654083251953,1.9179178476333618,-1.0324814319610596,0.03941498324275017,732,696,732,38.568,0,0
1739304014.732717,-0.09704518447589293,1.0800485847624273,-0.4164645562404755,-1.416697089104079,1.553467350977341,1.126016772029153,1.3362142404885773,-0.000496471267219356,0.0011823799204828975,-0.0008207904950143004,0.00012634449754253077,-0.0009534668651808737,-0.0006601583933795463,0.0007475557382358561,-0.2825433909893036,-51.62259292602539,-7.864579200744629,17.94654083251953,1.9051004648208618,-1.0388901233673096,0.06596527993679047,728,698,731,38.350,0,0
1739304014.744622,-0.09704379652774398,1.0800453409144823,-0.41646587444806416,-1.4166970125797922,1.5534667110630074,1.1260156611645622,1.3362088455704946,-0.00020398545982159313,0.0006887648875086636,-0.0010311591870011683,0.0008125915674254777,5.730837725410571e-05,-0.0008986152736280113,-0.0007202602124707909,-0.3063471019268036,-51.54721450805664,-7.864579200744629,17.94654083251953,1.9115091562271118,-1.0324814319610596,0.11265717446804047,728,697,731,38.459,1,0
1739304014.7547426,-0.09704200476188105,1.0800449870881013,-0.4164614183045002,-1.4167009780666084,1.553471942254778,1.1260175296954347,1.3362146493583351,0.0002762319937559653,-0.0001931981506749075,0.0008382896645234228,-0.0004506586756655208,0.001694689901891032,0.0009239593842203386,0.0006078324266366924,-0.3301508128643036,-51.54721450805664,-7.916153907775879,17.99811553955078,1.9051004648208618,-1.0452988147735596,0.05955658480525017,728,696,732,38.459,1,0
